P3
400 225
255
204 226 255
204 226 255
204 226 255
204 226 255
204 226 255
204 226 255
204 226 255
204 226 255
204 226 255
204 226 255
204 226 255
204 226 255
204 226 255
204 226 255
204 226 255
203 226 255
203 226 255
203 226 255
203 226 255
203 226 255
203 226 255
203 226 255
203 226 255
203 225 255
203 225 255
203 225 255
203 225 255
203 225 255
203 225 255
203 225 255
203 225 255
203 225 255
202 225 255
202 225 255
202 225 255
202 225 255
202 225 255
202 225 255
202 225 255
202 225 255
202 225 255
202 225 255
202 225 255
202 225 255
202 225 255
202 225 255
202 225 255
202 225 255
201 225 255
201 225 255
201 225 255
201 225 255
201 224 255
201 224 255
201 224 255
201 224 255
201 224 255
201 224 255
201 224 255
201 224 255
201 224 255
201 224 255
201 224 255
200 224 255
200 224 255
200 224 255
200 224 255
200 224 255
200 224 255
200 224 255
200 224 255
200 224 255
200 224 255
200 224 255
200 224 255
200 224 255
200 224 255
200 224 255
199 224 255
199 224 255
199 223 255
199 223 255
199 223 255
199 223 255
199 223 255
199 223 255
199 223 255
199 223 255
199 223 255
199 223 255
199 223 255
199 223 255
198 223 255
198 223 255
198 223 255
198 223 255
198 223 255
198 223 255
198 223 255
198 223 255
198 223 255
198 223 255
198 223 255
198 223 255
198 223 255
198 223 255
197 223 255
197 222 255
197 222 255
197 222 255
197 222 255
197 222 255
197 222 255
197 222 255
197 222 255
197 222 255
197 222 255
197 222 255
197 222 255
197 222 255
197 222 255
196 222 255
196 222 255
196 222 255
196 222 255
196 222 255
196 222 255
196 222 255
196 222 255
196 222 255
196 222 255
196 222 255
196 222 255
196 222 255
196 222 255
196 221 255
196 221 255
195 221 255
195 221 255
195 221 255
195 221 255
195 221 255
195 221 255
195 221 255
195 221 255
195 221 255
195 221 255
195 221 255
195 221 255
195 221 255
195 221 255
195 221 255
195 221 255
195 221 255
195 221 255
194 221 255
194 221 255
194 221 255
194 221 255
194 221 255
194 221 255
194 221 255
194 221 255
194 221 255
194 221 255
194 221 255
194 221 255
194 221 255
194 221 255
194 221 255
194 221 255
194 221 255
194 221 255
194 221 255
194 221 255
194 221 255
194 221 255
194 220 255
194 220 255
194 220 255
194 220 255
194 220 255
194 220 255
194 220 255
194 220 255
194 220 255
193 220 255
193 220 255
193 220 255
193 220 255
193 220 255
193 220 255
193 220 255
193 220 255
193 220 255
193 220 255
193 220 255
193 220 255
193 220 255
193 220 255
193 220 255
193 220 255
193 220 255
193 220 255
193 220 255
193 220 255
193 220 255
193 220 255
193 220 255
193 220 255
193 220 255
193 220 255
193 220 255
193 220 255
194 220 255
194 220 255
194 220 255
194 220 255
194 220 255
194 220 255
194 220 255
194 220 255
194 220 255
194 221 255
194 221 255
194 221 255
194 221 255
194 221 255
194 221 255
194 221 255
194 221 255
194 221 255
194 221 255
194 221 255
194 221 255
194 221 255
194 221 255
194 221 255
194 221 255
194 221 255
194 221 255
194 221 255
194 221 255
194 221 255
194 221 255
195 221 255
195 221 255
195 221 255
195 221 255
195 221 255
195 221 255
195 221 255
195 221 255
195 221 255
195 221 255
195 221 255
195 221 255
195 221 255
195 221 255
195 221 255
195 221 255
195 221 255
195 221 255
196 221 255
196 221 255
196 222 255
196 222 255
196 222 255
196 222 255
196 222 255
196 222 255
196 222 255
196 222 255
196 222 255
196 222 255
196 222 255
196 222 255
196 222 255
196 222 255
197 222 255
197 222 255
197 222 255
197 222 255
197 222 255
197 222 255
197 222 255
197 222 255
197 222 255
197 222 255
197 222 255
197 222 255
197 222 255
197 222 255
197 223 255
198 223 255
198 223 255
198 223 255
198 223 255
198 223 255
198 223 255
198 223 255
198 223 255
198 223 255
198 223 255
198 223 255
198 223 255
198 223 255
198 223 255
199 223 255
199 223 255
199 223 255
199 223 255
199 223 255
199 223 255
199 223 255
199 223 255
199 223 255
199 223 255
199 223 255
199 223 255
199 224 255
199 224 255
199 224 255
200 224 255
200 224 255
200 224 255
200 224 255
200 224 255
200 224 255
200 224 255
200 224 255
200 224 255
200 224 255
200 224 255
200 224 255
200 224 255
200 224 255
201 224 255
201 224 255
201 224 255
201 224 255
201 224 255
201 224 255
201 224 255
201 224 255
201 224 255
201 224 255
201 225 255
201 225 255
201 225 255
201 225 255
201 225 255
202 225 255
202 225 255
202 225 255
202 225 255
202 225 255
202 225 255
202 225 255
202 225 255
202 225 255
202 225 255
202 225 255
202 225 255
202 225 255
202 225 255
202 225 255
202 225 255
203 225 255
203 225 255
203 225 255
203 225 255
203 225 255
203 225 255
203 225 255
203 225 255
203 225 255
203 226 255
203 226 255
203 226 255
203 226 255
203 226 255
203 226 255
203 226 255
203 226 255
204 226 255
204 226 255
204 226 255
204 226 255
204 226 255
204 226 255
204 226 255
204 226 255
204 226 255
204 226 255
204 226 255
204 226 255
204 226 255
204 226 255
204 226 255
204 226 255
204 226 255
204 226 255
204 226 255
204 226 255
204 226 255
204 226 255
204 226 255
204 226 255
204 226 255
204 226 255
204 226 255
204 226 255
204 226 255
204 226 255
204 226 255
204 226 255
204 226 255
203 226 255
203 226 255
203 226 255
203 226 255
203 226 255
203 226 255
203 226 255
203 225 255
203 225 255
203 225 255
203 225 255
203 225 255
203 225 255
203 225 255
203 225 255
203 225 255
202 225 255
202 225 255
202 225 255
202 225 255
202 225 255
202 225 255
202 225 255
202 225 255
202 225 255
202 225 255
202 225 255
202 225 255
202 225 255
202 225 255
202 225 255
202 225 255
201 225 255
201 225 255
201 225 255
201 225 255
201 225 255
201 224 255
201 224 255
201 224 255
201 224 255
201 224 255
201 224 255
201 224 255
201 224 255
201 224 255
201 224 255
200 224 255
200 224 255
200 224 255
200 224 255
200 224 255
200 224 255
200 224 255
200 224 255
200 224 255
200 224 255
200 224 255
200 224 255
200 224 255
200 224 255
199 224 255
199 224 255
199 224 255
199 223 255
199 223 255
199 223 255
199 223 255
199 223 255
199 223 255
199 223 255
199 223 255
199 223 255
199 223 255
199 223 255
199 223 255
198 223 255
198 223 255
198 223 255
198 223 255
198 223 255
198 223 255
198 223 255
198 223 255
198 223 255
198 223 255
198 223 255
198 223 255
198 223 255
198 223 255
197 223 255
197 222 255
197 222 255
197 222 255
197 222 255
197 222 255
197 222 255
197 222 255
197 222 255
197 222 255
197 222 255
197 222 255
197 222 255
197 222 255
197 222 255
196 222 255
196 222 255
196 222 255
196 222 255
196 222 255
196 222 255
196 222 255
196 222 255
196 222 255
196 222 255
196 222 255
196 222 255
196 222 255
196 222 255
196 222 255
196 221 255
195 221 255
195 221 255
195 221 255
195 221 255
195 221 255
195 221 255
195 221 255
195 221 255
195 221 255
195 221 255
195 221 255
195 221 255
195 221 255
195 221 255
195 221 255
195 221 255
195 221 255
195 221 255
195 221 255
194 221 255
194 221 255
194 221 255
194 221 255
194 221 255
194 221 255
194 221 255
194 221 255
194 221 255
194 221 255
194 221 255
194 221 255
194 221 255
194 221 255
194 221 255
194 221 255
194 221 255
194 221 255
194 221 255
194 221 255
194 221 255
194 221 255
194 221 255
194 221 255
194 221 255
194 220 255
194 220 255
194 220 255
194 220 255
194 220 255
194 220 255
194 220 255
194 220 255
194 220 255
194 220 255
194 220 255
194 220 255
194 220 255
194 220 255
194 220 255
194 220 255
194 220 255
194 220 255
194 220 255
194 220 255
194 220 255
194 220 255
194 220 255
194 220 255
194 220 255
194 220 255
194 220 255
194 220 255
194 220 255
194 220 255
194 220 255
194 220 255
194 220 255
194 220 255
194 221 255
194 221 255
194 221 255
194 221 255
194 221 255
194 221 255
194 221 255
194 221 255
194 221 255
194 221 255
194 221 255
194 221 255
194 221 255
194 221 255
194 221 255
194 221 255
194 221 255
194 221 255
194 221 255
194 221 255
194 221 255
194 221 255
194 221 255
194 221 255
194 221 255
195 221 255
195 221 255
195 221 255
195 221 255
195 221 255
195 221 255
195 221 255
195 221 255
195 221 255
195 221 255
195 221 255
195 221 255
195 221 255
195 221 255
195 221 255
195 221 255
195 221 255
195 221 255
195 221 255
196 221 255
196 221 255
196 222 255
196 222 255
196 222 255
196 222 255
196 222 255
196 222 255
196 222 255
196 222 255
196 222 255
196 222 255
196 222 255
196 222 255
196 222 255
196 222 255
197 222 255
197 222 255
197 222 255
197 222 255
197 222 255
197 222 255
197 222 255
197 222 255
197 222 255
197 222 255
197 222 255
197 222 255
197 222 255
197 222 255
197 223 255
198 223 255
198 223 255
198 223 255
198 223 255
198 223 255
198 223 255
198 223 255
198 223 255
198 223 255
198 223 255
198 223 255
198 223 255
198 223 255
198 223 255
199 223 255
199 223 255
199 223 255
199 223 255
199 223 255
199 223 255
199 223 255
199 223 255
199 223 255
199 223 255
199 223 255
199 223 255
199 224 255
199 224 255
199 224 255
200 224 255
200 224 255
200 224 255
200 224 255
200 224 255
200 224 255
200 224 255
200 224 255
200 224 255
200 224 255
200 224 255
200 224 255
200 224 255
200 224 255
201 224 255
201 224 255
201 224 255
201 224 255
201 224 255
201 224 255
201 224 255
201 224 255
201 224 255
201 224 255
201 225 255
201 225 255
201 225 255
201 225 255
201 225 255
202 225 255
202 225 255
202 225 255
202 225 255
202 225 255
202 225 255
202 225 255
202 225 255
202 225 255
202 225 255
202 225 255
202 225 255
202 225 255
202 225 255
202 225 255
202 225 255
203 225 255
203 225 255
203 225 255
203 225 255
203 225 255
203 225 255
203 225 255
203 225 255
203 225 255
203 226 255
203 226 255
203 226 255
203 226 255
203 226 255
203 226 255
203 226 255
204 226 255
204 226 255
204 226 255
204 226 255
204 226 255
204 226 255
204 226 255
204 226 255
204 226 255
204 226 255
204 226 255
204 226 255
204 226 255
204 226 255
204 226 255
204 226 255
204 226 255
204 226 255
205 226 255
205 226 255
204 226 255
204 226 255
204 226 255
204 226 255
204 226 255
204 226 255
204 226 255
204 226 255
204 226 255
204 226 255
204 226 255
204 226 255
204 226 255
204 226 255
204 226 255
204 226 255
204 226 255
204 226 255
203 226 255
203 226 255
203 226 255
203 226 255
203 226 255
203 226 255
203 226 255
203 225 255
203 225 255
203 225 255
203 225 255
203 225 255
203 225 255
203 225 255
203 225 255
203 225 255
203 225 255
202 225 255
202 225 255
202 225 255
202 225 255
202 225 255
202 225 255
202 225 255
202 225 255
202 225 255
202 225 255
202 225 255
202 225 255
202 225 255
202 225 255
202 225 255
201 225 255
201 225 255
201 225 255
201 225 255
201 225 255
201 224 255
201 224 255
201 224 255
201 224 255
201 224 255
201 224 255
201 224 255
201 224 255
201 224 255
201 224 255
200 224 255
200 224 255
200 224 255
200 224 255
200 224 255
200 224 255
200 224 255
200 224 255
200 224 255
200 224 255
200 224 255
200 224 255
200 224 255
200 224 255
200 224 255
199 224 255
199 224 255
199 223 255
199 223 255
199 223 255
199 223 255
199 223 255
199 223 255
199 223 255
199 223 255
199 223 255
199 223 255
199 223 255
199 223 255
198 223 255
198 223 255
198 223 255
198 223 255
198 223 255
198 223 255
198 223 255
198 223 255
198 223 255
198 223 255
198 223 255
198 223 255
198 223 255
198 223 255
197 223 255
197 222 255
197 222 255
197 222 255
197 222 255
197 222 255
197 222 255
197 222 255
197 222 255
197 222 255
197 222 255
197 222 255
197 222 255
197 222 255
197 222 255
196 222 255
196 222 255
196 222 255
196 222 255
196 222 255
196 222 255
196 222 255
196 222 255
196 222 255
196 222 255
196 222 255
196 222 255
196 222 255
196 222 255
196 222 255
196 221 255
195 221 255
195 221 255
195 221 255
195 221 255
195 221 255
195 221 255
195 221 255
195 221 255
195 221 255
195 221 255
195 221 255
195 221 255
195 221 255
195 221 255
195 221 255
195 221 255
195 221 255
195 221 255
195 221 255
195 221 255
195 221 255
194 221 255
194 221 255
194 221 255
194 221 255
194 221 255
194 221 255
194 221 255
194 221 255
194 221 255
194 221 255
194 221 255
194 221 255
194 221 255
194 221 255
194 221 255
194 221 255
194 221 255
194 221 255
194 221 255
194 221 255
194 221 255
194 221 255
194 221 255
194 221 255
194 221 255
194 221 255
194 221 255
194 221 255
194 221 255
194 221 255
194 221 255
194 220 255
194 220 255
194 220 255
194 220 255
194 220 255
194 220 255
194 220 255
194 220 255
194 220 255
194 220 255
194 220 255
194 220 255
194 220 255
194 220 255
194 221 255
194 221 255
194 221 255
194 221 255
194 221 255
194 221 255
194 221 255
194 221 255
194 221 255
194 221 255
194 221 255
194 221 255
194 221 255
194 221 255
194 221 255
194 221 255
194 221 255
194 221 255
194 221 255
194 221 255
194 221 255
194 221 255
194 221 255
194 221 255
194 221 255
194 221 255
194 221 255
194 221 255
194 221 255
194 221 255
194 221 255
195 221 255
195 221 255
195 221 255
195 221 255
195 221 255
195 221 255
195 221 255
195 221 255
195 221 255
195 221 255
195 221 255
195 221 255
195 221 255
195 221 255
195 221 255
195 221 255
195 221 255
195 221 255
195 221 255
195 221 255
196 221 255
196 221 255
196 222 255
196 222 255
196 222 255
196 222 255
196 222 255
196 222 255
196 222 255
196 222 255
196 222 255
196 222 255
196 222 255
196 222 255
196 222 255
196 222 255
196 222 255
197 222 255
197 222 255
197 222 255
197 222 255
197 222 255
197 222 255
197 222 255
197 222 255
197 222 255
197 222 255
197 222 255
197 222 255
197 222 255
197 222 255
197 223 255
198 223 255
198 223 255
198 223 255
198 223 255
198 223 255
198 223 255
198 223 255
198 223 255
198 223 255
198 223 255
198 223 255
198 223 255
198 223 255
198 223 255
199 223 255
199 223 255
199 223 255
199 223 255
199 223 255
199 223 255
199 223 255
199 223 255
199 223 255
199 223 255
199 223 255
199 223 255
199 224 255
199 224 255
200 224 255
200 224 255
200 224 255
200 224 255
200 224 255
200 224 255
200 224 255
200 224 255
200 224 255
200 224 255
200 224 255
200 224 255
200 224 255
200 224 255
200 224 255
201 224 255
201 224 255
201 224 255
201 224 255
201 224 255
201 224 255
201 224 255
201 224 255
201 224 255
201 224 255
201 225 255
201 225 255
201 225 255
201 225 255
201 225 255
202 225 255
202 225 255
202 225 255
202 225 255
202 225 255
202 225 255
202 225 255
202 225 255
202 225 255
202 225 255
202 225 255
202 225 255
202 225 255
202 225 255
202 225 255
203 225 255
203 225 255
203 225 255
203 225 255
203 225 255
203 225 255
203 225 255
203 225 255
203 225 255
203 225 255
203 226 255
203 226 255
203 226 255
203 226 255
203 226 255
203 226 255
203 226 255
204 226 255
204 226 255
204 226 255
204 226 255
204 226 255
204 226 255
204 226 255
204 226 255
204 226 255
204 226 255
204 226 255
204 226 255
204 226 255
204 226 255
204 226 255
204 226 255
204 226 255
204 226 255
205 226 255
205 226 255
205 226 255
205 226 255
205 226 255
205 226 255
204 226 255
204 226 255
204 226 255
204 226 255
204 226 255
204 226 255
204 226 255
204 226 255
204 226 255
204 226 255
204 226 255
204 226 255
204 226 255
204 226 255
204 226 255
204 226 255
204 226 255
204 226 255
203 226 255
203 226 255
203 226 255
203 226 255
203 226 255
203 226 255
203 226 255
203 226 255
203 225 255
203 225 255
203 225 255
203 225 255
203 225 255
203 225 255
203 225 255
203 225 255
203 225 255
202 225 255
202 225 255
202 225 255
202 225 255
202 225 255
202 225 255
202 225 255
202 225 255
202 225 255
202 225 255
202 225 255
202 225 255
202 225 255
202 225 255
202 225 255
201 225 255
201 225 255
201 225 255
201 225 255
201 225 255
201 224 255
201 224 255
201 224 255
201 224 255
201 224 255
201 224 255
201 224 255
201 224 255
201 224 255
201 224 255
200 224 255
200 224 255
200 224 255
200 224 255
200 224 255
200 224 255
200 224 255
200 224 255
200 224 255
200 224 255
200 224 255
200 224 255
200 224 255
200 224 255
200 224 255
199 224 255
199 224 255
199 223 255
199 223 255
199 223 255
199 223 255
199 223 255
199 223 255
199 223 255
199 223 255
199 223 255
199 223 255
199 223 255
199 223 255
198 223 255
198 223 255
198 223 255
198 223 255
198 223 255
198 223 255
198 223 255
198 223 255
198 223 255
198 223 255
198 223 255
198 223 255
198 223 255
198 223 255
197 223 255
197 222 255
197 222 255
197 222 255
197 222 255
197 222 255
197 222 255
197 222 255
197 222 255
197 222 255
197 222 255
197 222 255
197 222 255
197 222 255
197 222 255
196 222 255
196 222 255
196 222 255
196 222 255
196 222 255
196 222 255
196 222 255
196 222 255
196 222 255
196 222 255
196 222 255
196 222 255
196 222 255
196 222 255
196 222 255
196 221 255
196 221 255
195 221 255
195 221 255
195 221 255
195 221 255
195 221 255
195 221 255
195 221 255
195 221 255
195 221 255
195 221 255
195 221 255
195 221 255
195 221 255
195 221 255
195 221 255
195 221 255
195 221 255
195 221 255
195 221 255
195 221 255
195 221 255
194 221 255
194 221 255
194 221 255
194 221 255
194 221 255
194 221 255
194 221 255
194 221 255
194 221 255
194 221 255
194 221 255
194 221 255
194 221 255
194 221 255
194 221 255
194 221 255
194 221 255
194 221 255
194 221 255
194 221 255
194 221 255
194 221 255
194 221 255
194 221 255
194 221 255
194 221 255
194 221 255
194 221 255
194 221 255
194 221 255
194 221 255
194 221 255
194 221 255
194 221 255
194 221 255
194 221 255
194 221 255
194 221 255
194 221 255
194 221 255
194 221 255
194 221 255
194 221 255
194 221 255
194 221 255
194 221 255
194 221 255
194 221 255
194 221 255
194 221 255
194 221 255
194 221 255
194 221 255
194 221 255
194 221 255
194 221 255
194 221 255
194 221 255
194 221 255
194 221 255
194 221 255
194 221 255
194 221 255
194 221 255
194 221 255
194 221 255
194 221 255
194 221 255
194 221 255
194 221 255
195 221 255
195 221 255
195 221 255
195 221 255
195 221 255
195 221 255
195 221 255
195 221 255
195 221 255
195 221 255
195 221 255
195 221 255
195 221 255
195 221 255
195 221 255
195 221 255
195 221 255
195 221 255
195 221 255
195 221 255
195 221 255
196 221 255
196 221 255
196 222 255
196 222 255
196 222 255
196 222 255
196 222 255
196 222 255
196 222 255
196 222 255
196 222 255
196 222 255
196 222 255
196 222 255
196 222 255
196 222 255
196 222 255
197 222 255
197 222 255
197 222 255
197 222 255
197 222 255
197 222 255
197 222 255
197 222 255
197 222 255
197 222 255
197 222 255
197 222 255
197 222 255
197 222 255
197 223 255
198 223 255
198 223 255
198 223 255
198 223 255
198 223 255
198 223 255
198 223 255
198 223 255
198 223 255
198 223 255
198 223 255
198 223 255
198 223 255
198 223 255
199 223 255
199 223 255
199 223 255
199 223 255
199 223 255
199 223 255
199 223 255
199 223 255
199 223 255
199 223 255
199 223 255
199 223 255
199 224 255
199 224 255
200 224 255
200 224 255
200 224 255
200 224 255
200 224 255
200 224 255
200 224 255
200 224 255
200 224 255
200 224 255
200 224 255
200 224 255
200 224 255
200 224 255
200 224 255
201 224 255
201 224 255
201 224 255
201 224 255
201 224 255
201 224 255
201 224 255
201 224 255
201 224 255
201 224 255
201 225 255
201 225 255
201 225 255
201 225 255
201 225 255
202 225 255
202 225 255
202 225 255
202 225 255
202 225 255
202 225 255
202 225 255
202 225 255
202 225 255
202 225 255
202 225 255
202 225 255
202 225 255
202 225 255
202 225 255
203 225 255
203 225 255
203 225 255
203 225 255
203 225 255
203 225 255
203 225 255
203 225 255
203 225 255
203 226 255
203 226 255
203 226 255
203 226 255
203 226 255
203 226 255
203 226 255
203 226 255
204 226 255
204 226 255
204 226 255
204 226 255
204 226 255
204 226 255
204 226 255
204 226 255
204 226 255
204 226 255
204 226 255
204 226 255
204 226 255
204 226 255
204 226 255
204 226 255
204 226 255
204 226 255
205 226 255
205 226 255
205 226 255
205 226 255
205 226 255
205 226 255
205 226 255
205 226 255
205 226 255
205 226 255
205 226 255
204 226 255
204 226 255
204 226 255
204 226 255
204 226 255
204 226 255
204 226 255
204 226 255
204 226 255
204 226 255
204 226 255
204 226 255
204 226 255
204 226 255
204 226 255
204 226 255
204 226 255
203 226 255
203 226 255
203 226 255
203 226 255
203 226 255
203 226 255
203 226 255
203 226 255
203 225 255
203 225 255
203 225 255
203 225 255
203 225 255
203 225 255
203 225 255
203 225 255
203 225 255
202 225 255
202 225 255
202 225 255
202 225 255
202 225 255
202 225 255
202 225 255
202 225 255
202 225 255
202 225 255
202 225 255
202 225 255
202 225 255
202 225 255
202 225 255
201 225 255
201 225 255
201 225 255
201 225 255
201 225 255
201 224 255
201 224 255
201 224 255
201 224 255
201 224 255
201 224 255
201 224 255
201 224 255
201 224 255
201 224 255
200 224 255
200 224 255
200 224 255
200 224 255
200 224 255
200 224 255
200 224 255
200 224 255
200 224 255
200 224 255
200 224 255
200 224 255
200 224 255
200 224 255
200 224 255
199 224 255
199 224 255
199 223 255
199 223 255
199 223 255
199 223 255
199 223 255
199 223 255
199 223 255
199 223 255
199 223 255
199 223 255
199 223 255
199 223 255
198 223 255
198 223 255
198 223 255
198 223 255
198 223 255
198 223 255
198 223 255
198 223 255
198 223 255
198 223 255
198 223 255
198 223 255
198 223 255
198 223 255
198 223 255
197 222 255
197 222 255
197 222 255
197 222 255
197 222 255
197 222 255
197 222 255
197 222 255
197 222 255
197 222 255
197 222 255
197 222 255
197 222 255
197 222 255
197 222 255
196 222 255
196 222 255
196 222 255
196 222 255
196 222 255
196 222 255
196 222 255
196 222 255
196 222 255
196 222 255
196 222 255
196 222 255
196 222 255
196 222 255
196 222 255
196 221 255
196 221 255
195 221 255
195 221 255
195 221 255
195 221 255
195 221 255
195 221 255
195 221 255
195 221 255
195 221 255
195 221 255
195 221 255
195 221 255
195 221 255
195 221 255
195 221 255
195 221 255
195 221 255
195 221 255
195 221 255
195 221 255
195 221 255
195 221 255
194 221 255
194 221 255
194 221 255
194 221 255
194 221 255
194 221 255
194 221 255
194 221 255
194 221 255
194 221 255
194 221 255
194 221 255
194 221 255
194 221 255
194 221 255
194 221 255
194 221 255
194 221 255
194 221 255
194 221 255
194 221 255
194 221 255
194 221 255
194 221 255
194 221 255
194 221 255
194 221 255
194 221 255
194 221 255
194 221 255
194 221 255
194 221 255
194 221 255
194 221 255
194 221 255
194 221 255
194 221 255
194 221 255
194 221 255
194 221 255
194 221 255
194 221 255
194 221 255
194 221 255
194 221 255
194 221 255
194 221 255
194 221 255
194 221 255
194 221 255
194 221 255
194 221 255
194 221 255
194 221 255
194 221 255
194 221 255
194 221 255
194 221 255
194 221 255
194 221 255
194 221 255
194 221 255
195 221 255
195 221 255
195 221 255
195 221 255
195 221 255
195 221 255
195 221 255
195 221 255
195 221 255
195 221 255
195 221 255
195 221 255
195 221 255
195 221 255
195 221 255
195 221 255
195 221 255
195 221 255
195 221 255
195 221 255
195 221 255
195 221 255
196 221 255
196 221 255
196 222 255
196 222 255
196 222 255
196 222 255
196 222 255
196 222 255
196 222 255
196 222 255
196 222 255
196 222 255
196 222 255
196 222 255
196 222 255
196 222 255
196 222 255
197 222 255
197 222 255
197 222 255
197 222 255
197 222 255
197 222 255
197 222 255
197 222 255
197 222 255
197 222 255
197 222 255
197 222 255
197 222 255
197 222 255
197 222 255
198 223 255
198 223 255
198 223 255
198 223 255
198 223 255
198 223 255
198 223 255
198 223 255
198 223 255
198 223 255
198 223 255
198 223 255
198 223 255
198 223 255
198 223 255
199 223 255
199 223 255
199 223 255
199 223 255
199 223 255
199 223 255
199 223 255
199 223 255
199 223 255
199 223 255
199 223 255
199 223 255
199 224 255
199 224 255
200 224 255
200 224 255
200 224 255
200 224 255
200 224 255
200 224 255
200 224 255
200 224 255
200 224 255
200 224 255
200 224 255
200 224 255
200 224 255
200 224 255
200 224 255
201 224 255
201 224 255
201 224 255
201 224 255
201 224 255
201 224 255
201 224 255
201 224 255
201 224 255
201 224 255
201 225 255
201 225 255
201 225 255
201 225 255
201 225 255
202 225 255
202 225 255
202 225 255
202 225 255
202 225 255
202 225 255
202 225 255
202 225 255
202 225 255
202 225 255
202 225 255
202 225 255
202 225 255
202 225 255
202 225 255
203 225 255
203 225 255
203 225 255
203 225 255
203 225 255
203 225 255
203 225 255
203 225 255
203 225 255
203 226 255
203 226 255
203 226 255
203 226 255
203 226 255
203 226 255
203 226 255
204 226 255
204 226 255
204 226 255
204 226 255
204 226 255
204 226 255
204 226 255
204 226 255
204 226 255
204 226 255
204 226 255
204 226 255
204 226 255
204 226 255
204 226 255
204 226 255
204 226 255
204 226 255
205 226 255
205 226 255
205 226 255
205 226 255
205 226 255
205 226 255
205 226 255
205 227 255
205 227 255
205 226 255
205 226 255
205 226 255
205 226 255
205 226 255
205 226 255
205 226 255
204 226 255
204 226 255
204 226 255
204 226 255
204 226 255
204 226 255
204 226 255
204 226 255
204 226 255
204 226 255
204 226 255
204 226 255
204 226 255
204 226 255
204 226 255
204 226 255
204 226 255
204 226 255
203 226 255
203 226 255
203 226 255
203 226 255
203 226 255
203 226 255
203 226 255
203 225 255
203 225 255
203 225 255
203 225 255
203 225 255
203 225 255
203 225 255
203 225 255
203 225 255
202 225 255
202 225 255
202 225 255
202 225 255
202 225 255
202 225 255
202 225 255
202 225 255
202 225 255
202 225 255
202 225 255
202 225 255
202 225 255
202 225 255
202 225 255
202 225 255
201 225 255
201 225 255
201 225 255
201 225 255
201 224 255
201 224 255
201 224 255
201 224 255
201 224 255
201 224 255
201 224 255
201 224 255
201 224 255
201 224 255
200 224 255
200 224 255
200 224 255
200 224 255
200 224 255
200 224 255
200 224 255
200 224 255
200 224 255
200 224 255
200 224 255
200 224 255
200 224 255
200 224 255
200 224 255
199 224 255
199 224 255
199 223 255
199 223 255
199 223 255
199 223 255
199 223 255
199 223 255
199 223 255
199 223 255
199 223 255
199 223 255
199 223 255
199 223 255
198 223 255
198 223 255
198 223 255
198 223 255
198 223 255
198 223 255
198 223 255
198 223 255
198 223 255
198 223 255
198 223 255
198 223 255
198 223 255
198 223 255
198 223 255
197 222 255
197 222 255
197 222 255
197 222 255
197 222 255
197 222 255
197 222 255
197 222 255
197 222 255
197 222 255
197 222 255
197 222 255
197 222 255
197 222 255
197 222 255
196 222 255
196 222 255
196 222 255
196 222 255
196 222 255
196 222 255
196 222 255
196 222 255
196 222 255
196 222 255
196 222 255
196 222 255
196 222 255
196 222 255
196 222 255
196 222 255
196 221 255
196 221 255
195 221 255
195 221 255
195 221 255
195 221 255
195 221 255
195 221 255
195 221 255
195 221 255
195 221 255
195 221 255
195 221 255
195 221 255
195 221 255
195 221 255
195 221 255
195 221 255
195 221 255
195 221 255
195 221 255
195 221 255
195 221 255
195 221 255
195 221 255
194 221 255
194 221 255
194 221 255
194 221 255
194 221 255
194 221 255
194 221 255
194 221 255
194 221 255
194 221 255
194 221 255
194 221 255
194 221 255
194 221 255
194 221 255
194 221 255
194 221 255
194 221 255
194 221 255
194 221 255
194 221 255
194 221 255
194 221 255
194 221 255
194 221 255
194 221 255
194 221 255
194 221 255
194 221 255
194 221 255
194 221 255
194 221 255
194 221 255
194 221 255
194 221 255
194 221 255
194 221 255
194 221 255
194 221 255
194 221 255
194 221 255
194 221 255
194 221 255
194 221 255
194 221 255
194 221 255
194 221 255
194 221 255
194 221 255
194 221 255
194 221 255
194 221 255
194 221 255
194 221 255
195 221 255
195 221 255
195 221 255
195 221 255
195 221 255
195 221 255
195 221 255
195 221 255
195 221 255
195 221 255
195 221 255
195 221 255
195 221 255
195 221 255
195 221 255
195 221 255
195 221 255
195 221 255
195 221 255
195 221 255
195 221 255
195 221 255
195 221 255
196 221 255
196 221 255
196 222 255
196 222 255
196 222 255
196 222 255
196 222 255
196 222 255
196 222 255
196 222 255
196 222 255
196 222 255
196 222 255
196 222 255
196 222 255
196 222 255
196 222 255
196 222 255
197 222 255
197 222 255
197 222 255
197 222 255
197 222 255
197 222 255
197 222 255
197 222 255
197 222 255
197 222 255
197 222 255
197 222 255
197 222 255
197 222 255
197 222 255
198 223 255
198 223 255
198 223 255
198 223 255
198 223 255
198 223 255
198 223 255
198 223 255
198 223 255
198 223 255
198 223 255
198 223 255
198 223 255
198 223 255
198 223 255
199 223 255
199 223 255
199 223 255
199 223 255
199 223 255
199 223 255
199 223 255
199 223 255
199 223 255
199 223 255
199 223 255
199 223 255
199 224 255
199 224 255
200 224 255
200 224 255
200 224 255
200 224 255
200 224 255
200 224 255
200 224 255
200 224 255
200 224 255
200 224 255
200 224 255
200 224 255
200 224 255
200 224 255
201 224 255
201 224 255
201 224 255
201 224 255
201 224 255
201 224 255
201 224 255
201 224 255
201 224 255
201 224 255
201 224 255
201 225 255
201 225 255
201 225 255
201 225 255
202 225 255
202 225 255
202 225 255
202 225 255
202 225 255
202 225 255
202 225 255
202 225 255
202 225 255
202 225 255
202 225 255
202 225 255
202 225 255
202 225 255
202 225 255
202 225 255
203 225 255
203 225 255
203 225 255
203 225 255
203 225 255
203 225 255
203 225 255
203 225 255
203 225 255
203 226 255
203 226 255
203 226 255
203 226 255
203 226 255
203 226 255
203 226 255
204 226 255
204 226 255
204 226 255
204 226 255
204 226 255
204 226 255
204 226 255
204 226 255
204 226 255
204 226 255
204 226 255
204 226 255
204 226 255
204 226 255
204 226 255
204 226 255
204 226 255
204 226 255
205 226 255
205 226 255
205 226 255
205 226 255
205 226 255
205 226 255
205 226 255
205 227 255
205 227 255
205 227 255
205 227 255
205 227 255
205 227 255
205 226 255
205 226 255
205 226 255
205 226 255
205 226 255
205 226 255
205 226 255
205 226 255
204 226 255
204 226 255
204 226 255
204 226 255
204 226 255
204 226 255
204 226 255
204 226 255
204 226 255
204 226 255
204 226 255
204 226 255
204 226 255
204 226 255
204 226 255
204 226 255
204 226 255
203 226 255
203 226 255
203 226 255
203 226 255
203 226 255
203 226 255
203 226 255
203 225 255
203 225 255
203 225 255
203 225 255
203 225 255
203 225 255
203 225 255
203 225 255
203 225 255
202 225 255
202 225 255
202 225 255
202 225 255
202 225 255
202 225 255
202 225 255
202 225 255
202 225 255
202 225 255
202 225 255
202 225 255
202 225 255
202 225 255
202 225 255
202 225 255
201 225 255
201 225 255
201 225 255
201 225 255
201 224 255
201 224 255
201 224 255
201 224 255
201 224 255
201 224 255
201 224 255
201 224 255
201 224 255
201 224 255
201 224 255
200 224 255
200 224 255
200 224 255
200 224 255
200 224 255
200 224 255
200 224 255
200 224 255
200 224 255
200 224 255
200 224 255
200 224 255
200 224 255
200 224 255
199 224 255
199 224 255
199 223 255
199 223 255
199 223 255
199 223 255
199 223 255
199 223 255
199 223 255
199 223 255
199 223 255
199 223 255
199 223 255
199 223 255
198 223 255
198 223 255
198 223 255
198 223 255
198 223 255
198 223 255
198 223 255
198 223 255
198 223 255
198 223 255
198 223 255
198 223 255
198 223 255
198 223 255
198 223 255
197 222 255
197 222 255
197 222 255
197 222 255
197 222 255
197 222 255
197 222 255
197 222 255
197 222 255
197 222 255
197 222 255
197 222 255
197 222 255
197 222 255
197 222 255
196 222 255
196 222 255
196 222 255
196 222 255
196 222 255
196 222 255
196 222 255
196 222 255
196 222 255
196 222 255
196 222 255
196 222 255
196 222 255
196 222 255
196 222 255
196 222 255
196 222 255
196 221 255
195 221 255
195 221 255
195 221 255
195 221 255
195 221 255
195 221 255
195 221 255
195 221 255
195 221 255
195 221 255
195 221 255
195 221 255
195 221 255
195 221 255
195 221 255
195 221 255
195 221 255
195 221 255
195 221 255
195 221 255
195 221 255
195 221 255
195 221 255
195 221 255
195 221 255
195 221 255
194 221 255
194 221 255
194 221 255
194 221 255
194 221 255
194 221 255
194 221 255
194 221 255
194 221 255
194 221 255
194 221 255
194 221 255
194 221 255
194 221 255
194 221 255
194 221 255
194 221 255
194 221 255
194 221 255
194 221 255
194 221 255
194 221 255
194 221 255
194 221 255
194 221 255
194 221 255
194 221 255
194 221 255
194 221 255
194 221 255
194 221 255
194 221 255
194 221 255
194 221 255
194 221 255
194 221 255
194 221 255
194 221 255
194 221 255
194 221 255
194 221 255
194 221 255
194 221 255
194 221 255
195 221 255
195 221 255
195 221 255
195 221 255
195 221 255
195 221 255
195 221 255
195 221 255
195 221 255
195 221 255
195 221 255
195 221 255
195 221 255
195 221 255
195 221 255
195 221 255
195 221 255
195 221 255
195 221 255
195 221 255
195 221 255
195 221 255
195 221 255
195 221 255
195 221 255
195 221 255
196 221 255
196 222 255
196 222 255
196 222 255
196 222 255
196 222 255
196 222 255
196 222 255
196 222 255
196 222 255
196 222 255
196 222 255
196 222 255
196 222 255
196 222 255
196 222 255
196 222 255
196 222 255
197 222 255
197 222 255
197 222 255
197 222 255
197 222 255
197 222 255
197 222 255
197 222 255
197 222 255
197 222 255
197 222 255
197 222 255
197 222 255
197 222 255
197 222 255
198 223 255
198 223 255
198 223 255
198 223 255
198 223 255
198 223 255
198 223 255
198 223 255
198 223 255
198 223 255
198 223 255
198 223 255
198 223 255
198 223 255
198 223 255
199 223 255
199 223 255
199 223 255
199 223 255
199 223 255
199 223 255
199 223 255
199 223 255
199 223 255
199 223 255
199 223 255
199 223 255
199 224 255
199 224 255
200 224 255
200 224 255
200 224 255
200 224 255
200 224 255
200 224 255
200 224 255
200 224 255
200 224 255
200 224 255
200 224 255
200 224 255
200 224 255
200 224 255
201 224 255
201 224 255
201 224 255
201 224 255
201 224 255
201 224 255
201 224 255
201 224 255
201 224 255
201 224 255
201 224 255
201 225 255
201 225 255
201 225 255
201 225 255
202 225 255
202 225 255
202 225 255
202 225 255
202 225 255
202 225 255
202 225 255
202 225 255
202 225 255
202 225 255
202 225 255
202 225 255
202 225 255
202 225 255
202 225 255
202 225 255
203 225 255
203 225 255
203 225 255
203 225 255
203 225 255
203 225 255
203 225 255
203 225 255
203 225 255
203 226 255
203 226 255
203 226 255
203 226 255
203 226 255
203 226 255
203 226 255
204 226 255
204 226 255
204 226 255
204 226 255
204 226 255
204 226 255
204 226 255
204 226 255
204 226 255
204 226 255
204 226 255
204 226 255
204 226 255
204 226 255
204 226 255
204 226 255
204 226 255
205 226 255
205 226 255
205 226 255
205 226 255
205 226 255
205 226 255
205 226 255
205 226 255
205 227 255
205 227 255
205 227 255
205 227 255
205 227 255
205 227 255
205 227 255
205 227 255
205 227 255
205 227 255
205 227 255
205 226 255
205 226 255
205 226 255
205 226 255
205 226 255
205 226 255
205 226 255
204 226 255
204 226 255
204 226 255
204 226 255
204 226 255
204 226 255
204 226 255
204 226 255
204 226 255
204 226 255
204 226 255
204 226 255
204 226 255
204 226 255
204 226 255
204 226 255
204 226 255
203 226 255
203 226 255
203 226 255
203 226 255
203 226 255
203 226 255
203 226 255
203 226 255
203 225 255
203 225 255
203 225 255
203 225 255
203 225 255
203 225 255
203 225 255
203 225 255
203 225 255
202 225 255
202 225 255
202 225 255
202 225 255
202 225 255
202 225 255
202 225 255
202 225 255
202 225 255
202 225 255
202 225 255
202 225 255
202 225 255
202 225 255
202 225 255
201 225 255
201 225 255
201 225 255
201 225 255
201 224 255
201 224 255
201 224 255
201 224 255
201 224 255
201 224 255
201 224 255
201 224 255
201 224 255
201 224 255
201 224 255
200 224 255
200 224 255
200 224 255
200 224 255
200 224 255
200 224 255
200 224 255
200 224 255
200 224 255
200 224 255
200 224 255
200 224 255
200 224 255
200 224 255
199 224 255
199 224 255
199 223 255
199 223 255
199 223 255
199 223 255
199 223 255
199 223 255
199 223 255
199 223 255
199 223 255
199 223 255
199 223 255
199 223 255
198 223 255
198 223 255
198 223 255
198 223 255
198 223 255
198 223 255
198 223 255
198 223 255
198 223 255
198 223 255
198 223 255
198 223 255
198 223 255
198 223 255
198 223 255
197 223 255
197 222 255
197 222 255
197 222 255
197 222 255
197 222 255
197 222 255
197 222 255
197 222 255
197 222 255
197 222 255
197 222 255
197 222 255
197 222 255
197 222 255
197 222 255
196 222 255
196 222 255
196 222 255
196 222 255
196 222 255
196 222 255
196 222 255
196 222 255
196 222 255
196 222 255
196 222 255
196 222 255
196 222 255
196 222 255
196 222 255
196 222 255
196 222 255
196 221 255
195 221 255
195 221 255
195 221 255
195 221 255
195 221 255
195 221 255
195 221 255
195 221 255
195 221 255
195 221 255
195 221 255
195 221 255
195 221 255
195 221 255
195 221 255
195 221 255
195 221 255
195 221 255
195 221 255
195 221 255
195 221 255
195 221 255
195 221 255
195 221 255
195 221 255
195 221 255
195 221 255
195 221 255
195 221 255
195 221 255
194 221 255
194 221 255
194 221 255
194 221 255
194 221 255
194 221 255
194 221 255
194 221 255
194 221 255
194 221 255
194 221 255
194 221 255
194 221 255
194 221 255
194 221 255
194 221 255
194 221 255
194 221 255
194 221 255
194 221 255
194 221 255
194 221 255
194 221 255
194 221 255
194 221 255
194 221 255
194 221 255
194 221 255
194 221 255
194 221 255
195 221 255
195 221 255
195 221 255
195 221 255
195 221 255
195 221 255
195 221 255
195 221 255
195 221 255
195 221 255
195 221 255
195 221 255
195 221 255
195 221 255
195 221 255
195 221 255
195 221 255
195 221 255
195 221 255
195 221 255
195 221 255
195 221 255
195 221 255
195 221 255
195 221 255
195 221 255
195 221 255
195 221 255
195 221 255
195 221 255
196 221 255
196 222 255
196 222 255
196 222 255
196 222 255
196 222 255
196 222 255
196 222 255
196 222 255
196 222 255
196 222 255
196 222 255
196 222 255
196 222 255
196 222 255
196 222 255
196 222 255
196 222 255
197 222 255
197 222 255
197 222 255
197 222 255
197 222 255
197 222 255
197 222 255
197 222 255
197 222 255
197 222 255
197 222 255
197 222 255
197 222 255
197 222 255
197 222 255
197 222 255
198 223 255
198 223 255
198 223 255
198 223 255
198 223 255
198 223 255
198 223 255
198 223 255
198 223 255
198 223 255
198 223 255
198 223 255
198 223 255
198 223 255
198 223 255
199 223 255
199 223 255
199 223 255
199 223 255
199 223 255
199 223 255
199 223 255
199 223 255
199 223 255
199 223 255
199 223 255
199 223 255
199 224 255
199 224 255
200 224 255
200 224 255
200 224 255
200 224 255
200 224 255
200 224 255
200 224 255
200 224 255
200 224 255
200 224 255
200 224 255
200 224 255
200 224 255
200 224 255
201 224 255
201 224 255
201 224 255
201 224 255
201 224 255
201 224 255
201 224 255
201 224 255
201 224 255
201 224 255
201 224 255
201 225 255
201 225 255
201 225 255
201 225 255
202 225 255
202 225 255
202 225 255
202 225 255
202 225 255
202 225 255
202 225 255
202 225 255
202 225 255
202 225 255
202 225 255
202 225 255
202 225 255
202 225 255
202 225 255
203 225 255
203 225 255
203 225 255
203 225 255
203 225 255
203 225 255
203 225 255
203 225 255
203 225 255
203 226 255
203 226 255
203 226 255
203 226 255
203 226 255
203 226 255
203 226 255
203 226 255
204 226 255
204 226 255
204 226 255
204 226 255
204 226 255
204 226 255
204 226 255
204 226 255
204 226 255
204 226 255
204 226 255
204 226 255
204 226 255
204 226 255
204 226 255
204 226 255
204 226 255
205 226 255
205 226 255
205 226 255
205 226 255
205 226 255
205 226 255
205 226 255
205 227 255
205 227 255
205 227 255
205 227 255
205 227 255
205 227 255
205 227 255
205 227 255
205 227 255
205 227 255
205 227 255
205 227 255
205 227 255
205 227 255
205 227 255
205 227 255
205 226 255
205 226 255
205 226 255
205 226 255
205 226 255
205 226 255
205 226 255
204 226 255
204 226 255
204 226 255
204 226 255
204 226 255
204 226 255
204 226 255
204 226 255
204 226 255
204 226 255
204 226 255
204 226 255
204 226 255
204 226 255
204 226 255
204 226 255
204 226 255
204 226 255
203 226 255
203 226 255
203 226 255
203 226 255
203 226 255
203 226 255
203 226 255
203 225 255
203 225 255
203 225 255
203 225 255
203 225 255
203 225 255
203 225 255
203 225 255
203 225 255
202 225 255
202 225 255
202 225 255
202 225 255
202 225 255
202 225 255
202 225 255
202 225 255
202 225 255
202 225 255
202 225 255
202 225 255
202 225 255
202 225 255
202 225 255
201 225 255
201 225 255
201 225 255
201 225 255
201 224 255
201 224 255
201 224 255
201 224 255
201 224 255
201 224 255
201 224 255
201 224 255
201 224 255
201 224 255
201 224 255
200 224 255
200 224 255
200 224 255
200 224 255
200 224 255
200 224 255
200 224 255
200 224 255
200 224 255
200 224 255
200 224 255
200 224 255
200 224 255
200 224 255
199 224 255
199 224 255
199 223 255
199 223 255
199 223 255
199 223 255
199 223 255
199 223 255
199 223 255
199 223 255
199 223 255
199 223 255
199 223 255
199 223 255
199 223 255
198 223 255
198 223 255
198 223 255
198 223 255
198 223 255
198 223 255
198 223 255
198 223 255
198 223 255
198 223 255
198 223 255
198 223 255
198 223 255
198 223 255
197 223 255
197 222 255
197 222 255
197 222 255
197 222 255
197 222 255
197 222 255
197 222 255
197 222 255
197 222 255
197 222 255
197 222 255
197 222 255
197 222 255
197 222 255
197 222 255
197 222 255
196 222 255
196 222 255
196 222 255
196 222 255
196 222 255
196 222 255
196 222 255
196 222 255
196 222 255
196 222 255
196 222 255
196 222 255
196 222 255
196 222 255
196 222 255
196 222 255
196 222 255
196 221 255
196 221 255
195 221 255
195 221 255
195 221 255
195 221 255
195 221 255
195 221 255
195 221 255
195 221 255
195 221 255
195 221 255
195 221 255
195 221 255
195 221 255
195 221 255
195 221 255
195 221 255
195 221 255
195 221 255
195 221 255
195 221 255
195 221 255
195 221 255
195 221 255
195 221 255
195 221 255
195 221 255
195 221 255
195 221 255
195 221 255
195 221 255
195 221 255
195 221 255
195 221 255
195 221 255
195 221 255
195 221 255
195 221 255
195 221 255
195 221 255
195 221 255
195 221 255
195 221 255
195 221 255
195 221 255
195 221 255
195 221 255
195 221 255
195 221 255
195 221 255
195 221 255
195 221 255
195 221 255
195 221 255
195 221 255
195 221 255
195 221 255
195 221 255
195 221 255
195 221 255
195 221 255
195 221 255
195 221 255
195 221 255
195 221 255
195 221 255
195 221 255
195 221 255
195 221 255
195 221 255
195 221 255
195 221 255
195 221 255
195 221 255
195 221 255
195 221 255
195 221 255
195 221 255
195 221 255
195 221 255
195 221 255
195 221 255
195 221 255
196 221 255
196 221 255
196 222 255
196 222 255
196 222 255
196 222 255
196 222 255
196 222 255
196 222 255
196 222 255
196 222 255
196 222 255
196 222 255
196 222 255
196 222 255
196 222 255
196 222 255
196 222 255
196 222 255
197 222 255
197 222 255
197 222 255
197 222 255
197 222 255
197 222 255
197 222 255
197 222 255
197 222 255
197 222 255
197 222 255
197 222 255
197 222 255
197 222 255
197 222 255
197 222 255
197 223 255
198 223 255
198 223 255
198 223 255
198 223 255
198 223 255
198 223 255
198 223 255
198 223 255
198 223 255
198 223 255
198 223 255
198 223 255
198 223 255
198 223 255
199 223 255
199 223 255
199 223 255
199 223 255
199 223 255
199 223 255
199 223 255
199 223 255
199 223 255
199 223 255
199 223 255
199 223 255
199 223 255
199 224 255
199 224 255
200 224 255
200 224 255
200 224 255
200 224 255
200 224 255
200 224 255
200 224 255
200 224 255
200 224 255
200 224 255
200 224 255
200 224 255
200 224 255
200 224 255
201 224 255
201 224 255
201 224 255
201 224 255
201 224 255
201 224 255
201 224 255
201 224 255
201 224 255
201 224 255
201 225 255
201 225 255
201 225 255
201 225 255
201 225 255
202 225 255
202 225 255
202 225 255
202 225 255
202 225 255
202 225 255
202 225 255
202 225 255
202 225 255
202 225 255
202 225 255
202 225 255
202 225 255
202 225 255
202 225 255
203 225 255
203 225 255
203 225 255
203 225 255
203 225 255
203 225 255
203 225 255
203 225 255
203 225 255
203 226 255
203 226 255
203 226 255
203 226 255
203 226 255
203 226 255
203 226 255
204 226 255
204 226 255
204 226 255
204 226 255
204 226 255
204 226 255
204 226 255
204 226 255
204 226 255
204 226 255
204 226 255
204 226 255
204 226 255
204 226 255
204 226 255
204 226 255
204 226 255
204 226 255
205 226 255
205 226 255
205 226 255
205 226 255
205 226 255
205 226 255
205 226 255
205 227 255
205 227 255
205 227 255
205 227 255
205 227 255
205 227 255
205 227 255
205 227 255
205 227 255
205 227 255
205 227 255
205 227 255
205 227 255
205 227 255
205 227 255
205 227 255
205 227 255
205 227 255
205 227 255
205 227 255
205 227 255
205 226 255
205 226 255
205 226 255
205 226 255
205 226 255
205 226 255
205 226 255
204 226 255
204 226 255
204 226 255
204 226 255
204 226 255
204 226 255
204 226 255
204 226 255
204 226 255
204 226 255
204 226 255
204 226 255
204 226 255
204 226 255
204 226 255
204 226 255
204 226 255
203 226 255
203 226 255
203 226 255
203 226 255
203 226 255
203 226 255
203 226 255
203 225 255
203 225 255
203 225 255
203 225 255
203 225 255
203 225 255
203 225 255
203 225 255
203 225 255
202 225 255
202 225 255
202 225 255
202 225 255
202 225 255
202 225 255
202 225 255
202 225 255
202 225 255
202 225 255
202 225 255
202 225 255
202 225 255
202 225 255
202 225 255
201 225 255
201 225 255
201 225 255
201 225 255
201 225 255
201 224 255
201 224 255
201 224 255
201 224 255
201 224 255
201 224 255
201 224 255
201 224 255
201 224 255
201 224 255
200 224 255
200 224 255
200 224 255
200 224 255
200 224 255
200 224 255
200 224 255
200 224 255
200 224 255
200 224 255
200 224 255
200 224 255
200 224 255
200 224 255
200 224 255
199 224 255
199 224 255
199 223 255
199 223 255
199 223 255
199 223 255
199 223 255
199 223 255
199 223 255
199 223 255
199 223 255
199 223 255
199 223 255
199 223 255
198 223 255
198 223 255
198 223 255
198 223 255
198 223 255
198 223 255
198 223 255
198 223 255
198 223 255
198 223 255
198 223 255
198 223 255
198 223 255
198 223 255
198 223 255
197 222 255
197 222 255
197 222 255
197 222 255
197 222 255
197 222 255
197 222 255
197 222 255
197 222 255
197 222 255
197 222 255
197 222 255
197 222 255
197 222 255
197 222 255
197 222 255
196 222 255
196 222 255
196 222 255
196 222 255
196 222 255
196 222 255
196 222 255
196 222 255
196 222 255
196 222 255
196 222 255
196 222 255
196 222 255
196 222 255
196 222 255
196 222 255
196 222 255
196 222 255
196 221 255
196 221 255
195 221 255
195 221 255
195 221 255
195 221 255
195 221 255
195 221 255
195 221 255
195 221 255
195 221 255
195 221 255
195 221 255
195 221 255
195 221 255
195 221 255
195 221 255
195 221 255
195 221 255
195 221 255
195 221 255
195 221 255
195 221 255
195 221 255
195 221 255
195 221 255
195 221 255
195 221 255
195 221 255
195 221 255
195 221 255
195 221 255
195 221 255
195 221 255
195 221 255
195 221 255
195 221 255
195 221 255
195 221 255
195 221 255
195 221 255
195 221 255
195 221 255
195 221 255
195 221 255
195 221 255
195 221 255
195 221 255
195 221 255
195 221 255
195 221 255
195 221 255
195 221 255
195 221 255
195 221 255
195 221 255
195 221 255
195 221 255
195 221 255
195 221 255
195 221 255
195 221 255
195 221 255
195 221 255
195 221 255
195 221 255
195 221 255
195 221 255
195 221 255
195 221 255
195 221 255
195 221 255
195 221 255
195 221 255
195 221 255
195 221 255
195 221 255
195 221 255
196 221 255
196 221 255
196 222 255
196 222 255
196 222 255
196 222 255
196 222 255
196 222 255
196 222 255
196 222 255
196 222 255
196 222 255
196 222 255
196 222 255
196 222 255
196 222 255
196 222 255
196 222 255
196 222 255
196 222 255
197 222 255
197 222 255
197 222 255
197 222 255
197 222 255
197 222 255
197 222 255
197 222 255
197 222 255
197 222 255
197 222 255
197 222 255
197 222 255
197 222 255
197 222 255
197 222 255
198 223 255
198 223 255
198 223 255
198 223 255
198 223 255
198 223 255
198 223 255
198 223 255
198 223 255
198 223 255
198 223 255
198 223 255
198 223 255
198 223 255
198 223 255
199 223 255
199 223 255
199 223 255
199 223 255
199 223 255
199 223 255
199 223 255
199 223 255
199 223 255
199 223 255
199 223 255
199 223 255
199 224 255
199 224 255
199 224 255
200 224 255
200 224 255
200 224 255
200 224 255
200 224 255
200 224 255
200 224 255
200 224 255
200 224 255
200 224 255
200 224 255
200 224 255
200 224 255
200 224 255
201 224 255
201 224 255
201 224 255
201 224 255
201 224 255
201 224 255
201 224 255
201 224 255
201 224 255
201 224 255
201 225 255
201 225 255
201 225 255
201 225 255
201 225 255
202 225 255
202 225 255
202 225 255
202 225 255
202 225 255
202 225 255
202 225 255
202 225 255
202 225 255
202 225 255
202 225 255
202 225 255
202 225 255
202 225 255
202 225 255
203 225 255
203 225 255
203 225 255
203 225 255
203 225 255
203 225 255
203 225 255
203 225 255
203 225 255
203 226 255
203 226 255
203 226 255
203 226 255
203 226 255
203 226 255
203 226 255
204 226 255
204 226 255
204 226 255
204 226 255
204 226 255
204 226 255
204 226 255
204 226 255
204 226 255
204 226 255
204 226 255
204 226 255
204 226 255
204 226 255
204 226 255
204 226 255
204 226 255
205 226 255
205 226 255
205 226 255
205 226 255
205 226 255
205 226 255
205 226 255
205 227 255
205 227 255
205 227 255
205 227 255
205 227 255
205 227 255
205 227 255
205 227 255
205 227 255
205 227 255
205 227 255
205 227 255
206 227 255
206 227 255
206 227 255
205 227 255
205 227 255
205 227 255
205 227 255
205 227 255
205 227 255
205 227 255
205 227 255
205 227 255
205 227 255
205 227 255
205 226 255
205 226 255
205 226 255
205 226 255
205 226 255
205 226 255
205 226 255
204 226 255
204 226 255
204 226 255
204 226 255
204 226 255
204 226 255
204 226 255
204 226 255
204 226 255
204 226 255
204 226 255
204 226 255
204 226 255
204 226 255
204 226 255
204 226 255
204 226 255
203 226 255
203 226 255
203 226 255
203 226 255
203 226 255
203 226 255
203 226 255
203 226 255
203 225 255
203 225 255
203 225 255
203 225 255
203 225 255
203 225 255
203 225 255
203 225 255
202 225 255
202 225 255
202 225 255
202 225 255
202 225 255
202 225 255
202 225 255
202 225 255
202 225 255
202 225 255
202 225 255
202 225 255
202 225 255
202 225 255
202 225 255
202 225 255
201 225 255
201 225 255
201 225 255
201 225 255
201 224 255
201 224 255
201 224 255
201 224 255
201 224 255
201 224 255
201 224 255
201 224 255
201 224 255
201 224 255
200 224 255
200 224 255
200 224 255
200 224 255
200 224 255
200 224 255
200 224 255
200 224 255
200 224 255
200 224 255
200 224 255
200 224 255
200 224 255
200 224 255
200 224 255
199 224 255
199 224 255
199 223 255
199 223 255
199 223 255
199 223 255
199 223 255
199 223 255
199 223 255
199 223 255
199 223 255
199 223 255
199 223 255
199 223 255
198 223 255
198 223 255
198 223 255
198 223 255
198 223 255
198 223 255
198 223 255
198 223 255
198 223 255
198 223 255
198 223 255
198 223 255
198 223 255
198 223 255
198 223 255
197 223 255
197 222 255
197 222 255
197 222 255
197 222 255
197 222 255
197 222 255
197 222 255
197 222 255
197 222 255
197 222 255
197 222 255
197 222 255
197 222 255
197 222 255
197 222 255
197 222 255
196 222 255
196 222 255
196 222 255
196 222 255
196 222 255
196 222 255
196 222 255
196 222 255
196 222 255
196 222 255
196 222 255
196 222 255
196 222 255
196 222 255
196 222 255
196 222 255
196 222 255
196 222 255
196 222 255
196 221 255
196 221 255
195 221 255
195 221 255
195 221 255
195 221 255
195 221 255
195 221 255
195 221 255
195 221 255
195 221 255
195 221 255
195 221 255
195 221 255
195 221 255
195 221 255
195 221 255
195 221 255
195 221 255
195 221 255
195 221 255
195 221 255
195 221 255
195 221 255
195 221 255
195 221 255
195 221 255
195 221 255
195 221 255
195 221 255
195 221 255
195 221 255
195 221 255
195 221 255
195 221 255
195 221 255
195 221 255
195 221 255
195 221 255
195 221 255
195 221 255
195 221 255
195 221 255
195 221 255
195 221 255
195 221 255
195 221 255
195 221 255
195 221 255
195 221 255
195 221 255
195 221 255
195 221 255
195 221 255
195 221 255
195 221 255
195 221 255
195 221 255
195 221 255
195 221 255
195 221 255
195 221 255
195 221 255
195 221 255
195 221 255
195 221 255
195 221 255
195 221 255
195 221 255
195 221 255
196 221 255
196 221 255
196 221 255
196 222 255
196 222 255
196 222 255
196 222 255
196 222 255
196 222 255
196 222 255
196 222 255
196 222 255
196 222 255
196 222 255
196 222 255
196 222 255
196 222 255
196 222 255
196 222 255
196 222 255
196 222 255
197 222 255
197 222 255
197 222 255
197 222 255
197 222 255
197 222 255
197 222 255
197 222 255
197 222 255
197 222 255
197 222 255
197 222 255
197 222 255
197 222 255
197 222 255
197 222 255
197 223 255
198 223 255
198 223 255
198 223 255
198 223 255
198 223 255
198 223 255
198 223 255
198 223 255
198 223 255
198 223 255
198 223 255
198 223 255
198 223 255
198 223 255
198 223 255
199 223 255
199 223 255
199 223 255
199 223 255
199 223 255
199 223 255
199 223 255
199 223 255
199 223 255
199 223 255
199 223 255
199 223 255
199 224 255
199 224 255
200 224 255
200 224 255
200 224 255
200 224 255
200 224 255
200 224 255
200 224 255
200 224 255
200 224 255
200 224 255
200 224 255
200 224 255
200 224 255
200 224 255
200 224 255
201 224 255
201 224 255
201 224 255
201 224 255
201 224 255
201 224 255
201 224 255
201 224 255
201 224 255
201 224 255
201 225 255
201 225 255
201 225 255
201 225 255
202 225 255
202 225 255
202 225 255
202 225 255
202 225 255
202 225 255
202 225 255
202 225 255
202 225 255
202 225 255
202 225 255
202 225 255
202 225 255
202 225 255
202 225 255
202 225 255
203 225 255
203 225 255
203 225 255
203 225 255
203 225 255
203 225 255
203 225 255
203 225 255
203 226 255
203 226 255
203 226 255
203 226 255
203 226 255
203 226 255
203 226 255
203 226 255
204 226 255
204 226 255
204 226 255
204 226 255
204 226 255
204 226 255
204 226 255
204 226 255
204 226 255
204 226 255
204 226 255
204 226 255
204 226 255
204 226 255
204 226 255
204 226 255
204 226 255
205 226 255
205 226 255
205 226 255
205 226 255
205 226 255
205 226 255
205 226 255
205 227 255
205 227 255
205 227 255
205 227 255
205 227 255
205 227 255
205 227 255
205 227 255
205 227 255
205 227 255
205 227 255
206 227 255
206 227 255
206 227 255
206 227 255
206 227 255
206 227 255
206 227 255
206 227 255
205 227 255
205 227 255
205 227 255
205 227 255
205 227 255
205 227 255
205 227 255
205 227 255
205 227 255
205 227 255
205 227 255
205 227 255
205 226 255
205 226 255
205 226 255
205 226 255
205 226 255
205 226 255
205 226 255
204 226 255
204 226 255
204 226 255
204 226 255
204 226 255
204 226 255
204 226 255
204 226 255
204 226 255
204 226 255
204 226 255
204 226 255
204 226 255
204 226 255
204 226 255
204 226 255
204 226 255
203 226 255
203 226 255
203 226 255
203 226 255
203 226 255
203 226 255
203 226 255
203 225 255
203 225 255
203 225 255
203 225 255
203 225 255
203 225 255
203 225 255
203 225 255
203 225 255
202 225 255
202 225 255
202 225 255
202 225 255
202 225 255
202 225 255
202 225 255
202 225 255
202 225 255
202 225 255
202 225 255
202 225 255
202 225 255
202 225 255
202 225 255
201 225 255
201 225 255
201 225 255
201 225 255
201 224 255
201 224 255
201 224 255
201 224 255
201 224 255
201 224 255
201 224 255
201 224 255
201 224 255
201 224 255
200 224 255
200 224 255
200 224 255
200 224 255
200 224 255
200 224 255
200 224 255
200 224 255
200 224 255
200 224 255
200 224 255
200 224 255
200 224 255
200 224 255
200 224 255
199 224 255
199 224 255
199 223 255
199 223 255
199 223 255
199 223 255
199 223 255
199 223 255
199 223 255
199 223 255
199 223 255
199 223 255
199 223 255
199 223 255
198 223 255
198 223 255
198 223 255
198 223 255
198 223 255
198 223 255
198 223 255
198 223 255
198 223 255
198 223 255
198 223 255
198 223 255
198 223 255
198 223 255
198 223 255
197 223 255
197 222 255
197 222 255
197 222 255
197 222 255
197 222 255
197 222 255
197 222 255
197 222 255
197 222 255
197 222 255
197 222 255
197 222 255
197 222 255
197 222 255
197 222 255
197 222 255
197 222 255
196 222 255
196 222 255
196 222 255
196 222 255
196 222 255
196 222 255
196 222 255
196 222 255
196 222 255
196 222 255
196 222 255
196 222 255
196 222 255
196 222 255
196 222 255
196 222 255
196 222 255
196 222 255
196 222 255
196 222 255
196 221 255
196 221 255
195 221 255
195 221 255
195 221 255
195 221 255
195 221 255
195 221 255
195 221 255
195 221 255
195 221 255
195 221 255
195 221 255
195 221 255
195 221 255
195 221 255
195 221 255
195 221 255
195 221 255
195 221 255
195 221 255
195 221 255
195 221 255
195 221 255
195 221 255
195 221 255
195 221 255
195 221 255
195 221 255
195 221 255
195 221 255
195 221 255
195 221 255
195 221 255
195 221 255
195 221 255
195 221 255
195 221 255
195 221 255
195 221 255
195 221 255
195 221 255
195 221 255
195 221 255
195 221 255
195 221 255
195 221 255
195 221 255
195 221 255
195 221 255
195 221 255
195 221 255
195 221 255
195 221 255
195 221 255
195 221 255
195 221 255
195 221 255
195 221 255
195 221 255
195 221 255
195 221 255
196 221 255
196 221 255
196 222 255
196 222 255
196 222 255
196 222 255
196 222 255
196 222 255
196 222 255
196 222 255
196 222 255
196 222 255
196 222 255
196 222 255
196 222 255
196 222 255
196 222 255
196 222 255
196 222 255
196 222 255
196 222 255
196 222 255
197 222 255
197 222 255
197 222 255
197 222 255
197 222 255
197 222 255
197 222 255
197 222 255
197 222 255
197 222 255
197 222 255
197 222 255
197 222 255
197 222 255
197 222 255
197 222 255
197 222 255
198 223 255
198 223 255
198 223 255
198 223 255
198 223 255
198 223 255
198 223 255
198 223 255
198 223 255
198 223 255
198 223 255
198 223 255
198 223 255
198 223 255
198 223 255
198 223 255
199 223 255
199 223 255
199 223 255
199 223 255
199 223 255
199 223 255
199 223 255
199 223 255
199 223 255
199 223 255
199 223 255
199 223 255
199 224 255
199 224 255
200 224 255
200 224 255
200 224 255
200 224 255
200 224 255
200 224 255
200 224 255
200 224 255
200 224 255
200 224 255
200 224 255
200 224 255
200 224 255
200 224 255
200 224 255
201 224 255
201 224 255
201 224 255
201 224 255
201 224 255
201 224 255
201 224 255
201 224 255
201 224 255
201 224 255
201 225 255
201 225 255
201 225 255
201 225 255
202 225 255
202 225 255
202 225 255
202 225 255
202 225 255
202 225 255
202 225 255
202 225 255
202 225 255
202 225 255
202 225 255
202 225 255
202 225 255
202 225 255
202 225 255
203 225 255
203 225 255
203 225 255
203 225 255
203 225 255
203 225 255
203 225 255
203 225 255
203 225 255
203 226 255
203 226 255
203 226 255
203 226 255
203 226 255
203 226 255
203 226 255
204 226 255
204 226 255
204 226 255
204 226 255
204 226 255
204 226 255
204 226 255
204 226 255
204 226 255
204 226 255
204 226 255
204 226 255
204 226 255
204 226 255
204 226 255
204 226 255
204 226 255
205 226 255
205 226 255
205 226 255
205 226 255
205 226 255
205 226 255
205 226 255
205 226 255
205 227 255
205 227 255
205 227 255
205 227 255
205 227 255
205 227 255
205 227 255
205 227 255
205 227 255
205 227 255
206 227 255
206 227 255
206 227 255
206 227 255
206 227 255
206 227 255
206 227 255
206 227 255
206 227 255
206 227 255
206 227 255
206 227 255
206 227 255
206 227 255
205 227 255
205 227 255
205 227 255
205 227 255
205 227 255
205 227 255
205 227 255
205 227 255
205 227 255
205 227 255
205 227 255
205 226 255
205 226 255
205 226 255
205 226 255
205 226 255
205 226 255
205 226 255
204 226 255
204 226 255
204 226 255
204 226 255
204 226 255
204 226 255
204 226 255
204 226 255
204 226 255
204 226 255
204 226 255
204 226 255
204 226 255
204 226 255
204 226 255
204 226 255
204 226 255
203 226 255
203 226 255
203 226 255
203 226 255
203 226 255
203 226 255
203 226 255
203 225 255
203 225 255
203 225 255
203 225 255
203 225 255
203 225 255
203 225 255
203 225 255
203 225 255
202 225 255
202 225 255
202 225 255
202 225 255
202 225 255
202 225 255
202 225 255
202 225 255
202 225 255
202 225 255
202 225 255
202 225 255
202 225 255
202 225 255
202 225 255
201 225 255
201 225 255
201 225 255
201 225 255
201 224 255
201 224 255
201 224 255
201 224 255
201 224 255
201 224 255
201 224 255
201 224 255
201 224 255
201 224 255
201 224 255
200 224 255
200 224 255
200 224 255
200 224 255
200 224 255
200 224 255
200 224 255
200 224 255
200 224 255
200 224 255
200 224 255
200 224 255
200 224 255
200 224 255
199 224 255
199 224 255
199 223 255
199 223 255
199 223 255
199 223 255
199 223 255
199 223 255
199 223 255
199 223 255
199 223 255
199 223 255
199 223 255
199 223 255
199 223 255
198 223 255
198 223 255
198 223 255
198 223 255
198 223 255
198 223 255
198 223 255
198 223 255
198 223 255
198 223 255
198 223 255
198 223 255
198 223 255
198 223 255
198 223 255
197 223 255
197 222 255
197 222 255
197 222 255
197 222 255
197 222 255
197 222 255
197 222 255
197 222 255
197 222 255
197 222 255
197 222 255
197 222 255
197 222 255
197 222 255
197 222 255
197 222 255
197 222 255
196 222 255
196 222 255
196 222 255
196 222 255
196 222 255
196 222 255
196 222 255
196 222 255
196 222 255
196 222 255
196 222 255
196 222 255
196 222 255
196 222 255
196 222 255
196 222 255
196 222 255
196 222 255
196 222 255
196 222 255
196 222 255
196 221 255
196 221 255
196 221 255
195 221 255
195 221 255
195 221 255
195 221 255
195 221 255
195 221 255
195 221 255
195 221 255
195 221 255
195 221 255
195 221 255
195 221 255
195 221 255
195 221 255
195 221 255
195 221 255
195 221 255
195 221 255
195 221 255
195 221 255
195 221 255
195 221 255
195 221 255
195 221 255
195 221 255
195 221 255
195 221 255
195 221 255
195 221 255
195 221 255
195 221 255
195 221 255
195 221 255
195 221 255
195 221 255
195 221 255
195 221 255
195 221 255
195 221 255
195 221 255
195 221 255
195 221 255
195 221 255
195 221 255
195 221 255
195 221 255
195 221 255
195 221 255
195 221 255
195 221 255
196 221 255
196 221 255
196 221 255
196 222 255
196 222 255
196 222 255
196 222 255
196 222 255
196 222 255
196 222 255
196 222 255
196 222 255
196 222 255
196 222 255
196 222 255
196 222 255
196 222 255
196 222 255
196 222 255
196 222 255
196 222 255
196 222 255
196 222 255
196 222 255
197 222 255
197 222 255
197 222 255
197 222 255
197 222 255
197 222 255
197 222 255
197 222 255
197 222 255
197 222 255
197 222 255
197 222 255
197 222 255
197 222 255
197 222 255
197 222 255
197 222 255
197 223 255
198 223 255
198 223 255
198 223 255
198 223 255
198 223 255
198 223 255
198 223 255
198 223 255
198 223 255
198 223 255
198 223 255
198 223 255
198 223 255
198 223 255
198 223 255
199 223 255
199 223 255
199 223 255
199 223 255
199 223 255
199 223 255
199 223 255
199 223 255
199 223 255
199 223 255
199 223 255
199 223 255
199 223 255
199 224 255
199 224 255
200 224 255
200 224 255
200 224 255
200 224 255
200 224 255
200 224 255
200 224 255
200 224 255
200 224 255
200 224 255
200 224 255
200 224 255
200 224 255
200 224 255
201 224 255
201 224 255
201 224 255
201 224 255
201 224 255
201 224 255
201 224 255
201 224 255
201 224 255
201 224 255
201 224 255
201 225 255
201 225 255
201 225 255
201 225 255
202 225 255
202 225 255
202 225 255
202 225 255
202 225 255
202 225 255
202 225 255
202 225 255
202 225 255
202 225 255
202 225 255
202 225 255
202 225 255
202 225 255
202 225 255
203 225 255
203 225 255
203 225 255
203 225 255
203 225 255
203 225 255
203 225 255
203 225 255
203 225 255
203 226 255
203 226 255
203 226 255
203 226 255
203 226 255
203 226 255
203 226 255
204 226 255
204 226 255
204 226 255
204 226 255
204 226 255
204 226 255
204 226 255
204 226 255
204 226 255
204 226 255
204 226 255
204 226 255
204 226 255
204 226 255
204 226 255
204 226 255
204 226 255
205 226 255
205 226 255
205 226 255
205 226 255
205 226 255
205 226 255
205 226 255
205 227 255
205 227 255
205 227 255
205 227 255
205 227 255
205 227 255
205 227 255
205 227 255
205 227 255
205 227 255
205 227 255
206 227 255
206 227 255
206 227 255
206 227 255
206 227 255
206 227 255
206 227 255
206 227 255
206 227 255
206 227 255
206 227 255
206 227 255
206 227 255
206 227 255
206 227 255
206 227 255
206 227 255
206 227 255
206 227 255
205 227 255
205 227 255
205 227 255
205 227 255
205 227 255
205 227 255
205 227 255
205 227 255
205 227 255
205 227 255
205 227 255
205 226 255
205 226 255
205 226 255
205 226 255
205 226 255
205 226 255
205 226 255
204 226 255
204 226 255
204 226 255
204 226 255
204 226 255
204 226 255
204 226 255
204 226 255
204 226 255
204 226 255
204 226 255
204 226 255
204 226 255
204 226 255
204 226 255
204 226 255
203 226 255
203 226 255
203 226 255
203 226 255
203 226 255
203 226 255
203 226 255
203 226 255
203 225 255
203 225 255
203 225 255
203 225 255
203 225 255
203 225 255
203 225 255
203 225 255
202 225 255
202 225 255
202 225 255
202 225 255
202 225 255
202 225 255
202 225 255
202 225 255
202 225 255
202 225 255
202 225 255
202 225 255
202 225 255
202 225 255
202 225 255
201 225 255
201 225 255
201 225 255
201 225 255
201 225 255
201 224 255
201 224 255
201 224 255
201 224 255
201 224 255
201 224 255
201 224 255
201 224 255
201 224 255
201 224 255
200 224 255
200 224 255
200 224 255
200 224 255
200 224 255
200 224 255
200 224 255
200 224 255
200 224 255
200 224 255
200 224 255
200 224 255
200 224 255
200 224 255
199 224 255
199 224 255
199 224 255
199 223 255
199 223 255
199 223 255
199 223 255
199 223 255
199 223 255
199 223 255
199 223 255
199 223 255
199 223 255
199 223 255
199 223 255
198 223 255
198 223 255
198 223 255
198 223 255
198 223 255
198 223 255
198 223 255
198 223 255
198 223 255
198 223 255
198 223 255
198 223 255
198 223 255
198 223 255
198 223 255
198 223 255
197 222 255
197 222 255
197 222 255
197 222 255
197 222 255
197 222 255
197 222 255
197 222 255
197 222 255
197 222 255
197 222 255
197 222 255
197 222 255
197 222 255
197 222 255
197 222 255
197 222 255
197 222 255
196 222 255
196 222 255
196 222 255
196 222 255
196 222 255
196 222 255
196 222 255
196 222 255
196 222 255
196 222 255
196 222 255
196 222 255
196 222 255
196 222 255
196 222 255
196 222 255
196 222 255
196 222 255
196 222 255
196 222 255
196 222 255
196 222 255
196 222 255
196 221 255
196 221 255
196 221 255
196 221 255
195 221 255
195 221 255
195 221 255
195 221 255
195 221 255
195 221 255
195 221 255
195 221 255
195 221 255
195 221 255
195 221 255
195 221 255
195 221 255
195 221 255
195 221 255
195 221 255
195 221 255
195 221 255
195 221 255
195 221 255
195 221 255
195 221 255
195 221 255
195 221 255
195 221 255
195 221 255
195 221 255
195 221 255
195 221 255
195 221 255
195 221 255
195 221 255
195 221 255
195 221 255
195 221 255
195 221 255
195 221 255
195 221 255
196 221 255
196 221 255
196 221 255
196 222 255
196 222 255
196 222 255
196 222 255
196 222 255
196 222 255
196 222 255
196 222 255
196 222 255
196 222 255
196 222 255
196 222 255
196 222 255
196 222 255
196 222 255
196 222 255
196 222 255
196 222 255
196 222 255
196 222 255
196 222 255
196 222 255
196 222 255
196 222 255
197 222 255
197 222 255
197 222 255
197 222 255
197 222 255
197 222 255
197 222 255
197 222 255
197 222 255
197 222 255
197 222 255
197 222 255
197 222 255
197 222 255
197 222 255
197 222 255
197 222 255
197 222 255
198 223 255
198 223 255
198 223 255
198 223 255
198 223 255
198 223 255
198 223 255
198 223 255
198 223 255
198 223 255
198 223 255
198 223 255
198 223 255
198 223 255
198 223 255
198 223 255
199 223 255
199 223 255
199 223 255
199 223 255
199 223 255
199 223 255
199 223 255
199 223 255
199 223 255
199 223 255
199 223 255
199 223 255
199 224 255
199 224 255
199 224 255
200 224 255
200 224 255
200 224 255
200 224 255
200 224 255
200 224 255
200 224 255
200 224 255
200 224 255
200 224 255
200 224 255
200 224 255
200 224 255
200 224 255
201 224 255
201 224 255
201 224 255
201 224 255
201 224 255
201 224 255
201 224 255
201 224 255
201 224 255
201 224 255
201 225 255
201 225 255
201 225 255
201 225 255
201 225 255
202 225 255
202 225 255
202 225 255
202 225 255
202 225 255
202 225 255
202 225 255
202 225 255
202 225 255
202 225 255
202 225 255
202 225 255
202 225 255
202 225 255
202 225 255
203 225 255
203 225 255
203 225 255
203 225 255
203 225 255
203 225 255
203 225 255
203 225 255
203 226 255
203 226 255
203 226 255
203 226 255
203 226 255
203 226 255
203 226 255
204 226 255
204 226 255
204 226 255
204 226 255
204 226 255
204 226 255
204 226 255
204 226 255
204 226 255
204 226 255
204 226 255
204 226 255
204 226 255
204 226 255
204 226 255
204 226 255
204 226 255
205 226 255
205 226 255
205 226 255
205 226 255
205 226 255
205 226 255
205 226 255
205 227 255
205 227 255
205 227 255
205 227 255
205 227 255
205 227 255
205 227 255
205 227 255
205 227 255
205 227 255
205 227 255
206 227 255
206 227 255
206 227 255
206 227 255
206 227 255
206 227 255
206 227 255
206 227 255
206 227 255
206 227 255
206 227 255
206 227 255
206 227 255
206 227 255
206 227 255
206 227 255
206 227 255
206 227 255
206 227 255
206 227 255
206 227 255
206 227 255
206 227 255
206 227 255
205 227 255
205 227 255
205 227 255
205 227 255
205 227 255
205 227 255
205 227 255
205 227 255
205 227 255
205 227 255
205 227 255
205 226 255
205 226 255
205 226 255
205 226 255
205 226 255
205 226 255
205 226 255
204 226 255
204 226 255
204 226 255
204 226 255
204 226 255
204 226 255
204 226 255
204 226 255
204 226 255
204 226 255
204 226 255
204 226 255
204 226 255
204 226 255
204 226 255
204 226 255
204 226 255
203 226 255
203 226 255
203 226 255
203 226 255
203 226 255
203 226 255
203 226 255
203 225 255
203 225 255
203 225 255
203 225 255
203 225 255
203 225 255
203 225 255
203 225 255
203 225 255
202 225 255
202 225 255
202 225 255
202 225 255
202 225 255
202 225 255
202 225 255
202 225 255
202 225 255
202 225 255
202 225 255
202 225 255
202 225 255
202 225 255
202 225 255
201 225 255
201 225 255
201 225 255
201 225 255
201 224 255
201 224 255
201 224 255
201 224 255
201 224 255
201 224 255
201 224 255
201 224 255
201 224 255
201 224 255
200 224 255
200 224 255
200 224 255
200 224 255
200 224 255
200 224 255
200 224 255
200 224 255
200 224 255
200 224 255
200 224 255
200 224 255
200 224 255
200 224 255
200 224 255
199 224 255
199 224 255
199 223 255
199 223 255
199 223 255
199 223 255
199 223 255
199 223 255
199 223 255
199 223 255
199 223 255
199 223 255
199 223 255
199 223 255
199 223 255
198 223 255
198 223 255
198 223 255
198 223 255
198 223 255
198 223 255
198 223 255
198 223 255
198 223 255
198 223 255
198 223 255
198 223 255
198 223 255
198 223 255
198 223 255
197 223 255
197 222 255
197 222 255
197 222 255
197 222 255
197 222 255
197 222 255
197 222 255
197 222 255
197 222 255
197 222 255
197 222 255
197 222 255
197 222 255
197 222 255
197 222 255
197 222 255
197 222 255
197 222 255
196 222 255
196 222 255
196 222 255
196 222 255
196 222 255
196 222 255
196 222 255
196 222 255
196 222 255
196 222 255
196 222 255
196 222 255
196 222 255
196 222 255
196 222 255
196 222 255
196 222 255
196 222 255
196 222 255
196 222 255
196 222 255
196 222 255
196 222 255
196 222 255
196 222 255
196 222 255
196 222 255
196 221 255
196 221 255
196 221 255
196 221 255
196 221 255
195 221 255
195 221 255
195 221 255
195 221 255
195 221 255
195 221 255
195 221 255
195 221 255
195 221 255
195 221 255
195 221 255
195 221 255
195 221 255
195 221 255
195 221 255
195 221 255
195 221 255
195 221 255
195 221 255
195 221 255
195 221 255
196 221 255
196 221 255
196 221 255
196 221 255
196 221 255
196 221 255
196 222 255
196 222 255
196 222 255
196 222 255
196 222 255
196 222 255
196 222 255
196 222 255
196 222 255
196 222 255
196 222 255
196 222 255
196 222 255
196 222 255
196 222 255
196 222 255
196 222 255
196 222 255
196 222 255
196 222 255
196 222 255
196 222 255
196 222 255
196 222 255
196 222 255
196 222 255
196 222 255
197 222 255
197 222 255
197 222 255
197 222 255
197 222 255
197 222 255
197 222 255
197 222 255
197 222 255
197 222 255
197 222 255
197 222 255
197 222 255
197 222 255
197 222 255
197 222 255
197 222 255
197 222 255
197 223 255
198 223 255
198 223 255
198 223 255
198 223 255
198 223 255
198 223 255
198 223 255
198 223 255
198 223 255
198 223 255
198 223 255
198 223 255
198 223 255
198 223 255
198 223 255
199 223 255
199 223 255
199 223 255
199 223 255
199 223 255
199 223 255
199 223 255
199 223 255
199 223 255
199 223 255
199 223 255
199 223 255
199 223 255
199 224 255
199 224 255
200 224 255
200 224 255
200 224 255
200 224 255
200 224 255
200 224 255
200 224 255
200 224 255
200 224 255
200 224 255
200 224 255
200 224 255
200 224 255
200 224 255
200 224 255
201 224 255
201 224 255
201 224 255
201 224 255
201 224 255
201 224 255
201 224 255
201 224 255
201 224 255
201 224 255
201 225 255
201 225 255
201 225 255
201 225 255
202 225 255
202 225 255
202 225 255
202 225 255
202 225 255
202 225 255
202 225 255
202 225 255
202 225 255
202 225 255
202 225 255
202 225 255
202 225 255
202 225 255
202 225 255
203 225 255
203 225 255
203 225 255
203 225 255
203 225 255
203 225 255
203 225 255
203 225 255
203 225 255
203 226 255
203 226 255
203 226 255
203 226 255
203 226 255
203 226 255
203 226 255
204 226 255
204 226 255
204 226 255
204 226 255
204 226 255
204 226 255
204 226 255
204 226 255
204 226 255
204 226 255
204 226 255
204 226 255
204 226 255
204 226 255
204 226 255
204 226 255
204 226 255
205 226 255
205 226 255
205 226 255
205 226 255
205 226 255
205 226 255
205 226 255
205 227 255
205 227 255
205 227 255
205 227 255
205 227 255
205 227 255
205 227 255
205 227 255
205 227 255
205 227 255
205 227 255
206 227 255
206 227 255
206 227 255
206 227 255
206 227 255
206 227 255
206 227 255
206 227 255
206 227 255
206 227 255
206 227 255
206 227 255
206 227 255
206 227 255
206 227 255
206 227 255
206 227 255
206 227 255
206 227 255
206 227 255
206 227 255
206 227 255
206 227 255
206 227 255
206 227 255
206 227 255
206 227 255
206 227 255
206 227 255
205 227 255
205 227 255
205 227 255
205 227 255
205 227 255
205 227 255
205 227 255
205 227 255
205 227 255
205 227 255
205 227 255
205 226 255
205 226 255
205 226 255
205 226 255
205 226 255
205 226 255
205 226 255
204 226 255
204 226 255
204 226 255
204 226 255
204 226 255
204 226 255
204 226 255
204 226 255
204 226 255
204 226 255
204 226 255
204 226 255
204 226 255
204 226 255
204 226 255
204 226 255
203 226 255
203 226 255
203 226 255
203 226 255
203 226 255
203 226 255
203 226 255
203 225 255
203 225 255
203 225 255
203 225 255
203 225 255
203 225 255
203 225 255
203 225 255
203 225 255
202 225 255
202 225 255
202 225 255
202 225 255
202 225 255
202 225 255
202 225 255
202 225 255
202 225 255
202 225 255
202 225 255
202 225 255
202 225 255
202 225 255
202 225 255
201 225 255
201 225 255
201 225 255
201 225 255
201 224 255
201 224 255
201 224 255
201 224 255
201 224 255
201 224 255
201 224 255
201 224 255
201 224 255
201 224 255
201 224 255
200 224 255
200 224 255
200 224 255
200 224 255
200 224 255
200 224 255
200 224 255
200 224 255
200 224 255
200 224 255
200 224 255
200 224 255
200 224 255
200 224 255
199 224 255
199 224 255
199 223 255
199 223 255
199 223 255
199 223 255
199 223 255
199 223 255
199 223 255
199 223 255
199 223 255
199 223 255
199 223 255
199 223 255
199 223 255
198 223 255
198 223 255
198 223 255
198 223 255
198 223 255
198 223 255
198 223 255
198 223 255
198 223 255
198 223 255
198 223 255
198 223 255
198 223 255
198 223 255
198 223 255
198 223 255
197 223 255
197 222 255
197 222 255
197 222 255
197 222 255
197 222 255
197 222 255
197 222 255
197 222 255
197 222 255
197 222 255
197 222 255
197 222 255
197 222 255
197 222 255
197 222 255
197 222 255
197 222 255
197 222 255
197 222 255
196 222 255
196 222 255
196 222 255
196 222 255
196 222 255
196 222 255
196 222 255
196 222 255
196 222 255
196 222 255
196 222 255
196 222 255
196 222 255
196 222 255
196 222 255
196 222 255
196 222 255
196 222 255
196 222 255
196 222 255
196 222 255
196 222 255
196 222 255
196 222 255
196 222 255
196 222 255
196 222 255
196 222 255
196 222 255
196 222 255
196 222 255
196 222 255
196 222 255
196 222 255
196 222 255
196 222 255
196 222 255
196 222 255
196 222 255
196 222 255
196 222 255
196 222 255
196 222 255
196 222 255
196 222 255
196 222 255
196 222 255
196 222 255
196 222 255
196 222 255
196 222 255
196 222 255
196 222 255
196 222 255
196 222 255
196 222 255
196 222 255
196 222 255
196 222 255
196 222 255
196 222 255
196 222 255
196 222 255
196 222 255
196 222 255
196 222 255
196 222 255
196 222 255
196 222 255
196 222 255
196 222 255
196 222 255
196 222 255
196 222 255
196 222 255
196 222 255
196 222 255
196 222 255
197 222 255
197 222 255
197 222 255
197 222 255
197 222 255
197 222 255
197 222 255
197 222 255
197 222 255
197 222 255
197 222 255
197 222 255
197 222 255
197 222 255
197 222 255
197 222 255
197 222 255
197 222 255
197 222 255
197 223 255
198 223 255
198 223 255
198 223 255
198 223 255
198 223 255
198 223 255
198 223 255
198 223 255
198 223 255
198 223 255
198 223 255
198 223 255
198 223 255
198 223 255
198 223 255
198 223 255
199 223 255
199 223 255
199 223 255
199 223 255
199 223 255
199 223 255
199 223 255
199 223 255
199 223 255
199 223 255
199 223 255
199 223 255
199 223 255
199 224 255
199 224 255
200 224 255
200 224 255
200 224 255
200 224 255
200 224 255
200 224 255
200 224 255
200 224 255
200 224 255
200 224 255
200 224 255
200 224 255
200 224 255
200 224 255
200 224 255
201 224 255
201 224 255
201 224 255
201 224 255
201 224 255
201 224 255
201 224 255
201 224 255
201 224 255
201 224 255
201 225 255
201 225 255
201 225 255
201 225 255
202 225 255
202 225 255
202 225 255
202 225 255
202 225 255
202 225 255
202 225 255
202 225 255
202 225 255
202 225 255
202 225 255
202 225 255
202 225 255
202 225 255
202 225 255
203 225 255
203 225 255
203 225 255
203 225 255
203 225 255
203 225 255
203 225 255
203 225 255
203 225 255
203 226 255
203 226 255
203 226 255
203 226 255
203 226 255
203 226 255
203 226 255
204 226 255
204 226 255
204 226 255
204 226 255
204 226 255
204 226 255
204 226 255
204 226 255
204 226 255
204 226 255
204 226 255
204 226 255
204 226 255
204 226 255
204 226 255
204 226 255
205 226 255
205 226 255
205 226 255
205 226 255
205 226 255
205 226 255
205 226 255
205 227 255
205 227 255
205 227 255
205 227 255
205 227 255
205 227 255
205 227 255
205 227 255
205 227 255
205 227 255
205 227 255
206 227 255
206 227 255
206 227 255
206 227 255
206 227 255
206 227 255
206 227 255
206 227 255
206 227 255
206 227 255
206 227 255
206 227 255
206 227 255
206 227 255
206 227 255
206 227 255
206 227 255
206 227 255
206 227 255
206 227 255
206 227 255
206 227 255
206 227 255
206 227 255
206 227 255
206 227 255
206 227 255
206 227 255
206 227 255
206 227 255
206 227 255
206 227 255
206 227 255
206 227 255
205 227 255
205 227 255
205 227 255
205 227 255
205 227 255
205 227 255
205 227 255
205 227 255
205 227 255
205 227 255
205 227 255
205 226 255
205 226 255
205 226 255
205 226 255
205 226 255
205 226 255
205 226 255
204 226 255
204 226 255
204 226 255
204 226 255
204 226 255
204 226 255
204 226 255
204 226 255
204 226 255
204 226 255
204 226 255
204 226 255
204 226 255
204 226 255
204 226 255
204 226 255
204 226 255
203 226 255
203 226 255
203 226 255
203 226 255
203 226 255
203 226 255
203 226 255
203 225 255
203 225 255
203 225 255
203 225 255
203 225 255
203 225 255
203 225 255
203 225 255
202 225 255
202 225 255
202 225 255
202 225 255
202 225 255
202 225 255
202 225 255
202 225 255
202 225 255
202 225 255
202 225 255
202 225 255
202 225 255
202 225 255
202 225 255
201 225 255
201 225 255
201 225 255
201 225 255
201 224 255
201 224 255
201 224 255
201 224 255
201 224 255
201 224 255
201 224 255
201 224 255
201 224 255
201 224 255
201 224 255
200 224 255
200 224 255
200 224 255
200 224 255
200 224 255
200 224 255
200 224 255
200 224 255
200 224 255
200 224 255
200 224 255
200 224 255
200 224 255
200 224 255
199 224 255
199 224 255
199 224 255
199 223 255
199 223 255
199 223 255
199 223 255
199 223 255
199 223 255
199 223 255
199 223 255
199 223 255
199 223 255
199 223 255
199 223 255
199 223 255
198 223 255
198 223 255
198 223 255
198 223 255
198 223 255
198 223 255
198 223 255
198 223 255
198 223 255
198 223 255
198 223 255
198 223 255
198 223 255
198 223 255
198 223 255
198 223 255
197 223 255
197 222 255
197 222 255
197 222 255
197 222 255
197 222 255
197 222 255
197 222 255
197 222 255
197 222 255
197 222 255
197 222 255
197 222 255
197 222 255
197 222 255
197 222 255
197 222 255
197 222 255
197 222 255
197 222 255
197 222 255
196 222 255
196 222 255
196 222 255
196 222 255
196 222 255
196 222 255
196 222 255
196 222 255
196 222 255
196 222 255
196 222 255
196 222 255
196 222 255
196 222 255
196 222 255
196 222 255
196 222 255
196 222 255
196 222 255
196 222 255
196 222 255
196 222 255
196 222 255
196 222 255
196 222 255
196 222 255
196 222 255
196 222 255
196 222 255
196 222 255
196 222 255
196 222 255
196 222 255
196 222 255
196 222 255
196 222 255
196 222 255
196 222 255
196 222 255
196 222 255
196 222 255
196 222 255
196 222 255
196 222 255
196 222 255
196 222 255
196 222 255
196 222 255
196 222 255
196 222 255
196 222 255
196 222 255
196 222 255
196 222 255
196 222 255
196 222 255
196 222 255
196 222 255
196 222 255
196 222 255
196 222 255
196 222 255
196 222 255
196 222 255
196 222 255
196 222 255
196 222 255
196 222 255
196 222 255
196 222 255
196 222 255
197 222 255
197 222 255
197 222 255
197 222 255
197 222 255
197 222 255
197 222 255
197 222 255
197 222 255
197 222 255
197 222 255
197 222 255
197 222 255
197 222 255
197 222 255
197 222 255
197 222 255
197 222 255
197 222 255
197 223 255
198 223 255
198 223 255
198 223 255
198 223 255
198 223 255
198 223 255
198 223 255
198 223 255
198 223 255
198 223 255
198 223 255
198 223 255
198 223 255
198 223 255
198 223 255
198 223 255
199 223 255
199 223 255
199 223 255
199 223 255
199 223 255
199 223 255
199 223 255
199 223 255
199 223 255
199 223 255
199 223 255
199 223 255
199 223 255
199 224 255
199 224 255
199 224 255
200 224 255
200 224 255
200 224 255
200 224 255
200 224 255
200 224 255
200 224 255
200 224 255
200 224 255
200 224 255
200 224 255
200 224 255
200 224 255
200 224 255
201 224 255
201 224 255
201 224 255
201 224 255
201 224 255
201 224 255
201 224 255
201 224 255
201 224 255
201 224 255
201 225 255
201 225 255
201 225 255
201 225 255
201 225 255
202 225 255
202 225 255
202 225 255
202 225 255
202 225 255
202 225 255
202 225 255
202 225 255
202 225 255
202 225 255
202 225 255
202 225 255
202 225 255
202 225 255
202 225 255
203 225 255
203 225 255
203 225 255
203 225 255
203 225 255
203 225 255
203 225 255
203 225 255
203 226 255
203 226 255
203 226 255
203 226 255
203 226 255
203 226 255
203 226 255
204 226 255
204 226 255
204 226 255
204 226 255
204 226 255
204 226 255
204 226 255
204 226 255
204 226 255
204 226 255
204 226 255
204 226 255
204 226 255
204 226 255
204 226 255
204 226 255
204 226 255
205 226 255
205 226 255
205 226 255
205 226 255
205 226 255
205 226 255
205 226 255
205 227 255
205 227 255
205 227 255
205 227 255
205 227 255
205 227 255
205 227 255
205 227 255
205 227 255
205 227 255
205 227 255
206 227 255
206 227 255
206 227 255
206 227 255
206 227 255
206 227 255
206 227 255
206 227 255
206 227 255
206 227 255
206 227 255
206 227 255
206 227 255
206 227 255
206 227 255
206 227 255
206 227 255
206 227 255
207 227 255
207 227 255
206 227 255
206 227 255
206 227 255
206 227 255
206 227 255
206 227 255
206 227 255
206 227 255
206 227 255
206 227 255
206 227 255
206 227 255
206 227 255
206 227 255
206 227 255
206 227 255
206 227 255
206 227 255
206 227 255
205 227 255
205 227 255
205 227 255
205 227 255
205 227 255
205 227 255
205 227 255
205 227 255
205 227 255
205 227 255
205 227 255
205 226 255
205 226 255
205 226 255
205 226 255
205 226 255
205 226 255
205 226 255
204 226 255
204 226 255
204 226 255
204 226 255
204 226 255
204 226 255
204 226 255
204 226 255
204 226 255
204 226 255
204 226 255
204 226 255
204 226 255
204 226 255
204 226 255
204 226 255
203 226 255
203 226 255
203 226 255
203 226 255
203 226 255
203 226 255
203 226 255
203 225 255
203 225 255
203 225 255
203 225 255
203 225 255
203 225 255
203 225 255
203 225 255
203 225 255
202 225 255
202 225 255
202 225 255
202 225 255
202 225 255
202 225 255
202 225 255
202 225 255
202 225 255
202 225 255
202 225 255
202 225 255
202 225 255
202 225 255
202 225 255
201 225 255
201 225 255
201 225 255
201 225 255
201 224 255
201 224 255
201 224 255
201 224 255
201 224 255
201 224 255
201 224 255
201 224 255
201 224 255
201 224 255
200 224 255
200 224 255
200 224 255
200 224 255
200 224 255
200 224 255
200 224 255
200 224 255
200 224 255
200 224 255
200 224 255
200 224 255
200 224 255
200 224 255
200 224 255
199 224 255
199 224 255
199 223 255
199 223 255
199 223 255
199 223 255
199 223 255
199 223 255
199 223 255
199 223 255
199 223 255
199 223 255
199 223 255
199 223 255
199 223 255
198 223 255
198 223 255
198 223 255
198 223 255
198 223 255
198 223 255
198 223 255
198 223 255
198 223 255
198 223 255
198 223 255
198 223 255
198 223 255
198 223 255
198 223 255
198 223 255
198 223 255
197 223 255
197 222 255
197 222 255
197 222 255
197 222 255
197 222 255
197 222 255
197 222 255
197 222 255
197 222 255
197 222 255
197 222 255
197 222 255
197 222 255
197 222 255
197 222 255
197 222 255
197 222 255
197 222 255
197 222 255
197 222 255
197 222 255
196 222 255
196 222 255
196 222 255
196 222 255
196 222 255
196 222 255
196 222 255
196 222 255
196 222 255
196 222 255
196 222 255
196 222 255
196 222 255
196 222 255
196 222 255
196 222 255
196 222 255
196 222 255
196 222 255
196 222 255
196 222 255
196 222 255
196 222 255
196 222 255
196 222 255
196 222 255
196 222 255
196 222 255
196 222 255
196 222 255
196 222 255
196 222 255
196 222 255
196 222 255
196 222 255
196 222 255
196 222 255
196 222 255
196 222 255
196 222 255
196 222 255
196 222 255
196 222 255
196 222 255
196 222 255
196 222 255
196 222 255
196 222 255
196 222 255
196 222 255
196 222 255
196 222 255
196 222 255
196 222 255
196 222 255
196 222 255
196 222 255
196 222 255
196 222 255
196 222 255
196 222 255
196 222 255
197 222 255
197 222 255
197 222 255
197 222 255
197 222 255
197 222 255
197 222 255
197 222 255
197 222 255
197 222 255
197 222 255
197 222 255
197 222 255
197 222 255
197 222 255
197 222 255
197 222 255
197 222 255
197 222 255
197 222 255
197 222 255
197 223 255
198 223 255
198 223 255
198 223 255
198 223 255
198 223 255
198 223 255
198 223 255
198 223 255
198 223 255
198 223 255
198 223 255
198 223 255
198 223 255
198 223 255
198 223 255
198 223 255
198 223 255
199 223 255
199 223 255
199 223 255
199 223 255
199 223 255
199 223 255
199 223 255
199 223 255
199 223 255
199 223 255
199 223 255
199 223 255
199 223 255
199 224 255
199 224 255
200 224 255
200 224 255
200 224 255
200 224 255
200 224 255
200 224 255
200 224 255
200 224 255
200 224 255
200 224 255
200 224 255
200 224 255
200 224 255
200 224 255
200 224 255
201 224 255
201 224 255
201 224 255
201 224 255
201 224 255
201 224 255
201 224 255
201 224 255
201 224 255
201 224 255
201 225 255
201 225 255
201 225 255
201 225 255
201 225 255
202 225 255
202 225 255
202 225 255
202 225 255
202 225 255
202 225 255
202 225 255
202 225 255
202 225 255
202 225 255
202 225 255
202 225 255
202 225 255
202 225 255
203 225 255
203 225 255
203 225 255
203 225 255
203 225 255
203 225 255
203 225 255
203 225 255
203 225 255
203 226 255
203 226 255
203 226 255
203 226 255
203 226 255
203 226 255
203 226 255
204 226 255
204 226 255
204 226 255
204 226 255
204 226 255
204 226 255
204 226 255
204 226 255
204 226 255
204 226 255
204 226 255
204 226 255
204 226 255
204 226 255
204 226 255
204 226 255
205 226 255
205 226 255
205 226 255
205 226 255
205 226 255
205 226 255
205 226 255
205 227 255
205 227 255
205 227 255
205 227 255
205 227 255
205 227 255
205 227 255
205 227 255
205 227 255
205 227 255
205 227 255
206 227 255
206 227 255
206 227 255
206 227 255
206 227 255
206 227 255
206 227 255
206 227 255
206 227 255
206 227 255
206 227 255
206 227 255
206 227 255
206 227 255
206 227 255
206 227 255
206 227 255
206 227 255
206 227 255
207 227 255
207 227 255
207 227 255
207 227 255
207 227 255
207 227 255
206 227 255
206 227 255
206 227 255
206 227 255
206 227 255
206 227 255
206 227 255
206 227 255
206 227 255
206 227 255
206 227 255
206 227 255
206 227 255
206 227 255
206 227 255
206 227 255
206 227 255
206 227 255
206 227 255
206 227 255
205 227 255
205 227 255
205 227 255
205 227 255
205 227 255
205 227 255
205 227 255
205 227 255
205 227 255
205 227 255
205 226 255
205 226 255
205 226 255
205 226 255
205 226 255
205 226 255
205 226 255
204 226 255
204 226 255
204 226 255
204 226 255
204 226 255
204 226 255
204 226 255
204 226 255
204 226 255
204 226 255
204 226 255
204 226 255
204 226 255
204 226 255
204 226 255
204 226 255
204 226 255
203 226 255
203 226 255
203 226 255
203 226 255
203 226 255
203 226 255
203 226 255
203 225 255
203 225 255
203 225 255
203 225 255
203 225 255
203 225 255
203 225 255
203 225 255
202 225 255
202 225 255
202 225 255
202 225 255
202 225 255
202 225 255
202 225 255
202 225 255
202 225 255
202 225 255
202 225 255
202 225 255
202 225 255
202 225 255
202 225 255
201 225 255
201 225 255
201 225 255
201 225 255
201 224 255
201 224 255
201 224 255
201 224 255
201 224 255
201 224 255
201 224 255
201 224 255
201 224 255
201 224 255
201 224 255
200 224 255
200 224 255
200 224 255
200 224 255
200 224 255
200 224 255
200 224 255
200 224 255
200 224 255
200 224 255
200 224 255
200 224 255
200 224 255
200 224 255
199 224 255
199 224 255
199 224 255
199 223 255
199 223 255
199 223 255
199 223 255
199 223 255
199 223 255
199 223 255
199 223 255
199 223 255
199 223 255
199 223 255
199 223 255
199 223 255
198 223 255
198 223 255
198 223 255
198 223 255
198 223 255
198 223 255
198 223 255
198 223 255
198 223 255
198 223 255
198 223 255
198 223 255
198 223 255
198 223 255
198 223 255
198 223 255
198 223 255
197 223 255
197 222 255
197 222 255
197 222 255
197 222 255
197 222 255
197 222 255
197 222 255
197 222 255
197 222 255
197 222 255
197 222 255
197 222 255
197 222 255
197 222 255
197 222 255
197 222 255
197 222 255
197 222 255
197 222 255
197 222 255
197 222 255
197 222 255
197 222 255
196 222 255
196 222 255
196 222 255
196 222 255
196 222 255
196 222 255
196 222 255
196 222 255
196 222 255
196 222 255
196 222 255
196 222 255
196 222 255
196 222 255
196 222 255
196 222 255
196 222 255
196 222 255
196 222 255
196 222 255
196 222 255
196 222 255
196 222 255
196 222 255
196 222 255
196 222 255
196 222 255
196 222 255
196 222 255
196 222 255
196 222 255
196 222 255
196 222 255
196 222 255
196 222 255
196 222 255
196 222 255
196 222 255
196 222 255
196 222 255
196 222 255
196 222 255
196 222 255
196 222 255
196 222 255
196 222 255
196 222 255
196 222 255
196 222 255
196 222 255
196 222 255
196 222 255
197 222 255
197 222 255
197 222 255
197 222 255
197 222 255
197 222 255
197 222 255
197 222 255
197 222 255
197 222 255
197 222 255
197 222 255
197 222 255
197 222 255
197 222 255
197 222 255
197 222 255
197 222 255
197 222 255
197 222 255
197 222 255
197 222 255
197 222 255
197 223 255
198 223 255
198 223 255
198 223 255
198 223 255
198 223 255
198 223 255
198 223 255
198 223 255
198 223 255
198 223 255
198 223 255
198 223 255
198 223 255
198 223 255
198 223 255
198 223 255
198 223 255
199 223 255
199 223 255
199 223 255
199 223 255
199 223 255
199 223 255
199 223 255
199 223 255
199 223 255
199 223 255
199 223 255
199 223 255
199 223 255
199 224 255
199 224 255
199 224 255
200 224 255
200 224 255
200 224 255
200 224 255
200 224 255
200 224 255
200 224 255
200 224 255
200 224 255
200 224 255
200 224 255
200 224 255
200 224 255
200 224 255
201 224 255
201 224 255
201 224 255
201 224 255
201 224 255
201 224 255
201 224 255
201 224 255
201 224 255
201 224 255
201 224 255
201 225 255
201 225 255
201 225 255
201 225 255
202 225 255
202 225 255
202 225 255
202 225 255
202 225 255
202 225 255
202 225 255
202 225 255
202 225 255
202 225 255
202 225 255
202 225 255
202 225 255
202 225 255
202 225 255
203 225 255
203 225 255
203 225 255
203 225 255
203 225 255
203 225 255
203 225 255
203 225 255
203 226 255
203 226 255
203 226 255
203 226 255
203 226 255
203 226 255
203 226 255
204 226 255
204 226 255
204 226 255
204 226 255
204 226 255
204 226 255
204 226 255
204 226 255
204 226 255
204 226 255
204 226 255
204 226 255
204 226 255
204 226 255
204 226 255
204 226 255
204 226 255
205 226 255
205 226 255
205 226 255
205 226 255
205 226 255
205 226 255
205 226 255
205 227 255
205 227 255
205 227 255
205 227 255
205 227 255
205 227 255
205 227 255
205 227 255
205 227 255
205 227 255
206 227 255
206 227 255
206 227 255
206 227 255
206 227 255
206 227 255
206 227 255
206 227 255
206 227 255
206 227 255
206 227 255
206 227 255
206 227 255
206 227 255
206 227 255
206 227 255
206 227 255
206 227 255
206 227 255
206 227 255
207 227 255
207 227 255
207 227 255
207 227 255
207 228 255
207 228 255
207 227 255
207 227 255
207 227 255
207 227 255
207 227 255
206 227 255
206 227 255
206 227 255
206 227 255
206 227 255
206 227 255
206 227 255
206 227 255
206 227 255
206 227 255
206 227 255
206 227 255
206 227 255
206 227 255
206 227 255
206 227 255
206 227 255
206 227 255
206 227 255
205 227 255
205 227 255
205 227 255
205 227 255
205 227 255
205 227 255
205 227 255
205 227 255
205 227 255
205 227 255
205 227 255
205 226 255
205 226 255
205 226 255
205 226 255
205 226 255
205 226 255
205 226 255
204 226 255
204 226 255
204 226 255
204 226 255
204 226 255
204 226 255
204 226 255
204 226 255
204 226 255
204 226 255
204 226 255
204 226 255
204 226 255
204 226 255
204 226 255
204 226 255
203 226 255
203 226 255
203 226 255
203 226 255
203 226 255
203 226 255
203 226 255
203 225 255
203 225 255
203 225 255
203 225 255
203 225 255
203 225 255
203 225 255
203 225 255
202 225 255
202 225 255
202 225 255
202 225 255
202 225 255
202 225 255
202 225 255
202 225 255
202 225 255
202 225 255
202 225 255
202 225 255
202 225 255
202 225 255
202 225 255
201 225 255
201 225 255
201 225 255
201 225 255
201 225 255
201 224 255
201 224 255
201 224 255
201 224 255
201 224 255
201 224 255
201 224 255
201 224 255
201 224 255
201 224 255
200 224 255
200 224 255
200 224 255
200 224 255
200 224 255
200 224 255
200 224 255
200 224 255
200 224 255
200 224 255
200 224 255
200 224 255
200 224 255
200 224 255
200 224 255
199 224 255
199 224 255
199 223 255
199 223 255
199 223 255
199 223 255
199 223 255
199 223 255
199 223 255
199 223 255
199 223 255
199 223 255
199 223 255
199 223 255
199 223 255
199 223 255
198 223 255
198 223 255
198 223 255
198 223 255
198 223 255
198 223 255
198 223 255
198 223 255
198 223 255
198 223 255
198 223 255
198 223 255
198 223 255
198 223 255
198 223 255
198 223 255
198 223 255
198 223 255
197 222 255
197 222 255
197 222 255
197 222 255
197 222 255
197 222 255
197 222 255
197 222 255
197 222 255
197 222 255
197 222 255
197 222 255
197 222 255
197 222 255
197 222 255
197 222 255
197 222 255
197 222 255
197 222 255
197 222 255
197 222 255
197 222 255
197 222 255
197 222 255
197 222 255
197 222 255
196 222 255
196 222 255
196 222 255
196 222 255
196 222 255
196 222 255
196 222 255
196 222 255
196 222 255
196 222 255
196 222 255
196 222 255
196 222 255
196 222 255
196 222 255
196 222 255
196 222 255
196 222 255
196 222 255
196 222 255
196 222 255
196 222 255
196 222 255
196 222 255
196 222 255
196 222 255
196 222 255
196 222 255
196 222 255
196 222 255
196 222 255
196 222 255
196 222 255
196 222 255
196 222 255
196 222 255
196 222 255
196 222 255
196 222 255
196 222 255
197 222 255
197 222 255
197 222 255
197 222 255
197 222 255
197 222 255
197 222 255
197 222 255
197 222 255
197 222 255
197 222 255
197 222 255
197 222 255
197 222 255
197 222 255
197 222 255
197 222 255
197 222 255
197 222 255
197 222 255
197 222 255
197 222 255
197 222 255
197 222 255
197 222 255
197 222 255
197 223 255
198 223 255
198 223 255
198 223 255
198 223 255
198 223 255
198 223 255
198 223 255
198 223 255
198 223 255
198 223 255
198 223 255
198 223 255
198 223 255
198 223 255
198 223 255
198 223 255
198 223 255
199 223 255
199 223 255
199 223 255
199 223 255
199 223 255
199 223 255
199 223 255
199 223 255
199 223 255
199 223 255
199 223 255
199 223 255
199 223 255
199 223 255
199 224 255
199 224 255
200 224 255
200 224 255
200 224 255
200 224 255
200 224 255
200 224 255
200 224 255
200 224 255
200 224 255
200 224 255
200 224 255
200 224 255
200 224 255
200 224 255
200 224 255
201 224 255
201 224 255
201 224 255
201 224 255
201 224 255
201 224 255
201 224 255
201 224 255
201 224 255
201 224 255
201 225 255
201 225 255
201 225 255
201 225 255
201 225 255
202 225 255
202 225 255
202 225 255
202 225 255
202 225 255
202 225 255
202 225 255
202 225 255
202 225 255
202 225 255
202 225 255
202 225 255
202 225 255
202 225 255
202 225 255
203 225 255
203 225 255
203 225 255
203 225 255
203 225 255
203 225 255
203 225 255
203 225 255
203 226 255
203 226 255
203 226 255
203 226 255
203 226 255
203 226 255
203 226 255
204 226 255
204 226 255
204 226 255
204 226 255
204 226 255
204 226 255
204 226 255
204 226 255
204 226 255
204 226 255
204 226 255
204 226 255
204 226 255
204 226 255
204 226 255
204 226 255
205 226 255
205 226 255
205 226 255
205 226 255
205 226 255
205 226 255
205 226 255
205 227 255
205 227 255
205 227 255
205 227 255
205 227 255
205 227 255
205 227 255
205 227 255
205 227 255
205 227 255
205 227 255
206 227 255
206 227 255
206 227 255
206 227 255
206 227 255
206 227 255
206 227 255
206 227 255
206 227 255
206 227 255
206 227 255
206 227 255
206 227 255
206 227 255
206 227 255
206 227 255
206 227 255
206 227 255
206 227 255
207 227 255
207 227 255
207 227 255
207 227 255
207 228 255
207 228 255
207 228 255
207 228 255
207 228 255
207 228 255
207 228 255
207 228 255
207 227 255
207 227 255
207 227 255
207 227 255
207 227 255
206 227 255
206 227 255
206 227 255
206 227 255
206 227 255
206 227 255
206 227 255
206 227 255
206 227 255
206 227 255
206 227 255
206 227 255
206 227 255
206 227 255
206 227 255
206 227 255
206 227 255
206 227 255
206 227 255
205 227 255
205 227 255
205 227 255
205 227 255
205 227 255
205 227 255
205 227 255
205 227 255
205 227 255
205 227 255
205 226 255
205 226 255
205 226 255
205 226 255
205 226 255
205 226 255
205 226 255
204 226 255
204 226 255
204 226 255
204 226 255
204 226 255
204 226 255
204 226 255
204 226 255
204 226 255
204 226 255
204 226 255
204 226 255
204 226 255
204 226 255
204 226 255
204 226 255
204 226 255
203 226 255
203 226 255
203 226 255
203 226 255
203 226 255
203 226 255
203 225 255
203 225 255
203 225 255
203 225 255
203 225 255
203 225 255
203 225 255
203 225 255
203 225 255
202 225 255
202 225 255
202 225 255
202 225 255
202 225 255
202 225 255
202 225 255
202 225 255
202 225 255
202 225 255
202 225 255
202 225 255
202 225 255
202 225 255
202 225 255
201 225 255
201 225 255
201 225 255
201 225 255
201 224 255
201 224 255
201 224 255
201 224 255
201 224 255
201 224 255
201 224 255
201 224 255
201 224 255
201 224 255
201 224 255
200 224 255
200 224 255
200 224 255
200 224 255
200 224 255
200 224 255
200 224 255
200 224 255
200 224 255
200 224 255
200 224 255
200 224 255
200 224 255
200 224 255
200 224 255
199 224 255
199 224 255
199 223 255
199 223 255
199 223 255
199 223 255
199 223 255
199 223 255
199 223 255
199 223 255
199 223 255
199 223 255
199 223 255
199 223 255
199 223 255
198 223 255
198 223 255
198 223 255
198 223 255
198 223 255
198 223 255
198 223 255
198 223 255
198 223 255
198 223 255
198 223 255
198 223 255
198 223 255
198 223 255
198 223 255
198 223 255
198 223 255
198 223 255
198 223 255
197 223 255
197 222 255
197 222 255
197 222 255
197 222 255
197 222 255
197 222 255
197 222 255
197 222 255
197 222 255
197 222 255
197 222 255
197 222 255
197 222 255
197 222 255
197 222 255
197 222 255
197 222 255
197 222 255
197 222 255
197 222 255
197 222 255
197 222 255
197 222 255
197 222 255
197 222 255
197 222 255
197 222 255
197 222 255
197 222 255
197 222 255
197 222 255
196 222 255
196 222 255
196 222 255
196 222 255
196 222 255
196 222 255
196 222 255
196 222 255
196 222 255
196 222 255
196 222 255
196 222 255
196 222 255
196 222 255
196 222 255
196 222 255
196 222 255
196 222 255
196 222 255
196 222 255
196 222 255
196 222 255
197 222 255
197 222 255
197 222 255
197 222 255
197 222 255
197 222 255
197 222 255
197 222 255
197 222 255
197 222 255
197 222 255
197 222 255
197 222 255
197 222 255
197 222 255
197 222 255
197 222 255
197 222 255
197 222 255
197 222 255
197 222 255
197 222 255
197 222 255
197 222 255
197 222 255
197 222 255
197 222 255
197 222 255
197 222 255
197 222 255
197 222 255
197 223 255
198 223 255
198 223 255
198 223 255
198 223 255
198 223 255
198 223 255
198 223 255
198 223 255
198 223 255
198 223 255
198 223 255
198 223 255
198 223 255
198 223 255
198 223 255
198 223 255
198 223 255
198 223 255
198 223 255
199 223 255
199 223 255
199 223 255
199 223 255
199 223 255
199 223 255
199 223 255
199 223 255
199 223 255
199 223 255
199 223 255
199 223 255
199 223 255
199 224 255
199 224 255
200 224 255
200 224 255
200 224 255
200 224 255
200 224 255
200 224 255
200 224 255
200 224 255
200 224 255
200 224 255
200 224 255
200 224 255
200 224 255
200 224 255
200 224 255
200 224 255
201 224 255
201 224 255
201 224 255
201 224 255
201 224 255
201 224 255
201 224 255
201 224 255
201 224 255
201 224 255
201 225 255
201 225 255
201 225 255
201 225 255
202 225 255
202 225 255
202 225 255
202 225 255
202 225 255
202 225 255
202 225 255
202 225 255
202 225 255
202 225 255
202 225 255
202 225 255
202 225 255
202 225 255
202 225 255
203 225 255
203 225 255
203 225 255
203 225 255
203 225 255
203 225 255
203 225 255
203 225 255
203 226 255
203 226 255
203 226 255
203 226 255
203 226 255
203 226 255
203 226 255
204 226 255
204 226 255
204 226 255
204 226 255
204 226 255
204 226 255
204 226 255
204 226 255
204 226 255
204 226 255
204 226 255
204 226 255
204 226 255
204 226 255
204 226 255
204 226 255
204 226 255
205 226 255
205 226 255
205 226 255
205 226 255
205 226 255
205 226 255
205 227 255
205 227 255
205 227 255
205 227 255
205 227 255
205 227 255
205 227 255
205 227 255
205 227 255
205 227 255
205 227 255
206 227 255
206 227 255
206 227 255
206 227 255
206 227 255
206 227 255
206 227 255
206 227 255
206 227 255
206 227 255
206 227 255
206 227 255
206 227 255
206 227 255
206 227 255
206 227 255
206 227 255
206 227 255
206 227 255
207 227 255
207 227 255
207 227 255
207 227 255
207 227 255
207 228 255
207 228 255
207 228 255
207 228 255
207 228 255
207 228 255
207 228 255
207 228 255
207 228 255
207 228 255
207 228 255
207 228 255
207 228 255
207 227 255
207 227 255
207 227 255
207 227 255
207 227 255
206 227 255
206 227 255
206 227 255
206 227 255
206 227 255
206 227 255
206 227 255
206 227 255
206 227 255
206 227 255
206 227 255
206 227 255
206 227 255
206 227 255
206 227 255
206 227 255
206 227 255
206 227 255
206 227 255
205 227 255
205 227 255
205 227 255
205 227 255
205 227 255
205 227 255
205 227 255
205 227 255
205 227 255
205 227 255
205 226 255
205 226 255
205 226 255
205 226 255
205 226 255
205 226 255
205 226 255
204 226 255
204 226 255
204 226 255
204 226 255
204 226 255
204 226 255
204 226 255
204 226 255
204 226 255
204 226 255
204 226 255
204 226 255
204 226 255
204 226 255
204 226 255
204 226 255
203 226 255
203 226 255
203 226 255
203 226 255
203 226 255
203 226 255
203 226 255
203 225 255
203 225 255
203 225 255
203 225 255
203 225 255
203 225 255
203 225 255
203 225 255
202 225 255
202 225 255
202 225 255
202 225 255
202 225 255
202 225 255
202 225 255
202 225 255
202 225 255
202 225 255
202 225 255
202 225 255
202 225 255
202 225 255
202 225 255
201 225 255
201 225 255
201 225 255
201 225 255
201 225 255
201 224 255
201 224 255
201 224 255
201 224 255
201 224 255
201 224 255
201 224 255
201 224 255
201 224 255
201 224 255
200 224 255
200 224 255
200 224 255
200 224 255
200 224 255
200 224 255
200 224 255
200 224 255
200 224 255
200 224 255
200 224 255
200 224 255
200 224 255
200 224 255
200 224 255
199 224 255
199 224 255
199 224 255
199 223 255
199 223 255
199 223 255
199 223 255
199 223 255
199 223 255
199 223 255
199 223 255
199 223 255
199 223 255
199 223 255
199 223 255
199 223 255
198 223 255
198 223 255
198 223 255
198 223 255
198 223 255
198 223 255
198 223 255
198 223 255
198 223 255
198 223 255
198 223 255
198 223 255
198 223 255
198 223 255
198 223 255
198 223 255
198 223 255
198 223 255
198 223 255
198 223 255
197 223 255
197 222 255
197 222 255
197 222 255
197 222 255
197 222 255
197 222 255
197 222 255
197 222 255
197 222 255
197 222 255
197 222 255
197 222 255
197 222 255
197 222 255
197 222 255
197 222 255
197 222 255
197 222 255
197 222 255
197 222 255
197 222 255
197 222 255
197 222 255
197 222 255
197 222 255
197 222 255
197 222 255
197 222 255
197 222 255
197 222 255
197 222 255
197 222 255
197 222 255
197 222 255
197 222 255
197 222 255
197 222 255
197 222 255
197 222 255
197 222 255
197 222 255
197 222 255
197 222 255
197 222 255
197 222 255
197 222 255
197 222 255
197 222 255
197 222 255
197 222 255
197 222 255
197 222 255
197 222 255
197 222 255
197 222 255
197 222 255
197 222 255
197 222 255
197 222 255
197 222 255
197 222 255
197 222 255
197 222 255
197 222 255
197 222 255
197 222 255
197 222 255
197 222 255
197 222 255
197 222 255
197 222 255
197 222 255
197 222 255
197 222 255
197 222 255
197 222 255
197 223 255
198 223 255
198 223 255
198 223 255
198 223 255
198 223 255
198 223 255
198 223 255
198 223 255
198 223 255
198 223 255
198 223 255
198 223 255
198 223 255
198 223 255
198 223 255
198 223 255
198 223 255
198 223 255
198 223 255
198 223 255
199 223 255
199 223 255
199 223 255
199 223 255
199 223 255
199 223 255
199 223 255
199 223 255
199 223 255
199 223 255
199 223 255
199 223 255
199 223 255
199 224 255
199 224 255
199 224 255
200 224 255
200 224 255
200 224 255
200 224 255
200 224 255
200 224 255
200 224 255
200 224 255
200 224 255
200 224 255
200 224 255
200 224 255
200 224 255
200 224 255
200 224 255
201 224 255
201 224 255
201 224 255
201 224 255
201 224 255
201 224 255
201 224 255
201 224 255
201 224 255
201 224 255
201 225 255
201 225 255
201 225 255
201 225 255
201 225 255
202 225 255
202 225 255
202 225 255
202 225 255
202 225 255
202 225 255
202 225 255
202 225 255
202 225 255
202 225 255
202 225 255
202 225 255
202 225 255
202 225 255
202 225 255
203 225 255
203 225 255
203 225 255
203 225 255
203 225 255
203 225 255
203 225 255
203 225 255
203 226 255
203 226 255
203 226 255
203 226 255
203 226 255
203 226 255
203 226 255
204 226 255
204 226 255
204 226 255
204 226 255
204 226 255
204 226 255
204 226 255
204 226 255
204 226 255
204 226 255
204 226 255
204 226 255
204 226 255
204 226 255
204 226 255
204 226 255
205 226 255
205 226 255
205 226 255
205 226 255
205 226 255
205 226 255
205 226 255
205 227 255
205 227 255
205 227 255
205 227 255
205 227 255
205 227 255
205 227 255
205 227 255
205 227 255
205 227 255
206 227 255
206 227 255
206 227 255
206 227 255
206 227 255
206 227 255
206 227 255
206 227 255
206 227 255
206 227 255
206 227 255
206 227 255
206 227 255
206 227 255
206 227 255
206 227 255
206 227 255
206 227 255
206 227 255
207 227 255
207 227 255
207 227 255
207 227 255
207 227 255
207 228 255
207 228 255
207 228 255
207 228 255
207 228 255
207 228 255
207 228 255
207 228 255
207 228 255
207 228 255
207 228 255
207 228 255
207 228 255
207 228 255
207 228 255
207 228 255
207 228 255
207 228 255
207 228 255
207 227 255
207 227 255
207 227 255
207 227 255
207 227 255
206 227 255
206 227 255
206 227 255
206 227 255
206 227 255
206 227 255
206 227 255
206 227 255
206 227 255
206 227 255
206 227 255
206 227 255
206 227 255
206 227 255
206 227 255
206 227 255
206 227 255
206 227 255
205 227 255
205 227 255
205 227 255
205 227 255
205 227 255
205 227 255
205 227 255
205 227 255
205 227 255
205 227 255
205 227 255
205 226 255
205 226 255
205 226 255
205 226 255
205 226 255
205 226 255
205 226 255
204 226 255
204 226 255
204 226 255
204 226 255
204 226 255
204 226 255
204 226 255
204 226 255
204 226 255
204 226 255
204 226 255
204 226 255
204 226 255
204 226 255
204 226 255
204 226 255
203 226 255
203 226 255
203 226 255
203 226 255
203 226 255
203 226 255
203 225 255
203 225 255
203 225 255
203 225 255
203 225 255
203 225 255
203 225 255
203 225 255
203 225 255
202 225 255
202 225 255
202 225 255
202 225 255
202 225 255
202 225 255
202 225 255
202 225 255
202 225 255
202 225 255
202 225 255
202 225 255
202 225 255
202 225 255
202 225 255
201 225 255
201 225 255
201 225 255
201 225 255
201 224 255
201 224 255
201 224 255
201 224 255
201 224 255
201 224 255
201 224 255
201 224 255
201 224 255
201 224 255
201 224 255
200 224 255
200 224 255
200 224 255
200 224 255
200 224 255
200 224 255
200 224 255
200 224 255
200 224 255
200 224 255
200 224 255
200 224 255
200 224 255
200 224 255
200 224 255
199 224 255
199 224 255
199 223 255
199 223 255
199 223 255
199 223 255
199 223 255
199 223 255
199 223 255
199 223 255
199 223 255
199 223 255
199 223 255
199 223 255
199 223 255
199 223 255
199 223 255
198 223 255
198 223 255
198 223 255
198 223 255
198 223 255
198 223 255
198 223 255
198 223 255
198 223 255
198 223 255
198 223 255
198 223 255
198 223 255
198 223 255
198 223 255
198 223 255
198 223 255
198 223 255
198 223 255
198 223 255
197 223 255
197 222 255
197 222 255
197 222 255
197 222 255
197 222 255
197 222 255
197 222 255
197 222 255
197 222 255
197 222 255
197 222 255
197 222 255
197 222 255
197 222 255
197 222 255
197 222 255
197 222 255
197 222 255
197 222 255
197 222 255
197 222 255
197 222 255
197 222 255
197 222 255
197 222 255
197 222 255
197 222 255
197 222 255
197 222 255
197 222 255
197 222 255
197 222 255
197 222 255
197 222 255
197 222 255
197 222 255
197 222 255
197 222 255
197 222 255
197 222 255
197 222 255
197 222 255
197 222 255
197 222 255
197 222 255
197 222 255
197 222 255
197 222 255
197 222 255
197 222 255
197 222 255
197 222 255
197 222 255
197 222 255
197 222 255
197 222 255
197 222 255
197 222 255
197 222 255
197 222 255
197 222 255
197 222 255
197 222 255
197 222 255
197 222 255
197 222 255
197 222 255
197 222 255
197 223 255
198 223 255
198 223 255
198 223 255
198 223 255
198 223 255
198 223 255
198 223 255
198 223 255
198 223 255
198 223 255
198 223 255
198 223 255
198 223 255
198 223 255
198 223 255
198 223 255
198 223 255
198 223 255
198 223 255
198 223 255
199 223 255
199 223 255
199 223 255
199 223 255
199 223 255
199 223 255
199 223 255
199 223 255
199 223 255
199 223 255
199 223 255
199 223 255
199 223 255
199 223 255
199 223 255
199 224 255
199 224 255
200 224 255
200 224 255
200 224 255
200 224 255
200 224 255
200 224 255
200 224 255
200 224 255
200 224 255
200 224 255
200 224 255
200 224 255
200 224 255
200 224 255
200 224 255
201 224 255
201 224 255
201 224 255
201 224 255
201 224 255
201 224 255
201 224 255
201 224 255
201 224 255
201 224 255
201 224 255
201 225 255
201 225 255
201 225 255
201 225 255
202 225 255
202 225 255
202 225 255
202 225 255
202 225 255
202 225 255
202 225 255
202 225 255
202 225 255
202 225 255
202 225 255
202 225 255
202 225 255
202 225 255
202 225 255
203 225 255
203 225 255
203 225 255
203 225 255
203 225 255
203 225 255
203 225 255
203 225 255
203 226 255
203 226 255
203 226 255
203 226 255
203 226 255
203 226 255
203 226 255
204 226 255
204 226 255
204 226 255
204 226 255
204 226 255
204 226 255
204 226 255
204 226 255
204 226 255
204 226 255
204 226 255
204 226 255
204 226 255
204 226 255
204 226 255
204 226 255
204 226 255
205 226 255
205 226 255
205 226 255
205 226 255
205 226 255
205 226 255
205 227 255
205 227 255
205 227 255
205 227 255
205 227 255
205 227 255
205 227 255
205 227 255
205 227 255
205 227 255
205 227 255
206 227 255
206 227 255
206 227 255
206 227 255
206 227 255
206 227 255
206 227 255
206 227 255
206 227 255
206 227 255
206 227 255
206 227 255
206 227 255
206 227 255
206 227 255
206 227 255
206 227 255
206 227 255
207 227 255
207 227 255
207 227 255
207 227 255
207 227 255
207 228 255
207 228 255
207 228 255
207 228 255
207 228 255
207 228 255
207 228 255
207 228 255
207 228 255
207 228 255
207 228 255
207 228 255
207 228 255
207 228 255
207 228 255
207 228 255
207 228 255
207 228 255
207 228 255
207 228 255
207 228 255
207 228 255
207 228 255
207 228 255
207 228 255
207 227 255
207 227 255
207 227 255
207 227 255
207 227 255
206 227 255
206 227 255
206 227 255
206 227 255
206 227 255
206 227 255
206 227 255
206 227 255
206 227 255
206 227 255
206 227 255
206 227 255
206 227 255
206 227 255
206 227 255
206 227 255
206 227 255
206 227 255
205 227 255
205 227 255
205 227 255
205 227 255
205 227 255
205 227 255
205 227 255
205 227 255
205 227 255
205 227 255
205 226 255
205 226 255
205 226 255
205 226 255
205 226 255
205 226 255
205 226 255
204 226 255
204 226 255
204 226 255
204 226 255
204 226 255
204 226 255
204 226 255
204 226 255
204 226 255
204 226 255
204 226 255
204 226 255
204 226 255
204 226 255
204 226 255
204 226 255
203 226 255
203 226 255
203 226 255
203 226 255
203 226 255
203 226 255
203 226 255
203 225 255
203 225 255
203 225 255
203 225 255
203 225 255
203 225 255
203 225 255
203 225 255
202 225 255
202 225 255
202 225 255
202 225 255
202 225 255
202 225 255
202 225 255
202 225 255
202 225 255
202 225 255
202 225 255
202 225 255
202 225 255
202 225 255
202 225 255
201 225 255
201 225 255
201 225 255
201 225 255
201 225 255
201 224 255
201 224 255
201 224 255
201 224 255
201 224 255
201 224 255
201 224 255
201 224 255
201 224 255
201 224 255
200 224 255
200 224 255
200 224 255
200 224 255
200 224 255
200 224 255
200 224 255
200 224 255
200 224 255
200 224 255
200 224 255
200 224 255
200 224 255
200 224 255
200 224 255
200 224 255
199 224 255
199 224 255
199 223 255
199 223 255
199 223 255
199 223 255
199 223 255
199 223 255
199 223 255
199 223 255
199 223 255
199 223 255
199 223 255
199 223 255
199 223 255
199 223 255
199 223 255
198 223 255
198 223 255
198 223 255
198 223 255
198 223 255
198 223 255
198 223 255
198 223 255
198 223 255
198 223 255
198 223 255
198 223 255
198 223 255
198 223 255
198 223 255
198 223 255
198 223 255
198 223 255
198 223 255
198 223 255
198 223 255
198 223 255
197 223 255
197 222 255
197 222 255
197 222 255
197 222 255
197 222 255
197 222 255
197 222 255
197 222 255
197 222 255
197 222 255
197 222 255
197 222 255
197 222 255
197 222 255
197 222 255
197 222 255
197 222 255
197 222 255
197 222 255
197 222 255
197 222 255
197 222 255
197 222 255
197 222 255
197 222 255
197 222 255
197 222 255
197 222 255
197 222 255
197 222 255
197 222 255
197 222 255
197 222 255
197 222 255
197 222 255
197 222 255
197 222 255
197 222 255
197 222 255
197 222 255
197 222 255
197 222 255
197 222 255
197 222 255
197 222 255
197 222 255
197 222 255
197 222 255
197 222 255
197 222 255
197 222 255
197 222 255
197 222 255
197 222 255
197 222 255
197 222 255
197 222 255
197 222 255
197 223 255
198 223 255
198 223 255
198 223 255
198 223 255
198 223 255
198 223 255
198 223 255
198 223 255
198 223 255
198 223 255
198 223 255
198 223 255
198 223 255
198 223 255
198 223 255
198 223 255
198 223 255
198 223 255
198 223 255
198 223 255
198 223 255
198 223 255
199 223 255
199 223 255
199 223 255
199 223 255
199 223 255
199 223 255
199 223 255
199 223 255
199 223 255
199 223 255
199 223 255
199 223 255
199 223 255
199 223 255
199 223 255
199 224 255
199 224 255
200 224 255
200 224 255
200 224 255
200 224 255
200 224 255
200 224 255
200 224 255
200 224 255
200 224 255
200 224 255
200 224 255
200 224 255
200 224 255
200 224 255
200 224 255
200 224 255
201 224 255
201 224 255
201 224 255
201 224 255
201 224 255
201 224 255
201 224 255
201 224 255
201 224 255
201 224 255
201 225 255
201 225 255
201 225 255
201 225 255
201 225 255
202 225 255
202 225 255
202 225 255
202 225 255
202 225 255
202 225 255
202 225 255
202 225 255
202 225 255
202 225 255
202 225 255
202 225 255
202 225 255
202 225 255
202 225 255
203 225 255
203 225 255
203 225 255
203 225 255
203 225 255
203 225 255
203 225 255
203 225 255
203 226 255
203 226 255
203 226 255
203 226 255
203 226 255
203 226 255
203 226 255
204 226 255
204 226 255
204 226 255
204 226 255
204 226 255
204 226 255
204 226 255
204 226 255
204 226 255
204 226 255
204 226 255
204 226 255
204 226 255
204 226 255
204 226 255
204 226 255
205 226 255
205 226 255
205 226 255
205 226 255
205 226 255
205 226 255
205 226 255
205 227 255
205 227 255
205 227 255
205 227 255
205 227 255
205 227 255
205 227 255
205 227 255
205 227 255
205 227 255
206 227 255
206 227 255
206 227 255
206 227 255
206 227 255
206 227 255
206 227 255
206 227 255
206 227 255
206 227 255
206 227 255
206 227 255
206 227 255
206 227 255
206 227 255
206 227 255
206 227 255
206 227 255
206 227 255
207 227 255
207 227 255
207 227 255
207 227 255
207 228 255
207 228 255
207 228 255
207 228 255
207 228 255
207 228 255
207 228 255
207 228 255
207 228 255
207 228 255
207 228 255
207 228 255
207 228 255
207 228 255
208 228 255
207 228 255
207 228 255
207 228 255
207 228 255
207 228 255
207 228 255
207 228 255
207 228 255
207 228 255
207 228 255
207 228 255
207 228 255
207 228 255
207 228 255
207 228 255
207 228 255
207 227 255
207 227 255
207 227 255
207 227 255
206 227 255
206 227 255
206 227 255
206 227 255
206 227 255
206 227 255
206 227 255
206 227 255
206 227 255
206 227 255
206 227 255
206 227 255
206 227 255
206 227 255
206 227 255
206 227 255
206 227 255
206 227 255
206 227 255
205 227 255
205 227 255
205 227 255
205 227 255
205 227 255
205 227 255
205 227 255
205 227 255
205 227 255
205 227 255
205 226 255
205 226 255
205 226 255
205 226 255
205 226 255
205 226 255
205 226 255
204 226 255
204 226 255
204 226 255
204 226 255
204 226 255
204 226 255
204 226 255
204 226 255
204 226 255
204 226 255
204 226 255
204 226 255
204 226 255
204 226 255
204 226 255
204 226 255
203 226 255
203 226 255
203 226 255
203 226 255
203 226 255
203 226 255
203 226 255
203 225 255
203 225 255
203 225 255
203 225 255
203 225 255
203 225 255
203 225 255
203 225 255
202 225 255
202 225 255
202 225 255
202 225 255
202 225 255
202 225 255
202 225 255
202 225 255
202 225 255
202 225 255
202 225 255
202 225 255
202 225 255
202 225 255
202 225 255
201 225 255
201 225 255
201 225 255
201 225 255
201 224 255
201 224 255
201 224 255
201 224 255
201 224 255
201 224 255
201 224 255
201 224 255
201 224 255
201 224 255
201 224 255
200 224 255
200 224 255
200 224 255
200 224 255
200 224 255
200 224 255
200 224 255
200 224 255
200 224 255
200 224 255
200 224 255
200 224 255
200 224 255
200 224 255
200 224 255
200 224 255
199 224 255
199 224 255
199 223 255
199 223 255
199 223 255
199 223 255
199 223 255
199 223 255
199 223 255
199 223 255
199 223 255
199 223 255
199 223 255
199 223 255
199 223 255
199 223 255
199 223 255
198 223 255
198 223 255
198 223 255
198 223 255
198 223 255
198 223 255
198 223 255
198 223 255
198 223 255
198 223 255
198 223 255
198 223 255
198 223 255
198 223 255
198 223 255
198 223 255
198 223 255
198 223 255
198 223 255
198 223 255
198 223 255
198 223 255
198 223 255
198 223 255
198 223 255
197 223 255
197 222 255
197 222 255
197 222 255
197 222 255
197 222 255
197 222 255
197 222 255
197 222 255
197 222 255
197 222 255
197 222 255
197 222 255
197 222 255
197 222 255
197 222 255
197 222 255
197 222 255
197 222 255
197 222 255
197 222 255
197 222 255
197 222 255
197 222 255
197 222 255
197 222 255
197 222 255
197 222 255
197 222 255
197 222 255
197 222 255
197 222 255
197 222 255
197 222 255
197 222 255
197 222 255
197 222 255
197 222 255
197 222 255
197 222 255
197 222 255
197 222 255
197 222 255
197 222 255
197 222 255
197 222 255
197 222 255
197 223 255
198 223 255
198 223 255
198 223 255
198 223 255
198 223 255
198 223 255
198 223 255
198 223 255
198 223 255
198 223 255
198 223 255
198 223 255
198 223 255
198 223 255
198 223 255
198 223 255
198 223 255
198 223 255
198 223 255
198 223 255
198 223 255
198 223 255
198 223 255
198 223 255
198 223 255
199 223 255
199 223 255
199 223 255
199 223 255
199 223 255
199 223 255
199 223 255
199 223 255
199 223 255
199 223 255
199 223 255
199 223 255
199 223 255
199 223 255
199 223 255
199 224 255
199 224 255
199 224 255
200 224 255
200 224 255
200 224 255
200 224 255
200 224 255
200 224 255
200 224 255
200 224 255
200 224 255
200 224 255
200 224 255
200 224 255
200 224 255
200 224 255
200 224 255
201 224 255
201 224 255
201 224 255
201 224 255
201 224 255
201 224 255
201 224 255
201 224 255
201 224 255
201 224 255
201 224 255
201 225 255
201 225 255
201 225 255
201 225 255
202 225 255
202 225 255
202 225 255
202 225 255
202 225 255
202 225 255
202 225 255
202 225 255
202 225 255
202 225 255
202 225 255
202 225 255
202 225 255
202 225 255
202 225 255
203 225 255
203 225 255
203 225 255
203 225 255
203 225 255
203 225 255
203 225 255
203 225 255
203 226 255
203 226 255
203 226 255
203 226 255
203 226 255
203 226 255
203 226 255
204 226 255
204 226 255
204 226 255
204 226 255
204 226 255
204 226 255
204 226 255
204 226 255
204 226 255
204 226 255
204 226 255
204 226 255
204 226 255
204 226 255
204 226 255
204 226 255
205 226 255
205 226 255
205 226 255
205 226 255
205 226 255
205 226 255
205 226 255
205 227 255
205 227 255
205 227 255
205 227 255
205 227 255
205 227 255
205 227 255
205 227 255
205 227 255
205 227 255
206 227 255
206 227 255
206 227 255
206 227 255
206 227 255
206 227 255
206 227 255
206 227 255
206 227 255
206 227 255
206 227 255
206 227 255
206 227 255
206 227 255
206 227 255
206 227 255
206 227 255
206 227 255
206 227 255
207 227 255
207 227 255
207 227 255
207 227 255
207 228 255
207 228 255
207 228 255
207 228 255
207 228 255
207 228 255
207 228 255
207 228 255
207 228 255
207 228 255
207 228 255
207 228 255
207 228 255
207 228 255
207 228 255
207 228 255
208 228 255
208 228 255
208 228 255
208 228 255
208 228 255
207 228 255
207 228 255
207 228 255
207 228 255
207 228 255
207 228 255
207 228 255
207 228 255
207 228 255
207 228 255
207 228 255
207 228 255
207 228 255
207 228 255
207 228 255
207 227 255
207 227 255
207 227 255
207 227 255
207 227 255
206 227 255
206 227 255
206 227 255
206 227 255
206 227 255
206 227 255
206 227 255
206 227 255
206 227 255
206 227 255
206 227 255
206 227 255
206 227 255
206 227 255
206 227 255
206 227 255
206 227 255
206 227 255
205 227 255
205 227 255
205 227 255
205 227 255
205 227 255
205 227 255
205 227 255
205 227 255
205 227 255
205 227 255
205 227 255
205 226 255
205 226 255
205 226 255
205 226 255
205 226 255
205 226 255
205 226 255
204 226 255
204 226 255
204 226 255
204 226 255
204 226 255
204 226 255
204 226 255
204 226 255
204 226 255
204 226 255
204 226 255
204 226 255
204 226 255
204 226 255
204 226 255
203 226 255
203 226 255
203 226 255
203 226 255
203 226 255
203 226 255
203 226 255
203 225 255
203 225 255
203 225 255
203 225 255
203 225 255
203 225 255
203 225 255
203 225 255
203 225 255
202 225 255
202 225 255
202 225 255
202 225 255
202 225 255
202 225 255
202 225 255
202 225 255
202 225 255
202 225 255
202 225 255
202 225 255
202 225 255
202 225 255
201 225 255
201 225 255
201 225 255
201 225 255
201 225 255
201 224 255
201 224 255
201 224 255
201 224 255
201 224 255
201 224 255
201 224 255
201 224 255
201 224 255
201 224 255
201 224 255
200 224 255
200 224 255
200 224 255
200 224 255
200 224 255
200 224 255
200 224 255
200 224 255
200 224 255
200 224 255
200 224 255
200 224 255
200 224 255
200 224 255
200 224 255
199 224 255
199 224 255
199 224 255
199 223 255
199 223 255
199 223 255
199 223 255
199 223 255
199 223 255
199 223 255
199 223 255
199 223 255
199 223 255
199 223 255
199 223 255
199 223 255
199 223 255
199 223 255
199 223 255
198 223 255
198 223 255
198 223 255
198 223 255
198 223 255
198 223 255
198 223 255
198 223 255
198 223 255
198 223 255
198 223 255
198 223 255
198 223 255
198 223 255
198 223 255
198 223 255
198 223 255
198 223 255
198 223 255
198 223 255
198 223 255
198 223 255
198 223 255
198 223 255
198 223 255
198 223 255
198 223 255
198 223 255
197 223 255
197 222 255
197 222 255
197 222 255
197 222 255
197 222 255
197 222 255
197 222 255
197 222 255
197 222 255
197 222 255
197 222 255
197 222 255
197 222 255
197 222 255
197 222 255
197 222 255
197 222 255
197 222 255
197 222 255
197 222 255
197 222 255
197 222 255
197 222 255
197 222 255
197 222 255
197 222 255
197 222 255
197 222 255
197 222 255
197 222 255
197 222 255
197 222 255
197 223 255
198 223 255
198 223 255
198 223 255
198 223 255
198 223 255
198 223 255
198 223 255
198 223 255
198 223 255
198 223 255
198 223 255
198 223 255
198 223 255
198 223 255
198 223 255
198 223 255
198 223 255
198 223 255
198 223 255
198 223 255
198 223 255
198 223 255
198 223 255
198 223 255
198 223 255
198 223 255
198 223 255
198 223 255
199 223 255
199 223 255
199 223 255
199 223 255
199 223 255
199 223 255
199 223 255
199 223 255
199 223 255
199 223 255
199 223 255
199 223 255
199 223 255
199 223 255
199 223 255
199 223 255
199 224 255
199 224 255
199 224 255
200 224 255
200 224 255
200 224 255
200 224 255
200 224 255
200 224 255
200 224 255
200 224 255
200 224 255
200 224 255
200 224 255
200 224 255
200 224 255
200 224 255
200 224 255
201 224 255
201 224 255
201 224 255
201 224 255
201 224 255
201 224 255
201 224 255
201 224 255
201 224 255
201 224 255
201 224 255
201 225 255
201 225 255
201 225 255
201 225 255
202 225 255
202 225 255
202 225 255
202 225 255
202 225 255
202 225 255
202 225 255
202 225 255
202 225 255
202 225 255
202 225 255
202 225 255
202 225 255
202 225 255
202 225 255
203 225 255
203 225 255
203 225 255
203 225 255
203 225 255
203 225 255
203 225 255
203 225 255
203 225 255
203 226 255
203 226 255
203 226 255
203 226 255
203 226 255
203 226 255
203 226 255
204 226 255
204 226 255
204 226 255
204 226 255
204 226 255
204 226 255
204 226 255
204 226 255
204 226 255
204 226 255
204 226 255
204 226 255
204 226 255
204 226 255
204 226 255
204 226 255
205 226 255
205 226 255
205 226 255
205 226 255
205 226 255
205 226 255
205 227 255
205 227 255
205 227 255
205 227 255
205 227 255
205 227 255
205 227 255
205 227 255
205 227 255
205 227 255
205 227 255
206 227 255
206 227 255
206 227 255
206 227 255
206 227 255
206 227 255
206 227 255
206 227 255
206 227 255
206 227 255
206 227 255
206 227 255
206 227 255
206 227 255
206 227 255
206 227 255
206 227 255
206 227 255
207 227 255
207 227 255
207 227 255
207 227 255
207 227 255
207 228 255
207 228 255
207 228 255
207 228 255
207 228 255
207 228 255
207 228 255
207 228 255
207 228 255
207 228 255
207 228 255
207 228 255
207 228 255
207 228 255
207 228 255
208 228 255
208 228 255
208 228 255
208 228 255
208 228 255
208 228 255
208 228 255
208 228 255
208 228 255
208 228 255
208 228 255
207 228 255
207 228 255
207 228 255
207 228 255
207 228 255
207 228 255
207 228 255
207 228 255
207 228 255
207 228 255
207 228 255
207 228 255
207 228 255
207 228 255
207 228 255
207 227 255
207 227 255
207 227 255
207 227 255
207 227 255
206 227 255
206 227 255
206 227 255
206 227 255
206 227 255
206 227 255
206 227 255
206 227 255
206 227 255
206 227 255
206 227 255
206 227 255
206 227 255
206 227 255
206 227 255
206 227 255
206 227 255
206 227 255
205 227 255
205 227 255
205 227 255
205 227 255
205 227 255
205 227 255
205 227 255
205 227 255
205 227 255
205 227 255
205 226 255
205 226 255
205 226 255
205 226 255
205 226 255
205 226 255
205 226 255
204 226 255
204 226 255
204 226 255
204 226 255
204 226 255
204 226 255
204 226 255
204 226 255
204 226 255
204 226 255
204 226 255
204 226 255
204 226 255
204 226 255
204 226 255
204 226 255
203 226 255
203 226 255
203 226 255
203 226 255
203 226 255
203 226 255
203 226 255
203 225 255
203 225 255
203 225 255
203 225 255
203 225 255
203 225 255
203 225 255
203 225 255
202 225 255
202 225 255
202 225 255
202 225 255
202 225 255
202 225 255
202 225 255
202 225 255
202 225 255
202 225 255
202 225 255
202 225 255
202 225 255
202 225 255
202 225 255
201 225 255
201 225 255
201 225 255
201 225 255
201 225 255
201 224 255
201 224 255
201 224 255
201 224 255
201 224 255
201 224 255
201 224 255
201 224 255
201 224 255
201 224 255
200 224 255
200 224 255
200 224 255
200 224 255
200 224 255
200 224 255
200 224 255
200 224 255
200 224 255
200 224 255
200 224 255
200 224 255
200 224 255
200 224 255
200 224 255
200 224 255
200 224 255
199 224 255
199 224 255
199 223 255
199 223 255
199 223 255
199 223 255
199 223 255
199 223 255
199 223 255
199 223 255
199 223 255
199 223 255
199 223 255
199 223 255
199 223 255
199 223 255
199 223 255
199 223 255
199 223 255
198 223 255
198 223 255
198 223 255
198 223 255
198 223 255
198 223 255
198 223 255
198 223 255
198 223 255
198 223 255
198 223 255
198 223 255
198 223 255
198 223 255
198 223 255
198 223 255
198 223 255
198 223 255
198 223 255
198 223 255
198 223 255
198 223 255
198 223 255
198 223 255
198 223 255
198 223 255
198 223 255
198 223 255
198 223 255
198 223 255
198 223 255
198 223 255
198 223 255
198 223 255
198 223 255
198 223 255
198 223 255
197 223 255
197 223 255
197 223 255
197 223 255
197 223 255
198 223 255
197 223 255
197 223 255
198 223 255
198 223 255
198 223 255
198 223 255
198 223 255
198 223 255
198 223 255
198 223 255
198 223 255
198 223 255
198 223 255
198 223 255
198 223 255
198 223 255
198 223 255
198 223 255
198 223 255
198 223 255
198 223 255
198 223 255
198 223 255
198 223 255
198 223 255
198 223 255
198 223 255
198 223 255
198 223 255
198 223 255
198 223 255
198 223 255
198 223 255
198 223 255
198 223 255
198 223 255
198 223 255
198 223 255
198 223 255
199 223 255
199 223 255
199 223 255
199 223 255
199 223 255
199 223 255
199 223 255
199 223 255
199 223 255
199 223 255
199 223 255
199 223 255
199 223 255
199 223 255
199 223 255
199 223 255
199 223 255
199 224 255
199 224 255
199 224 255
200 224 255
200 224 255
200 224 255
200 224 255
200 224 255
200 224 255
200 224 255
200 224 255
200 224 255
200 224 255
200 224 255
200 224 255
200 224 255
200 224 255
200 224 255
200 224 255
201 224 255
201 224 255
201 224 255
201 224 255
201 224 255
201 224 255
201 224 255
201 224 255
201 224 255
201 224 255
201 225 255
201 225 255
201 225 255
201 225 255
201 225 255
202 225 255
202 225 255
202 225 255
202 225 255
202 225 255
202 225 255
202 225 255
202 225 255
202 225 255
202 225 255
202 225 255
202 225 255
202 225 255
202 225 255
202 225 255
203 225 255
203 225 255
203 225 255
203 225 255
203 225 255
203 225 255
203 225 255
203 225 255
203 226 255
203 226 255
203 226 255
203 226 255
203 226 255
203 226 255
203 226 255
204 226 255
204 226 255
204 226 255
204 226 255
204 226 255
204 226 255
204 226 255
204 226 255
204 226 255
204 226 255
204 226 255
204 226 255
204 226 255
204 226 255
204 226 255
204 226 255
205 226 255
205 226 255
205 226 255
205 226 255
205 226 255
205 226 255
205 226 255
205 227 255
205 227 255
205 227 255
205 227 255
205 227 255
205 227 255
205 227 255
205 227 255
205 227 255
205 227 255
206 227 255
206 227 255
206 227 255
206 227 255
206 227 255
206 227 255
206 227 255
206 227 255
206 227 255
206 227 255
206 227 255
206 227 255
206 227 255
206 227 255
206 227 255
206 227 255
206 227 255
206 227 255
207 227 255
207 227 255
207 227 255
207 227 255
207 227 255
207 228 255
207 228 255
207 228 255
207 228 255
207 228 255
207 228 255
207 228 255
207 228 255
207 228 255
207 228 255
207 228 255
207 228 255
207 228 255
207 228 255
207 228 255
208 228 255
208 228 255
208 228 255
208 228 255
208 228 255
208 228 255
208 228 255
208 228 255
208 228 255
208 228 255
208 228 255
208 228 255
208 228 255
208 228 255
208 228 255
208 228 255
208 228 255
207 228 255
207 228 255
207 228 255
207 228 255
207 228 255
207 228 255
207 228 255
207 228 255
207 228 255
207 228 255
207 228 255
207 228 255
207 228 255
207 228 255
207 228 255
207 227 255
207 227 255
207 227 255
207 227 255
207 227 255
206 227 255
206 227 255
206 227 255
206 227 255
206 227 255
206 227 255
206 227 255
206 227 255
206 227 255
206 227 255
206 227 255
206 227 255
206 227 255
206 227 255
206 227 255
206 227 255
206 227 255
206 227 255
205 227 255
205 227 255
205 227 255
205 227 255
205 227 255
205 227 255
205 227 255
205 227 255
205 227 255
205 227 255
205 226 255
205 226 255
205 226 255
205 226 255
205 226 255
205 226 255
205 226 255
204 226 255
204 226 255
204 226 255
204 226 255
204 226 255
204 226 255
204 226 255
204 226 255
204 226 255
204 226 255
204 226 255
204 226 255
204 226 255
204 226 255
204 226 255
203 226 255
203 226 255
203 226 255
203 226 255
203 226 255
203 226 255
203 226 255
203 225 255
203 225 255
203 225 255
203 225 255
203 225 255
203 225 255
203 225 255
203 225 255
203 225 255
202 225 255
202 225 255
202 225 255
202 225 255
202 225 255
202 225 255
202 225 255
202 225 255
202 225 255
202 225 255
202 225 255
202 225 255
202 225 255
202 225 255
202 225 255
201 225 255
201 225 255
201 225 255
201 225 255
201 224 255
201 224 255
201 224 255
201 224 255
201 224 255
201 224 255
201 224 255
201 224 255
201 224 255
201 224 255
201 224 255
200 224 255
200 224 255
200 224 255
200 224 255
200 224 255
200 224 255
200 224 255
200 224 255
200 224 255
200 224 255
200 224 255
200 224 255
200 224 255
200 224 255
200 224 255
200 224 255
200 224 255
199 224 255
199 224 255
199 224 255
199 223 255
199 223 255
199 223 255
199 223 255
199 223 255
199 223 255
199 223 255
199 223 255
199 223 255
199 223 255
199 223 255
199 223 255
199 223 255
199 223 255
199 223 255
199 223 255
199 223 255
198 223 255
198 223 255
198 223 255
198 223 255
198 223 255
198 223 255
198 223 255
198 223 255
198 223 255
198 223 255
198 223 255
198 223 255
198 223 255
198 223 255
198 223 255
198 223 255
198 223 255
198 223 255
198 223 255
198 223 255
198 223 255
198 223 255
198 223 255
198 223 255
198 223 255
198 223 255
198 223 255
198 223 255
198 223 255
198 223 255
198 223 255
198 223 255
198 223 255
198 223 255
198 223 255
198 223 255
198 223 255
198 223 255
198 223 255
198 223 255
198 223 255
198 223 255
198 223 255
198 223 255
198 223 255
198 223 255
198 223 255
198 223 255
198 223 255
198 223 255
198 223 255
198 223 255
198 223 255
198 223 255
198 223 255
198 223 255
198 223 255
198 223 255
198 223 255
198 223 255
198 223 255
198 223 255
198 223 255
198 223 255
198 223 255
198 223 255
198 223 255
198 223 255
198 223 255
198 223 255
198 223 255
198 223 255
198 223 255
198 223 255
199 223 255
199 223 255
199 223 255
199 223 255
199 223 255
199 223 255
199 223 255
199 223 255
199 223 255
199 223 255
199 223 255
199 223 255
199 223 255
199 223 255
199 223 255
199 223 255
199 223 255
199 224 255
199 224 255
199 224 255
200 224 255
200 224 255
200 224 255
200 224 255
200 224 255
200 224 255
200 224 255
200 224 255
200 224 255
200 224 255
200 224 255
200 224 255
200 224 255
200 224 255
200 224 255
200 224 255
200 224 255
201 224 255
201 224 255
201 224 255
201 224 255
201 224 255
201 224 255
201 224 255
201 224 255
201 224 255
201 224 255
201 224 255
201 225 255
201 225 255
201 225 255
201 225 255
202 225 255
202 225 255
202 225 255
202 225 255
202 225 255
202 225 255
202 225 255
202 225 255
202 225 255
202 225 255
202 225 255
202 225 255
202 225 255
202 225 255
202 225 255
203 225 255
203 225 255
203 225 255
203 225 255
203 225 255
203 225 255
203 225 255
203 225 255
203 225 255
203 226 255
203 226 255
203 226 255
203 226 255
203 226 255
203 226 255
204 226 255
204 226 255
204 226 255
204 226 255
204 226 255
204 226 255
204 226 255
204 226 255
204 226 255
204 226 255
204 226 255
204 226 255
204 226 255
204 226 255
204 226 255
204 226 255
205 226 255
205 226 255
205 226 255
205 226 255
205 226 255
205 226 255
205 226 255
205 227 255
205 227 255
205 227 255
205 227 255
205 227 255
205 227 255
205 227 255
205 227 255
205 227 255
205 227 255
206 227 255
206 227 255
206 227 255
206 227 255
206 227 255
206 227 255
206 227 255
206 227 255
206 227 255
206 227 255
206 227 255
206 227 255
206 227 255
206 227 255
206 227 255
206 227 255
206 227 255
206 227 255
207 227 255
207 227 255
207 227 255
207 227 255
207 227 255
207 228 255
207 228 255
207 228 255
207 228 255
207 228 255
207 228 255
207 228 255
207 228 255
207 228 255
207 228 255
207 228 255
207 228 255
207 228 255
207 228 255
207 228 255
208 228 255
208 228 255
208 228 255
208 228 255
208 228 255
208 228 255
208 228 255
208 228 255
208 228 255
208 228 255
208 228 255
208 228 255
208 228 255
208 228 255
208 228 255
208 228 255
208 228 255
208 228 255
208 228 255
208 228 255
208 228 255
208 228 255
208 228 255
207 228 255
207 228 255
207 228 255
207 228 255
207 228 255
207 228 255
207 228 255
207 228 255
207 228 255
207 228 255
207 228 255
207 228 255
207 228 255
207 228 255
207 228 255
207 227 255
207 227 255
207 227 255
207 227 255
207 227 255
206 227 255
206 227 255
206 227 255
206 227 255
206 227 255
206 227 255
206 227 255
206 227 255
206 227 255
206 227 255
206 227 255
206 227 255
206 227 255
206 227 255
206 227 255
206 227 255
206 227 255
206 227 255
205 227 255
205 227 255
205 227 255
205 227 255
205 227 255
205 227 255
205 227 255
205 227 255
205 227 255
205 227 255
205 226 255
205 226 255
205 226 255
205 226 255
205 226 255
205 226 255
204 226 255
204 226 255
204 226 255
204 226 255
204 226 255
204 226 255
204 226 255
204 226 255
204 226 255
204 226 255
204 226 255
204 226 255
204 226 255
204 226 255
204 226 255
204 226 255
203 226 255
203 226 255
203 226 255
203 226 255
203 226 255
203 226 255
203 226 255
203 225 255
203 225 255
203 225 255
203 225 255
203 225 255
203 225 255
203 225 255
203 225 255
203 225 255
202 225 255
202 225 255
202 225 255
202 225 255
202 225 255
202 225 255
202 225 255
202 225 255
202 225 255
202 225 255
202 225 255
202 225 255
202 225 255
202 225 255
202 225 255
201 225 255
201 225 255
201 225 255
201 225 255
201 224 255
201 224 255
201 224 255
201 224 255
201 224 255
201 224 255
201 224 255
201 224 255
201 224 255
201 224 255
201 224 255
200 224 255
200 224 255
200 224 255
200 224 255
200 224 255
200 224 255
200 224 255
200 224 255
200 224 255
200 224 255
200 224 255
200 224 255
200 224 255
200 224 255
200 224 255
200 224 255
200 224 255
199 224 255
199 224 255
199 224 255
199 223 255
199 223 255
199 223 255
199 223 255
199 223 255
199 223 255
199 223 255
199 223 255
199 223 255
199 223 255
199 223 255
199 223 255
199 223 255
199 223 255
199 223 255
199 223 255
199 223 255
199 223 255
198 223 255
198 223 255
198 223 255
198 223 255
198 223 255
198 223 255
198 223 255
198 223 255
198 223 255
198 223 255
198 223 255
198 223 255
198 223 255
198 223 255
198 223 255
198 223 255
198 223 255
198 223 255
198 223 255
198 223 255
198 223 255
198 223 255
198 223 255
198 223 255
198 223 255
198 223 255
198 223 255
198 223 255
198 223 255
198 223 255
198 223 255
198 223 255
198 223 255
198 223 255
198 223 255
198 223 255
198 223 255
198 223 255
198 223 255
198 223 255
198 223 255
198 223 255
198 223 255
198 223 255
198 223 255
198 223 255
198 223 255
198 223 255
198 223 255
198 223 255
198 223 255
198 223 255
198 223 255
198 223 255
198 223 255
198 223 255
198 223 255
198 223 255
198 223 255
198 223 255
198 223 255
198 223 255
198 223 255
198 223 255
198 223 255
198 223 255
199 223 255
199 223 255
199 223 255
199 223 255
199 223 255
199 223 255
199 223 255
199 223 255
199 223 255
199 223 255
199 223 255
199 223 255
199 223 255
199 223 255
199 223 255
199 223 255
199 223 255
199 223 255
199 224 255
199 224 255
199 224 255
200 224 255
200 224 255
200 224 255
200 224 255
200 224 255
200 224 255
200 224 255
200 224 255
200 224 255
200 224 255
200 224 255
200 224 255
200 224 255
200 224 255
200 224 255
200 224 255
200 224 255
201 224 255
201 224 255
201 224 255
201 224 255
201 224 255
201 224 255
201 224 255
201 224 255
201 224 255
201 224 255
201 224 255
201 225 255
201 225 255
201 225 255
201 225 255
202 225 255
202 225 255
202 225 255
202 225 255
202 225 255
202 225 255
202 225 255
202 225 255
202 225 255
202 225 255
202 225 255
202 225 255
202 225 255
202 225 255
202 225 255
203 225 255
203 225 255
203 225 255
203 225 255
203 225 255
203 225 255
203 225 255
203 225 255
203 225 255
203 226 255
203 226 255
203 226 255
203 226 255
203 226 255
203 226 255
203 226 255
204 226 255
204 226 255
204 226 255
204 226 255
204 226 255
204 226 255
204 226 255
204 226 255
204 226 255
204 226 255
204 226 255
204 226 255
204 226 255
204 226 255
204 226 255
204 226 255
205 226 255
205 226 255
205 226 255
205 226 255
205 226 255
205 226 255
205 227 255
205 227 255
205 227 255
205 227 255
205 227 255
205 227 255
205 227 255
205 227 255
205 227 255
205 227 255
206 227 255
206 227 255
206 227 255
206 227 255
206 227 255
206 227 255
206 227 255
206 227 255
206 227 255
206 227 255
206 227 255
206 227 255
206 227 255
206 227 255
206 227 255
206 227 255
206 227 255
206 227 255
207 227 255
207 227 255
207 227 255
207 227 255
207 227 255
207 228 255
207 228 255
207 228 255
207 228 255
207 228 255
207 228 255
207 228 255
207 228 255
207 228 255
207 228 255
207 228 255
207 228 255
207 228 255
207 228 255
207 228 255
208 228 255
208 228 255
208 228 255
208 228 255
208 228 255
208 228 255
208 228 255
208 228 255
208 228 255
208 228 255
208 228 255
208 228 255
208 228 255
208 228 255
208 228 255
208 228 255
208 228 255
208 228 255
208 228 255
208 228 255
208 228 255
208 228 255
208 228 255
208 228 255
208 228 255
208 228 255
208 228 255
208 228 255
208 228 255
207 228 255
207 228 255
207 228 255
207 228 255
207 228 255
207 228 255
207 228 255
207 228 255
207 228 255
207 228 255
207 228 255
207 228 255
207 228 255
207 228 255
207 228 255
207 227 255
207 227 255
207 227 255
207 227 255
207 227 255
206 227 255
206 227 255
206 227 255
206 227 255
206 227 255
206 227 255
206 227 255
206 227 255
206 227 255
206 227 255
206 227 255
206 227 255
206 227 255
206 227 255
206 227 255
206 227 255
206 227 255
205 227 255
205 227 255
205 227 255
205 227 255
205 227 255
205 227 255
205 227 255
205 227 255
205 227 255
205 227 255
205 227 255
205 226 255
205 226 255
205 226 255
205 226 255
205 226 255
205 226 255
204 226 255
204 226 255
204 226 255
204 226 255
204 226 255
204 226 255
204 226 255
204 226 255
204 226 255
204 226 255
204 226 255
204 226 255
204 226 255
204 226 255
204 226 255
204 226 255
203 226 255
203 226 255
203 226 255
203 226 255
203 226 255
203 226 255
203 226 255
203 225 255
203 225 255
203 225 255
203 225 255
203 225 255
203 225 255
203 225 255
203 225 255
202 225 255
202 225 255
202 225 255
202 225 255
202 225 255
202 225 255
202 225 255
202 225 255
202 225 255
202 225 255
202 225 255
202 225 255
202 225 255
202 225 255
202 225 255
201 225 255
201 225 255
201 225 255
201 225 255
201 225 255
201 224 255
201 224 255
201 224 255
201 224 255
201 224 255
201 224 255
201 224 255
201 224 255
201 224 255
201 224 255
201 224 255
200 224 255
200 224 255
200 224 255
200 224 255
200 224 255
200 224 255
200 224 255
200 224 255
200 224 255
200 224 255
200 224 255
200 224 255
200 224 255
200 224 255
200 224 255
200 224 255
200 224 255
200 224 255
199 224 255
199 224 255
199 224 255
199 223 255
199 223 255
199 223 255
199 223 255
199 223 255
199 223 255
199 223 255
199 223 255
199 223 255
199 223 255
199 223 255
199 223 255
199 223 255
199 223 255
199 223 255
199 223 255
199 223 255
199 223 255
199 223 255
199 223 255
198 223 255
198 223 255
198 223 255
198 223 255
198 223 255
198 223 255
198 223 255
198 223 255
198 223 255
198 223 255
198 223 255
198 223 255
198 223 255
198 223 255
198 223 255
198 223 255
198 223 255
198 223 255
198 223 255
198 223 255
198 223 255
198 223 255
198 223 255
198 223 255
198 223 255
198 223 255
198 223 255
198 223 255
198 223 255
198 223 255
198 223 255
198 223 255
198 223 255
198 223 255
198 223 255
198 223 255
198 223 255
198 223 255
198 223 255
198 223 255
198 223 255
198 223 255
198 223 255
198 223 255
198 223 255
198 223 255
198 223 255
198 223 255
198 223 255
198 223 255
198 223 255
198 223 255
198 223 255
198 223 255
199 223 255
199 223 255
199 223 255
199 223 255
199 223 255
199 223 255
199 223 255
199 223 255
199 223 255
199 223 255
199 223 255
199 223 255
199 223 255
199 223 255
199 223 255
199 223 255
199 223 255
199 223 255
199 223 255
199 223 255
199 224 255
199 224 255
199 224 255
200 224 255
200 224 255
200 224 255
200 224 255
200 224 255
200 224 255
200 224 255
200 224 255
200 224 255
200 224 255
200 224 255
200 224 255
200 224 255
200 224 255
200 224 255
200 224 255
200 224 255
200 224 255
201 224 255
201 224 255
201 224 255
201 224 255
201 224 255
201 224 255
201 224 255
201 224 255
201 224 255
201 224 255
201 224 255
201 225 255
201 225 255
201 225 255
201 225 255
201 225 255
202 225 255
202 225 255
202 225 255
202 225 255
202 225 255
202 225 255
202 225 255
202 225 255
202 225 255
202 225 255
202 225 255
202 225 255
202 225 255
202 225 255
202 225 255
203 225 255
203 225 255
203 225 255
203 225 255
203 225 255
203 225 255
203 225 255
203 225 255
203 226 255
203 226 255
203 226 255
203 226 255
203 226 255
203 226 255
203 226 255
204 226 255
204 226 255
204 226 255
204 226 255
204 226 255
204 226 255
204 226 255
204 226 255
204 226 255
204 226 255
204 226 255
204 226 255
204 226 255
204 226 255
204 226 255
204 226 255
205 226 255
205 226 255
205 226 255
205 226 255
205 226 255
205 226 255
205 227 255
205 227 255
205 227 255
205 227 255
205 227 255
205 227 255
205 227 255
205 227 255
205 227 255
205 227 255
205 227 255
206 227 255
206 227 255
206 227 255
206 227 255
206 227 255
206 227 255
206 227 255
206 227 255
206 227 255
206 227 255
206 227 255
206 227 255
206 227 255
206 227 255
206 227 255
206 227 255
206 227 255
207 227 255
207 227 255
207 227 255
207 227 255
207 227 255
207 228 255
207 228 255
207 228 255
207 228 255
207 228 255
207 228 255
207 228 255
207 228 255
207 228 255
207 228 255
207 228 255
207 228 255
207 228 255
207 228 255
207 228 255
208 228 255
208 228 255
208 228 255
208 228 255
208 228 255
208 228 255
208 228 255
208 228 255
208 228 255
208 228 255
208 228 255
208 228 255
208 228 255
208 228 255
208 228 255
208 228 255
208 228 255
208 228 255
208 228 255
208 228 255
208 228 255
208 228 255
208 228 255
208 228 255
208 228 255
208 228 255
208 228 255
208 228 255
208 228 255
208 228 255
208 228 255
208 228 255
208 228 255
208 228 255
208 228 255
207 228 255
207 228 255
207 228 255
207 228 255
207 228 255
207 228 255
207 228 255
207 228 255
207 228 255
207 228 255
207 228 255
207 228 255
207 228 255
207 228 255
207 228 255
207 227 255
207 227 255
207 227 255
207 227 255
207 227 255
206 227 255
206 227 255
206 227 255
206 227 255
206 227 255
206 227 255
206 227 255
206 227 255
206 227 255
206 227 255
206 227 255
206 227 255
206 227 255
206 227 255
206 227 255
206 227 255
206 227 255
205 227 255
205 227 255
205 227 255
205 227 255
205 227 255
205 227 255
205 227 255
205 227 255
205 227 255
205 227 255
205 226 255
205 226 255
205 226 255
205 226 255
205 226 255
205 226 255
205 226 255
204 226 255
204 226 255
204 226 255
204 226 255
204 226 255
204 226 255
204 226 255
204 226 255
204 226 255
204 226 255
204 226 255
204 226 255
204 226 255
204 226 255
204 226 255
204 226 255
203 226 255
203 226 255
203 226 255
203 226 255
203 226 255
203 226 255
203 225 255
203 225 255
203 225 255
203 225 255
203 225 255
203 225 255
203 225 255
203 225 255
203 225 255
202 225 255
202 225 255
202 225 255
202 225 255
202 225 255
202 225 255
202 225 255
202 225 255
202 225 255
202 225 255
202 225 255
202 225 255
202 225 255
202 225 255
202 225 255
201 225 255
201 225 255
201 225 255
201 225 255
201 225 255
201 224 255
201 224 255
201 224 255
201 224 255
201 224 255
201 224 255
201 224 255
201 224 255
201 224 255
201 224 255
201 224 255
200 224 255
200 224 255
200 224 255
200 224 255
200 224 255
200 224 255
200 224 255
200 224 255
200 224 255
200 224 255
200 224 255
200 224 255
200 224 255
200 224 255
200 224 255
200 224 255
200 224 255
200 224 255
199 224 255
199 224 255
199 224 255
199 224 255
199 223 255
199 223 255
199 223 255
199 223 255
199 223 255
199 223 255
199 223 255
199 223 255
199 223 255
199 223 255
199 223 255
199 223 255
199 223 255
199 223 255
199 223 255
199 223 255
199 223 255
199 223 255
199 223 255
199 223 255
199 223 255
199 223 255
199 223 255
198 223 255
198 223 255
198 223 255
198 223 255
198 223 255
198 223 255
198 223 255
198 223 255
198 223 255
198 223 255
198 223 255
198 223 255
198 223 255
198 223 255
198 223 255
198 223 255
198 223 255
198 223 255
198 223 255
198 223 255
198 223 255
198 223 255
198 223 255
198 223 255
198 223 255
198 223 255
198 223 255
198 223 255
198 223 255
198 223 255
198 223 255
198 223 255
198 223 255
198 223 255
198 223 255
198 223 255
198 223 255
198 223 255
198 223 255
198 223 255
199 223 255
199 223 255
199 223 255
199 223 255
199 223 255
199 223 255
199 223 255
199 223 255
199 223 255
199 223 255
199 223 255
199 223 255
199 223 255
199 223 255
199 223 255
199 223 255
199 223 255
199 223 255
199 223 255
199 223 255
199 223 255
199 223 255
199 223 255
199 224 255
199 224 255
199 224 255
199 224 255
200 224 255
200 224 255
200 224 255
200 224 255
200 224 255
200 224 255
200 224 255
200 224 255
200 224 255
200 224 255
200 224 255
200 224 255
200 224 255
200 224 255
200 224 255
200 224 255
200 224 255
200 224 255
201 224 255
201 224 255
201 224 255
201 224 255
201 224 255
201 224 255
201 224 255
201 224 255
201 224 255
201 224 255
201 224 255
201 225 255
201 225 255
201 225 255
201 225 255
201 225 255
202 225 255
202 225 255
202 225 255
202 225 255
202 225 255
202 225 255
202 225 255
202 225 255
202 225 255
202 225 255
202 225 255
202 225 255
202 225 255
202 225 255
202 225 255
203 225 255
203 225 255
203 225 255
203 225 255
203 225 255
203 225 255
203 225 255
203 225 255
203 226 255
203 226 255
203 226 255
203 226 255
203 226 255
203 226 255
203 226 255
204 226 255
204 226 255
204 226 255
204 226 255
204 226 255
204 226 255
204 226 255
204 226 255
204 226 255
204 226 255
204 226 255
204 226 255
204 226 255
204 226 255
204 226 255
204 226 255
205 226 255
205 226 255
205 226 255
205 226 255
205 226 255
205 226 255
205 226 255
205 227 255
205 227 255
205 227 255
205 227 255
205 227 255
205 227 255
205 227 255
205 227 255
205 227 255
205 227 255
206 227 255
206 227 255
206 227 255
206 227 255
206 227 255
206 227 255
206 227 255
206 227 255
206 227 255
206 227 255
206 227 255
206 227 255
206 227 255
206 227 255
206 227 255
206 227 255
206 227 255
207 227 255
207 227 255
207 227 255
207 227 255
207 227 255
207 228 255
207 228 255
207 228 255
207 228 255
207 228 255
207 228 255
207 228 255
207 228 255
207 228 255
207 228 255
207 228 255
207 228 255
207 228 255
207 228 255
207 228 255
208 228 255
208 228 255
208 228 255
208 228 255
208 228 255
208 228 255
208 228 255
208 228 255
208 228 255
208 228 255
208 228 255
208 228 255
208 228 255
208 228 255
208 228 255
208 228 255
208 228 255
208 228 255
208 228 255
209 228 255
208 228 255
208 228 255
208 228 255
208 228 255
208 228 255
208 228 255
208 228 255
208 228 255
208 228 255
208 228 255
208 228 255
208 228 255
208 228 255
208 228 255
208 228 255
208 228 255
208 228 255
208 228 255
208 228 255
208 228 255
208 228 255
207 228 255
207 228 255
207 228 255
207 228 255
207 228 255
207 228 255
207 228 255
207 228 255
207 228 255
207 228 255
207 228 255
207 228 255
207 228 255
207 228 255
207 228 255
207 227 255
207 227 255
207 227 255
207 227 255
206 227 255
206 227 255
206 227 255
206 227 255
206 227 255
206 227 255
206 227 255
206 227 255
206 227 255
206 227 255
206 227 255
206 227 255
206 227 255
206 227 255
206 227 255
206 227 255
206 227 255
206 227 255
205 227 255
205 227 255
205 227 255
205 227 255
205 227 255
205 227 255
205 227 255
205 227 255
205 227 255
205 227 255
205 226 255
205 226 255
205 226 255
205 226 255
205 226 255
205 226 255
205 226 255
204 226 255
204 226 255
204 226 255
204 226 255
204 226 255
204 226 255
204 226 255
204 226 255
204 226 255
204 226 255
204 226 255
204 226 255
204 226 255
204 226 255
204 226 255
203 226 255
203 226 255
203 226 255
203 226 255
203 226 255
203 226 255
203 226 255
203 225 255
203 225 255
203 225 255
203 225 255
203 225 255
203 225 255
203 225 255
203 225 255
203 225 255
202 225 255
202 225 255
202 225 255
202 225 255
202 225 255
202 225 255
202 225 255
202 225 255
202 225 255
202 225 255
202 225 255
202 225 255
202 225 255
202 225 255
202 225 255
201 225 255
201 225 255
201 225 255
201 225 255
201 225 255
201 224 255
201 224 255
201 224 255
201 224 255
201 224 255
201 224 255
201 224 255
201 224 255
201 224 255
201 224 255
201 224 255
201 224 255
200 224 255
200 224 255
200 224 255
200 224 255
200 224 255
200 224 255
200 224 255
200 224 255
200 224 255
200 224 255
200 224 255
200 224 255
200 224 255
200 224 255
200 224 255
200 224 255
200 224 255
200 224 255
199 224 255
199 224 255
199 224 255
199 224 255
199 223 255
199 223 255
199 223 255
199 223 255
199 223 255
199 223 255
199 223 255
199 223 255
199 223 255
199 223 255
199 223 255
199 223 255
199 223 255
199 223 255
199 223 255
199 223 255
199 223 255
199 223 255
199 223 255
199 223 255
199 223 255
199 223 255
199 223 255
199 223 255
199 223 255
199 223 255
199 223 255
199 223 255
199 223 255
199 223 255
198 223 255
198 223 255
198 223 255
198 223 255
198 223 255
198 223 255
198 223 255
198 223 255
198 223 255
198 223 255
198 223 255
198 223 255
198 223 255
198 223 255
198 223 255
198 223 255
198 223 255
198 223 255
198 223 255
199 223 255
199 223 255
199 223 255
199 223 255
199 223 255
199 223 255
199 223 255
199 223 255
199 223 255
199 223 255
199 223 255
199 223 255
199 223 255
199 223 255
199 223 255
199 223 255
199 223 255
199 223 255
199 223 255
199 223 255
199 223 255
199 223 255
199 223 255
199 223 255
199 223 255
199 223 255
199 223 255
199 223 255
199 223 255
199 224 255
199 224 255
199 224 255
199 224 255
200 224 255
200 224 255
200 224 255
200 224 255
200 224 255
200 224 255
200 224 255
200 224 255
200 224 255
200 224 255
200 224 255
200 224 255
200 224 255
200 224 255
200 224 255
200 224 255
200 224 255
200 224 255
200 224 255
201 224 255
201 224 255
201 224 255
201 224 255
201 224 255
201 224 255
201 224 255
201 224 255
201 224 255
201 224 255
201 224 255
201 225 255
201 225 255
201 225 255
201 225 255
201 225 255
202 225 255
202 225 255
202 225 255
202 225 255
202 225 255
202 225 255
202 225 255
202 225 255
202 225 255
202 225 255
202 225 255
202 225 255
202 225 255
202 225 255
202 225 255
203 225 255
203 225 255
203 225 255
203 225 255
203 225 255
203 225 255
203 225 255
203 225 255
203 225 255
203 226 255
203 226 255
203 226 255
203 226 255
203 226 255
203 226 255
203 226 255
204 226 255
204 226 255
204 226 255
204 226 255
204 226 255
204 226 255
204 226 255
204 226 255
204 226 255
204 226 255
204 226 255
204 226 255
204 226 255
204 226 255
204 226 255
205 226 255
205 226 255
205 226 255
205 226 255
205 226 255
205 226 255
205 226 255
205 227 255
205 227 255
205 227 255
205 227 255
205 227 255
205 227 255
205 227 255
205 227 255
205 227 255
205 227 255
206 227 255
206 227 255
206 227 255
206 227 255
206 227 255
206 227 255
206 227 255
206 227 255
206 227 255
206 227 255
206 227 255
206 227 255
206 227 255
206 227 255
206 227 255
206 227 255
206 227 255
207 227 255
207 227 255
207 227 255
207 227 255
207 227 255
207 228 255
207 228 255
207 228 255
207 228 255
207 228 255
207 228 255
207 228 255
207 228 255
207 228 255
207 228 255
207 228 255
207 228 255
207 228 255
207 228 255
207 228 255
208 228 255
208 228 255
208 228 255
208 228 255
208 228 255
208 228 255
208 228 255
208 228 255
208 228 255
208 228 255
208 228 255
208 228 255
208 228 255
208 228 255
208 228 255
208 228 255
208 228 255
208 228 255
208 228 255
208 228 255
208 228 255
209 228 255
209 229 255
209 229 255
209 229 255
209 228 255
208 228 255
208 228 255
208 228 255
208 228 255
208 228 255
208 228 255
208 228 255
208 228 255
208 228 255
208 228 255
208 228 255
208 228 255
208 228 255
208 228 255
208 228 255
208 228 255
208 228 255
208 228 255
208 228 255
208 228 255
208 228 255
207 228 255
207 228 255
207 228 255
207 228 255
207 228 255
207 228 255
207 228 255
207 228 255
207 228 255
207 228 255
207 228 255
207 228 255
207 228 255
207 228 255
207 228 255
207 227 255
207 227 255
207 227 255
207 227 255
206 227 255
206 227 255
206 227 255
206 227 255
206 227 255
206 227 255
206 227 255
206 227 255
206 227 255
206 227 255
206 227 255
206 227 255
206 227 255
206 227 255
206 227 255
206 227 255
206 227 255
206 227 255
205 227 255
205 227 255
205 227 255
205 227 255
205 227 255
205 227 255
205 227 255
205 227 255
205 227 255
205 227 255
205 226 255
205 226 255
205 226 255
205 226 255
205 226 255
205 226 255
204 226 255
204 226 255
204 226 255
204 226 255
204 226 255
204 226 255
204 226 255
204 226 255
204 226 255
204 226 255
204 226 255
204 226 255
204 226 255
204 226 255
204 226 255
204 226 255
203 226 255
203 226 255
203 226 255
203 226 255
203 226 255
203 226 255
203 226 255
203 225 255
203 225 255
203 225 255
203 225 255
203 225 255
203 225 255
203 225 255
203 225 255
202 225 255
202 225 255
202 225 255
202 225 255
202 225 255
202 225 255
202 225 255
202 225 255
202 225 255
202 225 255
202 225 255
202 225 255
202 225 255
202 225 255
202 225 255
202 225 255
201 225 255
201 225 255
201 225 255
201 225 255
201 225 255
201 224 255
201 224 255
201 224 255
201 224 255
201 224 255
201 224 255
201 224 255
201 224 255
201 224 255
201 224 255
201 224 255
201 224 255
200 224 255
200 224 255
200 224 255
200 224 255
200 224 255
200 224 255
200 224 255
200 224 255
200 224 255
200 224 255
200 224 255
200 224 255
200 224 255
200 224 255
200 224 255
200 224 255
200 224 255
200 224 255
200 224 255
200 224 255
199 224 255
199 224 255
199 224 255
199 224 255
199 223 255
199 223 255
199 223 255
199 223 255
199 223 255
199 223 255
199 223 255
199 223 255
199 223 255
199 223 255
199 223 255
199 223 255
199 223 255
199 223 255
199 223 255
199 223 255
199 223 255
199 223 255
199 223 255
199 223 255
199 223 255
199 223 255
199 223 255
199 223 255
199 223 255
199 223 255
199 223 255
199 223 255
199 223 255
199 223 255
199 223 255
199 223 255
199 223 255
199 223 255
199 223 255
199 223 255
199 223 255
199 223 255
199 223 255
199 223 255
199 223 255
199 223 255
199 223 255
199 223 255
199 223 255
199 223 255
199 223 255
199 223 255
199 223 255
199 223 255
199 223 255
199 223 255
199 223 255
199 223 255
199 223 255
199 223 255
199 223 255
199 223 255
199 223 255
199 223 255
199 223 255
199 223 255
199 223 255
199 223 255
199 223 255
199 223 255
199 223 255
199 223 255
199 224 255
199 224 255
199 224 255
199 224 255
200 224 255
200 224 255
200 224 255
200 224 255
200 224 255
200 224 255
200 224 255
200 224 255
200 224 255
200 224 255
200 224 255
200 224 255
200 224 255
200 224 255
200 224 255
200 224 255
200 224 255
200 224 255
200 224 255
200 224 255
201 224 255
201 224 255
201 224 255
201 224 255
201 224 255
201 224 255
201 224 255
201 224 255
201 224 255
201 224 255
201 224 255
201 224 255
201 225 255
201 225 255
201 225 255
201 225 255
201 225 255
202 225 255
202 225 255
202 225 255
202 225 255
202 225 255
202 225 255
202 225 255
202 225 255
202 225 255
202 225 255
202 225 255
202 225 255
202 225 255
202 225 255
202 225 255
203 225 255
203 225 255
203 225 255
203 225 255
203 225 255
203 225 255
203 225 255
203 225 255
203 225 255
203 226 255
203 226 255
203 226 255
203 226 255
203 226 255
203 226 255
203 226 255
204 226 255
204 226 255
204 226 255
204 226 255
204 226 255
204 226 255
204 226 255
204 226 255
204 226 255
204 226 255
204 226 255
204 226 255
204 226 255
204 226 255
204 226 255
204 226 255
205 226 255
205 226 255
205 226 255
205 226 255
205 226 255
205 226 255
205 227 255
205 227 255
205 227 255
205 227 255
205 227 255
205 227 255
205 227 255
205 227 255
205 227 255
205 227 255
206 227 255
206 227 255
206 227 255
206 227 255
206 227 255
206 227 255
206 227 255
206 227 255
206 227 255
206 227 255
206 227 255
206 227 255
206 227 255
206 227 255
206 227 255
206 227 255
206 227 255
207 227 255
207 227 255
207 227 255
207 227 255
207 227 255
207 228 255
207 228 255
207 228 255
207 228 255
207 228 255
207 228 255
207 228 255
207 228 255
207 228 255
207 228 255
207 228 255
207 228 255
207 228 255
207 228 255
207 228 255
208 228 255
208 228 255
208 228 255
208 228 255
208 228 255
208 228 255
208 228 255
208 228 255
208 228 255
208 228 255
208 228 255
208 228 255
208 228 255
208 228 255
208 228 255
208 228 255
208 228 255
208 228 255
208 228 255
208 228 255
208 228 255
209 228 255
209 229 255
209 229 255
209 229 255
209 229 255
209 229 255
209 229 255
209 229 255
209 229 255
209 229 255
209 228 255
208 228 255
208 228 255
208 228 255
208 228 255
208 228 255
208 228 255
208 228 255
208 228 255
208 228 255
208 228 255
208 228 255
208 228 255
208 228 255
208 228 255
208 228 255
208 228 255
208 228 255
208 228 255
208 228 255
208 228 255
208 228 255
207 228 255
207 228 255
207 228 255
207 228 255
207 228 255
207 228 255
207 228 255
207 228 255
207 228 255
207 228 255
207 228 255
207 228 255
207 228 255
207 228 255
207 228 255
207 227 255
207 227 255
207 227 255
207 227 255
206 227 255
206 227 255
206 227 255
206 227 255
206 227 255
206 227 255
206 227 255
206 227 255
206 227 255
206 227 255
206 227 255
206 227 255
206 227 255
206 227 255
206 227 255
206 227 255
206 227 255
206 227 255
205 227 255
205 227 255
205 227 255
205 227 255
205 227 255
205 227 255
205 227 255
205 227 255
205 227 255
205 227 255
205 226 255
205 226 255
205 226 255
205 226 255
205 226 255
205 226 255
204 226 255
204 226 255
204 226 255
204 226 255
204 226 255
204 226 255
204 226 255
204 226 255
204 226 255
204 226 255
204 226 255
204 226 255
204 226 255
204 226 255
204 226 255
204 226 255
203 226 255
203 226 255
203 226 255
203 226 255
203 226 255
203 226 255
203 226 255
203 225 255
203 225 255
203 225 255
203 225 255
203 225 255
203 225 255
203 225 255
203 225 255
203 225 255
202 225 255
202 225 255
202 225 255
202 225 255
202 225 255
202 225 255
202 225 255
202 225 255
202 225 255
202 225 255
202 225 255
202 225 255
202 225 255
202 225 255
202 225 255
201 225 255
201 225 255
201 225 255
201 225 255
201 225 255
201 224 255
201 224 255
201 224 255
201 224 255
201 224 255
201 224 255
201 224 255
201 224 255
201 224 255
201 224 255
201 224 255
201 224 255
200 224 255
200 224 255
200 224 255
200 224 255
200 224 255
200 224 255
200 224 255
200 224 255
200 224 255
200 224 255
200 224 255
200 224 255
200 224 255
200 224 255
200 224 255
200 224 255
200 224 255
200 224 255
200 224 255
200 224 255
200 224 255
200 224 255
199 224 255
199 224 255
199 224 255
199 224 255
199 223 255
199 223 255
199 223 255
199 223 255
199 223 255
199 223 255
199 223 255
199 223 255
199 223 255
199 223 255
199 223 255
199 223 255
199 223 255
199 223 255
199 223 255
199 223 255
199 223 255
199 223 255
199 223 255
199 223 255
199 223 255
199 223 255
199 223 255
199 223 255
199 223 255
199 223 255
199 223 255
199 223 255
199 223 255
199 223 255
199 223 255
199 223 255
199 223 255
199 223 255
199 223 255
199 223 255
199 223 255
199 223 255
199 223 255
199 223 255
199 223 255
199 223 255
199 223 255
199 223 255
199 223 255
199 223 255
199 223 255
199 223 255
199 223 255
199 223 255
199 223 255
199 223 255
199 223 255
199 223 255
199 223 255
199 223 255
199 223 255
199 224 255
199 224 255
199 224 255
199 224 255
199 224 255
200 224 255
200 224 255
200 224 255
200 224 255
200 224 255
200 224 255
200 224 255
200 224 255
200 224 255
200 224 255
200 224 255
200 224 255
200 224 255
200 224 255
200 224 255
200 224 255
200 224 255
200 224 255
200 224 255
200 224 255
200 224 255
200 224 255
201 224 255
201 224 255
201 224 255
201 224 255
201 224 255
201 224 255
201 224 255
201 224 255
201 224 255
201 224 255
201 224 255
201 224 255
201 225 255
201 225 255
201 225 255
201 225 255
201 225 255
202 225 255
202 225 255
202 225 255
202 225 255
202 225 255
202 225 255
202 225 255
202 225 255
202 225 255
202 225 255
202 225 255
202 225 255
202 225 255
202 225 255
202 225 255
202 225 255
203 225 255
203 225 255
203 225 255
203 225 255
203 225 255
203 225 255
203 225 255
203 225 255
203 226 255
203 226 255
203 226 255
203 226 255
203 226 255
203 226 255
203 226 255
204 226 255
204 226 255
204 226 255
204 226 255
204 226 255
204 226 255
204 226 255
204 226 255
204 226 255
204 226 255
204 226 255
204 226 255
204 226 255
204 226 255
204 226 255
204 226 255
205 226 255
205 226 255
205 226 255
205 226 255
205 226 255
205 226 255
205 227 255
205 227 255
205 227 255
205 227 255
205 227 255
205 227 255
205 227 255
205 227 255
205 227 255
205 227 255
206 227 255
206 227 255
206 227 255
206 227 255
206 227 255
206 227 255
206 227 255
206 227 255
206 227 255
206 227 255
206 227 255
206 227 255
206 227 255
206 227 255
206 227 255
206 227 255
206 227 255
206 227 255
207 227 255
207 227 255
207 227 255
207 227 255
207 228 255
207 228 255
207 228 255
207 228 255
207 228 255
207 228 255
207 228 255
207 228 255
207 228 255
207 228 255
207 228 255
207 228 255
207 228 255
207 228 255
207 228 255
208 228 255
208 228 255
208 228 255
208 228 255
208 228 255
208 228 255
208 228 255
208 228 255
208 228 255
208 228 255
208 228 255
208 228 255
208 228 255
208 228 255
208 228 255
208 228 255
208 228 255
208 228 255
208 228 255
208 228 255
208 228 255
209 228 255
209 229 255
209 229 255
209 229 255
209 229 255
209 229 255
209 229 255
209 229 255
209 229 255
209 229 255
209 229 255
209 229 255
209 229 255
209 229 255
209 229 255
209 229 255
209 228 255
209 228 255
208 228 255
208 228 255
208 228 255
208 228 255
208 228 255
208 228 255
208 228 255
208 228 255
208 228 255
208 228 255
208 228 255
208 228 255
208 228 255
208 228 255
208 228 255
208 228 255
208 228 255
208 228 255
208 228 255
208 228 255
208 228 255
207 228 255
207 228 255
207 228 255
207 228 255
207 228 255
207 228 255
207 228 255
207 228 255
207 228 255
207 228 255
207 228 255
207 228 255
207 228 255
207 228 255
207 227 255
207 227 255
207 227 255
207 227 255
207 227 255
206 227 255
206 227 255
206 227 255
206 227 255
206 227 255
206 227 255
206 227 255
206 227 255
206 227 255
206 227 255
206 227 255
206 227 255
206 227 255
206 227 255
206 227 255
206 227 255
206 227 255
205 227 255
205 227 255
205 227 255
205 227 255
205 227 255
205 227 255
205 227 255
205 227 255
205 227 255
205 227 255
205 226 255
205 226 255
205 226 255
205 226 255
205 226 255
205 226 255
204 226 255
204 226 255
204 226 255
204 226 255
204 226 255
204 226 255
204 226 255
204 226 255
204 226 255
204 226 255
204 226 255
204 226 255
204 226 255
204 226 255
204 226 255
204 226 255
203 226 255
203 226 255
203 226 255
203 226 255
203 226 255
203 226 255
203 226 255
203 225 255
203 225 255
203 225 255
203 225 255
203 225 255
203 225 255
203 225 255
203 225 255
203 225 255
202 225 255
202 225 255
202 225 255
202 225 255
202 225 255
202 225 255
202 225 255
202 225 255
202 225 255
202 225 255
202 225 255
202 225 255
202 225 255
202 225 255
202 225 255
202 225 255
201 225 255
201 225 255
201 225 255
201 225 255
201 225 255
201 224 255
201 224 255
201 224 255
201 224 255
201 224 255
201 224 255
201 224 255
201 224 255
201 224 255
201 224 255
201 224 255
201 224 255
200 224 255
200 224 255
200 224 255
200 224 255
200 224 255
200 224 255
200 224 255
200 224 255
200 224 255
200 224 255
200 224 255
200 224 255
200 224 255
200 224 255
200 224 255
200 224 255
200 224 255
200 224 255
200 224 255
200 224 255
200 224 255
200 224 255
200 224 255
200 224 255
199 224 255
199 224 255
199 224 255
199 224 255
199 224 255
199 223 255
199 223 255
199 223 255
199 223 255
199 223 255
199 223 255
199 223 255
199 223 255
199 223 255
199 223 255
199 223 255
199 223 255
199 223 255
199 223 255
199 223 255
199 223 255
199 223 255
199 223 255
199 223 255
199 223 255
199 223 255
199 223 255
199 223 255
199 223 255
199 223 255
199 223 255
199 223 255
199 223 255
199 223 255
199 223 255
199 223 255
199 223 255
199 223 255
199 223 255
199 223 255
199 223 255
199 223 255
199 223 255
199 223 255
199 223 255
199 223 255
199 223 255
199 223 255
199 223 255
199 224 255
199 224 255
199 224 255
199 224 255
199 224 255
199 224 255
200 224 255
200 224 255
200 224 255
200 224 255
200 224 255
200 224 255
200 224 255
200 224 255
200 224 255
200 224 255
200 224 255
200 224 255
200 224 255
200 224 255
200 224 255
200 224 255
200 224 255
200 224 255
200 224 255
200 224 255
200 224 255
200 224 255
200 224 255
201 224 255
201 224 255
201 224 255
201 224 255
201 224 255
201 224 255
201 224 255
201 224 255
201 224 255
201 224 255
201 224 255
201 224 255
201 224 255
201 225 255
201 225 255
201 225 255
201 225 255
202 225 255
202 225 255
202 225 255
202 225 255
202 225 255
202 225 255
202 225 255
202 225 255
202 225 255
202 225 255
202 225 255
202 225 255
202 225 255
202 225 255
202 225 255
202 225 255
202 225 255
203 225 255
203 225 255
203 225 255
203 225 255
203 225 255
203 225 255
203 225 255
203 225 255
203 226 255
203 226 255
203 226 255
203 226 255
203 226 255
203 226 255
203 226 255
204 226 255
204 226 255
204 226 255
204 226 255
204 226 255
204 226 255
204 226 255
204 226 255
204 226 255
204 226 255
204 226 255
204 226 255
204 226 255
204 226 255
204 226 255
204 226 255
205 226 255
205 226 255
205 226 255
205 226 255
205 226 255
205 226 255
205 227 255
205 227 255
205 227 255
205 227 255
205 227 255
205 227 255
205 227 255
205 227 255
205 227 255
205 227 255
206 227 255
206 227 255
206 227 255
206 227 255
206 227 255
206 227 255
206 227 255
206 227 255
206 227 255
206 227 255
206 227 255
206 227 255
206 227 255
206 227 255
206 227 255
206 227 255
206 227 255
206 227 255
207 227 255
207 227 255
207 227 255
207 227 255
207 228 255
207 228 255
207 228 255
207 228 255
207 228 255
207 228 255
207 228 255
207 228 255
207 228 255
207 228 255
207 228 255
207 228 255
207 228 255
207 228 255
208 228 255
208 228 255
208 228 255
208 228 255
208 228 255
208 228 255
208 228 255
208 228 255
208 228 255
208 228 255
208 228 255
208 228 255
208 228 255
208 228 255
208 228 255
208 228 255
208 228 255
208 228 255
208 228 255
208 228 255
208 228 255
209 228 255
209 228 255
209 229 255
209 229 255
209 229 255
209 229 255
209 229 255
209 229 255
209 229 255
209 229 255
209 229 255
209 229 255
209 229 255
209 229 255
209 229 255
209 229 255
209 229 255
209 229 255
209 229 255
209 229 255
209 229 255
209 229 255
209 229 255
209 229 255
209 228 255
208 228 255
208 228 255
208 228 255
208 228 255
208 228 255
208 228 255
208 228 255
208 228 255
208 228 255
208 228 255
208 228 255
208 228 255
208 228 255
208 228 255
208 228 255
208 228 255
208 228 255
208 228 255
208 228 255
208 228 255
208 228 255
207 228 255
207 228 255
207 228 255
207 228 255
207 228 255
207 228 255
207 228 255
207 228 255
207 228 255
207 228 255
207 228 255
207 228 255
207 228 255
207 228 255
207 227 255
207 227 255
207 227 255
207 227 255
207 227 255
206 227 255
206 227 255
206 227 255
206 227 255
206 227 255
206 227 255
206 227 255
206 227 255
206 227 255
206 227 255
206 227 255
206 227 255
206 227 255
206 227 255
206 227 255
206 227 255
206 227 255
205 227 255
205 227 255
205 227 255
205 227 255
205 227 255
205 227 255
205 227 255
205 227 255
205 227 255
205 226 255
205 226 255
205 226 255
205 226 255
205 226 255
205 226 255
205 226 255
204 226 255
204 226 255
204 226 255
204 226 255
204 226 255
204 226 255
204 226 255
204 226 255
204 226 255
204 226 255
204 226 255
204 226 255
204 226 255
204 226 255
204 226 255
204 226 255
203 226 255
203 226 255
203 226 255
203 226 255
203 226 255
203 226 255
203 226 255
203 225 255
203 225 255
203 225 255
203 225 255
203 225 255
203 225 255
203 225 255
203 225 255
203 225 255
202 225 255
202 225 255
202 225 255
202 225 255
202 225 255
202 225 255
202 225 255
202 225 255
202 225 255
202 225 255
202 225 255
202 225 255
202 225 255
202 225 255
202 225 255
202 225 255
201 225 255
201 225 255
201 225 255
201 225 255
201 225 255
201 224 255
201 224 255
201 224 255
201 224 255
201 224 255
201 224 255
201 224 255
201 224 255
201 224 255
201 224 255
201 224 255
201 224 255
201 224 255
200 224 255
200 224 255
200 224 255
200 224 255
200 224 255
200 224 255
200 224 255
200 224 255
200 224 255
200 224 255
200 224 255
200 224 255
200 224 255
200 224 255
200 224 255
200 224 255
200 224 255
200 224 255
200 224 255
200 224 255
200 224 255
200 224 255
200 224 255
200 224 255
200 224 255
200 224 255
199 224 255
199 224 255
199 224 255
199 224 255
199 224 255
199 224 255
199 224 255
199 224 255
199 224 255
199 223 255
199 223 255
199 223 255
199 223 255
199 223 255
199 223 255
199 223 255
199 223 255
199 223 255
199 223 255
199 223 255
199 223 255
199 223 255
199 223 255
199 223 255
199 223 255
199 223 255
199 223 255
199 223 255
199 223 255
199 223 255
199 223 255
199 223 255
199 223 255
199 224 255
199 224 255
199 224 255
199 224 255
199 224 255
199 224 255
199 224 255
199 224 255
200 224 255
200 224 255
200 224 255
200 224 255
200 224 255
200 224 255
200 224 255
200 224 255
200 224 255
200 224 255
200 224 255
200 224 255
200 224 255
200 224 255
200 224 255
200 224 255
200 224 255
200 224 255
200 224 255
200 224 255
200 224 255
200 224 255
200 224 255
200 224 255
200 224 255
200 224 255
200 224 255
201 224 255
201 224 255
201 224 255
201 224 255
201 224 255
201 224 255
201 224 255
201 224 255
201 224 255
201 224 255
201 224 255
201 224 255
201 224 255
201 225 255
201 225 255
201 225 255
201 225 255
201 225 255
202 225 255
202 225 255
202 225 255
202 225 255
202 225 255
202 225 255
202 225 255
202 225 255
202 225 255
202 225 255
202 225 255
202 225 255
202 225 255
202 225 255
202 225 255
202 225 255
203 225 255
203 225 255
203 225 255
203 225 255
203 225 255
203 225 255
203 225 255
203 225 255
203 225 255
203 226 255
203 226 255
203 226 255
203 226 255
203 226 255
203 226 255
203 226 255
204 226 255
204 226 255
204 226 255
204 226 255
204 226 255
204 226 255
204 226 255
204 226 255
204 226 255
204 226 255
204 226 255
204 226 255
204 226 255
204 226 255
204 226 255
204 226 255
205 226 255
205 226 255
205 226 255
205 226 255
205 226 255
205 226 255
205 227 255
205 227 255
205 227 255
205 227 255
205 227 255
205 227 255
205 227 255
205 227 255
205 227 255
205 227 255
206 227 255
206 227 255
206 227 255
206 227 255
206 227 255
206 227 255
206 227 255
206 227 255
206 227 255
206 227 255
206 227 255
206 227 255
206 227 255
206 227 255
206 227 255
206 227 255
206 227 255
206 227 255
207 227 255
207 227 255
207 227 255
207 227 255
207 228 255
207 228 255
207 228 255
207 228 255
207 228 255
207 228 255
207 228 255
207 228 255
207 228 255
207 228 255
207 228 255
207 228 255
207 228 255
207 228 255
208 228 255
208 228 255
208 228 255
208 228 255
208 228 255
208 228 255
208 228 255
208 228 255
208 228 255
208 228 255
208 228 255
208 228 255
208 228 255
208 228 255
208 228 255
208 228 255
208 228 255
208 228 255
208 228 255
208 228 255
208 228 255
209 228 255
209 228 255
209 229 255
209 229 255
209 229 255
209 229 255
209 229 255
209 229 255
209 229 255
209 229 255
209 229 255
209 229 255
209 229 255
209 229 255
209 229 255
209 229 255
209 229 255
209 229 255
209 229 255
209 229 255
209 229 255
209 229 255
209 229 255
209 229 255
209 229 255
209 229 255
209 229 255
209 229 255
209 229 255
209 229 255
209 228 255
208 228 255
208 228 255
208 228 255
208 228 255
208 228 255
208 228 255
208 228 255
208 228 255
208 228 255
208 228 255
208 228 255
208 228 255
208 228 255
208 228 255
208 228 255
208 228 255
208 228 255
208 228 255
208 228 255
208 228 255
208 228 255
207 228 255
207 228 255
207 228 255
207 228 255
207 228 255
207 228 255
207 228 255
207 228 255
207 228 255
207 228 255
207 228 255
207 228 255
207 228 255
207 228 255
207 227 255
207 227 255
207 227 255
207 227 255
207 227 255
206 227 255
206 227 255
206 227 255
206 227 255
206 227 255
206 227 255
206 227 255
206 227 255
206 227 255
206 227 255
206 227 255
206 227 255
206 227 255
206 227 255
206 227 255
206 227 255
206 227 255
205 227 255
205 227 255
205 227 255
205 227 255
205 227 255
205 227 255
205 227 255
205 227 255
205 227 255
205 227 255
205 226 255
205 226 255
205 226 255
205 226 255
205 226 255
205 226 255
204 226 255
204 226 255
204 226 255
204 226 255
204 226 255
204 226 255
204 226 255
204 226 255
204 226 255
204 226 255
204 226 255
204 226 255
204 226 255
204 226 255
204 226 255
204 226 255
203 226 255
203 226 255
203 226 255
203 226 255
203 226 255
203 226 255
203 226 255
203 225 255
203 225 255
203 225 255
203 225 255
203 225 255
203 225 255
203 225 255
203 225 255
202 225 255
202 225 255
202 225 255
202 225 255
202 225 255
202 225 255
202 225 255
202 225 255
202 225 255
202 225 255
202 225 255
202 225 255
202 225 255
202 225 255
202 225 255
202 225 255
202 225 255
201 225 255
201 225 255
201 225 255
201 225 255
201 225 255
201 224 255
201 224 255
201 224 255
201 224 255
201 224 255
201 224 255
201 224 255
201 224 255
201 224 255
201 224 255
201 224 255
201 224 255
201 224 255
201 224 255
200 224 255
200 224 255
200 224 255
200 224 255
200 224 255
200 224 255
200 224 255
200 224 255
200 224 255
200 224 255
200 224 255
200 224 255
200 224 255
200 224 255
200 224 255
200 224 255
200 224 255
200 224 255
200 224 255
200 224 255
200 224 255
200 224 255
200 224 255
200 224 255
200 224 255
200 224 255
200 224 255
200 224 255
200 224 255
200 224 255
200 224 255
200 224 255
200 224 255
200 224 255
199 224 255
199 224 255
199 224 255
199 224 255
199 224 255
199 224 255
199 224 255
199 224 255
199 224 255
199 224 255
199 224 255
199 224 255
199 224 255
199 224 255
199 224 255
199 224 255
199 224 255
199 224 255
200 224 255
200 224 255
200 224 255
200 224 255
200 224 255
200 224 255
200 224 255
200 224 255
200 224 255
200 224 255
200 224 255
200 224 255
200 224 255
200 224 255
200 224 255
200 224 255
200 224 255
200 224 255
200 224 255
200 224 255
200 224 255
200 224 255
200 224 255
200 224 255
200 224 255
200 224 255
200 224 255
200 224 255
200 224 255
200 224 255
200 224 255
200 224 255
200 224 255
200 224 255
201 224 255
201 224 255
201 224 255
201 224 255
201 224 255
201 224 255
201 224 255
201 224 255
201 224 255
201 224 255
201 224 255
201 224 255
201 224 255
201 224 255
201 225 255
201 225 255
201 225 255
201 225 255
201 225 255
202 225 255
202 225 255
202 225 255
202 225 255
202 225 255
202 225 255
202 225 255
202 225 255
202 225 255
202 225 255
202 225 255
202 225 255
202 225 255
202 225 255
202 225 255
202 225 255
203 225 255
203 225 255
203 225 255
203 225 255
203 225 255
203 225 255
203 225 255
203 225 255
203 225 255
203 226 255
203 226 255
203 226 255
203 226 255
203 226 255
203 226 255
203 226 255
204 226 255
204 226 255
204 226 255
204 226 255
204 226 255
204 226 255
204 226 255
204 226 255
204 226 255
204 226 255
204 226 255
204 226 255
204 226 255
204 226 255
204 226 255
204 226 255
205 226 255
205 226 255
205 226 255
205 226 255
205 226 255
205 226 255
205 227 255
205 227 255
205 227 255
205 227 255
205 227 255
205 227 255
205 227 255
205 227 255
205 227 255
205 227 255
206 227 255
206 227 255
206 227 255
206 227 255
206 227 255
206 227 255
206 227 255
206 227 255
206 227 255
206 227 255
206 227 255
206 227 255
206 227 255
206 227 255
206 227 255
206 227 255
206 227 255
207 227 255
207 227 255
207 227 255
207 227 255
207 227 255
207 228 255
207 228 255
207 228 255
207 228 255
207 228 255
207 228 255
207 228 255
207 228 255
207 228 255
207 228 255
207 228 255
207 228 255
207 228 255
207 228 255
208 228 255
208 228 255
208 228 255
208 228 255
208 228 255
208 228 255
208 228 255
208 228 255
208 228 255
208 228 255
208 228 255
208 228 255
208 228 255
208 228 255
208 228 255
208 228 255
208 228 255
208 228 255
208 228 255
208 228 255
208 228 255
209 228 255
209 229 255
209 229 255
209 229 255
209 229 255
209 229 255
209 229 255
209 229 255
209 229 255
209 229 255
209 229 255
209 229 255
209 229 255
209 229 255
209 229 255
209 229 255
209 229 255
209 229 255
209 229 255
209 229 255
209 229 255
209 229 255
209 229 255
209 229 255
209 229 255
209 229 255
209 229 255
209 229 255
209 229 255
209 229 255
209 229 255
209 229 255
209 229 255
209 229 255
209 229 255
209 229 255
209 228 255
209 228 255
208 228 255
208 228 255
208 228 255
208 228 255
208 228 255
208 228 255
208 228 255
208 228 255
208 228 255
208 228 255
208 228 255
208 228 255
208 228 255
208 228 255
208 228 255
208 228 255
208 228 255
208 228 255
208 228 255
208 228 255
207 228 255
207 228 255
207 228 255
207 228 255
207 228 255
207 228 255
207 228 255
207 228 255
207 228 255
207 228 255
207 228 255
207 228 255
207 228 255
207 228 255
207 227 255
207 227 255
207 227 255
207 227 255
207 227 255
206 227 255
206 227 255
206 227 255
206 227 255
206 227 255
206 227 255
206 227 255
206 227 255
206 227 255
206 227 255
206 227 255
206 227 255
206 227 255
206 227 255
206 227 255
206 227 255
206 227 255
205 227 255
205 227 255
205 227 255
205 227 255
205 227 255
205 227 255
205 227 255
205 227 255
205 227 255
205 226 255
205 226 255
205 226 255
205 226 255
205 226 255
205 226 255
205 226 255
204 226 255
204 226 255
204 226 255
204 226 255
204 226 255
204 226 255
204 226 255
204 226 255
204 226 255
204 226 255
204 226 255
204 226 255
204 226 255
204 226 255
204 226 255
204 226 255
203 226 255
203 226 255
203 226 255
203 226 255
203 226 255
203 226 255
203 226 255
203 225 255
203 225 255
203 225 255
203 225 255
203 225 255
203 225 255
203 225 255
203 225 255
203 225 255
202 225 255
202 225 255
202 225 255
202 225 255
202 225 255
202 225 255
202 225 255
202 225 255
202 225 255
202 225 255
202 225 255
202 225 255
202 225 255
202 225 255
202 225 255
202 225 255
202 225 255
201 225 255
201 225 255
201 225 255
201 225 255
201 225 255
201 224 255
201 224 255
201 224 255
201 224 255
201 224 255
201 224 255
201 224 255
201 224 255
201 224 255
201 224 255
201 224 255
201 224 255
201 224 255
201 224 255
201 224 255
200 224 255
200 224 255
200 224 255
200 224 255
200 224 255
200 224 255
200 224 255
200 224 255
200 224 255
200 224 255
200 224 255
200 224 255
200 224 255
200 224 255
200 224 255
200 224 255
200 224 255
200 224 255
200 224 255
200 224 255
200 224 255
200 224 255
200 224 255
200 224 255
200 224 255
200 224 255
200 224 255
200 224 255
200 224 255
200 224 255
200 224 255
200 224 255
200 224 255
200 224 255
200 224 255
200 224 255
200 224 255
200 224 255
200 224 255
200 224 255
200 224 255
200 224 255
200 224 255
200 224 255
200 224 255
200 224 255
200 224 255
200 224 255
200 224 255
200 224 255
200 224 255
200 224 255
200 224 255
200 224 255
200 224 255
200 224 255
200 224 255
200 224 255
200 224 255
200 224 255
200 224 255
200 224 255
200 224 255
200 224 255
200 224 255
200 224 255
200 224 255
200 224 255
200 224 255
200 224 255
200 224 255
200 224 255
200 224 255
200 224 255
200 224 255
200 224 255
201 224 255
201 224 255
201 224 255
201 224 255
201 224 255
201 224 255
201 224 255
201 224 255
201 224 255
201 224 255
201 224 255
201 224 255
201 224 255
201 224 255
201 224 255
201 225 255
201 225 255
201 225 255
201 225 255
201 225 255
202 225 255
202 225 255
202 225 255
202 225 255
202 225 255
202 225 255
202 225 255
202 225 255
202 225 255
202 225 255
202 225 255
202 225 255
202 225 255
202 225 255
202 225 255
202 225 255
202 225 255
203 225 255
203 225 255
203 225 255
203 225 255
203 225 255
203 225 255
203 225 255
203 225 255
203 225 255
203 226 255
203 226 255
203 226 255
203 226 255
203 226 255
203 226 255
203 226 255
204 226 255
204 226 255
204 226 255
204 226 255
204 226 255
204 226 255
204 226 255
204 226 255
204 226 255
204 226 255
204 226 255
204 226 255
204 226 255
204 226 255
204 226 255
204 226 255
205 226 255
205 226 255
205 226 255
205 226 255
205 226 255
205 226 255
205 227 255
205 227 255
205 227 255
205 227 255
205 227 255
205 227 255
205 227 255
205 227 255
205 227 255
205 227 255
206 227 255
206 227 255
206 227 255
206 227 255
206 227 255
206 227 255
206 227 255
206 227 255
206 227 255
206 227 255
206 227 255
206 227 255
206 227 255
206 227 255
206 227 255
206 227 255
206 227 255
207 227 255
207 227 255
207 227 255
207 227 255
207 227 255
207 228 255
207 228 255
207 228 255
207 228 255
207 228 255
207 228 255
207 228 255
207 228 255
207 228 255
207 228 255
207 228 255
207 228 255
207 228 255
207 228 255
208 228 255
208 228 255
208 228 255
208 228 255
208 228 255
208 228 255
208 228 255
208 228 255
208 228 255
208 228 255
208 228 255
208 228 255
208 228 255
208 228 255
208 228 255
208 228 255
208 228 255
208 228 255
208 228 255
208 228 255
209 228 255
209 228 255
209 229 255
209 229 255
209 229 255
209 229 255
209 229 255
209 229 255
209 229 255
209 229 255
209 229 255
209 229 255
209 229 255
209 229 255
209 229 255
209 229 255
209 229 255
209 229 255
209 229 255
209 229 255
209 229 255
210 229 255
209 229 255
209 229 255
209 229 255
209 229 255
209 229 255
209 229 255
209 229 255
209 229 255
209 229 255
209 229 255
209 229 255
209 229 255
209 229 255
209 229 255
209 229 255
209 229 255
209 229 255
209 229 255
209 229 255
209 229 255
209 229 255
209 228 255
209 228 255
208 228 255
208 228 255
208 228 255
208 228 255
208 228 255
208 228 255
208 228 255
208 228 255
208 228 255
208 228 255
208 228 255
208 228 255
208 228 255
208 228 255
208 228 255
208 228 255
208 228 255
208 228 255
208 228 255
208 228 255
207 228 255
207 228 255
207 228 255
207 228 255
207 228 255
207 228 255
207 228 255
207 228 255
207 228 255
207 228 255
207 228 255
207 228 255
207 228 255
207 228 255
207 227 255
207 227 255
207 227 255
207 227 255
207 227 255
206 227 255
206 227 255
206 227 255
206 227 255
206 227 255
206 227 255
206 227 255
206 227 255
206 227 255
206 227 255
206 227 255
206 227 255
206 227 255
206 227 255
206 227 255
206 227 255
206 227 255
205 227 255
205 227 255
205 227 255
205 227 255
205 227 255
205 227 255
205 227 255
205 227 255
205 227 255
205 226 255
205 226 255
205 226 255
205 226 255
205 226 255
205 226 255
205 226 255
204 226 255
204 226 255
204 226 255
204 226 255
204 226 255
204 226 255
204 226 255
204 226 255
204 226 255
204 226 255
204 226 255
204 226 255
204 226 255
204 226 255
204 226 255
204 226 255
203 226 255
203 226 255
203 226 255
203 226 255
203 226 255
203 226 255
203 226 255
203 225 255
203 225 255
203 225 255
203 225 255
203 225 255
203 225 255
203 225 255
203 225 255
203 225 255
202 225 255
202 225 255
202 225 255
202 225 255
202 225 255
202 225 255
202 225 255
202 225 255
202 225 255
202 225 255
202 225 255
202 225 255
202 225 255
202 225 255
202 225 255
202 225 255
202 225 255
202 225 255
201 225 255
201 225 255
201 225 255
201 225 255
201 225 255
201 224 255
201 224 255
201 224 255
201 224 255
201 224 255
201 224 255
201 224 255
201 224 255
201 224 255
201 224 255
201 224 255
201 224 255
201 224 255
201 224 255
201 224 255
201 224 255
200 224 255
200 224 255
200 224 255
200 224 255
200 224 255
200 224 255
200 224 255
200 224 255
200 224 255
200 224 255
200 224 255
200 224 255
200 224 255
200 224 255
200 224 255
200 224 255
200 224 255
200 224 255
200 224 255
200 224 255
200 224 255
200 224 255
200 224 255
200 224 255
200 224 255
200 224 255
200 224 255
200 224 255
200 224 255
200 224 255
200 224 255
200 224 255
200 224 255
200 224 255
200 224 255
200 224 255
200 224 255
200 224 255
200 224 255
200 224 255
200 224 255
200 224 255
200 224 255
200 224 255
200 224 255
200 224 255
200 224 255
200 224 255
200 224 255
200 224 255
200 224 255
200 224 255
200 224 255
200 224 255
200 224 255
200 224 255
200 224 255
200 224 255
200 224 255
200 224 255
200 224 255
200 224 255
200 224 255
200 224 255
200 224 255
200 224 255
201 224 255
201 224 255
201 224 255
201 224 255
201 224 255
201 224 255
201 224 255
201 224 255
201 224 255
201 224 255
201 224 255
201 224 255
201 224 255
201 224 255
201 224 255
201 224 255
201 225 255
201 225 255
201 225 255
201 225 255
201 225 255
202 225 255
202 225 255
202 225 255
202 225 255
202 225 255
202 225 255
202 225 255
202 225 255
202 225 255
202 225 255
202 225 255
202 225 255
202 225 255
202 225 255
202 225 255
202 225 255
202 225 255
202 225 255
203 225 255
203 225 255
203 225 255
203 225 255
203 225 255
203 225 255
203 225 255
203 225 255
203 225 255
203 226 255
203 226 255
203 226 255
203 226 255
203 226 255
203 226 255
203 226 255
204 226 255
204 226 255
204 226 255
204 226 255
204 226 255
204 226 255
204 226 255
204 226 255
204 226 255
204 226 255
204 226 255
204 226 255
204 226 255
204 226 255
204 226 255
204 226 255
205 226 255
205 226 255
205 226 255
205 226 255
205 226 255
205 226 255
205 226 255
205 227 255
205 227 255
205 227 255
205 227 255
205 227 255
205 227 255
205 227 255
205 227 255
205 227 255
206 227 255
206 227 255
206 227 255
206 227 255
206 227 255
206 227 255
206 227 255
206 227 255
206 227 255
206 227 255
206 227 255
206 227 255
206 227 255
206 227 255
206 227 255
206 227 255
206 227 255
207 227 255
207 227 255
207 227 255
207 227 255
207 227 255
207 228 255
207 228 255
207 228 255
207 228 255
207 228 255
207 228 255
207 228 255
207 228 255
207 228 255
207 228 255
207 228 255
207 228 255
207 228 255
207 228 255
208 228 255
208 228 255
208 228 255
208 228 255
208 228 255
208 228 255
208 228 255
208 228 255
208 228 255
208 228 255
208 228 255
208 228 255
208 228 255
208 228 255
208 228 255
208 228 255
208 228 255
208 228 255
208 228 255
208 228 255
209 228 255
209 228 255
209 229 255
209 229 255
209 229 255
209 229 255
209 229 255
209 229 255
209 229 255
209 229 255
209 229 255
209 229 255
209 229 255
209 229 255
209 229 255
209 229 255
209 229 255
209 229 255
209 229 255
209 229 255
209 229 255
209 229 255
209 229 255
210 229 255
210 229 255
210 229 255
210 229 255
210 229 255
210 229 255
209 229 255
209 229 255
209 229 255
209 229 255
209 229 255
209 229 255
209 229 255
209 229 255
209 229 255
209 229 255
209 229 255
209 229 255
209 229 255
209 229 255
209 229 255
209 229 255
209 229 255
209 229 255
209 229 255
209 229 255
209 229 255
209 228 255
208 228 255
208 228 255
208 228 255
208 228 255
208 228 255
208 228 255
208 228 255
208 228 255
208 228 255
208 228 255
208 228 255
208 228 255
208 228 255
208 228 255
208 228 255
208 228 255
208 228 255
208 228 255
208 228 255
208 228 255
207 228 255
207 228 255
207 228 255
207 228 255
207 228 255
207 228 255
207 228 255
207 228 255
207 228 255
207 228 255
207 228 255
207 228 255
207 228 255
207 228 255
207 228 255
207 227 255
207 227 255
207 227 255
207 227 255
206 227 255
206 227 255
206 227 255
206 227 255
206 227 255
206 227 255
206 227 255
206 227 255
206 227 255
206 227 255
206 227 255
206 227 255
206 227 255
206 227 255
206 227 255
206 227 255
206 227 255
205 227 255
205 227 255
205 227 255
205 227 255
205 227 255
205 227 255
205 227 255
205 227 255
205 227 255
205 226 255
205 226 255
205 226 255
205 226 255
205 226 255
205 226 255
205 226 255
204 226 255
204 226 255
204 226 255
204 226 255
204 226 255
204 226 255
204 226 255
204 226 255
204 226 255
204 226 255
204 226 255
204 226 255
204 226 255
204 226 255
204 226 255
204 226 255
203 226 255
203 226 255
203 226 255
203 226 255
203 226 255
203 226 255
203 226 255
203 225 255
203 225 255
203 225 255
203 225 255
203 225 255
203 225 255
203 225 255
203 225 255
203 225 255
203 225 255
202 225 255
202 225 255
202 225 255
202 225 255
202 225 255
202 225 255
202 225 255
202 225 255
202 225 255
202 225 255
202 225 255
202 225 255
202 225 255
202 225 255
202 225 255
202 225 255
202 225 255
202 225 255
201 225 255
201 225 255
201 225 255
201 225 255
201 225 255
201 225 255
201 224 255
201 224 255
201 224 255
201 224 255
201 224 255
201 224 255
201 224 255
201 224 255
201 224 255
201 224 255
201 224 255
201 224 255
201 224 255
201 224 255
201 224 255
201 224 255
201 224 255
201 224 255
200 224 255
200 224 255
200 224 255
200 224 255
200 224 255
200 224 255
200 224 255
200 224 255
200 224 255
200 224 255
200 224 255
200 224 255
200 224 255
200 224 255
200 224 255
200 224 255
200 224 255
200 224 255
200 224 255
200 224 255
200 224 255
200 224 255
200 224 255
200 224 255
200 224 255
200 224 255
200 224 255
200 224 255
200 224 255
200 224 255
200 224 255
200 224 255
200 224 255
200 224 255
200 224 255
200 224 255
200 224 255
200 224 255
200 224 255
200 224 255
200 224 255
200 224 255
200 224 255
200 224 255
200 224 255
200 224 255
200 224 255
200 224 255
200 224 255
200 224 255
200 224 255
200 224 255
201 224 255
201 224 255
201 224 255
201 224 255
201 224 255
201 224 255
201 224 255
201 224 255
201 224 255
201 224 255
201 224 255
201 224 255
201 224 255
201 224 255
201 224 255
201 224 255
201 224 255
201 224 255
201 224 255
201 225 255
201 225 255
201 225 255
201 225 255
201 225 255
202 225 255
202 225 255
202 225 255
202 225 255
202 225 255
202 225 255
202 225 255
202 225 255
202 225 255
202 225 255
202 225 255
202 225 255
202 225 255
202 225 255
202 225 255
202 225 255
202 225 255
202 225 255
203 225 255
203 225 255
203 225 255
203 225 255
203 225 255
203 225 255
203 225 255
203 225 255
203 225 255
203 225 255
203 226 255
203 226 255
203 226 255
203 226 255
203 226 255
203 226 255
203 226 255
204 226 255
204 226 255
204 226 255
204 226 255
204 226 255
204 226 255
204 226 255
204 226 255
204 226 255
204 226 255
204 226 255
204 226 255
204 226 255
204 226 255
204 226 255
204 226 255
205 226 255
205 226 255
205 226 255
205 226 255
205 226 255
205 226 255
205 227 255
205 227 255
205 227 255
205 227 255
205 227 255
205 227 255
205 227 255
205 227 255
205 227 255
205 227 255
206 227 255
206 227 255
206 227 255
206 227 255
206 227 255
206 227 255
206 227 255
206 227 255
206 227 255
206 227 255
206 227 255
206 227 255
206 227 255
206 227 255
206 227 255
206 227 255
206 227 255
207 227 255
207 227 255
207 227 255
207 227 255
207 228 255
207 228 255
207 228 255
207 228 255
207 228 255
207 228 255
207 228 255
207 228 255
207 228 255
207 228 255
207 228 255
207 228 255
207 228 255
207 228 255
208 228 255
208 228 255
208 228 255
208 228 255
208 228 255
208 228 255
208 228 255
208 228 255
208 228 255
208 228 255
208 228 255
208 228 255
208 228 255
208 228 255
208 228 255
208 228 255
208 228 255
208 228 255
208 228 255
208 228 255
208 228 255
209 228 255
209 229 255
209 229 255
209 229 255
209 229 255
209 229 255
209 229 255
209 229 255
209 229 255
209 229 255
209 229 255
209 229 255
209 229 255
209 229 255
209 229 255
209 229 255
209 229 255
209 229 255
209 229 255
209 229 255
209 229 255
209 229 255
210 229 255
210 229 255
210 229 255
210 229 255
210 229 255
210 229 255
210 229 255
210 229 255
210 229 255
210 229 255
210 229 255
210 229 255
210 229 255
209 229 255
209 229 255
209 229 255
209 229 255
209 229 255
209 229 255
209 229 255
209 229 255
209 229 255
209 229 255
209 229 255
209 229 255
209 229 255
209 229 255
209 229 255
209 229 255
209 229 255
209 229 255
209 229 255
209 229 255
209 229 255
209 228 255
209 228 255
208 228 255
208 228 255
208 228 255
208 228 255
208 228 255
208 228 255
208 228 255
208 228 255
208 228 255
208 228 255
208 228 255
208 228 255
208 228 255
208 228 255
208 228 255
208 228 255
208 228 255
208 228 255
208 228 255
208 228 255
207 228 255
207 228 255
207 228 255
207 228 255
207 228 255
207 228 255
207 228 255
207 228 255
207 228 255
207 228 255
207 228 255
207 228 255
207 228 255
207 228 255
207 227 255
207 227 255
207 227 255
207 227 255
206 227 255
206 227 255
206 227 255
206 227 255
206 227 255
206 227 255
206 227 255
206 227 255
206 227 255
206 227 255
206 227 255
206 227 255
206 227 255
206 227 255
206 227 255
206 227 255
206 227 255
205 227 255
205 227 255
205 227 255
205 227 255
205 227 255
205 227 255
205 227 255
205 227 255
205 227 255
205 227 255
205 226 255
205 226 255
205 226 255
205 226 255
205 226 255
205 226 255
204 226 255
204 226 255
204 226 255
204 226 255
204 226 255
204 226 255
204 226 255
204 226 255
204 226 255
204 226 255
204 226 255
204 226 255
204 226 255
204 226 255
204 226 255
204 226 255
203 226 255
203 226 255
203 226 255
203 226 255
203 226 255
203 226 255
203 226 255
203 225 255
203 225 255
203 225 255
203 225 255
203 225 255
203 225 255
203 225 255
203 225 255
203 225 255
203 225 255
202 225 255
202 225 255
202 225 255
202 225 255
202 225 255
202 225 255
202 225 255
202 225 255
202 225 255
202 225 255
202 225 255
202 225 255
202 225 255
202 225 255
202 225 255
202 225 255
202 225 255
202 225 255
202 225 255
201 225 255
201 225 255
201 225 255
201 225 255
201 225 255
201 225 255
201 225 255
201 224 255
201 224 255
201 224 255
201 224 255
201 224 255
201 224 255
201 224 255
201 224 255
201 224 255
201 224 255
201 224 255
201 224 255
201 224 255
201 224 255
201 224 255
201 224 255
201 224 255
201 224 255
201 224 255
201 224 255
201 224 255
200 224 255
200 224 255
200 224 255
200 224 255
200 224 255
200 224 255
200 224 255
200 224 255
200 224 255
200 224 255
200 224 255
200 224 255
200 224 255
200 224 255
200 224 255
200 224 255
200 224 255
200 224 255
200 224 255
200 224 255
200 224 255
200 224 255
200 224 255
200 224 255
200 224 255
200 224 255
200 224 255
200 224 255
200 224 255
200 224 255
200 224 255
200 224 255
200 224 255
200 224 255
200 224 255
200 224 255
201 224 255
201 224 255
201 224 255
201 224 255
201 224 255
201 224 255
201 224 255
201 224 255
201 224 255
201 224 255
201 224 255
201 224 255
201 224 255
201 224 255
201 224 255
201 224 255
201 224 255
201 224 255
201 224 255
201 224 255
201 224 255
201 224 255
201 225 255
201 225 255
201 225 255
201 225 255
201 225 255
201 225 255
202 225 255
202 225 255
202 225 255
202 225 255
202 225 255
202 225 255
202 225 255
202 225 255
202 225 255
202 225 255
202 225 255
202 225 255
202 225 255
202 225 255
202 225 255
202 225 255
202 225 255
202 225 255
202 225 255
203 225 255
203 225 255
203 225 255
203 225 255
203 225 255
203 225 255
203 225 255
203 225 255
203 225 255
203 226 255
203 226 255
203 226 255
203 226 255
203 226 255
203 226 255
203 226 255
203 226 255
204 226 255
204 226 255
204 226 255
204 226 255
204 226 255
204 226 255
204 226 255
204 226 255
204 226 255
204 226 255
204 226 255
204 226 255
204 226 255
204 226 255
204 226 255
204 226 255
205 226 255
205 226 255
205 226 255
205 226 255
205 226 255
205 226 255
205 227 255
205 227 255
205 227 255
205 227 255
205 227 255
205 227 255
205 227 255
205 227 255
205 227 255
205 227 255
206 227 255
206 227 255
206 227 255
206 227 255
206 227 255
206 227 255
206 227 255
206 227 255
206 227 255
206 227 255
206 227 255
206 227 255
206 227 255
206 227 255
206 227 255
206 227 255
206 227 255
207 227 255
207 227 255
207 227 255
207 227 255
207 228 255
207 228 255
207 228 255
207 228 255
207 228 255
207 228 255
207 228 255
207 228 255
207 228 255
207 228 255
207 228 255
207 228 255
207 228 255
207 228 255
208 228 255
208 228 255
208 228 255
208 228 255
208 228 255
208 228 255
208 228 255
208 228 255
208 228 255
208 228 255
208 228 255
208 228 255
208 228 255
208 228 255
208 228 255
208 228 255
208 228 255
208 228 255
208 228 255
208 228 255
209 228 255
209 228 255
209 229 255
209 229 255
209 229 255
209 229 255
209 229 255
209 229 255
209 229 255
209 229 255
209 229 255
209 229 255
209 229 255
209 229 255
209 229 255
209 229 255
209 229 255
209 229 255
209 229 255
209 229 255
209 229 255
209 229 255
209 229 255
210 229 255
210 229 255
210 229 255
210 229 255
210 229 255
210 229 255
210 229 255
210 229 255
210 229 255
210 229 255
210 229 255
210 229 255
210 229 255
210 229 255
210 229 255
210 229 255
210 229 255
210 229 255
210 229 255
210 229 255
209 229 255
209 229 255
209 229 255
209 229 255
209 229 255
209 229 255
209 229 255
209 229 255
209 229 255
209 229 255
209 229 255
209 229 255
209 229 255
209 229 255
209 229 255
209 229 255
209 229 255
209 229 255
209 229 255
209 229 255
209 229 255
209 228 255
208 228 255
208 228 255
208 228 255
208 228 255
208 228 255
208 228 255
208 228 255
208 228 255
208 228 255
208 228 255
208 228 255
208 228 255
208 228 255
208 228 255
208 228 255
208 228 255
208 228 255
208 228 255
208 228 255
208 228 255
207 228 255
207 228 255
207 228 255
207 228 255
207 228 255
207 228 255
207 228 255
207 228 255
207 228 255
207 228 255
207 228 255
207 228 255
207 228 255
207 228 255
207 227 255
207 227 255
207 227 255
207 227 255
206 227 255
206 227 255
206 227 255
206 227 255
206 227 255
206 227 255
206 227 255
206 227 255
206 227 255
206 227 255
206 227 255
206 227 255
206 227 255
206 227 255
206 227 255
206 227 255
206 227 255
205 227 255
205 227 255
205 227 255
205 227 255
205 227 255
205 227 255
205 227 255
205 227 255
205 227 255
205 227 255
205 226 255
205 226 255
205 226 255
205 226 255
205 226 255
205 226 255
204 226 255
204 226 255
204 226 255
204 226 255
204 226 255
204 226 255
204 226 255
204 226 255
204 226 255
204 226 255
204 226 255
204 226 255
204 226 255
204 226 255
204 226 255
204 226 255
204 226 255
203 226 255
203 226 255
203 226 255
203 226 255
203 226 255
203 226 255
203 226 255
203 225 255
203 225 255
203 225 255
203 225 255
203 225 255
203 225 255
203 225 255
203 225 255
203 225 255
203 225 255
202 225 255
202 225 255
202 225 255
202 225 255
202 225 255
202 225 255
202 225 255
202 225 255
202 225 255
202 225 255
202 225 255
202 225 255
202 225 255
202 225 255
202 225 255
202 225 255
202 225 255
202 225 255
202 225 255
202 225 255
201 225 255
201 225 255
201 225 255
201 225 255
201 225 255
201 225 255
201 225 255
201 224 255
201 224 255
201 224 255
201 224 255
201 224 255
201 224 255
201 224 255
201 224 255
201 224 255
201 224 255
201 224 255
201 224 255
201 224 255
201 224 255
201 224 255
201 224 255
201 224 255
201 224 255
201 224 255
201 224 255
201 224 255
201 224 255
201 224 255
201 224 255
201 224 255
201 224 255
201 224 255
201 224 255
201 224 255
201 224 255
201 224 255
201 224 255
201 224 255
201 224 255
201 224 255
201 224 255
201 224 255
201 224 255
201 224 255
201 224 255
201 224 255
201 224 255
201 224 255
201 224 255
201 224 255
201 224 255
201 224 255
201 224 255
201 224 255
201 224 255
201 224 255
201 224 255
201 224 255
201 224 255
201 224 255
201 224 255
201 224 255
201 224 255
201 224 255
201 224 255
201 224 255
201 224 255
201 224 255
201 224 255
201 224 255
201 224 255
201 224 255
201 224 255
201 225 255
201 225 255
201 225 255
201 225 255
201 225 255
201 225 255
201 225 255
202 225 255
202 225 255
202 225 255
202 225 255
202 225 255
202 225 255
202 225 255
202 225 255
202 225 255
202 225 255
202 225 255
202 225 255
202 225 255
202 225 255
202 225 255
202 225 255
202 225 255
202 225 255
202 225 255
202 225 255
203 225 255
203 225 255
203 225 255
203 225 255
203 225 255
203 225 255
203 225 255
203 225 255
203 225 255
203 225 255
203 226 255
203 226 255
203 226 255
203 226 255
203 226 255
203 226 255
203 226 255
204 226 255
204 226 255
204 226 255
204 226 255
204 226 255
204 226 255
204 226 255
204 226 255
204 226 255
204 226 255
204 226 255
204 226 255
204 226 255
204 226 255
204 226 255
204 226 255
205 226 255
205 226 255
205 226 255
205 226 255
205 226 255
205 226 255
205 226 255
205 227 255
205 227 255
205 227 255
205 227 255
205 227 255
205 227 255
205 227 255
205 227 255
205 227 255
205 227 255
206 227 255
206 227 255
206 227 255
206 227 255
206 227 255
206 227 255
206 227 255
206 227 255
206 227 255
206 227 255
206 227 255
206 227 255
206 227 255
206 227 255
206 227 255
206 227 255
206 227 255
207 227 255
207 227 255
207 227 255
207 227 255
207 228 255
207 228 255
207 228 255
207 228 255
207 228 255
207 228 255
207 228 255
207 228 255
207 228 255
207 228 255
207 228 255
207 228 255
207 228 255
207 228 255
208 228 255
208 228 255
208 228 255
208 228 255
208 228 255
208 228 255
208 228 255
208 228 255
208 228 255
208 228 255
208 228 255
208 228 255
208 228 255
208 228 255
208 228 255
208 228 255
208 228 255
208 228 255
208 228 255
208 228 255
209 228 255
209 229 255
209 229 255
209 229 255
209 229 255
209 229 255
209 229 255
209 229 255
209 229 255
209 229 255
209 229 255
209 229 255
209 229 255
209 229 255
209 229 255
209 229 255
209 229 255
209 229 255
209 229 255
209 229 255
209 229 255
209 229 255
210 229 255
210 229 255
210 229 255
210 229 255
210 229 255
210 229 255
210 229 255
210 229 255
210 229 255
210 229 255
210 229 255
210 229 255
210 229 255
210 229 255
210 229 255
210 229 255
210 229 255
210 229 255
210 229 255
210 229 255
210 229 255
210 229 255
210 229 255
210 229 255
210 229 255
210 229 255
210 229 255
210 229 255
209 229 255
209 229 255
209 229 255
209 229 255
209 229 255
209 229 255
209 229 255
209 229 255
209 229 255
209 229 255
209 229 255
209 229 255
209 229 255
209 229 255
209 229 255
209 229 255
209 229 255
209 229 255
209 229 255
209 229 255
209 228 255
208 228 255
208 228 255
208 228 255
208 228 255
208 228 255
208 228 255
208 228 255
208 228 255
208 228 255
208 228 255
208 228 255
208 228 255
208 228 255
208 228 255
208 228 255
208 228 255
208 228 255
208 228 255
208 228 255
208 228 255
207 228 255
207 228 255
207 228 255
207 228 255
207 228 255
207 228 255
207 228 255
207 228 255
207 228 255
207 228 255
207 228 255
207 228 255
207 228 255
207 228 255
207 227 255
207 227 255
207 227 255
207 227 255
206 227 255
206 227 255
206 227 255
206 227 255
206 227 255
206 227 255
206 227 255
206 227 255
206 227 255
206 227 255
206 227 255
206 227 255
206 227 255
206 227 255
206 227 255
206 227 255
206 227 255
205 227 255
205 227 255
205 227 255
205 227 255
205 227 255
205 227 255
205 227 255
205 227 255
205 227 255
205 227 255
205 226 255
205 226 255
205 226 255
205 226 255
205 226 255
205 226 255
205 226 255
204 226 255
204 226 255
204 226 255
204 226 255
204 226 255
204 226 255
204 226 255
204 226 255
204 226 255
204 226 255
204 226 255
204 226 255
204 226 255
204 226 255
204 226 255
204 226 255
203 226 255
203 226 255
203 226 255
203 226 255
203 226 255
203 226 255
203 226 255
203 226 255
203 225 255
203 225 255
203 225 255
203 225 255
203 225 255
203 225 255
203 225 255
203 225 255
203 225 255
203 225 255
202 225 255
202 225 255
202 225 255
202 225 255
202 225 255
202 225 255
202 225 255
202 225 255
202 225 255
202 225 255
202 225 255
202 225 255
202 225 255
202 225 255
202 225 255
202 225 255
202 225 255
202 225 255
202 225 255
202 225 255
202 225 255
201 225 255
201 225 255
201 225 255
201 225 255
201 225 255
201 225 255
201 225 255
201 225 255
201 224 255
201 224 255
201 224 255
201 224 255
201 224 255
201 224 255
201 224 255
201 224 255
201 224 255
201 224 255
201 224 255
201 224 255
201 224 255
201 224 255
201 224 255
201 224 255
201 224 255
201 224 255
201 224 255
201 224 255
201 224 255
201 224 255
201 224 255
201 224 255
201 224 255
201 224 255
201 224 255
201 224 255
201 224 255
201 224 255
201 224 255
201 224 255
201 224 255
201 224 255
201 224 255
201 224 255
201 224 255
201 224 255
201 224 255
201 224 255
201 224 255
201 224 255
201 224 255
201 224 255
201 224 255
201 224 255
201 224 255
201 224 255
201 224 255
201 224 255
201 224 255
201 224 255
201 224 255
201 224 255
201 224 255
201 224 255
201 225 255
201 225 255
201 225 255
201 225 255
201 225 255
201 225 255
201 225 255
201 225 255
202 225 255
202 225 255
202 225 255
202 225 255
202 225 255
202 225 255
202 225 255
202 225 255
202 225 255
202 225 255
202 225 255
202 225 255
202 225 255
202 225 255
202 225 255
202 225 255
202 225 255
202 225 255
202 225 255
202 225 255
202 225 255
203 225 255
203 225 255
203 225 255
203 225 255
203 225 255
203 225 255
203 225 255
203 225 255
203 225 255
203 225 255
203 226 255
203 226 255
203 226 255
203 226 255
203 226 255
203 226 255
203 226 255
203 226 255
204 226 255
204 226 255
204 226 255
204 226 255
204 226 255
204 226 255
204 226 255
204 226 255
204 226 255
204 226 255
204 226 255
204 226 255
204 226 255
204 226 255
204 226 255
204 226 255
205 226 255
205 226 255
205 226 255
205 226 255
205 226 255
205 226 255
205 226 255
205 227 255
205 227 255
205 227 255
205 227 255
205 227 255
205 227 255
205 227 255
205 227 255
205 227 255
205 227 255
206 227 255
206 227 255
206 227 255
206 227 255
206 227 255
206 227 255
206 227 255
206 227 255
206 227 255
206 227 255
206 227 255
206 227 255
206 227 255
206 227 255
206 227 255
206 227 255
206 227 255
207 227 255
207 227 255
207 227 255
207 227 255
207 228 255
207 228 255
207 228 255
207 228 255
207 228 255
207 228 255
207 228 255
207 228 255
207 228 255
207 228 255
207 228 255
207 228 255
207 228 255
207 228 255
208 228 255
208 228 255
208 228 255
208 228 255
208 228 255
208 228 255
208 228 255
208 228 255
208 228 255
208 228 255
208 228 255
208 228 255
208 228 255
208 228 255
208 228 255
208 228 255
208 228 255
208 228 255
208 228 255
209 228 255
209 228 255
209 229 255
209 229 255
209 229 255
209 229 255
209 229 255
209 229 255
209 229 255
209 229 255
209 229 255
209 229 255
209 229 255
209 229 255
209 229 255
209 229 255
209 229 255
209 229 255
209 229 255
209 229 255
209 229 255
209 229 255
210 229 255
210 229 255
210 229 255
210 229 255
210 229 255
210 229 255
210 229 255
210 229 255
210 229 255
210 229 255
210 229 255
210 229 255
210 229 255
210 229 255
210 229 255
210 229 255
210 229 255
210 229 255
210 229 255
210 229 255
210 229 255
210 229 255
210 229 255
210 229 255
210 229 255
210 229 255
210 229 255
210 229 255
210 229 255
210 229 255
210 229 255
210 229 255
210 229 255
210 229 255
210 229 255
209 229 255
209 229 255
209 229 255
209 229 255
209 229 255
209 229 255
209 229 255
209 229 255
209 229 255
209 229 255
209 229 255
209 229 255
209 229 255
209 229 255
209 229 255
209 229 255
209 229 255
209 229 255
209 229 255
209 229 255
209 228 255
209 228 255
208 228 255
208 228 255
208 228 255
208 228 255
208 228 255
208 228 255
208 228 255
208 228 255
208 228 255
208 228 255
208 228 255
208 228 255
208 228 255
208 228 255
208 228 255
208 228 255
208 228 255
208 228 255
208 228 255
207 228 255
207 228 255
207 228 255
207 228 255
207 228 255
207 228 255
207 228 255
207 228 255
207 228 255
207 228 255
207 228 255
207 228 255
207 228 255
207 228 255
207 227 255
207 227 255
207 227 255
207 227 255
207 227 255
206 227 255
206 227 255
206 227 255
206 227 255
206 227 255
206 227 255
206 227 255
206 227 255
206 227 255
206 227 255
206 227 255
206 227 255
206 227 255
206 227 255
206 227 255
206 227 255
205 227 255
205 227 255
205 227 255
205 227 255
205 227 255
205 227 255
205 227 255
205 227 255
205 227 255
205 227 255
205 226 255
205 226 255
205 226 255
205 226 255
205 226 255
205 226 255
205 226 255
204 226 255
204 226 255
204 226 255
204 226 255
204 226 255
204 226 255
204 226 255
204 226 255
204 226 255
204 226 255
204 226 255
204 226 255
204 226 255
204 226 255
204 226 255
204 226 255
204 226 255
203 226 255
203 226 255
203 226 255
203 226 255
203 226 255
203 226 255
203 226 255
203 225 255
203 225 255
203 225 255
203 225 255
203 225 255
203 225 255
203 225 255
203 225 255
203 225 255
203 225 255
203 225 255
202 225 255
202 225 255
202 225 255
202 225 255
202 225 255
202 225 255
202 225 255
202 225 255
202 225 255
202 225 255
202 225 255
202 225 255
202 225 255
202 225 255
202 225 255
202 225 255
202 225 255
202 225 255
202 225 255
202 225 255
202 225 255
202 225 255
202 225 255
201 225 255
201 225 255
201 225 255
201 225 255
201 225 255
201 225 255
201 225 255
201 225 255
201 225 255
201 225 255
201 224 255
201 224 255
201 224 255
201 224 255
201 224 255
201 224 255
201 224 255
201 224 255
201 224 255
201 224 255
201 224 255
201 224 255
201 224 255
201 224 255
201 224 255
201 224 255
201 224 255
201 224 255
201 224 255
201 224 255
201 224 255
201 224 255
201 224 255
201 224 255
201 224 255
201 224 255
201 224 255
201 224 255
201 224 255
201 224 255
201 224 255
201 224 255
201 224 255
201 224 255
201 224 255
201 224 255
201 224 255
201 224 255
201 224 255
201 224 255
201 225 255
201 225 255
201 225 255
201 225 255
201 225 255
201 225 255
201 225 255
201 225 255
201 225 255
201 225 255
201 225 255
202 225 255
202 225 255
202 225 255
202 225 255
202 225 255
202 225 255
202 225 255
202 225 255
202 225 255
202 225 255
202 225 255
202 225 255
202 225 255
202 225 255
202 225 255
202 225 255
202 225 255
202 225 255
202 225 255
202 225 255
202 225 255
202 225 255
203 225 255
203 225 255
203 225 255
203 225 255
203 225 255
203 225 255
203 225 255
203 225 255
203 225 255
203 225 255
203 225 255
203 226 255
203 226 255
203 226 255
203 226 255
203 226 255
203 226 255
203 226 255
204 226 255
204 226 255
204 226 255
204 226 255
204 226 255
204 226 255
204 226 255
204 226 255
204 226 255
204 226 255
204 226 255
204 226 255
204 226 255
204 226 255
204 226 255
204 226 255
204 226 255
205 226 255
205 226 255
205 226 255
205 226 255
205 226 255
205 226 255
205 226 255
205 227 255
205 227 255
205 227 255
205 227 255
205 227 255
205 227 255
205 227 255
205 227 255
205 227 255
206 227 255
206 227 255
206 227 255
206 227 255
206 227 255
206 227 255
206 227 255
206 227 255
206 227 255
206 227 255
206 227 255
206 227 255
206 227 255
206 227 255
206 227 255
206 227 255
206 227 255
206 227 255
207 227 255
207 227 255
207 227 255
207 227 255
207 228 255
207 228 255
207 228 255
207 228 255
207 228 255
207 228 255
207 228 255
207 228 255
207 228 255
207 228 255
207 228 255
207 228 255
207 228 255
208 228 255
208 228 255
208 228 255
208 228 255
208 228 255
208 228 255
208 228 255
208 228 255
208 228 255
208 228 255
208 228 255
208 228 255
208 228 255
208 228 255
208 228 255
208 228 255
208 228 255
208 228 255
208 228 255
208 228 255
209 228 255
209 228 255
209 229 255
209 229 255
209 229 255
209 229 255
209 229 255
209 229 255
209 229 255
209 229 255
209 229 255
209 229 255
209 229 255
209 229 255
209 229 255
209 229 255
209 229 255
209 229 255
209 229 255
209 229 255
209 229 255
209 229 255
210 229 255
210 229 255
210 229 255
210 229 255
210 229 255
210 229 255
210 229 255
210 229 255
210 229 255
210 229 255
210 229 255
210 229 255
210 229 255
210 229 255
210 229 255
210 229 255
210 229 255
210 229 255
210 229 255
210 230 255
210 229 255
210 229 255
210 229 255
210 229 255
210 229 255
210 229 255
210 229 255
210 229 255
210 229 255
210 229 255
210 229 255
210 229 255
210 229 255
210 229 255
210 229 255
210 229 255
210 229 255
210 229 255
210 229 255
210 229 255
210 229 255
210 229 255
209 229 255
209 229 255
209 229 255
209 229 255
209 229 255
209 229 255
209 229 255
209 229 255
209 229 255
209 229 255
209 229 255
209 229 255
209 229 255
209 229 255
209 229 255
209 229 255
209 229 255
209 229 255
209 229 255
209 229 255
209 228 255
208 228 255
208 228 255
208 228 255
208 228 255
208 228 255
208 228 255
208 228 255
208 228 255
208 228 255
208 228 255
208 228 255
208 228 255
208 228 255
208 228 255
208 228 255
208 228 255
208 228 255
208 228 255
208 228 255
208 228 255
207 228 255
207 228 255
207 228 255
207 228 255
207 228 255
207 228 255
207 228 255
207 228 255
207 228 255
207 228 255
207 228 255
207 228 255
207 228 255
207 228 255
207 227 255
207 227 255
207 227 255
207 227 255
206 227 255
206 227 255
206 227 255
206 227 255
206 227 255
206 227 255
206 227 255
206 227 255
206 227 255
206 227 255
206 227 255
206 227 255
206 227 255
206 227 255
206 227 255
206 227 255
206 227 255
205 227 255
205 227 255
205 227 255
205 227 255
205 227 255
205 227 255
205 227 255
205 227 255
205 227 255
205 227 255
205 226 255
205 226 255
205 226 255
205 226 255
205 226 255
205 226 255
204 226 255
204 226 255
204 226 255
204 226 255
204 226 255
204 226 255
204 226 255
204 226 255
204 226 255
204 226 255
204 226 255
204 226 255
204 226 255
204 226 255
204 226 255
204 226 255
204 226 255
204 226 255
203 226 255
203 226 255
203 226 255
203 226 255
203 226 255
203 226 255
203 226 255
203 225 255
203 225 255
203 225 255
203 225 255
203 225 255
203 225 255
203 225 255
203 225 255
203 225 255
203 225 255
203 225 255
202 225 255
202 225 255
202 225 255
202 225 255
202 225 255
202 225 255
202 225 255
202 225 255
202 225 255
202 225 255
202 225 255
202 225 255
202 225 255
202 225 255
202 225 255
202 225 255
202 225 255
202 225 255
202 225 255
202 225 255
202 225 255
202 225 255
202 225 255
202 225 255
202 225 255
202 225 255
201 225 255
201 225 255
201 225 255
201 225 255
201 225 255
201 225 255
201 225 255
201 225 255
201 225 255
201 225 255
201 225 255
201 225 255
201 225 255
201 225 255
201 225 255
201 225 255
201 225 255
201 225 255
201 224 255
201 224 255
201 224 255
201 224 255
201 224 255
201 224 255
201 224 255
201 224 255
201 224 255
201 224 255
201 224 255
201 225 255
201 225 255
201 225 255
201 225 255
201 225 255
201 225 255
201 225 255
201 225 255
201 225 255
201 225 255
201 225 255
201 225 255
201 225 255
201 225 255
201 225 255
201 225 255
201 225 255
202 225 255
202 225 255
202 225 255
202 225 255
202 225 255
202 225 255
202 225 255
202 225 255
202 225 255
202 225 255
202 225 255
202 225 255
202 225 255
202 225 255
202 225 255
202 225 255
202 225 255
202 225 255
202 225 255
202 225 255
202 225 255
202 225 255
202 225 255
202 225 255
202 225 255
202 225 255
203 225 255
203 225 255
203 225 255
203 225 255
203 225 255
203 225 255
203 225 255
203 225 255
203 225 255
203 225 255
203 225 255
203 226 255
203 226 255
203 226 255
203 226 255
203 226 255
203 226 255
203 226 255
203 226 255
204 226 255
204 226 255
204 226 255
204 226 255
204 226 255
204 226 255
204 226 255
204 226 255
204 226 255
204 226 255
204 226 255
204 226 255
204 226 255
204 226 255
204 226 255
204 226 255
204 226 255
205 226 255
205 226 255
205 226 255
205 226 255
205 226 255
205 226 255
205 227 255
205 227 255
205 227 255
205 227 255
205 227 255
205 227 255
205 227 255
205 227 255
205 227 255
205 227 255
206 227 255
206 227 255
206 227 255
206 227 255
206 227 255
206 227 255
206 227 255
206 227 255
206 227 255
206 227 255
206 227 255
206 227 255
206 227 255
206 227 255
206 227 255
206 227 255
206 227 255
207 227 255
207 227 255
207 227 255
207 227 255
207 228 255
207 228 255
207 228 255
207 228 255
207 228 255
207 228 255
207 228 255
207 228 255
207 228 255
207 228 255
207 228 255
207 228 255
207 228 255
207 228 255
208 228 255
208 228 255
208 228 255
208 228 255
208 228 255
208 228 255
208 228 255
208 228 255
208 228 255
208 228 255
208 228 255
208 228 255
208 228 255
208 228 255
208 228 255
208 228 255
208 228 255
208 228 255
208 228 255
208 228 255
209 228 255
209 229 255
209 229 255
209 229 255
209 229 255
209 229 255
209 229 255
209 229 255
209 229 255
209 229 255
209 229 255
209 229 255
209 229 255
209 229 255
209 229 255
209 229 255
209 229 255
209 229 255
209 229 255
209 229 255
209 229 255
210 229 255
210 229 255
210 229 255
210 229 255
210 229 255
210 229 255
210 229 255
210 229 255
210 229 255
210 229 255
210 229 255
210 229 255
210 229 255
210 229 255
210 229 255
210 229 255
210 229 255
210 229 255
210 229 255
210 229 255
210 229 255
210 229 255
210 230 255
211 230 255
211 230 255
210 230 255
210 230 255
210 230 255
210 229 255
210 229 255
210 229 255
210 229 255
210 229 255
210 229 255
210 229 255
210 229 255
210 229 255
210 229 255
210 229 255
210 229 255
210 229 255
210 229 255
210 229 255
210 229 255
210 229 255
210 229 255
210 229 255
210 229 255
210 229 255
210 229 255
209 229 255
209 229 255
209 229 255
209 229 255
209 229 255
209 229 255
209 229 255
209 229 255
209 229 255
209 229 255
209 229 255
209 229 255
209 229 255
209 229 255
209 229 255
209 229 255
209 229 255
209 229 255
209 229 255
209 228 255
209 228 255
208 228 255
208 228 255
208 228 255
208 228 255
208 228 255
208 228 255
208 228 255
208 228 255
208 228 255
208 228 255
208 228 255
208 228 255
208 228 255
208 228 255
208 228 255
208 228 255
208 228 255
208 228 255
208 228 255
207 228 255
207 228 255
207 228 255
207 228 255
207 228 255
207 228 255
207 228 255
207 228 255
207 228 255
207 228 255
207 228 255
207 228 255
207 228 255
207 228 255
207 227 255
207 227 255
207 227 255
207 227 255
206 227 255
206 227 255
206 227 255
206 227 255
206 227 255
206 227 255
206 227 255
206 227 255
206 227 255
206 227 255
206 227 255
206 227 255
206 227 255
206 227 255
206 227 255
206 227 255
206 227 255
205 227 255
205 227 255
205 227 255
205 227 255
205 227 255
205 227 255
205 227 255
205 227 255
205 227 255
205 227 255
205 226 255
205 226 255
205 226 255
205 226 255
205 226 255
205 226 255
205 226 255
204 226 255
204 226 255
204 226 255
204 226 255
204 226 255
204 226 255
204 226 255
204 226 255
204 226 255
204 226 255
204 226 255
204 226 255
204 226 255
204 226 255
204 226 255
204 226 255
204 226 255
203 226 255
203 226 255
203 226 255
203 226 255
203 226 255
203 226 255
203 226 255
203 226 255
203 225 255
203 225 255
203 225 255
203 225 255
203 225 255
203 225 255
203 225 255
203 225 255
203 225 255
203 225 255
203 225 255
203 225 255
202 225 255
202 225 255
202 225 255
202 225 255
202 225 255
202 225 255
202 225 255
202 225 255
202 225 255
202 225 255
202 225 255
202 225 255
202 225 255
202 225 255
202 225 255
202 225 255
202 225 255
202 225 255
202 225 255
202 225 255
202 225 255
202 225 255
202 225 255
202 225 255
202 225 255
202 225 255
202 225 255
202 225 255
202 225 255
202 225 255
202 225 255
202 225 255
201 225 255
201 225 255
201 225 255
201 225 255
201 225 255
201 225 255
201 225 255
201 225 255
201 225 255
201 225 255
201 225 255
201 225 255
201 225 255
201 225 255
201 225 255
201 225 255
201 225 255
201 225 255
201 225 255
201 225 255
201 225 255
201 225 255
201 225 255
202 225 255
202 225 255
202 225 255
202 225 255
202 225 255
202 225 255
202 225 255
202 225 255
202 225 255
202 225 255
202 225 255
202 225 255
202 225 255
202 225 255
202 225 255
202 225 255
202 225 255
202 225 255
202 225 255
202 225 255
202 225 255
202 225 255
202 225 255
202 225 255
202 225 255
202 225 255
202 225 255
202 225 255
202 225 255
202 225 255
202 225 255
202 225 255
202 225 255
203 225 255
203 225 255
203 225 255
203 225 255
203 225 255
203 225 255
203 225 255
203 225 255
203 225 255
203 225 255
203 225 255
203 225 255
203 226 255
203 226 255
203 226 255
203 226 255
203 226 255
203 226 255
203 226 255
203 226 255
204 226 255
204 226 255
204 226 255
204 226 255
204 226 255
204 226 255
204 226 255
204 226 255
204 226 255
204 226 255
204 226 255
204 226 255
204 226 255
204 226 255
204 226 255
204 226 255
204 226 255
205 226 255
205 226 255
205 226 255
205 226 255
205 226 255
205 226 255
205 226 255
205 227 255
205 227 255
205 227 255
205 227 255
205 227 255
205 227 255
205 227 255
205 227 255
205 227 255
205 227 255
206 227 255
206 227 255
206 227 255
206 227 255
206 227 255
206 227 255
206 227 255
206 227 255
206 227 255
206 227 255
206 227 255
206 227 255
206 227 255
206 227 255
206 227 255
206 227 255
206 227 255
207 227 255
207 227 255
207 227 255
207 227 255
207 228 255
207 228 255
207 228 255
207 228 255
207 228 255
207 228 255
207 228 255
207 228 255
207 228 255
207 228 255
207 228 255
207 228 255
207 228 255
207 228 255
208 228 255
208 228 255
208 228 255
208 228 255
208 228 255
208 228 255
208 228 255
208 228 255
208 228 255
208 228 255
208 228 255
208 228 255
208 228 255
208 228 255
208 228 255
208 228 255
208 228 255
208 228 255
208 228 255
209 228 255
209 228 255
209 229 255
209 229 255
209 229 255
209 229 255
209 229 255
209 229 255
209 229 255
209 229 255
209 229 255
209 229 255
209 229 255
209 229 255
209 229 255
209 229 255
209 229 255
209 229 255
209 229 255
209 229 255
209 229 255
210 229 255
210 229 255
210 229 255
210 229 255
210 229 255
210 229 255
210 229 255
210 229 255
210 229 255
210 229 255
210 229 255
210 229 255
210 229 255
210 229 255
210 229 255
210 229 255
210 229 255
210 229 255
210 229 255
210 229 255
210 229 255
210 229 255
210 230 255
210 230 255
210 230 255
211 230 255
211 230 255
211 230 255
211 230 255
211 230 255
211 230 255
211 230 255
211 230 255
210 230 255
210 230 255
210 230 255
210 229 255
210 229 255
210 229 255
210 229 255
210 229 255
210 229 255
210 229 255
210 229 255
210 229 255
210 229 255
210 229 255
210 229 255
210 229 255
210 229 255
210 229 255
210 229 255
210 229 255
210 229 255
210 229 255
210 229 255
210 229 255
209 229 255
209 229 255
209 229 255
209 229 255
209 229 255
209 229 255
209 229 255
209 229 255
209 229 255
209 229 255
209 229 255
209 229 255
209 229 255
209 229 255
209 229 255
209 229 255
209 229 255
209 229 255
209 229 255
209 229 255
209 228 255
208 228 255
208 228 255
208 228 255
208 228 255
208 228 255
208 228 255
208 228 255
208 228 255
208 228 255
208 228 255
208 228 255
208 228 255
208 228 255
208 228 255
208 228 255
208 228 255
208 228 255
208 228 255
208 228 255
208 228 255
207 228 255
207 228 255
207 228 255
207 228 255
207 228 255
207 228 255
207 228 255
207 228 255
207 228 255
207 228 255
207 228 255
207 228 255
207 228 255
207 227 255
207 227 255
207 227 255
207 227 255
207 227 255
206 227 255
206 227 255
206 227 255
206 227 255
206 227 255
206 227 255
206 227 255
206 227 255
206 227 255
206 227 255
206 227 255
206 227 255
206 227 255
206 227 255
206 227 255
206 227 255
205 227 255
205 227 255
205 227 255
205 227 255
205 227 255
205 227 255
205 227 255
205 227 255
205 227 255
205 227 255
205 227 255
205 226 255
205 226 255
205 226 255
205 226 255
205 226 255
205 226 255
204 226 255
204 226 255
204 226 255
204 226 255
204 226 255
204 226 255
204 226 255
204 226 255
204 226 255
204 226 255
204 226 255
204 226 255
204 226 255
204 226 255
204 226 255
204 226 255
204 226 255
204 226 255
203 226 255
203 226 255
203 226 255
203 226 255
203 226 255
203 226 255
203 226 255
203 226 255
203 225 255
203 225 255
203 225 255
203 225 255
203 225 255
203 225 255
203 225 255
203 225 255
203 225 255
203 225 255
203 225 255
203 225 255
203 225 255
202 225 255
202 225 255
202 225 255
202 225 255
202 225 255
202 225 255
202 225 255
202 225 255
202 225 255
202 225 255
202 225 255
202 225 255
202 225 255
202 225 255
202 225 255
202 225 255
202 225 255
202 225 255
202 225 255
202 225 255
202 225 255
202 225 255
202 225 255
202 225 255
202 225 255
202 225 255
202 225 255
202 225 255
202 225 255
202 225 255
202 225 255
202 225 255
202 225 255
202 225 255
202 225 255
202 225 255
202 225 255
202 225 255
202 225 255
202 225 255
202 225 255
202 225 255
202 225 255
202 225 255
202 225 255
202 225 255
202 225 255
202 225 255
202 225 255
202 225 255
202 225 255
202 225 255
202 225 255
202 225 255
202 225 255
202 225 255
202 225 255
202 225 255
202 225 255
202 225 255
202 225 255
202 225 255
202 225 255
202 225 255
202 225 255
202 225 255
202 225 255
202 225 255
202 225 255
202 225 255
202 225 255
202 225 255
202 225 255
202 225 255
202 225 255
202 225 255
202 225 255
202 225 255
203 225 255
203 225 255
203 225 255
203 225 255
203 225 255
203 225 255
203 225 255
203 225 255
203 225 255
203 225 255
203 225 255
203 225 255
203 226 255
203 226 255
203 226 255
203 226 255
203 226 255
203 226 255
203 226 255
203 226 255
204 226 255
204 226 255
204 226 255
204 226 255
204 226 255
204 226 255
204 226 255
204 226 255
204 226 255
204 226 255
204 226 255
204 226 255
204 226 255
204 226 255
204 226 255
204 226 255
204 226 255
204 226 255
205 226 255
205 226 255
205 226 255
205 226 255
205 226 255
205 226 255
205 226 255
205 227 255
205 227 255
205 227 255
205 227 255
205 227 255
205 227 255
205 227 255
205 227 255
205 227 255
205 227 255
206 227 255
206 227 255
206 227 255
206 227 255
206 227 255
206 227 255
206 227 255
206 227 255
206 227 255
206 227 255
206 227 255
206 227 255
206 227 255
206 227 255
206 227 255
206 227 255
206 227 255
207 227 255
207 227 255
207 227 255
207 227 255
207 227 255
207 228 255
207 228 255
207 228 255
207 228 255
207 228 255
207 228 255
207 228 255
207 228 255
207 228 255
207 228 255
207 228 255
207 228 255
207 228 255
208 228 255
208 228 255
208 228 255
208 228 255
208 228 255
208 228 255
208 228 255
208 228 255
208 228 255
208 228 255
208 228 255
208 228 255
208 228 255
208 228 255
208 228 255
208 228 255
208 228 255
208 228 255
208 228 255
208 228 255
209 228 255
209 229 255
209 229 255
209 229 255
209 229 255
209 229 255
209 229 255
209 229 255
209 229 255
209 229 255
209 229 255
209 229 255
209 229 255
209 229 255
209 229 255
209 229 255
209 229 255
209 229 255
209 229 255
209 229 255
209 229 255
210 229 255
210 229 255
210 229 255
210 229 255
210 229 255
210 229 255
210 229 255
210 229 255
210 229 255
210 229 255
210 229 255
210 229 255
210 229 255
210 229 255
210 229 255
210 229 255
210 229 255
210 229 255
210 229 255
210 229 255
210 229 255
210 230 255
210 230 255
210 230 255
211 230 255
211 230 255
211 230 255
211 230 255
211 230 255
211 230 255
211 230 255
211 230 255
211 230 255
211 230 255
211 230 255
211 230 255
211 230 255
211 230 255
211 230 255
211 230 255
210 230 255
210 230 255
210 230 255
210 229 255
210 229 255
210 229 255
210 229 255
210 229 255
210 229 255
210 229 255
210 229 255
210 229 255
210 229 255
210 229 255
210 229 255
210 229 255
210 229 255
210 229 255
210 229 255
210 229 255
210 229 255
210 229 255
210 229 255
210 229 255
209 229 255
209 229 255
209 229 255
209 229 255
205 224 250
205 224 250
199 218 243
193 212 237
195 214 240
189 207 232
191 210 235
189 208 234
183 202 226
185 204 229
186 204 229
182 201 226
190 210 235
188 207 232
189 208 233
186 205 230
187 205 230
189 208 233
197 217 243
194 213 239
196 215 241
193 211 237
197 216 242
207 227 254
208 228 255
208 228 255
208 228 255
208 228 255
208 228 255
208 228 255
208 228 255
208 228 255
208 228 255
208 228 255
208 228 255
208 228 255
207 228 255
207 228 255
207 228 255
207 228 255
207 228 255
207 228 255
207 228 255
207 228 255
207 228 255
207 228 255
207 228 255
207 228 255
207 228 255
207 228 255
207 227 255
207 227 255
207 227 255
207 227 255
206 227 255
206 227 255
206 227 255
206 227 255
206 227 255
206 227 255
206 227 255
206 227 255
206 227 255
206 227 255
206 227 255
206 227 255
206 227 255
206 227 255
206 227 255
206 227 255
206 227 255
205 227 255
205 227 255
205 227 255
205 227 255
205 227 255
205 227 255
205 227 255
205 227 255
205 227 255
205 227 255
205 226 255
205 226 255
205 226 255
205 226 255
205 226 255
205 226 255
205 226 255
204 226 255
204 226 255
204 226 255
204 226 255
204 226 255
204 226 255
204 226 255
204 226 255
204 226 255
204 226 255
204 226 255
204 226 255
204 226 255
204 226 255
204 226 255
204 226 255
204 226 255
204 226 255
203 226 255
203 226 255
203 226 255
203 226 255
203 226 255
203 226 255
203 226 255
203 226 255
203 226 255
203 226 255
203 225 255
203 225 255
203 225 255
203 225 255
203 225 255
203 225 255
203 225 255
203 225 255
203 225 255
203 225 255
203 225 255
203 225 255
203 225 255
202 225 255
202 225 255
202 225 255
202 225 255
202 225 255
202 225 255
202 225 255
202 225 255
202 225 255
202 225 255
202 225 255
202 225 255
202 225 255
202 225 255
202 225 255
202 225 255
202 225 255
202 225 255
202 225 255
202 225 255
202 225 255
202 225 255
202 225 255
202 225 255
202 225 255
202 225 255
202 225 255
202 225 255
202 225 255
202 225 255
202 225 255
202 225 255
202 225 255
202 225 255
202 225 255
202 225 255
202 225 255
202 225 255
202 225 255
202 225 255
202 225 255
202 225 255
202 225 255
202 225 255
202 225 255
202 225 255
202 225 255
202 225 255
202 225 255
202 225 255
202 225 255
202 225 255
202 225 255
202 225 255
202 225 255
202 225 255
202 225 255
202 225 255
202 225 255
202 225 255
202 225 255
202 225 255
202 225 255
202 225 255
202 225 255
202 225 255
203 225 255
203 225 255
203 225 255
203 225 255
203 225 255
203 225 255
203 225 255
203 225 255
203 225 255
203 225 255
203 225 255
203 225 255
203 225 255
203 226 255
203 226 255
203 226 255
203 226 255
203 226 255
203 226 255
203 226 255
203 226 255
203 226 255
203 226 255
204 226 255
204 226 255
204 226 255
204 226 255
204 226 255
204 226 255
204 226 255
204 226 255
204 226 255
204 226 255
204 226 255
204 226 255
204 226 255
204 226 255
204 226 255
204 226 255
204 226 255
204 226 255
205 226 255
205 226 255
205 226 255
205 226 255
205 226 255
205 226 255
205 226 255
205 227 255
205 227 255
205 227 255
205 227 255
205 227 255
205 227 255
205 227 255
205 227 255
205 227 255
205 227 255
206 227 255
206 227 255
206 227 255
206 227 255
206 227 255
206 227 255
206 227 255
206 227 255
206 227 255
206 227 255
206 227 255
206 227 255
206 227 255
206 227 255
206 227 255
206 227 255
206 227 255
207 227 255
207 227 255
207 227 255
207 227 255
207 228 255
207 228 255
207 228 255
207 228 255
207 228 255
207 228 255
207 228 255
207 228 255
207 228 255
207 228 255
207 228 255
207 228 255
207 228 255
207 228 255
208 228 255
208 228 255
208 228 255
208 228 255
208 228 255
208 228 255
208 228 255
208 228 255
208 228 255
208 228 255
208 228 255
208 228 255
208 228 255
194 211 234
200 218 239
194 211 230
186 198 204
191 207 224
182 195 205
179 191 198
184 199 212
182 193 197
180 194 210
178 189 196
181 192 200
174 186 194
179 193 205
177 189 196
182 197 211
188 203 221
190 204 218
189 204 222
198 215 237
199 215 234
204 222 246
209 228 253
209 229 255
209 229 255
209 229 255
209 229 255
210 229 255
210 229 255
210 229 255
210 229 255
210 229 255
210 229 255
210 229 255
210 229 255
210 229 255
210 229 255
210 229 255
210 229 255
210 229 255
210 229 255
210 229 255
210 229 255
210 229 255
210 229 255
210 229 255
210 229 255
210 229 255
210 230 255
210 230 255
211 230 255
211 230 255
211 230 255
211 230 255
211 230 255
211 230 255
211 230 255
211 230 255
211 230 255
211 230 255
211 230 255
211 230 255
211 230 255
211 230 255
211 230 255
211 230 255
211 230 255
211 230 255
211 230 255
211 230 255
211 230 255
211 230 255
211 230 255
211 230 255
211 230 255
210 230 255
210 230 255
210 230 255
210 229 255
210 229 255
210 229 255
210 229 255
210 229 255
210 229 255
210 229 255
210 229 255
210 229 255
210 229 255
210 229 255
210 229 255
207 227 253
199 218 243
190 209 233
188 206 231
181 199 223
164 182 205
173 191 215
164 181 205
166 185 210
143 159 181
162 181 206
157 175 199
158 177 202
161 179 204
159 178 203
160 179 204
165 184 209
166 185 212
168 188 216
167 187 214
162 182 208
166 186 213
162 182 208
166 187 214
170 191 219
164 185 212
163 183 209
158 177 203
159 178 204
160 180 207
158 177 203
155 174 199
160 180 206
161 179 204
170 189 215
170 189 214
170 189 213
186 205 231
186 205 230
187 206 231
193 212 238
205 225 252
208 228 255
208 228 255
208 228 255
208 228 255
208 228 255
208 228 255
208 228 255
207 228 255
207 228 255
207 228 255
207 228 255
207 228 255
207 228 255
207 228 255
207 228 255
207 228 255
207 228 255
207 228 255
207 228 255
207 228 255
207 227 255
207 227 255
207 227 255
207 227 255
207 227 255
206 227 255
206 227 255
206 227 255
206 227 255
206 227 255
206 227 255
206 227 255
206 227 255
206 227 255
206 227 255
206 227 255
206 227 255
206 227 255
206 227 255
206 227 255
206 227 255
206 227 255
205 227 255
205 227 255
205 227 255
205 227 255
205 227 255
205 227 255
205 227 255
205 227 255
205 227 255
205 227 255
205 226 255
205 226 255
205 226 255
205 226 255
205 226 255
205 226 255
205 226 255
204 226 255
204 226 255
204 226 255
204 226 255
204 226 255
204 226 255
204 226 255
204 226 255
204 226 255
204 226 255
204 226 255
204 226 255
204 226 255
204 226 255
204 226 255
204 226 255
204 226 255
204 226 255
204 226 255
203 226 255
203 226 255
203 226 255
203 226 255
203 226 255
203 226 255
203 226 255
203 226 255
203 226 255
203 226 255
203 225 255
203 225 255
203 225 255
203 225 255
203 225 255
203 225 255
203 225 255
203 225 255
203 225 255
203 225 255
203 225 255
203 225 255
203 225 255
203 225 255
203 225 255
202 225 255
202 225 255
202 225 255
202 225 255
202 225 255
202 225 255
202 225 255
202 225 255
202 225 255
202 225 255
202 225 255
202 225 255
202 225 255
202 225 255
202 225 255
202 225 255
202 225 255
202 225 255
202 225 255
202 225 255
202 225 255
202 225 255
202 225 255
202 225 255
202 225 255
202 225 255
202 225 255
202 225 255
202 225 255
202 225 255
202 225 255
202 225 255
202 225 255
202 225 255
202 225 255
202 225 255
202 225 255
202 225 255
202 225 255
202 225 255
202 225 255
202 225 255
202 225 255
202 225 255
202 225 255
202 225 255
202 225 255
202 225 255
202 225 255
202 225 255
202 225 255
202 225 255
203 225 255
203 225 255
203 225 255
203 225 255
203 225 255
203 225 255
203 225 255
203 225 255
203 225 255
203 225 255
203 225 255
203 225 255
203 225 255
203 225 255
203 225 255
203 226 255
203 226 255
203 226 255
203 226 255
203 226 255
203 226 255
203 226 255
203 226 255
203 226 255
203 226 255
204 226 255
204 226 255
204 226 255
204 226 255
204 226 255
204 226 255
204 226 255
204 226 255
204 226 255
204 226 255
204 226 255
204 226 255
204 226 255
204 226 255
204 226 255
204 226 255
204 226 255
204 226 255
204 226 255
205 226 255
205 226 255
205 226 255
205 226 255
205 226 255
205 226 255
205 226 255
205 227 255
205 227 255
205 227 255
205 227 255
205 227 255
205 227 255
205 227 255
205 227 255
205 227 255
205 227 255
206 227 255
206 227 255
206 227 255
206 227 255
206 227 255
206 227 255
206 227 255
206 227 255
206 227 255
206 227 255
206 227 255
206 227 255
206 227 255
206 227 255
206 227 255
206 227 255
206 227 255
206 227 255
207 227 255
207 227 255
207 227 255
207 227 255
207 228 255
207 228 255
207 228 255
207 228 255
207 228 255
207 228 255
207 228 255
207 228 255
207 228 255
207 228 255
207 228 255
207 228 255
207 228 255
207 228 255
208 228 255
208 228 255
208 228 255
208 228 255
208 228 255
208 228 255
205 224 250
199 217 239
188 204 220
179 191 197
164 173 172
158 163 151
150 155 138
146 148 124
143 144 116
128 126 87
123 121 80
129 127 85
138 136 91
135 131 87
120 118 79
133 130 87
140 137 91
139 137 91
137 134 89
138 136 90
131 129 86
131 128 85
131 129 86
134 132 88
128 127 84
128 125 83
131 128 85
133 131 87
129 126 84
134 131 87
131 128 85
132 129 85
138 134 91
142 139 103
143 143 115
160 164 150
161 166 157
169 178 178
180 190 193
187 201 213
194 211 232
207 225 249
210 229 255
210 229 255
210 229 255
210 229 255
210 229 255
210 229 255
210 229 255
210 229 255
210 229 255
210 229 255
210 229 255
210 229 255
210 230 255
210 230 255
210 230 255
211 230 255
211 230 255
211 230 255
211 230 255
211 230 255
211 230 255
211 230 255
211 230 255
211 230 255
211 230 255
211 230 255
211 230 255
211 230 255
211 230 255
211 230 255
211 230 255
211 230 255
211 230 255
211 230 255
211 230 255
211 230 255
211 230 255
211 230 255
211 230 255
211 230 255
211 230 255
211 230 255
211 230 255
211 230 255
211 230 255
211 230 255
211 230 255
210 230 255
210 230 255
210 230 255
210 229 255
210 229 255
202 221 246
194 212 236
180 198 221
185 202 226
161 177 200
151 167 189
153 171 194
164 183 208
166 184 209
163 183 208
168 188 214
170 190 217
168 189 216
169 189 217
171 192 220
174 196 224
172 193 221
174 196 224
174 195 224
175 197 226
175 198 227
175 197 226
176 198 227
174 197 226
176 198 228
176 198 228
173 195 225
174 197 227
175 198 228
175 198 228
174 197 227
171 194 224
174 197 227
175 198 228
174 198 228
172 194 224
174 197 227
171 193 223
172 195 225
174 197 226
171 193 223
171 193 223
172 195 224
166 187 216
167 189 217
162 182 209
156 176 202
157 176 202
156 175 199
166 185 210
179 199 224
184 204 229
190 209 234
201 221 247
208 228 255
208 228 255
208 228 255
208 228 255
207 228 255
207 228 255
207 228 255
207 228 255
207 228 255
207 228 255
207 228 255
207 228 255
207 228 255
207 228 255
207 228 255
207 228 255
207 228 255
207 228 255
207 227 255
207 227 255
207 227 255
207 227 255
206 227 255
206 227 255
206 227 255
206 227 255
206 227 255
206 227 255
206 227 255
206 227 255
206 227 255
206 227 255
206 227 255
206 227 255
206 227 255
206 227 255
206 227 255
206 227 255
206 227 255
205 227 255
205 227 255
205 227 255
205 227 255
205 227 255
205 227 255
205 227 255
205 227 255
205 227 255
205 227 255
205 227 255
205 226 255
205 226 255
205 226 255
205 226 255
205 226 255
205 226 255
205 226 255
204 226 255
204 226 255
204 226 255
204 226 255
204 226 255
204 226 255
204 226 255
204 226 255
204 226 255
204 226 255
204 226 255
204 226 255
204 226 255
204 226 255
204 226 255
204 226 255
204 226 255
204 226 255
204 226 255
204 226 255
203 226 255
203 226 255
203 226 255
203 226 255
203 226 255
203 226 255
203 226 255
203 226 255
203 226 255
203 226 255
203 225 255
203 225 255
203 225 255
203 225 255
203 225 255
203 225 255
203 225 255
203 225 255
203 225 255
203 225 255
203 225 255
203 225 255
203 225 255
203 225 255
203 225 255
203 225 255
203 225 255
203 225 255
203 225 255
203 225 255
202 225 255
202 225 255
202 225 255
202 225 255
202 225 255
202 225 255
202 225 255
202 225 255
202 225 255
202 225 255
202 225 255
202 225 255
202 225 255
202 225 255
202 225 255
202 225 255
202 225 255
202 225 255
202 225 255
202 225 255
202 225 255
202 225 255
202 225 255
202 225 255
202 225 255
202 225 255
202 225 255
202 225 255
202 225 255
202 225 255
202 225 255
202 225 255
203 225 255
203 225 255
203 225 255
203 225 255
203 225 255
203 225 255
203 225 255
203 225 255
203 225 255
203 225 255
203 225 255
203 225 255
203 225 255
203 225 255
203 225 255
203 225 255
203 225 255
203 225 255
203 225 255
203 226 255
203 226 255
203 226 255
203 226 255
203 226 255
203 226 255
203 226 255
203 226 255
203 226 255
203 226 255
203 226 255
204 226 255
204 226 255
204 226 255
204 226 255
204 226 255
204 226 255
204 226 255
204 226 255
204 226 255
204 226 255
204 226 255
204 226 255
204 226 255
204 226 255
204 226 255
204 226 255
204 226 255
204 226 255
204 226 255
204 226 255
205 226 255
205 226 255
205 226 255
205 226 255
205 226 255
205 226 255
205 226 255
205 227 255
205 227 255
205 227 255
205 227 255
205 227 255
205 227 255
205 227 255
205 227 255
205 227 255
205 227 255
205 227 255
206 227 255
206 227 255
206 227 255
206 227 255
206 227 255
206 227 255
206 227 255
206 227 255
206 227 255
206 227 255
206 227 255
206 227 255
206 227 255
206 227 255
206 227 255
206 227 255
206 227 255
207 227 255
207 227 255
207 227 255
207 227 255
207 228 255
207 228 255
207 228 255
207 228 255
207 228 255
207 228 255
207 228 255
207 228 255
207 228 255
207 228 255
207 228 255
207 228 255
207 228 255
207 228 255
208 228 255
208 228 255
208 228 255
208 228 255
206 225 251
185 199 212
175 188 199
171 181 183
148 154 142
132 133 104
131 129 86
125 123 82
144 142 95
138 136 91
140 138 92
136 134 90
137 135 90
136 135 90
137 136 91
129 128 85
140 139 93
133 132 89
134 133 90
146 145 97
142 140 94
142 140 94
142 140 93
141 139 93
132 130 87
126 124 83
129 127 84
130 129 86
132 130 87
135 133 88
137 135 90
142 139 93
147 144 95
131 128 85
133 130 86
139 136 90
132 130 87
135 133 88
138 136 91
135 133 88
142 138 92
135 132 87
133 131 87
142 139 92
133 128 84
141 138 91
131 127 84
133 129 83
151 153 130
140 144 132
163 170 165
176 187 192
187 201 216
204 222 246
210 229 255
210 229 255
210 230 255
210 230 255
210 230 255
211 230 255
211 230 255
211 230 255
211 230 255
211 230 255
211 230 255
211 230 255
211 230 255
211 230 255
211 230 255
211 230 255
211 230 255
211 230 255
211 230 255
211 230 255
211 230 255
211 230 255
211 230 255
211 230 255
211 230 255
211 230 255
211 230 255
211 230 255
211 230 255
211 230 255
211 230 255
211 230 255
211 230 255
211 230 255
211 230 255
211 230 255
211 230 255
211 230 255
211 230 255
211 230 255
211 230 255
205 224 249
187 205 228
183 201 225
167 184 206
156 173 195
158 175 198
164 183 207
168 187 212
164 183 208
177 197 224
171 191 218
171 191 218
176 197 225
177 199 227
178 200 228
177 199 227
177 199 228
176 198 227
177 199 228
176 199 228
175 198 228
176 199 228
176 198 228
175 198 228
175 198 228
175 198 228
174 198 228
174 198 228
174 198 228
174 198 228
174 197 228
174 198 228
173 197 228
173 197 228
173 197 228
173 197 228
173 197 228
173 197 228
173 197 228
173 197 228
172 197 228
172 197 228
173 197 228
173 197 228
173 197 228
173 197 228
173 197 228
173 197 228
174 197 228
173 197 228
173 197 228
170 193 224
173 196 226
168 191 220
169 191 220
171 193 223
165 186 214
160 180 207
160 180 207
163 183 209
170 189 214
185 204 230
193 213 239
202 222 249
208 228 255
208 228 255
208 228 255
207 228 255
207 228 255
207 228 255
207 228 255
207 228 255
207 228 255
207 228 255
207 228 255
207 228 255
207 228 255
207 228 255
207 228 255
207 228 255
207 227 255
207 227 255
207 227 255
207 227 255
207 227 255
206 227 255
206 227 255
206 227 255
206 227 255
206 227 255
206 227 255
206 227 255
206 227 255
206 227 255
206 227 255
206 227 255
206 227 255
206 227 255
206 227 255
206 227 255
206 227 255
206 227 255
205 227 255
205 227 255
205 227 255
205 227 255
205 227 255
205 227 255
205 227 255
205 227 255
205 227 255
205 227 255
205 227 255
205 226 255
205 226 255
205 226 255
205 226 255
205 226 255
205 226 255
205 226 255
204 226 255
204 226 255
204 226 255
204 226 255
204 226 255
204 226 255
204 226 255
204 226 255
204 226 255
204 226 255
204 226 255
204 226 255
204 226 255
204 226 255
204 226 255
204 226 255
204 226 255
204 226 255
204 226 255
204 226 255
204 226 255
203 226 255
203 226 255
203 226 255
203 226 255
203 226 255
203 226 255
203 226 255
203 226 255
203 226 255
203 226 255
203 226 255
203 226 255
203 225 255
203 225 255
203 225 255
203 225 255
203 225 255
203 225 255
203 225 255
203 225 255
203 225 255
203 225 255
203 225 255
203 225 255
203 225 255
203 225 255
203 225 255
203 225 255
203 225 255
203 225 255
203 225 255
203 225 255
203 225 255
203 225 255
203 225 255
203 225 255
203 225 255
203 225 255
203 225 255
203 225 255
203 225 255
203 225 255
203 225 255
203 225 255
203 225 255
203 225 255
203 225 255
203 225 255
203 225 255
203 225 255
203 225 255
203 225 255
203 225 255
203 225 255
203 225 255
203 225 255
203 225 255
203 225 255
203 225 255
203 225 255
203 225 255
203 225 255
203 225 255
203 225 255
203 225 255
203 225 255
203 225 255
203 225 255
203 225 255
203 225 255
203 226 255
203 226 255
203 226 255
203 226 255
203 226 255
203 226 255
203 226 255
203 226 255
203 226 255
203 226 255
203 226 255
203 226 255
204 226 255
204 226 255
204 226 255
204 226 255
204 226 255
204 226 255
204 226 255
204 226 255
204 226 255
204 226 255
204 226 255
204 226 255
204 226 255
204 226 255
204 226 255
204 226 255
204 226 255
204 226 255
204 226 255
204 226 255
204 226 255
205 226 255
205 226 255
205 226 255
205 226 255
205 226 255
205 226 255
205 226 255
205 227 255
205 227 255
205 227 255
205 227 255
205 227 255
205 227 255
205 227 255
205 227 255
205 227 255
205 227 255
205 227 255
206 227 255
206 227 255
206 227 255
206 227 255
206 227 255
206 227 255
206 227 255
206 227 255
206 227 255
206 227 255
206 227 255
206 227 255
206 227 255
206 227 255
206 227 255
206 227 255
206 227 255
207 227 255
207 227 255
207 227 255
207 227 255
207 227 255
207 228 255
207 228 255
207 228 255
207 228 255
207 228 255
207 228 255
207 228 255
207 228 255
207 228 255
207 228 255
207 228 255
207 228 255
207 228 255
208 228 255
208 228 255
208 228 255
200 218 239
182 196 208
166 179 190
151 157 148
137 141 123
130 128 85
131 130 87
130 129 86
128 126 84
130 128 86
133 132 88
129 128 86
130 128 86
142 141 95
133 132 89
136 135 91
128 126 84
137 136 91
141 139 93
140 139 94
145 143 96
138 137 93
143 141 95
140 139 93
144 142 95
145 144 97
146 144 97
134 133 90
135 134 90
130 128 85
134 132 88
150 148 99
137 135 90
152 149 99
146 145 97
139 136 91
143 142 95
143 141 94
140 138 92
139 137 92
141 139 93
139 136 90
144 141 94
124 123 82
145 142 95
132 130 87
142 139 92
135 133 89
139 136 90
144 141 93
129 127 84
130 127 84
135 132 88
129 126 83
132 129 86
138 134 89
132 129 84
146 143 95
133 129 84
140 139 106
157 162 150
179 190 195
190 204 219
204 221 242
211 230 255
211 230 255
211 230 255
211 230 255
211 230 255
211 230 255
211 230 255
211 230 255
211 230 255
211 230 255
211 230 255
211 230 255
211 230 255
211 230 255
211 230 255
211 230 255
211 230 255
211 230 255
211 230 255
211 230 255
211 230 255
211 230 255
211 230 255
211 230 255
211 230 255
211 230 255
211 230 255
211 230 255
211 230 255
211 230 255
211 230 255
211 230 255
202 220 245
195 213 237
180 197 221
166 183 206
155 172 194
154 171 194
169 187 212
170 189 216
174 194 220
174 195 221
174 194 221
179 199 227
176 197 225
177 199 227
177 199 228
178 200 228
177 199 228
176 199 228
175 198 228
176 198 228
176 198 228
176 199 228
175 198 228
175 198 228
174 198 228
174 198 228
174 198 228
174 197 228
173 197 228
173 197 228
173 197 228
173 197 228
173 197 228
172 197 228
172 197 228
172 197 228
171 196 228
172 196 228
171 196 228
171 196 228
171 196 228
170 196 228
171 196 228
171 196 228
171 196 228
171 196 228
171 196 228
170 196 228
171 196 228
170 196 228
171 196 228
170 196 228
171 196 228
171 196 228
171 196 228
171 196 228
172 196 228
172 196 228
172 197 228
172 197 228
172 197 228
173 197 228
171 194 225
170 193 223
170 192 221
171 193 223
168 190 218
163 184 211
163 183 208
176 195 220
181 200 224
200 220 247
208 228 255
208 228 255
207 228 255
207 228 255
207 228 255
207 228 255
207 228 255
207 228 255
207 228 255
207 228 255
207 228 255
207 228 255
207 228 255
207 228 255
207 228 255
207 228 255
207 227 255
207 227 255
207 227 255
207 227 255
206 227 255
206 227 255
206 227 255
206 227 255
206 227 255
206 227 255
206 227 255
206 227 255
206 227 255
206 227 255
206 227 255
206 227 255
206 227 255
206 227 255
206 227 255
206 227 255
206 227 255
206 227 255
205 227 255
205 227 255
205 227 255
205 227 255
205 227 255
205 227 255
205 227 255
205 227 255
205 227 255
205 227 255
205 227 255
205 226 255
205 226 255
205 226 255
205 226 255
205 226 255
205 226 255
205 226 255
205 226 255
204 226 255
204 226 255
204 226 255
204 226 255
204 226 255
204 226 255
204 226 255
204 226 255
204 226 255
204 226 255
204 226 255
204 226 255
204 226 255
204 226 255
204 226 255
204 226 255
204 226 255
204 226 255
204 226 255
204 226 255
204 226 255
204 226 255
203 226 255
203 226 255
203 226 255
203 226 255
203 226 255
203 226 255
203 226 255
203 226 255
203 226 255
203 226 255
203 226 255
203 226 255
203 226 255
203 226 255
203 226 255
203 225 255
203 225 255
203 225 255
203 225 255
203 225 255
203 225 255
203 225 255
203 225 255
203 225 255
203 225 255
203 225 255
203 225 255
203 225 255
203 225 255
203 225 255
203 225 255
203 225 255
203 225 255
203 225 255
203 225 255
203 225 255
203 225 255
203 225 255
203 225 255
203 225 255
203 225 255
203 225 255
203 225 255
203 225 255
203 225 255
203 225 255
203 225 255
203 225 255
203 225 255
203 225 255
203 225 255
203 225 255
203 225 255
203 225 255
203 225 255
203 226 255
203 226 255
203 226 255
203 226 255
203 226 255
203 226 255
203 226 255
203 226 255
203 226 255
203 226 255
203 226 255
203 226 255
203 226 255
203 226 255
204 226 255
204 226 255
204 226 255
204 226 255
204 226 255
204 226 255
204 226 255
204 226 255
204 226 255
204 226 255
204 226 255
204 226 255
204 226 255
204 226 255
204 226 255
204 226 255
204 226 255
204 226 255
204 226 255
204 226 255
204 226 255
204 226 255
204 226 255
204 226 255
205 226 255
205 226 255
205 226 255
205 226 255
205 226 255
205 226 255
205 226 255
205 227 255
205 227 255
205 227 255
205 227 255
205 227 255
205 227 255
205 227 255
205 227 255
205 227 255
205 227 255
205 227 255
206 227 255
206 227 255
206 227 255
206 227 255
206 227 255
206 227 255
206 227 255
206 227 255
206 227 255
206 227 255
206 227 255
206 227 255
206 227 255
206 227 255
206 227 255
206 227 255
206 227 255
206 227 255
207 227 255
207 227 255
207 227 255
207 227 255
207 228 255
207 228 255
207 228 255
207 228 255
207 228 255
207 228 255
207 228 255
207 228 255
207 228 255
207 228 255
207 228 255
207 228 255
207 228 255
208 228 255
208 228 255
208 228 255
198 215 236
179 194 207
169 178 174
143 144 118
126 124 83
134 133 89
137 136 91
139 138 93
143 142 95
132 132 89
136 135 91
134 133 89
128 127 85
133 132 88
129 128 86
134 133 90
141 141 95
141 140 95
143 141 95
144 144 97
144 143 96
138 137 92
141 141 95
144 143 97
138 136 91
141 139 93
139 138 93
142 141 95
134 133 89
134 133 89
143 142 95
132 131 87
145 144 97
138 136 91
147 145 97
142 140 94
143 142 95
144 143 95
140 138 93
143 142 95
143 141 95
147 144 96
145 142 94
142 140 94
147 145 97
141 139 93
150 147 98
145 143 95
142 139 93
137 135 90
140 138 92
142 138 92
133 132 88
137 134 89
137 134 89
145 142 95
144 142 95
133 130 86
146 143 95
137 133 87
131 129 86
136 133 88
136 132 87
133 130 85
136 131 86
137 133 87
132 129 84
133 129 85
138 136 103
169 176 172
184 195 204
200 216 235
211 230 255
211 230 255
211 230 255
211 230 255
211 230 255
211 230 255
211 230 255
211 230 255
211 230 255
211 230 255
211 230 255
211 230 255
211 230 255
211 230 255
212 230 255
212 230 255
212 230 255
212 230 255
211 230 255
211 230 255
211 230 255
211 230 255
211 230 255
211 230 255
206 225 250
189 206 230
177 194 217
166 183 205
156 174 196
162 180 203
166 185 209
171 190 216
172 191 217
176 197 224
176 197 225
178 198 226
178 199 227
178 200 228
178 200 228
177 199 228
177 199 228
176 199 228
177 199 228
176 199 228
175 198 228
175 198 228
175 198 228
174 198 228
174 198 228
174 198 228
174 198 228
173 197 228
173 197 228
173 197 228
173 197 228
172 197 228
172 197 228
172 196 228
172 196 228
171 196 228
171 196 228
171 196 228
171 196 228
170 196 228
171 196 228
170 196 228
170 196 228
170 195 228
170 195 228
170 195 228
170 195 228
170 195 228
169 195 228
169 195 228
169 195 228
169 195 228
169 195 228
170 195 228
169 195 228
169 195 228
169 195 228
169 195 228
169 195 228
169 195 228
170 195 228
170 196 228
169 195 228
170 195 228
170 195 228
170 196 228
171 196 228
171 196 228
172 197 228
172 197 228
173 197 228
173 196 227
173 197 227
169 192 221
162 183 211
163 184 212
167 187 213
178 197 223
182 200 225
200 220 246
208 228 255
208 228 255
207 228 255
207 228 255
207 228 255
207 228 255
207 228 255
207 228 255
207 228 255
207 228 255
207 228 255
207 228 255
207 228 255
207 228 255
207 228 255
207 228 255
207 227 255
207 227 255
207 227 255
207 227 255
206 227 255
206 227 255
206 227 255
206 227 255
206 227 255
206 227 255
206 227 255
206 227 255
206 227 255
206 227 255
206 227 255
206 227 255
206 227 255
206 227 255
206 227 255
206 227 255
206 227 255
206 227 255
205 227 255
205 227 255
205 227 255
205 227 255
205 227 255
205 227 255
205 227 255
205 227 255
205 227 255
205 227 255
205 227 255
205 226 255
205 226 255
205 226 255
205 226 255
205 226 255
205 226 255
205 226 255
205 226 255
204 226 255
204 226 255
204 226 255
204 226 255
204 226 255
204 226 255
204 226 255
204 226 255
204 226 255
204 226 255
204 226 255
204 226 255
204 226 255
204 226 255
204 226 255
204 226 255
204 226 255
204 226 255
204 226 255
204 226 255
204 226 255
204 226 255
204 226 255
204 226 255
204 226 255
203 226 255
203 226 255
203 226 255
203 226 255
203 226 255
203 226 255
203 226 255
203 226 255
203 226 255
203 226 255
203 226 255
203 226 255
203 226 255
203 226 255
203 226 255
203 226 255
203 226 255
203 226 255
203 226 255
203 226 255
203 226 255
203 226 255
203 226 255
203 226 255
203 226 255
203 226 255
203 226 255
203 226 255
203 226 255
203 226 255
203 226 255
203 226 255
203 226 255
203 226 255
203 226 255
203 226 255
203 226 255
203 226 255
203 226 255
203 226 255
203 226 255
203 226 255
203 226 255
203 226 255
203 226 255
203 226 255
203 226 255
203 226 255
203 226 255
203 226 255
203 226 255
203 226 255
203 226 255
203 226 255
203 226 255
203 226 255
204 226 255
204 226 255
204 226 255
204 226 255
204 226 255
204 226 255
204 226 255
204 226 255
204 226 255
204 226 255
204 226 255
204 226 255
204 226 255
204 226 255
204 226 255
204 226 255
204 226 255
204 226 255
204 226 255
204 226 255
204 226 255
204 226 255
204 226 255
204 226 255
204 226 255
205 226 255
205 226 255
205 226 255
205 226 255
205 226 255
205 226 255
205 226 255
205 226 255
205 227 255
205 227 255
205 227 255
205 227 255
205 227 255
205 227 255
205 227 255
205 227 255
205 227 255
205 227 255
205 227 255
206 227 255
206 227 255
206 227 255
206 227 255
206 227 255
206 227 255
206 227 255
206 227 255
206 227 255
206 227 255
206 227 255
206 227 255
206 227 255
206 227 255
206 227 255
206 227 255
206 227 255
206 227 255
207 227 255
207 227 255
207 227 255
207 227 255
207 228 255
207 228 255
207 228 255
207 228 255
207 228 255
207 228 255
207 228 255
207 228 255
207 228 255
207 228 255
207 228 255
207 228 255
207 228 255
207 228 255
208 228 255
208 228 255
201 220 244
190 205 221
151 158 154
147 147 112
135 133 89
128 127 85
135 134 90
129 128 86
142 140 94
145 143 96
134 132 88
138 137 92
142 142 95
141 140 94
148 147 99
141 140 94
145 145 98
128 128 86
145 145 97
136 136 92
135 134 90
148 148 99
140 140 95
147 146 98
146 145 97
148 147 99
131 130 87
152 151 101
146 145 97
146 146 98
143 142 95
147 146 98
145 144 97
144 143 96
139 138 93
139 138 93
148 146 97
141 140 94
139 138 93
142 141 95
150 148 99
149 147 98
145 144 96
134 133 89
148 146 97
151 149 99
139 137 91
149 147 98
139 137 91
139 137 92
151 147 97
147 144 96
142 139 93
141 139 93
149 147 98
147 143 95
149 146 97
151 148 99
148 145 97
138 136 91
145 142 95
157 154 103
155 152 101
137 133 87
142 139 93
146 142 94
141 137 91
140 137 90
147 144 95
139 135 90
131 127 82
127 124 82
137 133 86
125 122 80
127 124 80
136 132 87
134 134 109
172 179 174
181 193 206
207 223 245
211 230 255
211 230 255
211 230 255
211 230 255
211 230 255
211 230 255
212 230 255
212 230 255
212 230 255
212 230 255
212 230 255
212 230 255
212 230 255
212 230 255
212 230 255
212 230 255
212 230 255
204 222 247
184 201 224
164 180 202
161 178 200
166 184 208
171 189 214
169 188 213
172 191 217
181 202 228
176 196 223
178 199 226
179 200 228
179 200 228
179 200 228
178 200 228
177 199 228
177 199 228
177 199 228
177 199 228
176 199 228
175 198 228
175 198 228
175 198 228
174 198 228
174 198 228
174 198 228
174 198 228
173 197 228
173 197 228
172 197 228
172 197 228
172 197 228
172 197 228
171 196 228
171 196 228
171 196 228
171 196 228
170 196 228
171 196 228
171 196 228
170 196 228
170 196 228
169 195 228
170 195 228
170 195 228
169 195 228
169 195 228
169 195 228
169 195 228
169 195 228
169 195 228
168 195 228
168 195 228
168 195 228
168 194 228
168 194 228
168 194 228
168 195 228
168 194 228
168 194 228
168 194 228
167 194 228
168 194 228
168 194 228
168 194 228
168 195 228
168 195 228
169 195 228
169 195 228
169 195 228
169 195 228
169 195 228
170 195 228
170 195 228
171 196 228
171 196 228
171 196 228
172 197 228
173 197 228
171 194 225
167 189 218
161 182 209
152 172 197
164 183 208
171 190 214
190 209 234
208 228 255
208 228 255
208 228 255
207 228 255
207 228 255
207 228 255
207 228 255
207 228 255
207 228 255
207 228 255
207 228 255
207 228 255
207 228 255
207 228 255
207 228 255
207 228 255
207 228 255
207 227 255
207 227 255
207 227 255
207 227 255
206 227 255
206 227 255
206 227 255
206 227 255
206 227 255
206 227 255
206 227 255
206 227 255
206 227 255
206 227 255
206 227 255
206 227 255
206 227 255
206 227 255
206 227 255
206 227 255
206 227 255
206 227 255
205 227 255
205 227 255
205 227 255
205 227 255
205 227 255
205 227 255
205 227 255
205 227 255
205 227 255
205 227 255
205 227 255
205 227 255
205 226 255
205 226 255
205 226 255
205 226 255
205 226 255
205 226 255
205 226 255
205 226 255
205 226 255
204 226 255
204 226 255
204 226 255
204 226 255
204 226 255
204 226 255
204 226 255
204 226 255
204 226 255
204 226 255
204 226 255
204 226 255
204 226 255
204 226 255
204 226 255
204 226 255
204 226 255
204 226 255
204 226 255
204 226 255
204 226 255
204 226 255
204 226 255
204 226 255
204 226 255
204 226 255
204 226 255
204 226 255
204 226 255
203 226 255
203 226 255
203 226 255
203 226 255
203 226 255
203 226 255
203 226 255
203 226 255
203 226 255
203 226 255
203 226 255
203 226 255
203 226 255
203 226 255
203 226 255
203 226 255
203 226 255
203 226 255
203 226 255
203 226 255
203 226 255
203 226 255
203 226 255
203 226 255
203 226 255
203 226 255
203 226 255
203 226 255
203 226 255
203 226 255
203 226 255
203 226 255
203 226 255
203 226 255
203 226 255
203 226 255
204 226 255
204 226 255
204 226 255
204 226 255
204 226 255
204 226 255
204 226 255
204 226 255
204 226 255
204 226 255
204 226 255
204 226 255
204 226 255
204 226 255
204 226 255
204 226 255
204 226 255
204 226 255
204 226 255
204 226 255
204 226 255
204 226 255
204 226 255
204 226 255
204 226 255
204 226 255
204 226 255
204 226 255
204 226 255
204 226 255
205 226 255
205 226 255
205 226 255
205 226 255
205 226 255
205 226 255
205 226 255
205 226 255
205 227 255
205 227 255
205 227 255
205 227 255
205 227 255
205 227 255
205 227 255
205 227 255
205 227 255
205 227 255
205 227 255
205 227 255
206 227 255
206 227 255
206 227 255
206 227 255
206 227 255
206 227 255
206 227 255
206 227 255
206 227 255
206 227 255
206 227 255
206 227 255
206 227 255
206 227 255
206 227 255
206 227 255
206 227 255
206 227 255
207 227 255
207 227 255
207 227 255
207 227 255
207 228 255
207 228 255
207 228 255
207 228 255
207 228 255
207 228 255
207 228 255
207 228 255
207 228 255
207 228 255
207 228 255
207 228 255
207 228 255
207 228 255
208 228 255
208 228 255
208 228 255
197 214 234
168 179 183
140 144 126
144 142 97
144 142 95
132 131 87
130 128 86
132 131 88
134 133 90
142 141 95
145 144 97
147 146 99
138 138 93
147 146 99
147 146 99
142 141 95
145 144 97
138 137 93
138 138 93
143 142 96
137 136 92
142 143 97
146 145 98
139 138 93
139 138 93
142 142 96
143 143 96
146 145 97
147 146 99
149 148 100
148 147 99
148 146 97
145 145 97
140 139 94
142 141 95
144 143 96
151 150 101
147 147 99
140 138 93
153 152 102
150 149 101
157 156 104
145 143 96
147 145 97
150 148 99
148 146 97
151 149 99
140 139 93
142 140 94
143 141 94
152 150 100
139 137 92
143 141 95
150 147 98
142 141 94
148 146 97
135 133 89
153 150 100
151 148 99
142 139 92
152 149 99
155 152 101
155 152 101
143 140 93
146 143 95
146 143 95
147 144 95
150 146 96
143 139 91
146 143 93
150 146 97
132 128 84
144 141 93
140 136 87
142 138 90
145 141 92
141 137 89
130 127 83
138 135 89
143 139 91
140 135 87
136 131 85
131 127 83
149 151 133
186 198 207
201 216 234
212 230 255
212 230 255
212 230 255
212 230 255
212 230 255
212 230 255
212 230 255
212 230 255
212 230 255
212 230 255
211 229 254
199 216 240
181 198 220
157 173 194
157 173 195
159 176 199
164 182 206
174 193 218
176 195 221
177 196 223
178 198 225
180 201 228
180 201 228
178 200 228
179 200 228
178 200 228
178 200 228
178 200 228
177 199 228
176 199 228
176 199 228
176 198 228
176 198 228
175 198 228
174 198 228
174 198 228
174 198 228
174 197 228
174 197 228
173 197 228
173 197 228
172 197 228
172 197 228
172 196 228
172 196 228
171 196 228
171 196 228
171 196 228
171 196 228
170 196 228
170 195 228
170 196 228
170 195 228
170 195 228
170 195 228
169 195 228
169 195 228
168 195 228
168 194 228
169 195 228
169 195 228
168 194 228
168 195 228
168 194 228
168 194 228
167 194 228
167 194 228
167 194 228
167 194 228
167 194 228
167 194 228
167 194 228
167 194 228
167 194 228
167 194 228
167 194 228
167 194 228
167 194 228
167 194 228
167 194 228
167 194 228
167 194 228
167 194 228
167 194 228
168 194 228
168 194 228
168 195 228
168 195 228
169 195 228
169 195 228
169 195 228
170 196 228
170 196 228
171 196 228
172 196 228
173 197 228
173 197 228
167 190 219
166 188 217
166 187 216
161 180 206
179 199 225
198 218 245
207 228 255
208 228 255
208 228 255
208 228 255
207 228 255
207 228 255
207 228 255
207 228 255
207 228 255
207 228 255
207 228 255
207 228 255
207 228 255
207 228 255
207 228 255
207 228 255
207 228 255
207 228 255
207 227 255
207 227 255
207 227 255
207 227 255
206 227 255
206 227 255
206 227 255
206 227 255
206 227 255
206 227 255
206 227 255
206 227 255
206 227 255
206 227 255
206 227 255
206 227 255
206 227 255
206 227 255
206 227 255
206 227 255
206 227 255
206 227 255
206 227 255
205 227 255
205 227 255
205 227 255
205 227 255
205 227 255
205 227 255
205 227 255
205 227 255
205 227 255
205 227 255
205 227 255
205 227 255
205 226 255
205 226 255
205 226 255
205 226 255
205 226 255
205 226 255
205 226 255
205 226 255
205 226 255
204 226 255
204 226 255
204 226 255
204 226 255
204 226 255
204 226 255
204 226 255
204 226 255
204 226 255
204 226 255
204 226 255
204 226 255
204 226 255
204 226 255
204 226 255
204 226 255
204 226 255
204 226 255
204 226 255
204 226 255
204 226 255
204 226 255
204 226 255
204 226 255
204 226 255
204 226 255
204 226 255
204 226 255
204 226 255
204 226 255
204 226 255
204 226 255
204 226 255
204 226 255
204 226 255
204 226 255
204 226 255
204 226 255
204 226 255
204 226 255
204 226 255
204 226 255
204 226 255
204 226 255
204 226 255
204 226 255
204 226 255
204 226 255
204 226 255
204 226 255
204 226 255
204 226 255
204 226 255
204 226 255
204 226 255
204 226 255
204 226 255
204 226 255
204 226 255
204 226 255
204 226 255
204 226 255
204 226 255
204 226 255
204 226 255
204 226 255
204 226 255
204 226 255
204 226 255
204 226 255
204 226 255
204 226 255
204 226 255
204 226 255
204 226 255
204 226 255
204 226 255
204 226 255
204 226 255
204 226 255
204 226 255
204 226 255
204 226 255
204 226 255
205 226 255
205 226 255
205 226 255
205 226 255
205 226 255
205 226 255
205 226 255
205 226 255
205 226 255
205 227 255
205 227 255
205 227 255
205 227 255
205 227 255
205 227 255
205 227 255
205 227 255
205 227 255
205 227 255
205 227 255
205 227 255
206 227 255
206 227 255
206 227 255
206 227 255
206 227 255
206 227 255
206 227 255
206 227 255
206 227 255
206 227 255
206 227 255
206 227 255
206 227 255
206 227 255
206 227 255
206 227 255
206 227 255
206 227 255
206 227 255
207 227 255
207 227 255
207 227 255
207 227 255
207 228 255
207 228 255
207 228 255
207 228 255
207 228 255
207 228 255
207 228 255
207 228 255
207 228 255
207 228 255
207 228 255
207 228 255
207 228 255
207 228 255
208 228 255
208 228 255
208 228 255
208 228 255
197 214 234
174 185 188
139 141 120
127 125 84
135 132 88
136 135 90
140 139 93
133 132 89
131 131 88
144 144 97
142 141 95
135 134 90
140 139 93
139 138 93
140 140 94
144 143 96
141 141 95
141 140 95
146 145 98
153 152 103
133 133 90
134 134 90
147 146 99
146 146 99
154 153 103
141 140 95
133 133 90
143 143 97
149 148 100
142 142 95
146 145 98
140 140 94
151 150 101
137 137 93
145 144 97
149 148 99
144 143 96
149 148 100
147 145 97
154 154 104
156 155 104
152 151 101
152 151 101
149 148 99
149 147 99
153 152 103
141 141 95
154 153 103
145 144 97
152 151 101
155 153 103
153 152 102
156 154 103
159 156 104
140 139 93
142 141 95
146 144 97
151 149 99
150 148 99
145 143 95
152 150 100
149 147 99
153 149 99
146 144 96
151 148 99
137 135 90
150 147 98
154 152 101
152 148 98
147 144 95
150 147 97
146 143 95
139 136 90
143 140 93
145 141 93
140 137 91
142 138 91
137 134 89
142 139 91
135 132 87
135 131 87
142 138 90
142 137 89
131 127 82
132 128 82
145 141 93
126 121 77
133 129 84
131 127 82
135 135 110
157 165 166
199 214 232
212 230 255
212 230 255
212 230 255
212 230 255
212 230 255
199 216 240
186 203 226
167 183 205
160 176 198
162 179 202
168 185 209
171 190 214
175 194 220
178 198 224
177 198 225
180 201 228
180 201 228
179 200 228
179 200 228
179 200 228
179 200 228
178 200 228
178 200 228
176 199 228
176 198 228
176 199 228
175 198 228
175 198 228
175 198 228
175 198 228
174 198 228
174 198 228
174 197 228
174 197 228
173 197 228
172 197 228
172 197 228
172 197 228
172 196 228
172 196 228
171 196 228
171 196 228
171 196 228
171 196 228
171 196 228
170 195 228
170 196 228
170 195 228
169 195 228
169 195 228
169 195 228
168 194 228
168 195 228
168 194 228
168 195 228
168 195 228
168 194 228
168 194 228
168 194 228
167 194 228
166 194 228
167 194 228
167 194 228
166 194 228
167 194 228
166 193 228
166 194 228
166 193 228
166 193 228
166 193 228
166 193 228
166 193 228
166 193 228
166 193 228
165 193 228
166 193 228
166 193 228
166 193 228
166 193 228
167 194 228
166 193 228
166 193 228
166 194 228
167 194 228
166 194 228
167 194 228
167 194 228
167 194 228
168 195 228
168 195 228
168 195 228
169 195 228
170 196 228
170 196 228
171 196 228
172 196 228
173 197 228
173 196 226
168 190 219
164 185 213
166 185 210
180 199 224
199 219 245
208 228 255
208 228 255
208 228 255
208 228 255
208 228 255
207 228 255
207 228 255
207 228 255
207 228 255
207 228 255
207 228 255
207 228 255
207 228 255
207 228 255
207 228 255
207 228 255
207 228 255
207 228 255
207 228 255
207 227 255
207 227 255
207 227 255
207 227 255
206 227 255
206 227 255
206 227 255
206 227 255
206 227 255
206 227 255
206 227 255
206 227 255
206 227 255
206 227 255
206 227 255
206 227 255
206 227 255
206 227 255
206 227 255
206 227 255
206 227 255
206 227 255
206 227 255
205 227 255
205 227 255
205 227 255
205 227 255
205 227 255
205 227 255
205 227 255
205 227 255
205 227 255
205 227 255
205 227 255
205 227 255
205 227 255
205 226 255
205 226 255
205 226 255
205 226 255
205 226 255
205 226 255
205 226 255
205 226 255
205 226 255
205 226 255
205 226 255
204 226 255
204 226 255
204 226 255
204 226 255
204 226 255
204 226 255
204 226 255
204 226 255
204 226 255
204 226 255
204 226 255
204 226 255
204 226 255
204 226 255
204 226 255
204 226 255
204 226 255
204 226 255
204 226 255
204 226 255
204 226 255
204 226 255
204 226 255
204 226 255
204 226 255
204 226 255
204 226 255
204 226 255
204 226 255
204 226 255
204 226 255
204 226 255
204 226 255
204 226 255
204 226 255
204 226 255
204 226 255
204 226 255
204 226 255
204 226 255
204 226 255
204 226 255
204 226 255
204 226 255
204 226 255
204 226 255
204 226 255
204 226 255
204 226 255
204 226 255
204 226 255
204 226 255
204 226 255
204 226 255
204 226 255
204 226 255
204 226 255
204 226 255
204 226 255
204 226 255
204 226 255
204 226 255
204 226 255
204 226 255
204 226 255
204 226 255
204 226 255
204 226 255
204 226 255
204 226 255
205 226 255
205 226 255
205 226 255
205 226 255
205 226 255
205 226 255
205 226 255
205 226 255
205 226 255
205 226 255
205 226 255
205 227 255
205 227 255
205 227 255
205 227 255
205 227 255
205 227 255
205 227 255
205 227 255
205 227 255
205 227 255
205 227 255
205 227 255
206 227 255
206 227 255
206 227 255
206 227 255
206 227 255
206 227 255
206 227 255
206 227 255
206 227 255
206 227 255
206 227 255
206 227 255
206 227 255
206 227 255
206 227 255
206 227 255
206 227 255
206 227 255
206 227 255
206 227 255
207 227 255
207 227 255
207 227 255
207 227 255
207 228 255
207 228 255
207 228 255
207 228 255
207 228 255
207 228 255
207 228 255
207 228 255
207 228 255
207 228 255
207 228 255
207 228 255
207 228 255
207 228 255
208 228 255
208 228 255
208 228 255
208 228 255
208 228 255
200 218 242
173 186 196
142 143 116
129 127 85
127 126 84
133 132 88
138 137 92
135 134 90
136 134 90
137 137 93
139 138 93
146 145 97
135 134 90
148 149 101
141 141 95
141 141 95
151 151 102
142 142 96
138 138 93
149 149 101
147 146 99
144 144 97
139 138 93
148 148 100
145 146 99
147 147 99
148 148 100
139 139 94
151 150 101
139 138 93
140 139 94
146 145 98
147 146 99
143 142 96
148 146 98
144 144 97
151 150 101
146 145 98
139 138 93
152 151 101
137 137 92
145 144 97
151 150 101
150 149 100
150 149 100
150 149 100
155 154 104
148 147 99
148 146 98
150 149 100
154 152 101
149 147 99
155 153 103
149 147 99
157 156 104
156 154 103
153 151 101
146 144 97
154 151 101
149 146 97
155 152 101
150 148 99
157 154 103
141 139 93
147 144 96
148 145 97
146 144 96
151 148 99
153 151 101
148 146 97
142 140 93
154 151 101
153 149 99
143 140 93
144 142 95
150 147 98
147 144 95
146 142 93
142 138 90
149 144 95
144 140 92
141 138 91
150 147 97
148 143 94
135 132 85
141 138 90
134 130 84
141 137 90
130 127 83
134 131 86
144 140 90
139 134 86
141 137 90
128 125 81
145 141 92
140 138 106
177 187 190
199 215 234
212 230 255
164 179 200
163 180 202
166 183 206
164 181 204
169 187 211
177 197 223
180 200 226
181 202 228
180 201 228
180 201 228
179 200 228
179 200 228
179 200 228
178 200 228
178 200 228
178 200 228
177 199 228
177 199 228
176 199 228
176 199 228
176 199 228
174 198 228
175 198 228
175 198 228
174 198 228
173 197 228
173 197 228
173 197 228
173 197 228
172 197 228
172 197 228
172 196 228
172 197 228
172 196 228
171 196 228
171 196 228
171 196 228
170 196 228
170 195 228
170 195 228
169 195 228
170 195 228
169 195 228
169 195 228
169 195 228
168 195 228
168 195 228
168 195 228
168 194 228
167 194 228
168 194 228
167 194 228
168 194 228
167 194 228
167 194 228
167 194 228
167 194 228
166 193 228
166 194 228
166 193 228
166 193 228
165 193 228
166 193 228
165 193 228
165 193 228
165 193 228
165 193 228
165 193 228
165 193 228
165 193 228
165 193 228
165 193 228
165 193 228
165 193 228
165 193 228
165 193 228
165 193 228
165 193 228
165 193 228
165 193 228
165 193 228
166 193 228
166 193 228
166 193 228
166 193 228
167 194 228
167 194 228
167 194 228
168 194 228
168 195 228
169 195 228
169 195 228
170 195 228
170 196 228
171 196 228
172 197 228
172 195 225
170 192 221
156 175 202
165 185 210
187 207 233
205 225 252
208 228 255
208 228 255
208 228 255
208 228 255
208 228 255
208 228 255
207 228 255
207 228 255
207 228 255
207 228 255
207 228 255
207 228 255
207 228 255
207 228 255
207 228 255
207 228 255
207 228 255
207 228 255
207 228 255
207 228 255
207 227 255
207 227 255
207 227 255
207 227 255
207 227 255
206 227 255
206 227 255
206 227 255
206 227 255
206 227 255
206 227 255
206 227 255
206 227 255
206 227 255
206 227 255
206 227 255
206 227 255
206 227 255
206 227 255
206 227 255
206 227 255
206 227 255
206 227 255
206 227 255
205 227 255
205 227 255
205 227 255
205 227 255
205 227 255
205 227 255
205 227 255
205 227 255
205 227 255
205 227 255
205 227 255
205 227 255
205 227 255
205 227 255
205 226 255
205 226 255
205 226 255
205 226 255
205 226 255
205 226 255
205 226 255
205 226 255
205 226 255
205 226 255
205 226 255
205 226 255
204 226 255
204 226 255
204 226 255
204 226 255
204 226 255
204 226 255
204 226 255
204 226 255
204 226 255
204 226 255
204 226 255
204 226 255
204 226 255
204 226 255
204 226 255
204 226 255
204 226 255
204 226 255
204 226 255
204 226 255
204 226 255
204 226 255
204 226 255
204 226 255
204 226 255
204 226 255
204 226 255
204 226 255
204 226 255
204 226 255
204 226 255
204 226 255
204 226 255
204 226 255
204 226 255
204 226 255
204 226 255
204 226 255
204 226 255
204 226 255
204 226 255
204 226 255
204 226 255
204 226 255
204 226 255
204 226 255
204 226 255
204 226 255
204 226 255
204 226 255
204 226 255
204 226 255
204 226 255
204 226 255
204 226 255
204 226 255
205 226 255
205 226 255
205 226 255
205 226 255
205 226 255
205 226 255
205 226 255
205 226 255
205 226 255
205 226 255
205 226 255
205 226 255
205 227 255
205 227 255
205 227 255
205 227 255
205 227 255
205 227 255
205 227 255
205 227 255
205 227 255
205 227 255
205 227 255
205 227 255
205 227 255
205 227 255
206 227 255
206 227 255
206 227 255
206 227 255
206 227 255
206 227 255
206 227 255
206 227 255
206 227 255
206 227 255
206 227 255
206 227 255
206 227 255
206 227 255
206 227 255
206 227 255
206 227 255
206 227 255
206 227 255
207 227 255
207 227 255
207 227 255
207 227 255
207 227 255
207 228 255
207 228 255
207 228 255
207 228 255
207 228 255
207 228 255
207 228 255
207 228 255
207 228 255
207 228 255
207 228 255
207 228 255
207 228 255
207 228 255
208 228 255
208 228 255
208 228 255
208 228 255
208 228 255
208 228 255
203 222 246
183 197 209
157 162 146
129 127 85
143 141 95
127 125 84
121 120 80
131 130 87
134 133 90
141 140 95
141 140 95
139 138 93
149 149 101
136 136 92
144 144 97
143 142 96
141 141 95
152 152 103
144 144 97
142 142 96
151 151 102
146 146 99
150 151 102
149 149 101
143 143 97
145 145 98
153 153 103
152 151 102
147 147 99
150 150 101
153 153 103
140 140 95
158 158 106
146 146 99
146 147 99
152 151 102
146 145 98
151 150 101
147 147 99
154 153 103
153 152 103
154 153 103
153 153 103
151 150 101
145 145 98
147 146 99
153 152 103
151 150 101
156 154 103
150 149 100
149 148 99
154 153 103
155 154 104
150 148 99
155 153 103
142 141 95
145 143 95
153 152 102
153 151 101
150 148 99
156 154 103
151 149 99
145 142 95
150 147 98
154 152 101
153 151 101
148 146 97
148 146 97
158 155 103
156 153 101
147 144 96
138 136 90
157 152 101
146 142 94
152 148 98
150 146 97
148 145 96
148 146 97
145 141 93
150 147 97
153 149 99
140 137 91
140 137 91
150 146 97
148 145 96
147 144 95
133 129 83
139 136 90
133 130 86
148 143 95
139 135 88
147 143 93
137 133 88
146 142 91
137 132 85
135 131 86
150 145 93
129 124 79
140 135 87
135 131 82
134 129 82
152 154 139
170 187 211
173 191 216
177 196 221
178 197 223
182 202 228
181 201 228
181 201 228
180 201 228
180 201 228
180 201 228
179 200 228
179 200 228
179 200 228
178 200 228
177 199 228
177 199 228
177 199 228
176 199 228
176 199 228
175 198 228
175 198 228
175 198 228
174 198 228
174 197 228
174 197 228
174 197 228
174 197 228
173 197 228
173 197 228
173 197 228
172 197 228
171 196 228
172 196 228
171 196 228
171 196 228
170 196 228
171 196 228
170 196 228
170 195 228
170 195 228
169 195 228
169 195 228
169 195 228
169 195 228
168 195 228
168 195 228
168 195 228
168 194 228
168 194 228
167 194 228
167 194 228
167 194 228
167 194 228
167 194 228
166 194 228
166 193 228
166 193 228
166 193 228
166 193 228
166 193 228
165 193 228
165 193 228
165 193 228
165 193 228
165 193 228
165 193 228
165 193 228
165 193 228
165 193 228
164 193 228
164 193 228
164 193 228
165 193 228
164 192 228
165 193 228
164 192 228
164 193 228
164 192 228
164 193 228
164 193 228
165 193 228
165 193 228
165 193 228
165 193 228
165 193 228
165 193 228
166 193 228
166 194 228
166 194 228
167 194 228
167 194 228
168 194 228
168 195 228
168 195 228
169 195 228
170 196 228
171 196 228
172 197 228
173 197 228
171 194 225
168 190 219
160 180 206
173 191 216
195 215 241
208 228 255
208 228 255
208 228 255
208 228 255
208 228 255
208 228 255
208 228 255
208 228 255
207 228 255
207 228 255
207 228 255
207 228 255
207 228 255
207 228 255
207 228 255
207 228 255
207 228 255
207 228 255
207 228 255
207 228 255
207 228 255
207 228 255
207 227 255
207 227 255
207 227 255
207 227 255
207 227 255
206 227 255
206 227 255
206 227 255
206 227 255
206 227 255
206 227 255
206 227 255
206 227 255
206 227 255
206 227 255
206 227 255
206 227 255
206 227 255
206 227 255
206 227 255
206 227 255
206 227 255
206 227 255
206 227 255
206 227 255
206 227 255
205 227 255
205 227 255
205 227 255
205 227 255
205 227 255
205 227 255
205 227 255
205 227 255
205 227 255
205 227 255
205 227 255
205 227 255
205 227 255
205 227 255
205 227 255
205 226 255
205 226 255
205 226 255
205 226 255
205 226 255
205 226 255
205 226 255
205 226 255
205 226 255
205 226 255
205 226 255
205 226 255
205 226 255
205 226 255
205 226 255
204 226 255
204 226 255
204 226 255
204 226 255
204 226 255
204 226 255
204 226 255
204 226 255
204 226 255
204 226 255
204 226 255
204 226 255
204 226 255
204 226 255
204 226 255
204 226 255
204 226 255
204 226 255
204 226 255
204 226 255
204 226 255
204 226 255
204 226 255
204 226 255
204 226 255
204 226 255
204 226 255
204 226 255
204 226 255
204 226 255
204 226 255
204 226 255
204 226 255
204 226 255
204 226 255
205 226 255
205 226 255
205 226 255
205 226 255
205 226 255
205 226 255
205 226 255
205 226 255
205 226 255
205 226 255
205 226 255
205 226 255
205 226 255
205 226 255
205 226 255
205 226 255
205 227 255
205 227 255
205 227 255
205 227 255
205 227 255
205 227 255
205 227 255
205 227 255
205 227 255
205 227 255
205 227 255
205 227 255
205 227 255
205 227 255
205 227 255
206 227 255
206 227 255
206 227 255
206 227 255
206 227 255
206 227 255
206 227 255
206 227 255
206 227 255
206 227 255
206 227 255
206 227 255
206 227 255
206 227 255
206 227 255
206 227 255
206 227 255
206 227 255
206 227 255
206 227 255
206 227 255
207 227 255
207 227 255
207 227 255
207 227 255
207 227 255
207 228 255
207 228 255
207 228 255
207 228 255
207 228 255
207 228 255
207 228 255
207 228 255
207 228 255
207 228 255
207 228 255
207 228 255
207 228 255
207 228 255
208 228 255
208 228 255
208 228 255
208 228 255
208 228 255
208 228 255
208 228 255
208 228 255
187 203 221
167 176 174
127 125 86
128 127 85
139 138 93
131 130 87
129 129 87
137 136 92
143 142 96
147 147 99
147 146 99
143 143 97
137 138 93
143 142 96
150 149 101
148 148 100
137 137 93
145 144 97
150 150 101
153 153 103
154 154 104
149 150 101
139 139 94
148 149 101
147 146 99
142 142 96
146 146 99
149 149 101
146 145 98
146 147 99
150 150 101
158 157 106
154 154 104
149 149 101
153 152 103
148 147 99
150 150 101
149 149 101
153 152 103
151 151 101
147 147 99
142 142 96
155 154 104
147 147 99
154 153 103
155 154 103
162 161 108
145 144 97
151 150 101
153 152 103
148 146 98
156 155 104
150 148 99
148 147 99
164 162 109
158 156 104
148 146 98
145 144 97
158 157 105
146 144 96
159 157 104
157 154 103
153 151 101
158 155 103
153 150 100
150 148 99
149 146 97
155 152 101
154 151 101
144 142 95
155 152 101
150 148 99
149 147 98
145 144 96
154 150 99
150 147 98
146 144 96
148 144 95
148 145 96
145 143 95
147 144 95
153 149 99
154 150 98
138 134 89
147 143 94
155 151 99
148 145 96
141 137 90
147 142 93
148 144 95
151 148 97
145 140 91
142 138 89
146 143 93
141 137 90
138 134 88
148 143 92
131 127 83
141 136 87
141 138 90
146 142 93
131 128 84
135 130 84
132 127 82
180 199 225
182 202 228
182 202 228
182 202 228
181 201 228
181 201 228
180 201 228
180 201 228
179 200 228
178 200 228
178 200 228
178 199 228
178 200 228
177 199 228
177 199 228
177 199 228
176 199 228
176 198 228
175 198 228
175 198 228
174 198 228
174 198 228
174 198 228
173 197 228
173 197 228
173 197 228
173 197 228
172 197 228
172 197 228
172 197 228
172 196 228
171 196 228
171 196 228
171 196 228
170 196 228
171 196 228
170 196 228
170 196 228
169 195 228
169 195 228
169 195 228
169 195 228
168 195 228
168 195 228
168 195 228
168 194 228
168 194 228
168 194 228
167 194 228
167 194 228
167 194 228
167 194 228
166 194 228
166 194 228
166 193 228
166 193 228
166 193 228
166 193 228
165 193 228
165 193 228
165 193 228
165 193 228
165 193 228
164 193 228
165 193 228
164 193 228
164 193 228
164 192 228
164 192 228
164 192 228
164 192 228
164 192 228
164 192 228
164 192 228
164 192 228
163 192 228
164 192 228
164 192 228
163 192 228
164 192 228
164 192 228
164 192 228
164 192 228
164 192 228
164 193 228
165 193 228
165 193 228
165 193 228
165 193 228
166 193 228
166 193 228
166 193 228
166 193 228
167 194 228
167 194 228
168 194 228
169 195 228
170 195 228
170 196 228
171 196 228
172 197 228
173 196 227
171 194 224
168 190 218
164 183 207
193 212 239
206 227 254
208 228 255
208 228 255
208 228 255
208 228 255
208 228 255
208 228 255
208 228 255
208 228 255
208 228 255
207 228 255
207 228 255
207 228 255
207 228 255
207 228 255
207 228 255
207 228 255
207 228 255
207 228 255
207 228 255
207 228 255
207 228 255
207 228 255
207 228 255
207 228 255
207 227 255
207 227 255
207 227 255
207 227 255
207 227 255
206 227 255
206 227 255
206 227 255
206 227 255
206 227 255
206 227 255
206 227 255
206 227 255
206 227 255
206 227 255
206 227 255
206 227 255
206 227 255
206 227 255
206 227 255
206 227 255
206 227 255
206 227 255
206 227 255
206 227 255
206 227 255
206 227 255
205 227 255
205 227 255
205 227 255
205 227 255
205 227 255
205 227 255
205 227 255
205 227 255
205 227 255
205 227 255
205 227 255
205 227 255
205 227 255
205 227 255
205 227 255
205 227 255
205 227 255
205 227 255
205 226 255
205 226 255
205 226 255
205 226 255
205 226 255
205 226 255
205 226 255
205 226 255
205 226 255
205 226 255
205 226 255
205 226 255
205 226 255
205 226 255
205 226 255
205 226 255
205 226 255
205 226 255
205 226 255
205 226 255
205 226 255
205 226 255
205 226 255
205 226 255
205 226 255
205 226 255
205 226 255
205 226 255
205 226 255
205 226 255
205 226 255
205 226 255
205 226 255
205 226 255
205 226 255
205 226 255
205 226 255
205 226 255
205 226 255
205 226 255
205 226 255
205 226 255
205 226 255
205 226 255
205 226 255
205 226 255
205 226 255
205 226 255
205 227 255
205 227 255
205 227 255
205 227 255
205 227 255
205 227 255
205 227 255
205 227 255
205 227 255
205 227 255
205 227 255
205 227 255
205 227 255
205 227 255
205 227 255
205 227 255
205 227 255
205 227 255
206 227 255
206 227 255
206 227 255
206 227 255
206 227 255
206 227 255
206 227 255
206 227 255
206 227 255
206 227 255
206 227 255
206 227 255
206 227 255
206 227 255
206 227 255
206 227 255
206 227 255
206 227 255
206 227 255
206 227 255
206 227 255
206 227 255
207 227 255
207 227 255
207 227 255
207 227 255
207 227 255
207 228 255
207 228 255
207 228 255
207 228 255
207 228 255
207 228 255
207 228 255
207 228 255
207 228 255
207 228 255
207 228 255
207 228 255
207 228 255
207 228 255
207 228 255
208 228 255
208 228 255
208 228 255
208 228 255
208 228 255
208 228 255
208 228 255
208 228 255
208 228 255
207 226 251
183 198 214
151 155 135
137 135 90
130 128 85
137 135 90
139 138 93
137 136 91
139 139 93
143 142 95
145 144 97
143 142 96
140 140 94
145 145 98
149 149 101
140 140 95
149 149 101
146 146 99
148 149 101
142 142 96
146 146 99
144 144 97
149 149 101
154 154 104
143 144 97
148 148 99
148 149 101
153 153 104
135 135 91
151 152 103
142 142 96
155 154 104
153 153 103
157 156 106
149 148 100
146 146 99
147 146 99
151 150 101
151 150 101
153 153 104
157 157 106
153 152 103
150 150 101
153 153 103
149 148 100
147 145 97
149 149 101
151 150 101
153 152 103
155 154 104
152 151 101
150 148 99
154 153 103
153 152 103
159 157 106
152 151 102
154 153 103
151 149 100
153 151 101
159 157 105
155 153 103
155 153 102
149 147 98
154 152 101
153 151 101
158 155 104
153 151 101
150 149 100
153 151 101
156 154 103
160 158 106
156 153 101
155 152 101
157 154 103
154 151 101
147 144 96
158 155 103
156 153 102
158 156 104
153 150 99
155 152 101
159 155 103
147 144 96
154 151 99
144 142 94
161 157 104
154 150 99
155 151 99
152 148 98
146 142 93
151 147 97
148 145 95
145 141 92
141 137 90
152 147 94
145 142 92
152 146 95
147 143 93
150 146 95
144 140 91
143 138 90
150 145 95
133 129 83
145 140 87
149 144 92
149 144 93
143 138 88
182 202 228
182 202 228
181 201 228
181 201 228
179 200 228
180 201 228
179 200 228
179 200 228
178 200 228
179 200 228
178 200 228
177 199 228
177 199 228
177 199 228
177 199 228
175 198 228
176 199 228
176 198 228
175 198 228
175 198 228
174 198 228
174 198 228
174 198 228
174 198 228
173 197 228
173 197 228
173 197 228
172 197 228
172 197 228
172 197 228
172 196 228
171 196 228
170 196 228
171 196 228
170 196 228
170 196 228
170 196 228
170 195 228
169 195 228
169 195 228
168 195 228
169 195 228
168 195 228
169 195 228
168 195 228
168 194 228
168 194 228
167 194 228
167 194 228
167 194 228
167 194 228
166 194 228
166 193 228
166 193 228
166 193 228
165 193 228
165 193 228
165 193 228
165 193 228
165 193 228
165 193 228
165 193 228
165 193 228
165 193 228
164 193 228
164 192 228
164 192 228
164 192 228
164 192 228
164 192 228
164 192 228
164 192 228
163 192 228
163 192 228
163 192 228
163 192 228
163 192 228
163 192 228
163 192 228
163 192 228
163 192 228
163 192 228
163 192 228
164 192 228
163 192 228
164 192 228
164 192 228
164 192 228
164 192 228
164 193 228
165 193 228
165 193 228
166 193 228
165 193 228
166 193 228
166 194 228
167 194 228
168 194 228
168 195 228
169 195 228
170 195 228
171 196 228
171 196 228
173 197 228
172 195 225
169 191 219
167 186 212
188 207 233
207 227 254
208 228 255
208 228 255
208 228 255
208 228 255
208 228 255
208 228 255
208 228 255
208 228 255
208 228 255
208 228 255
208 228 255
208 228 255
207 228 255
207 228 255
207 228 255
207 228 255
207 228 255
207 228 255
207 228 255
207 228 255
207 228 255
207 228 255
207 228 255
207 228 255
207 228 255
207 228 255
207 228 255
207 227 255
207 227 255
207 227 255
207 227 255
207 227 255
206 227 255
206 227 255
206 227 255
206 227 255
206 227 255
206 227 255
206 227 255
206 227 255
206 227 255
206 227 255
206 227 255
206 227 255
206 227 255
206 227 255
206 227 255
206 227 255
206 227 255
206 227 255
206 227 255
206 227 255
206 227 255
206 227 255
206 227 255
206 227 255
205 227 255
205 227 255
205 227 255
205 227 255
205 227 255
205 227 255
205 227 255
205 227 255
205 227 255
205 227 255
205 227 255
205 227 255
205 227 255
205 227 255
205 227 255
205 227 255
205 227 255
205 227 255
205 227 255
205 227 255
205 227 255
205 227 255
205 227 255
205 227 255
205 227 255
205 227 255
205 226 255
205 226 255
205 226 255
205 226 255
205 226 255
205 226 255
205 226 255
205 226 255
205 226 255
205 226 255
205 226 255
205 226 255
205 226 255
205 226 255
205 226 255
205 226 255
205 226 255
205 226 255
205 226 255
205 227 255
205 227 255
205 227 255
205 227 255
205 227 255
205 227 255
205 227 255
205 227 255
205 227 255
205 227 255
205 227 255
205 227 255
205 227 255
205 227 255
205 227 255
205 227 255
205 227 255
205 227 255
205 227 255
205 227 255
205 227 255
205 227 255
205 227 255
205 227 255
205 227 255
206 227 255
206 227 255
206 227 255
206 227 255
206 227 255
206 227 255
206 227 255
206 227 255
206 227 255
206 227 255
206 227 255
206 227 255
206 227 255
206 227 255
206 227 255
206 227 255
206 227 255
206 227 255
206 227 255
206 227 255
206 227 255
206 227 255
206 227 255
206 227 255
207 227 255
207 227 255
207 227 255
207 227 255
207 227 255
207 228 255
207 228 255
207 228 255
207 228 255
207 228 255
207 228 255
207 228 255
207 228 255
207 228 255
207 228 255
207 228 255
207 228 255
207 228 255
207 228 255
207 228 255
208 228 255
208 228 255
208 228 255
208 228 255
208 228 255
208 228 255
208 228 255
208 228 255
208 228 255
208 228 255
208 228 255
208 228 255
205 225 251
178 191 201
139 141 116
133 131 87
138 137 92
134 134 90
140 138 93
138 137 93
139 138 93
132 132 89
144 143 97
143 142 96
145 144 97
137 137 93
143 142 96
156 156 105
150 150 101
144 144 97
138 138 93
151 151 102
147 147 99
151 151 102
150 150 101
153 153 104
152 152 103
149 149 101
152 153 103
157 157 106
153 153 103
154 154 104
148 149 101
150 150 101
153 153 104
149 148 100
147 147 99
155 155 104
154 154 104
157 156 106
155 154 104
151 151 102
156 156 105
151 150 101
153 152 103
151 150 101
154 153 103
149 148 100
156 155 104
153 152 102
155 153 103
151 151 101
157 156 104
150 149 100
152 150 101
153 152 102
154 153 103
159 157 105
161 159 106
157 155 104
158 156 105
154 152 102
156 153 103
158 155 104
160 157 104
155 153 102
155 153 102
161 159 106
150 148 99
157 154 102
157 155 103
155 153 102
151 148 99
162 159 105
155 153 102
163 160 107
153 151 101
155 152 101
154 151 101
150 148 99
144 141 94
154 151 101
147 145 97
158 155 103
154 150 99
150 147 98
147 144 96
152 149 99
153 150 99
153 149 98
143 139 92
151 148 97
150 147 97
152 148 99
151 148 99
142 138 91
154 150 98
150 146 96
148 145 95
142 138 90
139 136 90
151 147 96
144 139 92
143 138 90
152 148 97
144 141 90
144 140 89
147 143 92
143 139 90
141 137 88
149 145 95
182 202 228
182 202 228
180 201 228
180 201 228
179 200 228
180 201 228
179 200 228
179 200 228
178 200 228
178 200 228
178 200 228
177 199 228
177 199 228
176 199 228
176 199 228
175 198 228
176 198 228
175 198 228
175 198 228
174 198 228
174 197 228
175 198 228
173 197 228
173 197 228
172 197 228
173 197 228
172 197 228
172 197 228
172 197 228
171 196 228
171 196 228
171 196 228
171 196 228
170 196 228
170 195 228
170 195 228
170 195 228
170 195 228
170 195 228
169 195 228
169 195 228
168 195 228
169 195 228
168 194 228
168 194 228
167 194 228
167 194 228
167 194 228
167 194 228
167 194 228
167 194 228
166 194 228
166 193 228
166 193 228
166 193 228
165 193 228
165 193 228
165 193 228
165 193 228
165 193 228
165 193 228
164 193 228
164 192 228
164 193 228
164 193 228
164 192 228
164 192 228
164 192 228
163 192 228
163 192 228
163 192 228
163 192 228
163 192 228
163 192 228
163 192 228
163 192 228
163 192 228
163 192 228
163 192 228
163 192 228
163 192 228
163 192 228
163 192 228
163 192 228
163 192 228
163 192 228
163 192 228
163 192 228
163 192 228
163 192 228
164 192 228
164 193 228
164 193 228
164 193 228
165 193 228
165 193 228
166 193 228
166 193 228
167 194 228
167 194 228
168 194 228
169 195 228
169 195 228
171 196 228
171 196 228
173 197 228
172 195 225
167 189 217
163 182 207
187 206 232
205 225 252
208 228 255
208 228 255
208 228 255
208 228 255
208 228 255
208 228 255
208 228 255
208 228 255
208 228 255
208 228 255
208 228 255
208 228 255
208 228 255
208 228 255
207 228 255
207 228 255
207 228 255
207 228 255
207 228 255
207 228 255
207 228 255
207 228 255
207 228 255
207 228 255
207 228 255
207 228 255
207 228 255
207 228 255
207 228 255
207 228 255
207 227 255
207 227 255
207 227 255
207 227 255
207 227 255
206 227 255
206 227 255
206 227 255
206 227 255
206 227 255
206 227 255
206 227 255
206 227 255
206 227 255
206 227 255
206 227 255
206 227 255
206 227 255
206 227 255
206 227 255
206 227 255
206 227 255
206 227 255
206 227 255
206 227 255
206 227 255
206 227 255
206 227 255
206 227 255
206 227 255
206 227 255
206 227 255
205 227 255
205 227 255
205 227 255
205 227 255
205 227 255
205 227 255
205 227 255
205 227 255
205 227 255
205 227 255
205 227 255
205 227 255
205 227 255
205 227 255
205 227 255
205 227 255
205 227 255
205 227 255
205 227 255
205 227 255
205 227 255
205 227 255
205 227 255
205 227 255
205 227 255
200 222 252
199 221 252
199 221 252
202 224 253
205 227 255
205 227 255
205 227 255
205 227 255
205 227 255
205 227 255
205 227 255
205 227 255
205 227 255
205 227 255
205 227 255
205 227 255
205 227 255
205 227 255
205 227 255
205 227 255
205 227 255
205 227 255
205 227 255
205 227 255
205 227 255
205 227 255
205 227 255
205 227 255
205 227 255
206 227 255
206 227 255
206 227 255
206 227 255
206 227 255
206 227 255
206 227 255
206 227 255
206 227 255
206 227 255
206 227 255
206 227 255
206 227 255
206 227 255
206 227 255
206 227 255
206 227 255
206 227 255
206 227 255
206 227 255
206 227 255
206 227 255
206 227 255
206 227 255
206 227 255
206 227 255
206 227 255
207 227 255
207 227 255
207 227 255
207 227 255
207 227 255
207 228 255
207 228 255
207 228 255
207 228 255
207 228 255
207 228 255
207 228 255
207 228 255
207 228 255
207 228 255
207 228 255
207 228 255
207 228 255
207 228 255
207 228 255
207 228 255
208 228 255
208 228 255
208 228 255
208 228 255
208 228 255
208 228 255
208 228 255
208 228 255
208 228 255
208 228 255
208 228 255
208 228 255
208 228 255
208 228 255
203 222 247
185 198 210
136 137 108
136 134 90
139 137 91
137 136 92
136 135 90
141 140 94
136 136 92
148 147 99
143 143 97
155 155 104
144 144 97
146 145 98
151 150 101
146 146 99
146 146 99
149 149 101
139 140 95
151 150 101
148 148 100
153 153 104
142 142 96
149 149 101
154 154 104
149 150 101
150 151 102
160 160 108
151 151 102
160 159 108
153 153 103
156 155 105
157 157 106
150 150 101
154 154 104
154 154 104
152 153 103
158 157 106
154 154 104
157 157 106
156 155 104
153 152 103
153 152 103
157 156 105
149 148 100
155 154 104
155 154 104
153 153 103
158 157 106
161 160 108
158 156 105
155 154 104
160 158 106
155 154 103
156 155 104
163 161 108
157 156 104
154 153 103
155 154 104
156 154 103
158 156 104
158 156 104
150 149 101
161 159 107
160 158 106
154 152 102
155 154 103
157 156 104
153 151 101
156 154 103
150 147 98
158 156 104
156 154 103
156 154 103
156 153 102
157 154 103
154 152 101
157 154 102
152 150 101
162 159 106
149 147 98
156 152 101
154 151 100
154 150 99
153 149 99
152 149 99
158 155 103
143 140 93
158 154 102
157 153 101
145 142 94
156 153 101
151 147 97
147 143 95
152 148 97
155 151 100
151 147 96
163 158 104
143 140 92
143 139 90
151 147 95
146 143 93
149 144 93
144 139 90
144 140 91
156 150 96
144 140 90
139 135 87
135 131 84
138 135 87
149 144 93
181 201 228
180 201 228
181 201 228
179 200 228
179 200 228
178 200 228
178 200 228
178 200 228
179 200 228
178 200 228
177 199 228
177 199 228
177 199 228
176 199 228
175 198 228
175 198 228
175 198 228
176 199 228
175 198 228
175 198 228
174 198 228
174 198 228
173 197 228
173 197 228
173 197 228
173 197 228
172 197 228
172 197 228
172 196 228
171 196 228
171 196 228
171 196 228
171 196 228
171 196 228
170 196 228
170 196 228
170 195 228
169 195 228
169 195 228
169 195 228
169 195 228
169 195 228
168 195 228
168 194 228
168 194 228
168 194 228
167 194 228
167 194 228
167 194 228
167 194 228
167 194 228
166 193 228
166 193 228
166 193 228
165 193 228
165 193 228
165 193 228
165 193 228
165 193 228
165 193 228
165 193 228
164 193 228
164 192 228
164 192 228
164 192 228
164 192 228
163 192 228
163 192 228
163 192 228
163 192 228
163 192 228
163 192 228
163 192 228
163 192 228
163 192 228
163 192 228
163 192 228
163 192 228
163 192 228
163 192 228
163 192 228
162 192 228
163 192 228
162 192 228
163 192 228
163 192 228
163 192 228
163 192 228
163 192 228
163 192 228
163 192 228
163 192 228
163 192 228
164 192 228
164 192 228
165 193 228
165 193 228
165 193 228
166 193 228
166 193 228
167 194 228
167 194 228
167 194 228
169 195 228
169 195 228
170 196 228
171 196 228
173 197 228
173 196 226
168 190 218
169 189 215
188 207 233
207 226 253
208 228 255
208 228 255
208 228 255
208 228 255
208 228 255
208 228 255
208 228 255
208 228 255
208 228 255
208 228 255
208 228 255
208 228 255
208 228 255
208 228 255
208 228 255
208 228 255
208 228 255
207 228 255
207 228 255
207 228 255
207 228 255
207 228 255
207 228 255
207 228 255
207 228 255
207 228 255
207 228 255
207 228 255
207 228 255
207 228 255
207 228 255
207 228 255
207 228 255
207 228 255
207 227 255
207 227 255
207 227 255
207 227 255
207 227 255
206 227 255
206 227 255
206 227 255
206 227 255
206 227 255
206 227 255
206 227 255
206 227 255
206 227 255
206 227 255
206 227 255
206 227 255
206 227 255
206 227 255
206 227 255
206 227 255
206 227 255
206 227 255
206 227 255
206 227 255
206 227 255
206 227 255
206 227 255
206 227 255
206 227 255
206 227 255
206 227 255
206 227 255
206 227 255
206 227 255
206 227 255
206 227 255
206 227 255
205 227 255
205 227 255
205 227 255
205 227 255
200 221 252
184 206 241
165 188 229
149 173 220
122 147 200
109 136 197
92 122 189
85 116 187
62 99 174
62 99 177
62 99 177
62 99 176
61 98 175
63 99 178
75 108 180
100 128 193
119 145 202
136 160 211
148 171 217
165 188 228
186 208 242
204 226 255
205 227 255
205 227 255
205 227 255
205 227 255
206 227 255
206 227 255
206 227 255
206 227 255
206 227 255
206 227 255
206 227 255
206 227 255
206 227 255
206 227 255
206 227 255
206 227 255
206 227 255
206 227 255
206 227 255
206 227 255
206 227 255
206 227 255
206 227 255
206 227 255
206 227 255
206 227 255
206 227 255
206 227 255
206 227 255
206 227 255
206 227 255
206 227 255
206 227 255
206 227 255
206 227 255
206 227 255
206 227 255
207 227 255
207 227 255
207 227 255
207 227 255
207 227 255
207 227 255
207 228 255
207 228 255
207 228 255
207 228 255
207 228 255
207 228 255
207 228 255
207 228 255
207 228 255
207 228 255
207 228 255
207 228 255
207 228 255
207 228 255
207 228 255
207 228 255
208 228 255
208 228 255
208 228 255
208 228 255
208 228 255
208 228 255
208 228 255
208 228 255
208 228 255
208 228 255
208 228 255
208 228 255
208 228 255
208 228 255
208 228 255
208 228 255
208 228 255
207 226 252
171 183 188
144 145 116
138 136 90
136 134 90
138 136 91
138 137 92
150 149 101
150 150 101
147 147 99
140 140 95
147 146 99
143 143 97
151 151 102
153 153 103
150 149 101
154 154 104
145 145 98
146 146 99
151 151 102
155 155 104
150 150 101
151 151 103
154 154 104
151 152 103
154 154 104
149 149 101
156 156 106
156 156 105
151 152 103
154 154 104
157 157 106
153 153 103
145 144 97
150 149 101
155 154 104
158 158 107
157 157 106
158 158 106
161 160 108
159 158 106
159 159 107
161 160 108
163 161 108
156 155 104
156 155 104
156 155 104
165 164 110
157 155 104
154 153 103
155 154 104
156 156 105
155 154 104
157 156 105
161 160 108
152 151 101
161 160 108
158 157 105
154 153 103
160 159 106
155 154 103
152 152 102
154 153 103
158 157 105
158 156 104
159 157 104
161 158 105
154 153 103
160 157 104
163 160 107
158 154 103
159 156 104
156 154 103
157 155 104
155 152 101
161 158 105
165 161 107
153 150 100
158 155 103
150 147 98
161 158 105
156 153 102
159 155 103
153 150 99
163 159 105
160 155 103
158 156 104
147 143 94
161 156 103
149 146 97
148 144 95
156 152 101
151 147 97
156 152 99
151 147 95
152 148 98
149 144 93
145 142 93
159 156 103
153 150 98
145 141 92
151 148 96
148 144 95
142 138 87
146 143 93
149 145 94
141 137 90
141 138 87
144 139 90
146 141 90
141 137 89
148 143 93
148 144 93
180 201 228
179 201 228
179 201 228
180 201 228
179 200 228
178 200 228
179 200 228
178 200 228
178 200 228
177 199 228
177 199 228
177 199 228
176 199 228
176 198 228
175 198 228
176 199 228
175 198 228
175 198 228
174 198 228
174 197 228
174 198 228
173 197 228
173 197 228
173 197 228
173 197 228
172 197 228
172 197 228
172 197 228
172 197 228
171 196 228
171 196 228
171 196 228
170 196 228
170 195 228
170 195 228
170 195 228
170 195 228
170 195 228
169 195 228
170 195 228
169 195 228
168 195 228
168 195 228
168 195 228
168 194 228
168 194 228
167 194 228
167 194 228
167 194 228
166 194 228
166 194 228
166 194 228
166 193 228
166 193 228
166 193 228
166 193 228
165 193 228
165 193 228
165 193 228
165 193 228
165 193 228
164 193 228
164 192 228
164 192 228
164 192 228
164 192 228
164 192 228
163 192 228
163 192 228
163 192 228
163 192 228
163 192 228
163 192 228
163 192 228
163 192 228
163 192 228
162 192 228
163 192 228
162 192 228
162 192 228
162 192 228
162 192 228
162 192 228
162 192 228
162 192 228
162 191 228
162 192 228
162 192 228
162 192 228
163 192 228
163 192 228
163 192 228
163 192 228
163 192 228
164 192 228
163 192 228
164 192 228
164 192 228
165 193 228
165 193 228
166 193 228
166 193 228
167 194 228
167 194 228
168 194 228
168 195 228
169 195 228
170 196 228
172 196 228
173 197 228
172 195 225
166 188 216
167 187 213
187 206 232
208 228 255
208 228 255
208 228 255
208 228 255
208 228 255
208 228 255
208 228 255
208 228 255
208 228 255
208 228 255
208 228 255
208 228 255
208 228 255
208 228 255
208 228 255
208 228 255
208 228 255
208 228 255
208 228 255
208 228 255
208 228 255
207 228 255
207 228 255
207 228 255
207 228 255
207 228 255
207 228 255
207 228 255
207 228 255
207 228 255
207 228 255
207 228 255
207 228 255
207 228 255
207 228 255
207 228 255
207 228 255
207 228 255
207 227 255
207 227 255
207 227 255
207 227 255
207 227 255
207 227 255
206 227 255
206 227 255
206 227 255
206 227 255
206 227 255
206 227 255
206 227 255
206 227 255
206 227 255
206 227 255
206 227 255
206 227 255
206 227 255
206 227 255
206 227 255
206 227 255
206 227 255
206 227 255
206 227 255
206 227 255
206 227 255
206 227 255
206 227 255
206 227 255
206 227 255
206 227 255
206 227 255
205 226 255
182 204 238
152 175 220
105 133 194
65 101 181
61 98 179
62 99 178
61 98 174
62 99 179
62 99 176
62 99 178
63 100 176
61 98 175
62 99 174
62 99 177
62 99 173
62 99 174
62 99 175
62 99 175
63 100 179
62 99 173
62 99 176
62 99 177
62 99 176
61 98 175
78 111 182
117 143 199
158 181 225
169 191 229
202 223 253
206 227 255
206 227 255
206 227 255
206 227 255
206 227 255
206 227 255
206 227 255
206 227 255
206 227 255
206 227 255
206 227 255
206 227 255
206 227 255
206 227 255
206 227 255
206 227 255
206 227 255
206 227 255
206 227 255
206 227 255
206 227 255
206 227 255
206 227 255
206 227 255
206 227 255
206 227 255
206 227 255
207 227 255
207 227 255
207 227 255
207 227 255
207 227 255
207 227 255
207 228 255
207 228 255
207 228 255
207 228 255
207 228 255
207 228 255
207 228 255
207 228 255
207 228 255
207 228 255
207 228 255
207 228 255
207 228 255
207 228 255
207 228 255
207 228 255
207 228 255
208 228 255
208 228 255
208 228 255
208 228 255
208 228 255
208 228 255
208 228 255
208 228 255
208 228 255
208 228 255
208 228 255
208 228 255
208 228 255
208 228 255
208 228 255
208 228 255
208 228 255
208 228 255
208 228 255
208 228 255
207 227 253
180 193 202
138 139 109
135 133 89
140 139 93
134 133 90
140 139 93
139 139 93
142 141 95
147 146 99
142 141 95
142 141 95
153 152 103
145 144 97
141 141 95
151 151 102
151 151 102
143 143 97
151 151 102
154 154 104
151 151 102
155 155 104
145 146 99
145 146 99
157 157 106
157 157 106
156 156 106
153 153 103
156 156 105
152 153 103
152 152 103
158 158 107
157 157 106
157 157 106
156 156 106
157 157 106
157 157 106
152 152 103
160 160 108
156 156 105
157 157 106
155 154 104
160 159 108
158 157 106
154 153 103
159 158 106
164 163 110
161 161 108
161 160 108
157 156 105
164 164 111
157 156 105
156 155 104
160 159 107
160 158 106
161 160 108
151 151 101
147 146 98
163 161 108
160 158 106
161 160 108
157 156 104
153 152 102
156 154 103
160 158 106
149 148 99
160 157 105
164 162 109
161 159 106
163 160 107
163 159 106
164 161 107
160 157 105
162 159 106
155 153 102
164 160 106
160 158 105
162 160 106
157 154 103
156 153 101
162 158 104
160 156 103
163 159 105
159 156 104
154 151 101
156 154 103
153 149 99
156 153 102
157 153 101
157 153 101
157 153 101
160 156 103
156 152 100
154 151 99
148 145 95
151 148 98
148 145 95
151 148 98
156 152 101
148 145 96
155 151 98
149 146 95
148 144 95
154 150 97
152 148 97
154 149 97
147 143 94
150 145 93
152 147 94
145 141 90
149 145 94
151 146 95
156 151 97
148 143 91
138 135 87
180 201 228
179 200 228
179 200 228
179 200 228
179 200 228
178 200 228
178 200 228
178 199 228
177 199 228
177 199 228
177 199 228
176 199 228
176 199 228
176 198 228
175 198 228
175 198 228
176 198 228
175 198 228
175 198 228
174 198 228
174 198 228
174 197 228
173 197 228
173 197 228
172 197 228
172 197 228
172 197 228
172 196 228
172 197 228
171 196 228
171 196 228
171 196 228
170 196 228
170 196 228
170 196 228
170 196 228
170 195 228
170 195 228
169 195 228
169 195 228
169 195 228
169 195 228
168 194 228
168 195 228
168 194 228
168 194 228
168 194 228
167 194 228
167 194 228
166 194 228
167 194 228
166 194 228
166 193 228
166 193 228
166 193 228
166 193 228
166 193 228
165 193 228
165 193 228
165 193 228
165 193 228
165 193 228
164 193 228
164 192 228
164 192 228
164 192 228
164 192 228
163 192 228
163 192 228
163 192 228
163 192 228
163 192 228
163 192 228
163 192 228
163 192 228
163 192 228
163 192 228
162 192 228
162 192 228
162 192 228
162 191 228
162 191 228
162 191 228
162 191 228
162 191 228
162 191 228
162 191 228
162 191 228
162 191 228
162 192 228
162 192 228
162 192 228
162 192 228
163 192 228
163 192 228
163 192 228
163 192 228
164 192 228
164 192 228
164 192 228
165 193 228
165 193 228
166 193 228
166 193 228
166 194 228
167 194 228
168 194 228
169 195 228
169 195 228
171 196 228
172 197 228
173 197 228
175 198 228
168 189 217
159 178 202
188 206 231
209 229 255
209 229 255
209 228 255
209 228 255
208 228 255
208 228 255
208 228 255
208 228 255
208 228 255
208 228 255
208 228 255
208 228 255
208 228 255
208 228 255
208 228 255
208 228 255
208 228 255
208 228 255
208 228 255
208 228 255
208 228 255
208 228 255
208 228 255
208 228 255
208 228 255
207 228 255
207 228 255
207 228 255
207 228 255
207 228 255
207 228 255
207 228 255
207 228 255
207 228 255
207 228 255
207 228 255
207 228 255
207 228 255
207 228 255
207 228 255
207 228 255
207 228 255
207 228 255
207 227 255
207 227 255
207 227 255
207 227 255
207 227 255
207 227 255
207 227 255
206 227 255
206 227 255
206 227 255
206 227 255
206 227 255
206 227 255
206 227 255
206 227 255
206 227 255
206 227 255
206 227 255
206 227 255
206 227 255
206 227 255
206 227 255
206 227 255
199 221 251
169 191 230
126 151 204
76 109 182
62 99 178
62 98 171
62 99 176
62 99 175
62 99 175
63 99 178
62 98 170
62 99 178
62 99 174
62 99 177
62 99 175
63 99 173
63 99 175
62 99 174
62 99 177
62 99 174
62 99 174
63 99 177
63 99 178
62 99 175
62 99 176
62 98 172
61 98 175
62 99 171
62 98 176
62 98 172
63 100 178
62 99 175
78 111 181
122 148 203
170 192 231
204 225 254
206 227 255
206 227 255
206 227 255
206 227 255
206 227 255
206 227 255
206 227 255
206 227 255
206 227 255
206 227 255
206 227 255
206 227 255
206 227 255
206 227 255
206 227 255
206 227 255
207 227 255
207 227 255
207 227 255
207 227 255
207 227 255
207 227 255
207 227 255
207 228 255
207 228 255
207 228 255
207 228 255
207 228 255
207 228 255
207 228 255
207 228 255
207 228 255
207 228 255
207 228 255
207 228 255
207 228 255
207 228 255
207 228 255
207 228 255
207 228 255
207 228 255
208 228 255
208 228 255
208 228 255
208 228 255
208 228 255
208 228 255
208 228 255
208 228 255
208 228 255
208 228 255
208 228 255
208 228 255
208 228 255
208 228 255
208 228 255
208 228 255
208 228 255
208 228 255
208 228 255
208 228 255
208 228 255
209 228 255
209 228 255
209 229 255
209 229 255
187 202 218
146 149 127
136 134 90
144 142 95
137 136 91
147 145 97
147 146 97
140 139 93
139 138 93
141 140 94
143 142 96
143 143 96
150 149 101
152 151 102
147 147 99
151 151 102
151 150 101
154 154 104
153 153 103
148 148 100
153 153 103
151 151 102
150 150 101
154 154 104
156 156 105
154 153 103
158 158 106
155 155 105
153 153 104
158 158 107
157 157 106
151 151 102
156 156 105
160 160 108
156 156 105
156 156 105
156 156 105
158 158 107
152 153 103
152 152 103
154 154 104
158 157 106
159 159 107
155 155 104
158 157 106
162 161 109
160 159 107
155 155 104
162 161 108
160 158 106
162 161 108
161 159 107
155 154 104
156 155 104
157 156 104
166 164 110
156 155 104
158 156 104
158 158 106
162 160 107
161 159 106
158 156 104
159 158 106
164 162 108
157 156 104
158 156 105
155 153 102
155 153 102
163 161 108
157 155 104
159 156 104
161 159 106
153 151 101
154 151 101
158 156 104
161 159 106
163 159 106
161 158 106
158 156 104
158 155 103
159 157 104
164 161 108
158 155 103
158 155 103
157 154 103
153 150 100
165 161 106
153 150 99
160 155 102
161 157 104
154 151 101
158 154 103
159 156 103
157 154 102
158 155 103
155 151 99
156 152 100
152 147 97
154 151 99
161 157 102
151 148 97
154 150 97
154 150 99
156 153 100
156 151 99
154 149 97
157 153 100
153 149 96
157 153 99
154 149 95
146 143 93
147 143 91
163 158 101
146 141 90
148 144 93
151 145 92
180 201 228
180 201 228
179 200 228
179 200 228
179 200 228
178 200 228
179 200 228
177 199 228
177 199 228
177 199 228
176 199 228
176 199 228
177 199 228
176 199 228
175 198 228
175 198 228
175 198 228
175 198 228
174 198 228
174 198 228
175 198 228
174 197 228
173 197 228
174 197 228
173 197 228
173 197 228
172 196 228
172 197 228
172 196 228
172 196 228
171 196 228
171 196 228
171 196 228
170 196 228
170 196 228
170 196 228
170 195 228
170 195 228
169 195 228
169 195 228
169 195 228
169 195 228
168 195 228
169 195 228
168 194 228
168 194 228
167 194 228
167 194 228
167 194 228
167 194 228
167 194 228
167 194 228
166 194 228
166 194 228
166 193 228
166 193 228
165 193 228
165 193 228
165 193 228
165 193 228
165 193 228
164 193 228
164 193 228
164 193 228
164 193 228
164 192 228
164 192 228
164 192 228
164 192 228
163 192 228
163 192 228
163 192 228
163 192 228
163 192 228
163 192 228
162 192 228
162 192 228
162 192 228
162 191 228
162 191 228
162 191 228
162 191 228
162 191 228
162 191 228
162 191 228
162 191 228
162 191 228
162 191 228
162 191 228
162 191 228
162 191 228
162 191 228
162 192 228
162 192 228
163 192 228
163 192 228
163 192 228
163 192 228
163 192 228
164 192 228
164 192 228
164 192 228
165 193 228
165 193 228
166 193 228
166 193 228
167 194 228
168 194 228
168 194 228
169 195 228
170 195 228
171 196 228
172 197 228
174 197 228
169 191 220
165 185 212
172 191 216
201 220 246
209 229 255
209 229 255
209 229 255
209 229 255
209 229 255
209 228 255
208 228 255
208 228 255
208 228 255
208 228 255
208 228 255
208 228 255
208 228 255
208 228 255
208 228 255
208 228 255
208 228 255
208 228 255
208 228 255
208 228 255
208 228 255
208 228 255
208 228 255
208 228 255
208 228 255
208 228 255
208 228 255
208 228 255
207 228 255
207 228 255
207 228 255
207 228 255
207 228 255
207 228 255
207 228 255
207 228 255
207 228 255
207 228 255
207 228 255
207 228 255
207 228 255
207 228 255
207 228 255
207 228 255
207 228 255
207 228 255
207 228 255
207 228 255
207 227 255
207 227 255
207 227 255
207 227 255
207 227 255
207 227 255
207 227 255
207 227 255
207 227 255
207 227 255
206 227 255
206 227 255
206 227 255
206 227 255
172 194 233
141 164 214
79 111 186
61 98 176
63 99 178
61 98 172
61 98 171
62 99 172
62 98 174
62 98 172
62 99 173
62 99 177
62 98 173
62 99 174
62 99 174
61 98 172
62 98 172
63 99 174
62 98 168
62 99 171
61 98 166
62 99 172
62 99 173
62 99 170
62 98 174
62 99 174
62 98 172
63 99 175
63 99 176
62 99 174
62 99 177
62 99 173
62 98 169
62 99 175
61 97 170
61 98 167
62 99 179
76 109 181
148 172 218
186 207 242
206 227 255
206 227 255
206 227 255
206 227 255
206 227 255
207 227 255
207 227 255
207 227 255
207 227 255
207 227 255
207 227 255
207 227 255
207 227 255
207 227 255
207 228 255
207 228 255
207 228 255
207 228 255
207 228 255
207 228 255
207 228 255
207 228 255
207 228 255
207 228 255
207 228 255
207 228 255
207 228 255
207 228 255
207 228 255
207 228 255
207 228 255
207 228 255
207 228 255
207 228 255
208 228 255
208 228 255
208 228 255
208 228 255
208 228 255
208 228 255
208 228 255
208 228 255
208 228 255
208 228 255
208 228 255
208 228 255
208 228 255
208 228 255
208 228 255
208 228 255
208 228 255
208 228 255
208 228 255
208 228 255
208 228 255
208 228 255
209 228 255
209 229 255
209 229 255
209 229 255
209 229 255
209 229 255
205 223 246
168 176 171
134 131 87
129 127 85
138 137 92
145 144 97
143 142 95
148 146 98
147 146 98
147 146 98
142 141 95
151 150 101
142 141 95
142 143 97
146 145 98
141 141 95
148 148 100
151 151 102
155 155 105
156 156 105
152 152 103
159 159 108
157 157 106
152 151 102
150 150 101
160 160 108
157 157 106
153 153 103
155 154 104
158 158 107
153 153 103
153 153 103
161 160 108
155 155 104
160 159 108
159 159 108
158 158 107
159 159 107
161 161 109
155 154 104
159 158 107
158 157 106
165 164 110
159 159 107
159 158 106
160 160 108
163 162 109
155 155 104
152 151 102
160 159 107
162 161 108
162 160 108
164 163 109
161 160 107
166 165 110
160 158 106
164 162 109
163 161 108
163 161 108
161 159 107
163 162 108
154 153 103
162 160 107
161 159 106
161 160 108
164 162 108
157 156 104
163 162 109
159 157 105
160 158 106
155 153 103
157 154 103
165 162 108
163 161 108
163 160 107
165 161 107
166 162 108
159 157 105
165 161 107
157 154 102
163 160 106
153 151 101
156 155 104
161 157 104
165 160 106
164 160 106
161 158 104
160 157 104
157 152 101
162 158 104
155 152 101
167 163 108
161 158 104
165 161 106
163 159 105
158 154 102
158 155 101
157 153 101
156 152 99
157 151 99
161 157 104
155 151 98
155 152 100
161 157 104
165 160 104
158 154 101
148 143 93
166 160 104
164 158 102
156 152 99
152 147 95
151 147 95
149 146 93
147 142 92
148 143 93
152 147 96
152 147 93
144 139 88
180 201 228
180 201 228
179 200 228
179 200 228
178 200 228
178 200 228
179 200 228
177 199 228
178 200 228
177 199 228
176 199 228
176 199 228
176 199 228
176 199 228
176 199 228
175 198 228
175 198 228
175 198 228
174 198 228
174 198 228
174 198 228
174 198 228
173 197 228
173 197 228
173 197 228
173 197 228
172 197 228
172 197 228
172 196 228
172 197 228
171 196 228
171 196 228
171 196 228
171 196 228
171 196 228
170 196 228
170 196 228
170 196 228
169 195 228
169 195 228
169 195 228
169 195 228
168 195 228
169 195 228
168 195 228
168 194 228
168 195 228
168 194 228
167 194 228
167 194 228
167 194 228
167 194 228
166 194 228
166 194 228
166 193 228
166 193 228
166 193 228
166 193 228
165 193 228
165 193 228
164 193 228
165 193 228
165 193 228
164 193 228
164 192 228
164 192 228
164 192 228
164 192 228
164 192 228
163 192 228
163 192 228
163 192 228
163 192 228
163 192 228
163 192 228
162 192 228
163 192 228
162 192 228
162 192 228
162 192 228
162 192 228
162 191 228
162 191 228
162 191 228
162 191 228
162 191 228
162 191 228
162 191 228
162 191 228
162 191 228
162 191 228
162 191 228
162 191 228
162 192 228
162 192 228
162 192 228
163 192 228
163 192 228
163 192 228
163 192 228
163 192 228
164 192 228
164 192 228
164 193 228
165 193 228
165 193 228
166 193 228
166 193 228
167 194 228
167 194 228
169 195 228
169 195 228
170 196 228
172 196 228
173 197 228
175 198 228
174 197 226
166 186 212
188 207 232
207 226 253
209 229 255
209 229 255
209 229 255
209 229 255
209 229 255
209 229 255
209 229 255
209 229 255
209 228 255
209 228 255
208 228 255
208 228 255
208 228 255
208 228 255
208 228 255
208 228 255
208 228 255
208 228 255
208 228 255
208 228 255
208 228 255
208 228 255
208 228 255
208 228 255
208 228 255
208 228 255
208 228 255
208 228 255
208 228 255
208 228 255
208 228 255
208 228 255
208 228 255
207 228 255
207 228 255
207 228 255
207 228 255
207 228 255
207 228 255
207 228 255
207 228 255
207 228 255
207 228 255
207 228 255
207 228 255
207 228 255
207 228 255
207 228 255
207 228 255
207 228 255
207 228 255
207 228 255
207 228 255
207 228 255
207 228 255
207 228 255
207 227 255
205 226 254
168 190 229
107 135 194
62 99 176
62 99 174
62 98 171
62 98 175
62 99 172
61 98 172
62 99 171
62 99 174
62 99 175
63 99 171
62 99 176
62 99 172
62 99 173
63 99 176
62 99 171
63 99 173
62 98 168
61 98 171
62 99 172
62 99 169
63 99 170
62 99 168
62 98 170
62 99 172
62 99 173
63 99 172
63 100 177
62 99 169
62 99 173
60 97 167
62 98 171
62 98 168
62 98 170
62 98 173
62 99 172
62 98 175
62 98 172
61 97 168
62 99 172
62 98 172
113 139 195
176 198 234
207 227 255
207 227 255
207 228 255
207 228 255
207 228 255
207 228 255
207 228 255
207 228 255
207 228 255
207 228 255
207 228 255
207 228 255
207 228 255
207 228 255
207 228 255
207 228 255
207 228 255
207 228 255
207 228 255
207 228 255
207 228 255
207 228 255
207 228 255
207 228 255
207 228 255
208 228 255
208 228 255
208 228 255
208 228 255
208 228 255
208 228 255
208 228 255
208 228 255
208 228 255
208 228 255
208 228 255
208 228 255
208 228 255
208 228 255
208 228 255
208 228 255
208 228 255
208 228 255
208 228 255
208 228 255
208 228 255
208 228 255
208 228 255
208 228 255
209 228 255
209 229 255
209 229 255
209 229 255
209 229 255
209 229 255
209 229 255
209 229 255
209 229 255
206 225 251
173 185 194
139 137 98
121 120 80
141 139 93
145 143 96
141 140 94
144 143 96
149 147 98
148 147 99
142 142 95
147 147 99
145 144 97
151 151 101
145 145 98
147 146 99
149 149 101
155 154 104
158 158 106
150 149 101
154 154 104
156 155 105
158 158 107
147 147 99
149 149 101
155 155 104
166 165 112
157 157 106
159 158 107
155 155 104
154 154 104
159 159 108
160 160 108
158 158 106
155 155 104
155 155 104
158 158 106
161 160 108
158 158 107
162 161 109
157 157 106
156 156 105
163 162 109
157 156 105
153 152 103
164 163 109
161 160 108
157 157 106
163 161 108
161 160 108
162 161 109
163 162 109
160 158 106
163 162 109
162 161 108
163 162 109
161 160 107
163 161 108
158 156 105
164 162 109
163 161 108
167 164 109
162 160 107
161 159 107
160 159 107
163 160 107
166 164 109
163 161 108
164 162 109
164 161 108
162 160 108
167 165 110
165 162 108
165 162 108
165 162 108
162 158 105
159 156 104
167 164 109
161 158 104
158 156 104
161 158 105
166 162 107
164 161 107
163 160 106
165 162 108
163 160 106
163 160 106
162 159 106
158 154 103
161 158 105
161 158 104
162 158 105
159 156 103
159 155 103
166 161 106
152 149 99
162 158 104
158 152 100
165 160 105
159 154 101
156 150 97
164 159 104
153 150 99
151 148 97
152 149 98
152 149 98
163 158 103
155 151 97
166 160 104
151 146 93
159 155 101
157 153 100
152 148 95
156 150 97
146 142 90
153 148 95
153 150 98
149 144 94
156 151 95
149 144 93
180 201 228
179 200 228
179 201 228
179 200 228
179 200 228
178 200 228
178 200 228
178 200 228
177 199 228
177 199 228
177 199 228
177 199 228
176 199 228
177 199 228
176 199 228
175 198 228
175 198 228
174 198 228
174 198 228
174 198 228
174 197 228
174 198 228
173 197 228
173 197 228
172 197 228
173 197 228
173 197 228
172 197 228
172 197 228
172 196 228
171 196 228
171 196 228
171 196 228
171 196 228
171 196 228
170 196 228
170 196 228
170 195 228
170 195 228
170 195 228
170 195 228
169 195 228
169 195 228
168 195 228
168 195 228
168 195 228
169 195 228
168 195 228
167 194 228
167 194 228
167 194 228
167 194 228
167 194 228
166 194 228
167 194 228
166 193 228
166 193 228
166 193 228
166 193 228
165 193 228
165 193 228
165 193 228
165 193 228
165 193 228
165 193 228
164 193 228
164 193 228
164 192 228
164 192 228
164 192 228
163 192 228
164 192 228
164 192 228
163 192 228
163 192 228
163 192 228
163 192 228
163 192 228
162 192 228
162 192 228
162 192 228
162 191 228
162 191 228
162 191 228
162 191 228
162 191 228
162 191 228
162 191 228
162 191 228
162 191 228
162 191 228
162 191 228
162 191 228
162 191 228
162 191 228
162 192 228
162 192 228
163 192 228
163 192 228
163 192 228
163 192 228
164 192 228
164 192 228
164 192 228
164 192 228
165 193 228
165 193 228
165 193 228
166 193 228
167 194 228
167 194 228
168 194 228
169 195 228
170 196 228
170 196 228
172 197 228
173 197 228
175 198 227
169 189 217
164 182 206
194 213 239
209 229 255
209 229 255
209 229 255
209 229 255
209 229 255
209 229 255
209 229 255
209 229 255
209 229 255
209 229 255
209 229 255
209 229 255
209 229 255
209 228 255
208 228 255
208 228 255
208 228 255
208 228 255
208 228 255
208 228 255
208 228 255
208 228 255
208 228 255
208 228 255
208 228 255
208 228 255
208 228 255
208 228 255
208 228 255
208 228 255
208 228 255
208 228 255
208 228 255
208 228 255
208 228 255
208 228 255
208 228 255
208 228 255
208 228 255
207 228 255
207 228 255
207 228 255
207 228 255
207 228 255
207 228 255
207 228 255
207 228 255
207 228 255
207 228 255
207 228 255
207 228 255
207 228 255
207 228 255
207 228 255
202 223 252
159 182 224
86 116 185
62 99 173
62 99 175
62 99 176
62 98 170
62 98 172
61 98 171
62 99 175
62 98 166
62 99 174
61 98 166
62 99 174
62 98 172
62 98 167
62 99 174
62 99 170
62 98 170
62 99 173
62 98 168
62 98 170
62 98 169
63 99 176
62 98 172
62 98 166
61 98 169
63 99 175
63 99 172
62 98 166
62 98 170
62 98 172
61 97 165
62 98 171
62 98 168
63 99 175
62 99 171
62 98 174
62 99 174
61 98 173
62 98 174
62 98 174
62 99 176
62 99 171
61 98 171
63 100 178
62 98 171
94 122 184
171 193 232
206 227 255
207 228 255
207 228 255
207 228 255
207 228 255
207 228 255
207 228 255
207 228 255
207 228 255
207 228 255
207 228 255
207 228 255
207 228 255
207 228 255
207 228 255
207 228 255
208 228 255
208 228 255
208 228 255
208 228 255
208 228 255
208 228 255
208 228 255
208 228 255
208 228 255
208 228 255
208 228 255
208 228 255
208 228 255
208 228 255
208 228 255
208 228 255
208 228 255
208 228 255
208 228 255
208 228 255
208 228 255
208 228 255
208 228 255
208 228 255
208 228 255
209 228 255
209 229 255
209 229 255
209 229 255
209 229 255
209 229 255
209 229 255
209 229 255
209 229 255
209 229 255
209 229 255
209 229 255
209 229 255
209 229 255
196 211 228
153 154 130
133 131 87
140 138 93
145 142 95
138 136 90
143 141 94
150 149 101
138 137 92
142 141 95
147 146 98
149 149 100
153 153 103
151 150 101
149 149 101
149 149 100
157 156 105
156 156 105
154 154 104
157 157 106
158 158 107
159 158 107
155 155 104
157 156 106
158 157 106
157 157 106
161 160 108
158 157 106
151 150 101
155 155 104
161 161 109
164 164 110
159 159 108
155 154 104
156 155 104
158 157 106
163 162 109
159 158 107
154 153 103
164 163 110
162 161 109
156 156 105
161 160 108
165 164 110
163 162 109
161 160 108
161 160 108
156 155 104
163 162 109
168 166 112
162 161 109
161 160 108
165 163 109
163 162 109
162 161 108
160 159 107
161 160 108
159 158 106
166 164 110
167 165 110
167 165 110
161 159 106
166 165 111
159 158 106
162 160 107
166 164 109
167 165 110
163 160 107
163 162 108
159 156 104
161 158 106
165 162 108
164 161 108
165 163 109
162 160 106
165 162 108
164 161 108
164 161 107
163 161 107
163 161 107
169 165 110
161 157 104
162 158 104
164 161 107
161 157 104
164 160 106
163 159 106
164 160 106
161 157 104
154 151 100
160 155 103
159 155 103
165 160 105
161 157 104
163 159 105
163 159 106
162 158 105
163 159 105
158 154 101
167 162 106
152 148 97
160 156 103
151 147 97
157 153 99
161 156 101
165 161 105
152 148 95
156 152 97
146 141 91
156 153 98
153 149 97
148 144 94
153 148 96
157 152 99
151 147 96
156 152 99
145 141 90
153 149 97
162 156 100
151 146 93
153 149 97
179 200 228
180 201 228
180 201 228
179 200 228
179 200 228
178 200 228
178 200 228
178 200 228
177 199 228
178 199 228
177 199 228
177 199 228
177 199 228
177 199 228
176 199 228
176 199 228
175 198 228
174 198 228
174 198 228
175 198 228
174 198 228
174 198 228
174 197 228
173 197 228
174 197 228
173 197 228
173 197 228
173 197 228
173 197 228
172 197 228
172 196 228
172 196 228
172 196 228
171 196 228
171 196 228
170 196 228
171 196 228
170 196 228
170 196 228
170 195 228
170 196 228
169 195 228
169 195 228
169 195 228
169 195 228
169 195 228
168 195 228
168 194 228
168 194 228
168 194 228
167 194 228
167 194 228
167 194 228
167 194 228
167 194 228
166 194 228
166 194 228
166 193 228
166 193 228
165 193 228
165 193 228
165 193 228
165 193 228
165 193 228
165 193 228
165 193 228
164 193 228
164 193 228
164 192 228
164 192 228
164 192 228
164 192 228
163 192 228
163 192 228
163 192 228
163 192 228
163 192 228
163 192 228
163 192 228
163 192 228
163 192 228
163 192 228
163 192 228
162 192 228
162 192 228
162 191 228
162 191 228
162 191 228
162 191 228
162 191 228
162 191 228
162 191 228
162 191 228
162 191 228
162 191 228
162 191 228
162 192 228
162 192 228
163 192 228
163 192 228
163 192 228
163 192 228
163 192 228
164 192 228
164 192 228
164 193 228
165 193 228
165 193 228
166 193 228
166 193 228
166 194 228
167 194 228
168 194 228
168 195 228
169 195 228
170 195 228
172 196 228
173 197 228
175 198 228
176 198 227
164 183 209
178 197 221
209 229 255
209 229 255
209 229 255
209 229 255
209 229 255
209 229 255
209 229 255
209 229 255
209 229 255
209 229 255
209 229 255
209 229 255
209 229 255
209 229 255
209 229 255
209 229 255
209 229 255
209 228 255
209 228 255
208 228 255
208 228 255
208 228 255
208 228 255
208 228 255
208 228 255
208 228 255
208 228 255
208 228 255
208 228 255
208 228 255
208 228 255
208 228 255
208 228 255
208 228 255
208 228 255
208 228 255
208 228 255
208 228 255
208 228 255
208 228 255
208 228 255
208 228 255
208 228 255
208 228 255
208 228 255
208 228 255
207 228 255
207 228 255
207 228 255
207 228 255
207 228 255
207 228 255
162 184 224
94 123 183
62 98 175
62 99 174
62 99 177
62 98 170
62 98 176
62 98 176
62 99 169
63 99 172
62 99 173
63 99 172
61 98 165
62 99 173
62 98 167
62 99 172
61 97 164
62 99 172
62 98 170
62 98 168
62 99 168
62 98 171
62 99 170
62 99 173
63 100 176
62 99 170
62 98 169
62 98 172
63 99 173
62 99 173
63 99 168
62 99 171
61 97 168
61 98 170
62 98 168
61 98 167
62 99 171
61 98 170
62 99 175
61 98 170
62 98 170
62 99 170
62 98 170
62 98 171
62 98 166
62 98 171
62 99 172
61 97 170
61 97 168
61 97 171
92 121 184
177 198 234
207 228 255
207 228 255
207 228 255
207 228 255
207 228 255
208 228 255
208 228 255
208 228 255
208 228 255
208 228 255
208 228 255
208 228 255
208 228 255
208 228 255
208 228 255
208 228 255
208 228 255
208 228 255
208 228 255
208 228 255
208 228 255
208 228 255
208 228 255
208 228 255
208 228 255
208 228 255
208 228 255
208 228 255
208 228 255
208 228 255
208 228 255
208 228 255
208 228 255
209 228 255
209 228 255
209 229 255
209 229 255
209 229 255
209 229 255
209 229 255
209 229 255
209 229 255
209 229 255
209 229 255
209 229 255
209 229 255
209 229 255
209 229 255
209 229 255
209 229 255
209 229 255
207 226 252
174 183 182
135 132 90
139 136 90
139 137 92
143 141 94
140 138 93
149 148 99
139 138 93
144 143 97
151 149 100
148 147 99
147 146 99
147 146 98
150 149 101
149 148 99
156 155 104
151 150 101
150 149 101
154 153 103
153 153 103
150 150 101
160 160 108
158 158 106
159 158 106
154 153 103
161 160 108
162 161 109
161 160 108
161 160 108
155 155 105
160 159 107
162 161 108
160 159 108
164 163 110
163 162 109
157 157 106
158 158 106
159 158 106
162 162 109
162 162 109
164 163 109
163 162 109
161 161 108
167 165 111
161 161 109
162 161 108
166 164 110
160 159 106
165 163 110
169 168 113
163 162 109
163 162 109
164 162 109
163 162 109
165 163 109
163 161 108
163 161 108
165 163 109
165 164 110
164 162 109
164 162 109
162 160 108
159 156 104
163 160 107
169 166 111
162 160 106
160 158 106
163 160 107
171 168 112
164 161 108
167 164 109
170 167 112
165 162 108
167 164 110
166 164 109
168 164 109
163 160 106
168 164 109
167 164 109
154 151 101
160 157 104
167 163 108
168 164 108
161 158 105
161 157 104
167 163 109
166 162 108
165 162 108
167 163 108
164 160 106
169 165 109
166 160 105
166 163 108
168 163 108
167 162 107
159 155 103
162 157 104
163 158 104
161 158 104
159 154 101
155 152 101
163 158 103
154 150 99
164 160 105
167 161 105
160 155 101
158 153 100
155 152 99
165 161 104
156 152 99
158 153 99
152 148 93
155 149 97
157 153 99
150 146 96
160 156 101
157 152 98
155 150 97
149 145 93
154 149 95
151 147 93
158 152 97
180 201 228
180 201 228
179 200 228
179 200 228
179 200 228
178 200 228
177 199 228
178 200 228
177 199 228
177 199 228
177 199 228
176 199 228
176 199 228
176 199 228
176 199 228
175 198 228
175 198 228
175 198 228
175 198 228
175 198 228
175 198 228
174 198 228
174 197 228
173 197 228
173 197 228
173 197 228
173 197 228
173 197 228
172 197 228
172 197 228
172 197 228
171 196 228
172 196 228
172 196 228
171 196 228
171 196 228
170 196 228
171 196 228
170 195 228
170 196 228
170 195 228
170 195 228
169 195 228
169 195 228
169 195 228
169 195 228
169 195 228
168 195 228
168 195 228
168 194 228
167 194 228
168 194 228
168 194 228
167 194 228
167 194 228
167 194 228
166 194 228
167 194 228
166 194 228
166 193 228
166 193 228
166 193 228
165 193 228
165 193 228
165 193 228
165 193 228
165 193 228
164 193 228
165 193 228
164 193 228
164 192 228
164 192 228
164 192 228
164 192 228
164 192 228
163 192 228
163 192 228
163 192 228
163 192 228
163 192 228
163 192 228
163 192 228
163 192 228
162 192 228
162 192 228
162 192 228
162 192 228
162 192 228
162 192 228
162 191 228
162 191 228
162 192 228
162 192 228
162 191 228
162 191 228
162 192 228
162 192 228
162 192 228
163 192 228
163 192 228
163 192 228
163 192 228
163 192 228
163 192 228
164 192 228
164 192 228
164 192 228
164 193 228
165 193 228
165 193 228
166 193 228
166 194 228
167 194 228
168 194 228
168 195 228
169 195 228
170 195 228
171 196 228
173 197 228
174 198 228
175 198 227
170 191 219
165 183 207
203 222 248
209 229 255
209 229 255
209 229 255
209 229 255
209 229 255
209 229 255
209 229 255
209 229 255
209 229 255
209 229 255
209 229 255
209 229 255
209 229 255
209 229 255
209 229 255
209 229 255
209 229 255
209 229 255
209 229 255
209 229 255
209 229 255
209 229 255
209 228 255
208 228 255
208 228 255
208 228 255
208 228 255
208 228 255
208 228 255
208 228 255
208 228 255
208 228 255
208 228 255
208 228 255
208 228 255
208 228 255
208 228 255
208 228 255
208 228 255
208 228 255
208 228 255
208 228 255
208 228 255
208 228 255
208 228 255
208 228 255
208 228 255
208 228 255
191 212 244
120 146 201
62 98 176
61 98 174
61 97 173
61 98 171
62 98 170
62 99 172
62 98 173
62 99 172
62 99 171
63 100 174
62 99 172
61 98 170
63 99 173
63 99 173
62 98 169
62 99 171
63 100 177
62 99 174
61 98 168
63 99 174
62 99 174
62 98 164
62 99 170
62 99 169
62 98 165
62 98 166
62 98 167
63 100 170
62 99 174
62 98 166
62 98 169
61 98 168
63 99 174
61 98 167
62 99 173
62 98 169
62 98 163
62 99 170
61 98 164
61 97 169
62 99 172
62 98 163
61 97 165
61 98 167
62 98 167
61 97 168
62 98 171
62 99 173
62 98 170
60 96 169
62 98 174
62 97 166
114 139 191
194 214 245
208 228 255
208 228 255
208 228 255
208 228 255
208 228 255
208 228 255
208 228 255
208 228 255
208 228 255
208 228 255
208 228 255
208 228 255
208 228 255
208 228 255
208 228 255
208 228 255
208 228 255
208 228 255
208 228 255
208 228 255
208 228 255
208 228 255
208 228 255
208 228 255
208 228 255
209 228 255
209 229 255
209 229 255
209 229 255
209 229 255
209 229 255
209 229 255
209 229 255
209 229 255
209 229 255
209 229 255
209 229 255
209 229 255
209 229 255
209 229 255
209 229 255
209 229 255
209 229 255
209 229 255
209 229 255
209 229 255
209 229 255
209 229 255
193 211 235
158 161 141
141 138 91
141 139 93
132 130 87
141 139 93
141 140 94
140 138 93
148 146 97
145 144 97
141 139 93
140 139 93
146 144 97
153 152 103
147 147 99
152 151 101
152 152 103
146 145 98
153 152 103
161 161 109
160 159 107
151 152 103
153 153 103
153 153 103
159 159 108
163 162 109
164 163 110
160 159 108
163 162 109
159 158 106
155 154 104
161 160 108
157 157 106
158 157 106
161 160 108
159 158 107
161 161 109
161 161 109
161 160 108
160 159 108
161 161 108
162 161 109
162 162 109
163 162 109
164 163 109
165 164 110
164 163 110
166 165 111
163 162 109
164 162 108
168 166 112
166 164 110
166 164 110
165 163 109
161 160 108
163 161 108
163 161 108
164 162 108
165 163 109
164 162 109
162 160 108
165 163 109
169 167 112
157 155 104
171 167 111
166 164 109
166 164 109
167 165 110
172 170 113
166 164 109
169 166 110
171 168 112
162 159 106
165 162 108
169 166 111
170 166 110
164 161 107
160 158 106
164 161 106
167 164 109
168 165 110
169 165 110
167 164 109
167 163 108
165 161 106
163 160 106
168 164 108
164 161 108
165 161 106
167 164 109
171 166 109
169 165 109
170 166 110
165 161 106
161 158 105
162 158 104
162 158 104
160 157 104
166 161 106
164 161 106
163 157 103
164 159 103
159 156 104
166 162 105
162 157 103
164 158 103
158 154 99
162 157 102
159 154 101
159 155 102
159 155 102
153 149 96
151 147 93
156 150 95
155 150 97
155 150 97
162 157 99
150 146 94
149 145 91
153 149 96
153 150 96
153 148 94
158 153 95
147 141 90
179 201 228
179 200 228
179 200 228
179 200 228
179 200 228
178 200 228
178 200 228
178 200 228
177 199 228
177 199 228
177 199 228
177 199 228
177 199 228
176 199 228
176 199 228
177 199 228
175 198 228
175 198 228
176 198 228
175 198 228
174 198 228
175 198 228
174 197 228
174 197 228
174 198 228
173 197 228
174 197 228
173 197 228
173 197 228
173 197 228
173 197 228
172 197 228
172 196 228
172 196 228
172 196 228
172 196 228
171 196 228
171 196 228
170 196 228
171 196 228
170 196 228
170 196 228
170 196 228
169 195 228
170 195 228
169 195 228
169 195 228
169 195 228
168 195 228
168 194 228
168 194 228
168 194 228
168 194 228
168 194 228
167 194 228
167 194 228
167 194 228
166 194 228
166 194 228
166 194 228
166 194 228
166 193 228
166 193 228
166 193 228
165 193 228
165 193 228
165 193 228
165 193 228
165 193 228
165 193 228
164 193 228
164 193 228
164 192 228
164 192 228
164 192 228
164 192 228
163 192 228
163 192 228
163 192 228
163 192 228
163 192 228
163 192 228
163 192 228
163 192 228
163 192 228
163 192 228
163 192 228
163 192 228
162 192 228
163 192 228
162 192 228
162 192 228
162 192 228
162 192 228
162 192 228
162 192 228
163 192 228
163 192 228
163 192 228
163 192 228
163 192 228
163 192 228
163 192 228
163 192 228
164 192 228
164 192 228
164 192 228
164 193 228
165 193 228
165 193 228
165 193 228
166 193 228
166 194 228
167 194 228
167 194 228
168 195 228
169 195 228
170 195 228
171 196 228
172 197 228
174 198 228
175 198 228
175 197 226
167 186 212
184 202 226
210 229 255
210 229 255
210 229 255
210 229 255
210 229 255
209 229 255
209 229 255
209 229 255
209 229 255
209 229 255
209 229 255
209 229 255
209 229 255
209 229 255
209 229 255
209 229 255
209 229 255
209 229 255
209 229 255
209 229 255
209 229 255
209 229 255
209 229 255
209 229 255
209 229 255
209 229 255
209 229 255
209 228 255
209 228 255
208 228 255
208 228 255
208 228 255
208 228 255
208 228 255
208 228 255
208 228 255
208 228 255
208 228 255
208 228 255
208 228 255
208 228 255
208 228 255
208 228 255
208 228 255
208 228 255
206 226 254
158 180 222
73 105 174
61 98 174
61 97 168
62 99 173
62 99 174
62 99 171
62 99 175
61 98 167
62 98 172
62 98 169
62 98 170
62 98 167
62 99 170
62 98 167
62 99 170
62 99 169
62 99 172
62 98 164
63 99 171
62 98 169
62 99 173
63 99 166
62 98 169
62 98 167
62 99 171
62 98 165
62 99 168
62 99 167
63 99 170
62 98 168
62 99 172
62 99 170
62 98 166
61 98 168
62 98 163
63 99 170
62 98 170
61 98 162
62 98 170
62 99 172
62 98 165
63 99 170
62 98 167
62 98 171
62 98 171
62 98 165
62 98 170
62 98 168
61 98 167
61 98 164
61 97 167
62 98 171
61 97 163
62 97 169
62 97 170
70 104 175
149 171 214
207 227 255
208 228 255
208 228 255
208 228 255
208 228 255
208 228 255
208 228 255
208 228 255
208 228 255
208 228 255
208 228 255
208 228 255
208 228 255
208 228 255
208 228 255
208 228 255
209 228 255
209 228 255
209 228 255
209 229 255
209 229 255
209 229 255
209 229 255
209 229 255
209 229 255
209 229 255
209 229 255
209 229 255
209 229 255
209 229 255
209 229 255
209 229 255
209 229 255
209 229 255
209 229 255
209 229 255
209 229 255
209 229 255
209 229 255
209 229 255
209 229 255
210 229 255
210 229 255
210 229 255
210 229 255
210 229 255
174 186 195
136 134 95
146 142 94
140 138 92
147 145 97
135 134 90
141 139 93
151 149 100
142 141 95
150 148 99
151 150 101
150 149 100
143 142 95
145 145 97
154 154 104
156 155 104
158 157 106
156 156 105
158 158 106
157 156 105
155 154 104
161 160 108
166 165 111
156 155 104
153 152 103
159 158 106
160 159 107
161 161 108
159 159 107
155 154 104
165 164 110
165 164 110
167 166 112
167 166 112
160 160 108
163 162 109
167 166 112
160 159 107
165 164 110
166 164 110
164 163 110
161 161 108
163 162 109
168 167 112
162 160 108
164 162 109
164 163 110
162 162 109
166 164 110
167 166 111
168 166 112
167 165 110
164 163 109
166 165 110
166 164 110
170 168 113
164 162 108
163 162 109
168 166 111
168 166 111
167 165 110
168 166 111
165 162 108
167 165 110
169 166 111
165 164 110
163 161 108
169 166 110
164 162 108
168 166 111
164 161 108
158 155 103
165 163 109
170 166 110
172 168 111
167 163 108
168 164 109
170 165 109
170 165 109
164 161 107
167 164 109
163 159 106
167 163 108
168 163 108
168 164 108
167 164 109
171 167 111
169 166 110
165 162 108
167 162 106
165 161 107
166 162 108
164 159 105
169 164 108
168 164 108
162 157 103
160 155 103
164 160 106
162 158 104
162 157 103
162 157 102
168 163 106
165 159 102
164 159 104
160 156 103
158 155 101
163 159 103
152 149 97
167 163 105
156 152 99
161 157 101
160 156 99
159 154 97
150 146 94
150 146 95
161 155 100
152 147 93
161 156 98
155 150 97
151 146 94
154 150 99
151 147 95
156 151 97
151 145 93
156 152 99
180 201 228
180 201 228
180 201 228
179 200 228
179 200 228
179 200 228
178 200 228
178 200 228
178 200 228
178 200 228
177 199 228
177 199 228
176 199 228
176 199 228
177 199 228
176 199 228
176 199 228
175 198 228
175 198 228
176 198 228
175 198 228
174 198 228
174 198 228
174 198 228
175 198 228
174 198 228
174 197 228
173 197 228
173 197 228
173 197 228
173 197 228
173 197 228
173 197 228
172 196 228
172 196 228
171 196 228
171 196 228
171 196 228
171 196 228
171 196 228
170 196 228
170 196 228
170 196 228
170 196 228
170 195 228
170 195 228
169 195 228
169 195 228
169 195 228
169 195 228
168 195 228
168 194 228
168 194 228
167 194 228
168 194 228
167 194 228
167 194 228
167 194 228
167 194 228
167 194 228
167 194 228
166 194 228
166 193 228
166 193 228
166 193 228
166 193 228
166 193 228
165 193 228
165 193 228
165 193 228
165 193 228
165 193 228
165 193 228
165 193 228
164 192 228
164 192 228
164 192 228
164 192 228
164 192 228
164 192 228
164 192 228
163 192 228
163 192 228
163 192 228
163 192 228
163 192 228
163 192 228
163 192 228
163 192 228
163 192 228
163 192 228
163 192 228
163 192 228
163 192 228
163 192 228
163 192 228
163 192 228
163 192 228
163 192 228
163 192 228
163 192 228
163 192 228
163 192 228
163 192 228
164 192 228
164 192 228
164 192 228
164 193 228
165 193 228
165 193 228
165 193 228
165 193 228
166 193 228
167 194 228
167 194 228
168 194 228
168 195 228
169 195 228
170 195 228
171 196 228
172 197 228
174 197 228
175 198 228
176 198 227
172 192 219
175 193 217
209 228 254
210 229 255
210 229 255
210 229 255
210 229 255
210 229 255
210 229 255
210 229 255
210 229 255
210 229 255
209 229 255
209 229 255
209 229 255
209 229 255
209 229 255
209 229 255
209 229 255
209 229 255
209 229 255
209 229 255
209 229 255
209 229 255
209 229 255
209 229 255
209 229 255
209 229 255
209 229 255
209 229 255
209 229 255
209 229 255
209 229 255
209 229 255
209 229 255
209 229 255
209 228 255
209 228 255
209 228 255
208 228 255
208 228 255
208 228 255
208 228 255
208 228 255
208 228 255
194 215 246
115 141 195
62 98 174
61 98 172
61 98 170
62 98 172
62 99 172
63 99 172
62 99 172
62 99 174
62 99 174
61 98 171
62 99 171
62 98 168
61 98 167
63 99 169
62 98 166
62 98 169
62 98 165
63 99 171
61 98 172
62 98 166
63 99 168
63 99 166
62 98 166
62 98 162
63 99 173
63 99 172
62 98 168
63 99 167
62 99 169
63 99 168
62 98 165
63 99 166
61 98 166
61 97 162
61 97 160
62 99 175
61 98 165
62 98 170
62 99 167
62 98 172
61 98 166
62 98 165
61 97 163
62 98 170
62 98 172
61 98 166
62 98 169
62 99 172
62 97 165
62 98 172
61 97 166
61 98 169
61 97 165
61 97 165
61 98 170
61 97 164
61 97 170
62 98 172
118 144 198
195 215 245
208 228 255
208 228 255
208 228 255
208 228 255
208 228 255
208 228 255
209 228 255
209 228 255
209 228 255
209 229 255
209 229 255
209 229 255
209 229 255
209 229 255
209 229 255
209 229 255
209 229 255
209 229 255
209 229 255
209 229 255
209 229 255
209 229 255
209 229 255
209 229 255
209 229 255
209 229 255
209 229 255
209 229 255
209 229 255
209 229 255
209 229 255
209 229 255
209 229 255
210 229 255
210 229 255
210 229 255
210 229 255
210 229 255
210 229 255
210 229 255
210 229 255
210 229 255
210 229 255
163 173 174
132 129 85
144 141 94
135 132 87
144 141 94
145 143 96
146 144 96
140 138 92
152 151 101
150 149 100
155 154 103
153 152 102
157 155 104
156 155 104
154 152 102
146 146 98
158 158 106
156 155 104
160 158 106
156 156 105
159 158 106
160 159 107
154 154 104
159 158 106
165 164 110
164 163 110
159 157 106
165 165 111
163 162 109
158 157 106
165 164 110
162 161 108
159 159 107
167 165 111
165 164 110
163 162 109
161 160 108
165 164 110
163 162 109
167 165 111
164 163 110
163 162 109
161 160 108
164 163 110
165 163 109
166 164 110
164 163 110
168 168 113
170 168 112
167 166 111
167 165 110
167 166 111
169 168 113
170 168 112
172 169 113
165 164 110
168 166 112
165 163 109
169 167 112
168 166 111
167 165 110
170 168 112
173 170 113
168 166 110
165 163 109
170 167 111
165 163 109
167 165 110
169 165 110
166 164 109
169 166 110
163 160 107
164 161 107
172 168 112
169 167 111
168 165 110
170 168 112
171 166 110
168 165 109
171 167 111
171 168 111
168 163 108
166 162 108
166 163 108
167 164 109
167 163 108
170 165 109
165 161 106
163 159 106
166 163 108
164 160 106
166 161 106
167 163 108
169 164 108
164 160 105
165 161 107
159 154 102
170 165 108
170 165 109
163 158 103
168 163 107
166 161 106
166 161 106
162 158 102
163 158 102
161 156 102
159 154 100
159 155 99
159 153 101
162 158 103
156 152 96
162 157 102
157 152 97
163 159 104
162 157 101
160 156 101
163 159 102
160 155 97
157 152 99
159 154 97
161 156 99
155 151 96
152 147 95
157 152 95
151 146 93
159 154 97
180 201 228
180 201 228
180 201 228
179 200 228
179 200 228
179 200 228
178 200 228
178 200 228
178 200 228
178 200 228
177 199 228
177 199 228
177 199 228
176 199 228
177 199 228
176 199 228
176 199 228
176 198 228
176 198 228
175 198 228
175 198 228
175 198 228
175 198 228
175 198 228
174 198 228
174 198 228
174 198 228
173 197 228
174 197 228
173 197 228
173 197 228
173 197 228
172 197 228
173 197 228
172 197 228
171 196 228
172 196 228
171 196 228
171 196 228
171 196 228
171 196 228
171 196 228
171 196 228
171 196 228
170 195 228
170 196 228
170 195 228
169 195 228
169 195 228
169 195 228
169 195 228
169 195 228
169 195 228
168 195 228
168 195 228
168 194 228
167 194 228
167 194 228
167 194 228
167 194 228
167 194 228
167 194 228
166 194 228
167 194 228
166 194 228
166 193 228
166 193 228
166 193 228
165 193 228
165 193 228
165 193 228
165 193 228
165 193 228
165 193 228
165 193 228
165 193 228
165 193 228
164 193 228
164 193 228
164 192 228
164 192 228
164 192 228
164 192 228
163 192 228
164 192 228
163 192 228
163 192 228
163 192 228
163 192 228
163 192 228
163 192 228
163 192 228
163 192 228
163 192 228
163 192 228
163 192 228
163 192 228
163 192 228
163 192 228
163 192 228
163 192 228
163 192 228
163 192 228
164 192 228
164 192 228
164 192 228
164 192 228
164 192 228
164 193 228
165 193 228
165 193 228
166 193 228
165 193 228
166 193 228
167 194 228
167 194 228
168 194 228
168 194 228
169 195 228
170 196 228
171 196 228
172 196 228
174 197 228
174 198 228
177 199 228
169 190 217
168 186 210
201 220 245
210 229 255
210 229 255
210 229 255
210 229 255
210 229 255
210 229 255
210 229 255
210 229 255
210 229 255
210 229 255
210 229 255
210 229 255
210 229 255
210 229 255
209 229 255
209 229 255
209 229 255
209 229 255
209 229 255
209 229 255
209 229 255
209 229 255
209 229 255
209 229 255
209 229 255
209 229 255
209 229 255
209 229 255
209 229 255
209 229 255
209 229 255
209 229 255
209 229 255
209 229 255
209 229 255
209 229 255
209 229 255
209 229 255
209 229 255
209 229 255
179 200 236
79 110 180
62 99 176
61 97 168
62 98 171
62 98 170
61 98 163
62 99 173
61 98 174
62 98 169
61 97 164
61 97 160
61 98 165
62 98 167
62 98 169
62 98 165
62 98 166
62 98 165
62 98 168
62 99 167
62 98 167
61 97 165
62 99 172
61 97 162
62 98 162
61 98 161
62 98 164
61 98 160
62 99 169
63 99 169
62 98 166
62 98 168
63 99 169
62 98 164
62 99 171
62 99 173
61 97 160
62 98 163
61 98 166
62 98 170
62 98 165
62 98 168
62 99 170
62 98 164
61 98 166
62 98 166
63 99 169
63 99 169
63 99 169
61 97 164
61 97 166
62 98 162
62 98 163
62 98 168
62 98 167
61 97 166
61 97 164
61 96 161
62 98 167
61 97 166
62 98 172
61 97 170
76 108 174
167 188 223
209 229 255
209 229 255
209 229 255
209 229 255
209 229 255
209 229 255
209 229 255
209 229 255
209 229 255
209 229 255
209 229 255
209 229 255
209 229 255
209 229 255
209 229 255
209 229 255
209 229 255
209 229 255
209 229 255
209 229 255
209 229 255
209 229 255
209 229 255
209 229 255
209 229 255
209 229 255
210 229 255
210 229 255
210 229 255
210 229 255
210 229 255
210 229 255
210 229 255
210 229 255
210 229 255
210 229 255
210 229 255
210 229 255
210 229 255
210 229 255
205 223 245
162 166 151
130 127 84
142 137 90
153 149 99
144 142 95
147 145 97
148 147 98
148 147 98
151 149 100
147 146 97
147 146 98
156 155 104
152 150 101
156 154 103
157 156 105
152 151 102
159 159 107
150 149 101
154 153 103
159 158 107
164 162 109
163 163 110
162 160 108
159 158 107
162 161 108
160 158 106
160 160 108
162 161 108
160 159 107
158 157 106
163 162 109
165 164 110
162 162 109
160 159 107
166 165 111
162 161 109
167 165 110
165 164 110
165 164 110
169 167 112
167 165 111
168 166 112
166 165 110
163 162 109
166 165 110
166 164 110
166 165 110
168 167 112
168 166 111
168 166 112
165 164 110
168 166 111
166 164 110
170 168 113
171 169 113
167 165 110
169 167 112
170 168 112
170 167 112
168 166 112
169 167 112
167 165 110
169 168 113
172 169 112
170 168 112
167 165 111
168 166 110
167 165 110
169 166 110
169 167 111
171 167 111
169 167 111
167 163 108
168 165 110
173 169 112
169 165 109
173 169 112
165 162 108
170 166 110
170 166 110
170 166 110
169 166 110
168 164 109
166 163 108
173 168 110
166 163 108
170 166 110
166 162 108
170 165 109
168 164 109
172 166 109
171 166 109
168 163 108
171 166 110
168 164 109
164 159 105
167 162 106
169 164 108
168 164 107
168 163 108
164 159 104
167 163 107
165 160 105
153 148 96
163 158 103
165 160 104
164 159 102
166 161 100
166 161 106
161 157 103
165 160 103
163 157 101
158 154 100
163 159 103
170 163 103
159 154 100
154 151 99
167 161 103
153 149 97
151 146 92
159 154 97
157 152 97
158 153 97
155 149 95
160 155 98
154 150 93
163 158 100
180 201 228
180 201 228
180 201 228
179 200 228
179 200 228
179 200 228
178 200 228
178 200 228
179 200 228
178 200 228
178 200 228
178 200 228
177 199 228
178 200 228
177 199 228
177 199 228
176 199 228
176 199 228
176 199 228
176 199 228
176 199 228
175 198 228
175 198 228
175 198 228
175 198 228
175 198 228
174 198 228
174 198 228
174 198 228
174 198 228
174 197 228
173 197 228
173 197 228
173 197 228
172 197 228
172 197 228
172 197 228
172 196 228
172 196 228
172 196 228
171 196 228
171 196 228
171 196 228
171 196 228
171 196 228
170 196 228
170 196 228
170 196 228
170 195 228
169 195 228
169 195 228
169 195 228
169 195 228
169 195 228
169 195 228
168 195 228
168 194 228
168 195 228
168 194 228
168 194 228
167 194 228
167 194 228
167 194 228
167 194 228
167 194 228
166 194 228
166 193 228
167 194 228
166 193 228
166 194 228
166 193 228
166 193 228
165 193 228
165 193 228
165 193 228
165 193 228
165 193 228
165 193 228
165 193 228
164 193 228
164 193 228
164 193 228
164 193 228
164 192 228
164 192 228
164 192 228
164 192 228
164 192 228
163 192 228
163 192 228
163 192 228
163 192 228
163 192 228
164 192 228
163 192 228
164 192 228
163 192 228
163 192 228
163 192 228
163 192 228
164 192 228
163 192 228
163 192 228
164 192 228
164 192 228
164 192 228
164 192 228
164 193 228
164 193 228
164 193 228
165 193 228
165 193 228
165 193 228
166 193 228
166 194 228
167 194 228
167 194 228
168 194 228
168 194 228
169 195 228
170 196 228
170 196 228
172 196 228
173 197 228
175 198 228
176 199 228
174 195 223
159 176 200
197 216 241
210 229 255
210 229 255
210 229 255
210 229 255
210 229 255
210 229 255
210 229 255
210 229 255
210 229 255
210 229 255
210 229 255
210 229 255
210 229 255
210 229 255
210 229 255
210 229 255
210 229 255
210 229 255
210 229 255
210 229 255
209 229 255
209 229 255
209 229 255
209 229 255
209 229 255
209 229 255
209 229 255
209 229 255
209 229 255
209 229 255
209 229 255
209 229 255
209 229 255
209 229 255
209 229 255
209 229 255
209 229 255
207 227 254
159 181 222
61 98 174
61 98 171
61 97 171
61 98 172
62 98 168
62 98 172
62 98 165
62 98 168
62 98 164
61 98 167
61 98 167
62 98 167
62 98 165
62 98 169
61 97 166
62 98 161
62 98 165
61 98 163
62 98 169
63 99 168
61 97 159
61 97 158
62 99 166
62 97 163
62 98 161
62 97 159
61 98 164
62 99 165
62 98 164
62 98 170
62 99 168
62 99 169
62 98 168
62 98 160
62 98 166
62 98 166
62 98 166
61 98 167
63 99 167
61 97 163
61 98 168
62 99 166
62 98 169
63 99 168
60 96 153
62 98 167
62 97 162
62 97 162
62 98 167
61 97 164
61 97 167
61 98 166
62 98 169
61 97 169
62 98 167
61 97 161
61 98 169
62 98 169
62 98 162
61 96 163
62 98 170
61 97 168
62 98 172
62 98 168
140 162 206
207 227 254
209 229 255
209 229 255
209 229 255
209 229 255
209 229 255
209 229 255
209 229 255
209 229 255
209 229 255
209 229 255
209 229 255
209 229 255
209 229 255
209 229 255
209 229 255
209 229 255
209 229 255
210 229 255
210 229 255
210 229 255
210 229 255
210 229 255
210 229 255
210 229 255
210 229 255
210 229 255
210 229 255
210 229 255
210 229 255
210 229 255
210 229 255
210 229 255
210 229 255
210 229 255
210 229 255
210 229 255
210 229 255
193 208 225
139 141 118
145 142 93
132 129 85
149 147 98
147 145 97
149 146 97
150 148 99
155 153 103
156 154 103
154 152 102
152 150 101
144 144 97
153 153 103
151 149 100
151 149 100
159 157 106
156 155 104
159 159 107
157 156 105
160 160 108
159 157 106
163 162 109
157 156 104
163 161 108
161 159 107
168 166 112
163 162 109
163 162 109
163 162 109
166 165 110
163 161 108
166 165 111
167 165 111
167 165 110
166 165 110
166 165 110
163 161 108
165 163 110
168 167 112
168 166 111
166 165 111
167 167 112
169 168 113
168 167 112
169 167 112
168 167 112
167 166 112
168 167 112
170 168 113
169 167 112
170 168 112
172 170 114
170 168 112
166 164 110
171 169 113
169 166 111
168 165 110
166 165 110
168 166 111
167 165 110
172 169 113
171 169 113
169 167 112
172 169 113
172 170 113
172 169 112
169 166 110
174 171 113
166 163 109
173 169 112
172 168 112
170 167 111
173 170 113
169 166 110
173 169 112
172 168 112
168 164 108
171 168 111
168 165 109
167 163 108
171 167 110
171 167 110
172 167 110
173 168 111
175 171 113
170 165 109
169 164 108
170 165 109
169 165 109
169 166 110
171 166 109
168 163 108
164 160 106
165 160 106
167 163 108
171 166 109
165 160 106
168 163 107
167 162 106
163 158 102
167 161 106
171 167 108
170 165 108
169 163 106
160 157 103
168 163 105
167 162 106
173 168 110
163 159 103
162 157 101
162 157 101
170 165 107
168 163 104
161 156 100
166 161 104
162 157 101
158 153 98
168 161 101
164 159 101
154 150 96
156 151 97
156 151 96
160 154 99
162 157 100
157 152 95
150 145 93
158 153 96
148 144 87
180 201 228
180 201 228
180 201 228
180 201 228
179 201 228
179 200 228
179 200 228
179 200 228
178 200 228
179 200 228
178 200 228
178 200 228
178 200 228
177 199 228
177 199 228
177 199 228
177 199 228
177 199 228
176 199 228
176 199 228
176 199 228
175 198 228
175 198 228
176 199 228
174 198 228
175 198 228
175 198 228
175 198 228
174 198 228
175 198 228
174 198 228
174 197 228
174 197 228
173 197 228
173 197 228
173 197 228
173 197 228
173 197 228
172 196 228
172 197 228
171 196 228
171 196 228
171 196 228
171 196 228
171 196 228
171 196 228
170 196 228
170 196 228
170 196 228
170 195 228
170 195 228
169 195 228
169 195 228
169 195 228
169 195 228
169 195 228
169 195 228
169 195 228
169 195 228
168 195 228
168 195 228
167 194 228
168 194 228
167 194 228
167 194 228
167 194 228
167 194 228
167 194 228
167 194 228
166 194 228
166 194 228
166 193 228
166 193 228
166 194 228
166 193 228
165 193 228
165 193 228
165 193 228
165 193 228
165 193 228
165 193 228
165 193 228
165 193 228
165 193 228
164 193 228
164 192 228
164 192 228
164 192 228
164 192 228
164 192 228
164 192 228
164 192 228
164 192 228
164 192 228
164 192 228
164 192 228
164 192 228
164 192 228
164 192 228
164 192 228
164 192 228
164 192 228
164 192 228
164 192 228
164 192 228
164 192 228
164 193 228
164 193 228
165 193 228
165 193 228
165 193 228
165 193 228
165 193 228
166 193 228
166 194 228
166 194 228
167 194 228
167 194 228
168 195 228
169 195 228
169 195 228
170 196 228
171 196 228
172 197 228
173 197 228
175 198 228
177 199 228
178 200 228
168 187 212
192 210 234
210 230 255
210 230 255
210 230 255
210 229 255
210 229 255
210 229 255
210 229 255
210 229 255
210 229 255
210 229 255
210 229 255
210 229 255
210 229 255
210 229 255
210 229 255
210 229 255
210 229 255
210 229 255
210 229 255
210 229 255
210 229 255
210 229 255
210 229 255
210 229 255
210 229 255
210 229 255
210 229 255
209 229 255
209 229 255
209 229 255
209 229 255
209 229 255
209 229 255
209 229 255
209 229 255
207 227 254
138 161 207
62 98 171
61 97 166
62 98 169
62 98 170
61 97 169
62 98 170
62 98 172
62 98 168
61 97 161
61 97 161
62 98 168
62 98 170
61 97 161
61 97 166
62 98 161
61 97 159
62 98 165
62 97 160
62 99 169
61 98 165
62 98 168
62 99 168
62 98 169
63 99 169
61 97 159
62 98 169
62 98 167
62 98 164
62 98 168
63 99 165
62 98 165
62 99 168
62 98 166
63 99 167
62 98 163
61 97 163
62 98 164
62 98 162
61 96 154
61 97 158
62 98 167
60 96 160
63 99 167
62 98 165
63 98 165
62 98 163
62 98 164
62 98 168
62 98 165
62 98 169
61 97 162
62 98 167
62 98 167
62 98 167
63 98 166
61 96 159
62 97 163
61 97 164
62 97 164
60 95 164
61 96 164
61 96 155
61 96 165
62 98 171
61 96 164
60 96 163
125 149 197
206 226 254
209 229 255
209 229 255
209 229 255
209 229 255
209 229 255
209 229 255
209 229 255
209 229 255
210 229 255
210 229 255
210 229 255
210 229 255
210 229 255
210 229 255
210 229 255
210 229 255
210 229 255
210 229 255
210 229 255
210 229 255
210 229 255
210 229 255
210 229 255
210 229 255
210 229 255
210 229 255
210 229 255
210 229 255
210 229 255
210 229 255
210 229 255
210 229 255
210 230 255
210 230 255
210 230 255
190 204 218
137 135 94
144 141 93
143 140 93
147 144 96
157 153 102
147 145 97
149 147 98
150 148 99
146 145 97
144 143 96
151 150 101
153 152 102
158 157 105
151 150 101
157 157 106
157 156 105
150 150 101
160 159 106
158 156 104
154 154 104
156 155 105
159 157 106
162 161 109
161 159 107
161 160 108
162 161 108
159 159 107
156 155 104
164 163 109
169 167 112
170 168 112
167 165 111
168 166 112
167 166 111
163 162 109
168 166 112
166 164 110
171 169 113
168 166 111
166 165 110
168 166 112
169 168 113
169 168 113
168 166 112
170 168 113
169 168 112
168 166 111
167 165 111
172 169 113
170 168 112
166 165 110
170 168 112
171 168 112
172 169 113
170 168 113
169 166 111
170 168 112
169 167 112
168 166 111
172 170 113
171 168 112
172 169 112
172 169 112
173 169 113
171 168 112
171 169 113
174 170 113
173 170 113
172 169 113
172 168 111
173 169 113
172 169 112
173 169 112
167 163 108
175 171 113
165 161 107
171 168 111
173 169 112
173 169 112
169 165 110
173 169 112
173 170 113
169 166 110
165 163 109
169 164 109
171 167 110
172 169 112
171 166 110
170 166 110
175 170 112
174 168 110
174 169 111
168 163 108
173 169 112
168 164 108
167 163 108
175 169 110
172 168 111
169 164 108
164 160 105
166 161 106
170 165 108
169 165 109
161 156 101
173 167 108
161 156 103
164 159 101
165 161 101
163 159 103
163 158 103
163 159 103
168 163 105
165 160 104
165 160 102
163 158 101
170 164 105
162 157 101
153 148 94
165 159 103
157 153 97
159 153 98
159 154 97
159 153 95
163 158 103
161 156 101
152 147 89
161 156 101
161 155 99
159 154 95
180 201 228
181 201 228
180 201 228
180 201 228
180 201 228
179 200 228
179 200 228
179 200 228
179 200 228
179 200 228
178 200 228
178 200 228
178 200 228
178 199 228
177 199 228
178 200 228
177 199 228
177 199 228
176 199 228
177 199 228
177 199 228
176 199 228
175 198 228
175 198 228
175 198 228
175 198 228
175 198 228
174 198 228
175 198 228
174 198 228
174 198 228
174 197 228
174 198 228
174 198 228
173 197 228
173 197 228
173 197 228
173 197 228
173 197 228
173 197 228
173 197 228
172 197 228
172 196 228
171 196 228
171 196 228
171 196 228
172 196 228
171 196 228
170 196 228
170 196 228
171 196 228
170 196 228
170 195 228
170 195 228
169 195 228
169 195 228
169 195 228
169 195 228
169 195 228
168 195 228
168 195 228
168 195 228
168 194 228
168 195 228
168 195 228
167 194 228
168 194 228
167 194 228
167 194 228
167 194 228
167 194 228
167 194 228
167 194 228
166 194 228
166 193 228
166 193 228
166 193 228
166 193 228
166 193 228
165 193 228
165 193 228
166 193 228
165 193 228
165 193 228
165 193 228
165 193 228
165 193 228
165 193 228
164 193 228
164 193 228
164 193 228
165 193 228
164 193 228
164 193 228
164 193 228
164 192 228
164 192 228
164 192 228
164 192 228
164 193 228
164 192 228
164 193 228
164 193 228
164 193 228
164 192 228
164 193 228
164 193 228
164 193 228
165 193 228
165 193 228
165 193 228
165 193 228
165 193 228
166 193 228
166 194 228
166 194 228
167 194 228
168 194 228
168 194 228
168 194 228
169 195 228
170 195 228
170 196 228
172 197 228
172 196 228
174 198 228
175 198 228
176 199 228
179 200 228
163 181 206
183 200 224
211 230 255
211 230 255
211 230 255
211 230 255
211 230 255
211 230 255
210 230 255
210 230 255
210 230 255
210 229 255
210 229 255
210 229 255
210 229 255
210 229 255
210 229 255
210 229 255
210 229 255
210 229 255
210 229 255
210 229 255
210 229 255
210 229 255
210 229 255
210 229 255
210 229 255
210 229 255
210 229 255
210 229 255
210 229 255
210 229 255
210 229 255
210 229 255
210 229 255
204 223 251
105 131 191
61 98 170
62 98 171
61 97 166
62 98 170
62 98 172
62 98 168
62 98 165
62 97 161
63 99 170
62 98 168
62 98 168
62 99 164
62 98 162
62 98 167
62 98 167
61 97 155
62 99 169
61 97 159
62 98 172
62 98 161
62 98 164
61 98 166
61 97 165
61 97 161
62 98 164
62 98 169
62 98 162
61 97 155
61 97 158
62 99 170
62 98 163
62 99 165
62 98 163
63 99 170
62 98 164
62 98 166
62 98 168
62 97 163
61 98 164
62 98 163
61 98 163
61 97 159
61 97 160
61 97 165
62 98 165
62 98 160
62 98 164
61 97 163
62 99 168
62 99 170
62 98 165
61 97 165
61 97 163
61 97 162
61 96 160
61 97 162
62 97 161
61 97 162
61 96 162
62 98 170
62 98 165
61 96 161
61 97 163
60 96 163
62 98 163
62 98 167
61 97 163
60 96 163
106 131 185
200 219 247
210 229 255
210 229 255
210 229 255
210 229 255
210 229 255
210 229 255
210 229 255
210 229 255
210 229 255
210 229 255
210 229 255
210 229 255
210 229 255
210 229 255
210 229 255
210 229 255
210 229 255
210 229 255
210 229 255
210 229 255
210 229 255
210 229 255
210 229 255
210 229 255
210 230 255
210 230 255
210 230 255
211 230 255
211 230 255
211 230 255
211 230 255
211 230 255
211 229 254
184 194 199
136 132 86
143 140 92
131 128 84
140 136 90
146 143 95
144 141 94
146 144 96
156 154 103
160 158 106
151 150 101
152 150 102
156 154 104
152 151 102
158 158 107
152 150 101
156 155 104
154 154 104
146 145 98
160 159 107
160 158 106
162 160 108
159 158 107
166 165 111
156 155 104
163 161 108
164 163 109
161 160 107
166 164 110
167 165 111
169 167 112
167 166 111
169 167 112
165 164 110
167 165 110
164 163 110
164 162 109
164 163 109
169 168 112
166 164 110
170 168 113
170 169 113
169 167 112
170 168 113
168 167 112
171 169 113
169 167 112
169 167 112
169 167 112
172 170 113
171 169 113
171 168 112
171 169 113
173 170 113
172 169 112
172 170 113
170 168 112
172 169 113
171 169 113
174 171 114
174 171 113
173 170 113
174 170 113
171 168 112
171 168 112
171 169 113
173 170 113
171 168 112
170 167 111
174 170 113
172 169 113
174 170 113
171 168 112
172 168 112
170 167 111
174 171 113
168 166 110
169 165 110
169 166 110
173 169 112
171 167 110
173 169 112
171 166 109
173 169 112
172 168 110
170 167 110
174 169 111
169 164 108
175 170 112
169 165 109
173 169 112
171 167 110
173 169 112
174 168 110
172 167 110
169 164 109
169 164 107
172 167 109
173 169 111
167 161 105
166 162 106
170 164 108
171 166 106
171 166 108
174 168 108
171 166 107
166 162 105
163 158 101
168 162 104
163 158 101
163 157 100
165 159 102
168 162 103
163 157 101
165 159 101
154 149 94
170 163 106
158 154 100
161 156 99
164 160 99
167 162 103
166 161 100
165 158 99
162 157 99
162 157 100
152 148 95
162 157 98
162 157 99
166 160 99
157 151 95
150 147 92
181 201 228
180 201 228
180 201 228
179 201 228
180 201 228
180 201 228
180 201 228
180 201 228
179 200 228
178 200 228
178 200 228
178 200 228
179 200 228
178 200 228
178 200 228
177 199 228
178 200 228
177 199 228
177 199 228
177 199 228
177 199 228
176 199 228
176 199 228
177 199 228
176 199 228
175 198 228
175 198 228
176 198 228
175 198 228
174 198 228
175 198 228
174 198 228
174 198 228
174 198 228
174 198 228
174 197 228
174 197 228
174 197 228
173 197 228
173 197 228
173 197 228
172 197 228
172 196 228
172 197 228
173 197 228
171 196 228
171 196 228
172 196 228
171 196 228
171 196 228
171 196 228
171 196 228
171 196 228
171 196 228
170 196 228
170 196 228
170 196 228
170 195 228
170 195 228
169 195 228
169 195 228
169 195 228
169 195 228
168 195 228
168 195 228
168 194 228
168 195 228
168 194 228
167 194 228
168 194 228
168 194 228
167 194 228
166 194 228
167 194 228
167 194 228
166 194 228
166 193 228
167 194 228
166 193 228
166 194 228
166 193 228
166 193 228
166 193 228
166 193 228
166 193 228
165 193 228
165 193 228
165 193 228
165 193 228
165 193 228
165 193 228
165 193 228
165 193 228
165 193 228
165 193 228
165 193 228
164 193 228
165 193 228
165 193 228
165 193 228
164 193 228
164 193 228
165 193 228
165 193 228
165 193 228
165 193 228
165 193 228
165 193 228
165 193 228
165 193 228
165 193 228
166 193 228
166 193 228
166 193 228
167 194 228
167 194 228
167 194 228
168 194 228
167 194 228
168 195 228
169 195 228
170 195 228
170 195 228
171 196 228
172 196 228
172 197 228
174 197 228
174 198 228
177 199 228
178 200 228
171 190 216
180 197 221
211 230 255
211 230 255
211 230 255
211 230 255
211 230 255
211 230 255
211 230 255
211 230 255
211 230 255
211 230 255
211 230 255
211 230 255
210 230 255
210 230 255
210 230 255
210 230 255
210 229 255
210 229 255
210 229 255
210 229 255
210 229 255
210 229 255
210 229 255
210 229 255
210 229 255
210 229 255
210 229 255
210 229 255
210 229 255
210 229 255
210 229 255
196 216 246
94 122 183
60 96 166
62 98 170
61 97 168
61 97 171
61 97 166
61 97 165
62 98 165
61 97 168
62 98 164
60 96 160
62 98 167
63 99 172
61 97 159
61 97 159
61 97 162
62 99 167
63 99 168
62 98 167
62 98 159
63 99 167
61 98 169
62 98 162
62 98 161
62 98 168
62 98 163
63 98 162
62 99 170
62 98 166
62 99 167
62 98 168
62 98 161
62 98 166
62 98 167
61 97 160
61 97 158
61 98 165
62 98 158
62 97 155
61 97 155
62 98 160
61 97 155
62 98 163
62 98 161
61 97 159
61 96 157
62 98 165
62 98 164
62 97 159
62 98 167
62 98 167
62 98 163
61 96 157
62 97 166
62 98 166
62 98 167
60 96 158
62 97 162
61 97 163
62 97 162
60 95 160
61 96 163
63 98 167
60 95 154
61 97 160
61 97 162
61 96 159
61 97 168
62 97 166
60 94 155
60 95 156
106 132 187
207 226 254
210 229 255
210 229 255
210 229 255
210 229 255
210 229 255
210 229 255
210 229 255
210 229 255
210 229 255
210 229 255
210 229 255
210 229 255
210 229 255
210 229 255
210 229 255
210 230 255
210 230 255
210 230 255
210 230 255
211 230 255
211 230 255
211 230 255
211 230 255
211 230 255
211 230 255
211 230 255
211 230 255
211 230 255
211 230 255
211 230 255
211 230 255
182 191 192
133 129 84
151 147 96
148 145 96
145 142 94
148 147 99
147 146 98
143 142 96
152 151 101
152 150 101
143 141 95
146 145 98
154 153 103
150 148 100
159 158 107
153 153 104
151 151 103
155 154 104
154 152 102
157 156 105
151 151 102
153 151 102
163 162 109
165 164 110
166 164 110
164 162 109
163 161 108
166 165 110
164 163 109
166 164 110
168 166 110
168 166 111
170 168 113
167 165 110
169 167 112
168 167 112
168 166 112
172 170 113
171 168 112
168 167 112
172 170 113
171 169 113
174 171 114
172 169 113
172 170 114
173 170 113
170 168 112
169 168 113
172 170 114
171 169 113
175 172 114
171 169 113
173 171 114
172 170 114
172 170 113
173 170 113
173 171 114
175 171 113
172 170 113
172 169 113
172 169 113
174 170 113
175 171 113
175 172 114
170 168 112
174 171 113
173 170 113
171 168 112
174 171 113
174 170 112
173 170 113
171 168 112
171 168 112
172 169 112
176 172 114
175 171 113
173 169 112
173 169 112
170 166 110
173 169 112
174 170 112
175 170 112
173 169 112
173 169 112
175 170 113
175 170 112
174 169 111
173 169 112
171 166 109
170 166 110
171 167 110
174 169 111
172 167 110
173 168 110
173 167 109
176 171 112
171 166 108
172 167 109
172 167 109
171 165 108
169 164 106
168 163 106
171 166 108
168 163 106
167 162 105
173 167 106
172 165 106
168 163 104
170 165 108
171 166 108
167 160 99
170 165 105
163 158 101
166 160 102
169 164 106
162 156 99
169 163 104
166 161 103
163 157 97
166 160 103
159 153 97
159 154 99
162 157 101
158 154 95
154 149 95
161 156 98
164 159 99
165 159 101
161 156 99
162 157 99
156 151 95
156 150 93
181 201 228
181 201 228
180 201 228
180 201 228
180 201 228
180 201 228
180 201 228
180 201 228
179 200 228
179 200 228
179 200 228
179 200 228
178 200 228
178 200 228
177 199 228
179 200 228
178 200 228
178 200 228
177 199 228
177 199 228
177 199 228
177 199 228
176 199 228
176 199 228
176 199 228
176 198 228
176 199 228
175 198 228
176 198 228
175 198 228
175 198 228
176 198 228
175 198 228
175 198 228
174 198 228
174 198 228
175 198 228
174 197 228
174 198 228
173 197 228
173 197 228
173 197 228
173 197 228
173 197 228
172 197 228
172 197 228
172 197 228
172 196 228
172 196 228
172 196 228
171 196 228
171 196 228
171 196 228
171 196 228
171 196 228
171 196 228
170 196 228
170 196 228
170 196 228
170 195 228
170 195 228
170 195 228
169 195 228
170 195 228
169 195 228
169 195 228
169 195 228
169 195 228
168 195 228
168 195 228
168 195 228
167 194 228
168 194 228
168 194 228
167 194 228
167 194 228
167 194 228
168 194 228
167 194 228
167 194 228
167 194 228
167 194 228
167 194 228
166 194 228
166 193 228
166 193 228
166 193 228
166 193 228
166 193 228
165 193 228
165 193 228
166 193 228
165 193 228
166 193 228
166 193 228
165 193 228
165 193 228
165 193 228
165 193 228
165 193 228
165 193 228
165 193 228
165 193 228
165 193 228
165 193 228
165 193 228
165 193 228
165 193 228
166 193 228
166 193 228
166 193 228
166 193 228
166 194 228
166 194 228
166 194 228
167 194 228
167 194 228
168 194 228
168 195 228
168 195 228
169 195 228
169 195 228
170 195 228
171 196 228
171 196 228
171 196 228
172 197 228
174 197 228
175 198 228
177 199 228
178 200 228
170 189 214
186 204 229
210 229 254
211 230 255
211 230 255
211 230 255
211 230 255
211 230 255
211 230 255
211 230 255
211 230 255
211 230 255
211 230 255
211 230 255
211 230 255
211 230 255
211 230 255
211 230 255
211 230 255
211 230 255
211 230 255
210 230 255
210 230 255
210 230 255
210 230 255
210 229 255
210 229 255
210 229 255
210 229 255
210 229 255
210 229 255
194 214 245
99 127 188
61 97 169
62 98 174
61 97 164
60 96 159
62 98 174
62 98 170
62 98 167
62 98 165
62 97 159
62 98 161
61 97 163
62 98 166
62 98 166
61 97 164
62 98 161
62 98 164
62 97 159
63 99 172
61 98 163
62 99 168
61 97 161
62 98 169
62 99 169
62 98 166
62 98 164
62 98 163
62 98 160
62 98 167
63 99 168
62 98 160
62 98 162
62 98 160
63 99 168
62 98 161
62 98 160
62 98 160
62 98 166
61 97 159
61 97 161
62 98 167
62 98 159
62 98 166
62 98 162
62 98 166
62 98 163
62 98 166
62 98 164
62 97 163
62 98 157
61 97 160
61 97 162
62 98 162
61 97 157
61 97 163
62 98 161
62 97 162
62 97 161
61 97 158
61 97 161
62 98 164
60 95 156
61 96 160
62 98 168
61 97 164
61 97 164
61 97 161
61 97 165
61 96 161
61 97 168
61 96 165
61 96 164
60 94 155
98 124 178
192 212 241
210 229 255
210 229 255
210 229 255
210 229 255
210 229 255
210 229 255
210 230 255
210 230 255
210 230 255
210 230 255
211 230 255
211 230 255
211 230 255
211 230 255
211 230 255
211 230 255
211 230 255
211 230 255
211 230 255
211 230 255
211 230 255
211 230 255
211 230 255
211 230 255
211 230 255
211 230 255
211 230 255
211 230 255
211 230 255
154 161 156
125 122 80
145 142 93
151 147 95
147 144 95
148 145 97
148 146 97
138 137 92
148 146 98
146 145 98
148 147 100
141 140 95
148 147 100
151 150 102
150 149 101
152 151 103
159 157 106
162 161 109
152 151 102
159 157 105
159 157 106
167 165 111
156 156 107
163 161 108
161 159 108
165 164 111
165 163 110
167 165 110
168 166 111
165 164 110
167 166 112
170 167 112
168 166 112
166 165 110
168 166 111
170 168 113
169 167 112
173 171 114
172 169 113
173 170 113
171 170 114
172 170 113
172 169 113
171 169 113
171 169 113
174 171 114
172 169 113
172 169 113
172 170 114
172 169 113
173 171 114
173 170 113
172 169 113
170 168 113
173 171 114
173 169 112
174 171 113
172 170 114
172 169 113
174 171 114
174 171 113
174 171 114
174 171 114
175 171 114
175 171 113
175 171 114
174 171 113
173 171 114
173 170 113
172 169 113
175 171 113
174 171 113
172 168 112
174 170 113
176 172 114
175 170 113
176 171 113
177 172 114
175 171 113
172 168 111
174 170 112
175 170 112
175 170 112
171 167 110
174 170 113
171 167 110
179 172 113
176 171 112
173 167 110
175 170 112
170 165 109
175 170 112
173 167 109
169 164 107
174 167 109
174 169 110
172 167 108
171 166 109
172 166 108
176 169 110
172 166 109
173 168 110
169 164 106
169 164 106
169 165 105
168 163 106
170 164 106
174 168 108
172 167 108
167 162 105
170 164 107
167 162 104
160 155 99
165 159 102
176 169 108
164 159 99
165 160 101
170 165 107
171 164 104
172 166 104
167 162 104
164 158 100
170 165 104
169 162 101
166 160 99
165 160 101
163 158 99
166 160 102
156 149 94
156 150 95
164 159 98
162 156 98
159 154 98
182 202 228
181 201 228
181 202 228
181 201 228
181 201 228
180 201 228
180 201 228
180 201 228
179 200 228
179 200 228
180 201 228
179 200 228
179 200 228
179 200 228
179 200 228
179 200 228
179 200 228
178 200 228
178 200 228
177 199 228
177 199 228
177 199 228
177 199 228
177 199 228
177 199 228
177 199 228
176 199 228
176 199 228
176 199 228
176 199 228
176 198 228
175 198 228
175 198 228
175 198 228
175 198 228
175 198 228
174 198 228
174 198 228
174 197 228
174 198 228
174 197 228
173 197 228
173 197 228
173 197 228
173 197 228
173 197 228
172 197 228
172 197 228
172 197 228
172 197 228
171 196 228
172 196 228
172 196 228
171 196 228
171 196 228
171 196 228
171 196 228
171 196 228
171 196 228
171 196 228
170 195 228
170 196 228
170 196 228
170 196 228
169 195 228
169 195 228
169 195 228
169 195 228
168 195 228
169 195 228
169 195 228
168 195 228
168 194 228
168 195 228
168 194 228
168 194 228
168 195 228
168 194 228
167 194 228
167 194 228
167 194 228
167 194 228
167 194 228
167 194 228
167 194 228
166 194 228
167 194 228
166 193 228
166 194 228
166 194 228
166 194 228
166 194 228
166 193 228
166 193 228
166 193 228
165 193 228
166 193 228
166 193 228
165 193 228
166 193 228
166 193 228
166 193 228
166 193 228
166 193 228
166 193 228
166 193 228
166 193 228
166 193 228
166 193 228
166 193 228
166 193 228
166 194 228
167 194 228
166 194 228
167 194 228
167 194 228
167 194 228
167 194 228
168 195 228
168 194 228
168 195 228
169 195 228
169 195 228
170 196 228
171 196 228
172 196 228
173 197 228
173 197 228
174 198 228
176 199 228
177 199 228
179 200 228
172 192 218
187 205 229
211 230 255
211 230 255
211 230 255
211 230 255
211 230 255
211 230 255
211 230 255
211 230 255
211 230 255
211 230 255
211 230 255
211 230 255
211 230 255
211 230 255
211 230 255
211 230 255
211 230 255
211 230 255
211 230 255
211 230 255
211 230 255
211 230 255
211 230 255
211 230 255
211 230 255
211 230 255
211 230 255
204 223 250
105 131 187
61 97 168
62 98 170
61 97 165
60 96 162
62 98 172
62 99 171
62 98 167
61 97 164
61 97 160
60 96 160
61 97 157
62 98 166
62 98 163
61 97 161
61 97 160
62 98 169
62 98 165
62 98 165
62 98 162
62 98 163
61 97 159
61 96 152
61 97 159
62 98 160
61 97 157
61 97 160
61 97 158
61 98 167
61 97 161
61 97 155
61 97 154
63 99 163
62 98 162
62 98 162
62 98 161
62 99 167
62 98 163
62 97 158
61 97 157
62 98 167
62 98 164
61 97 161
61 98 164
62 98 155
62 98 158
62 98 164
61 98 161
62 98 163
62 97 160
61 97 155
61 97 159
62 98 161
61 97 162
61 97 156
62 97 160
61 96 158
61 97 156
61 97 164
62 97 164
62 98 167
61 96 155
62 98 162
63 98 163
61 96 157
62 97 163
61 96 155
60 95 162
61 96 158
62 98 168
60 95 159
61 97 165
60 94 156
60 96 163
60 94 160
104 129 179
200 219 248
211 230 255
211 230 255
211 230 255
211 230 255
211 230 255
211 230 255
211 230 255
211 230 255
211 230 255
211 230 255
211 230 255
211 230 255
211 230 255
211 230 255
211 230 255
211 230 255
211 230 255
211 230 255
211 230 255
211 230 255
211 230 255
211 230 255
211 230 255
211 230 255
211 230 255
211 230 255
211 230 255
162 169 166
133 131 86
141 136 88
135 132 87
143 140 93
142 139 92
136 136 93
153 151 101
136 135 92
147 146 99
143 142 96
148 146 99
154 153 103
151 150 101
145 144 99
155 155 105
156 155 104
150 149 101
157 156 106
158 157 106
159 158 106
160 159 107
157 156 105
163 162 109
159 157 106
163 160 108
159 158 106
167 166 111
165 163 110
165 163 110
170 168 112
166 164 110
170 168 112
167 165 111
172 169 113
171 169 113
170 168 112
171 169 113
173 170 114
173 171 114
172 170 113
173 170 114
174 171 114
173 170 113
170 168 113
173 171 114
174 171 114
173 170 113
174 171 114
173 171 114
173 170 114
174 171 114
173 171 114
173 171 114
174 171 114
175 171 114
174 171 114
172 170 114
176 172 114
174 171 114
176 172 114
174 171 114
176 172 114
175 172 114
176 172 114
176 172 114
174 171 114
173 170 113
176 172 114
177 172 113
177 172 114
175 171 113
176 172 114
173 170 113
176 172 114
176 172 114
173 169 112
173 169 112
174 170 113
176 172 114
175 171 113
177 172 113
176 172 113
176 170 112
177 172 113
176 170 112
173 167 110
175 169 112
175 171 113
174 169 111
177 172 113
175 169 110
173 168 110
175 170 112
172 167 109
173 169 110
174 169 110
174 169 110
173 167 109
172 167 108
167 163 107
175 169 110
169 164 106
168 163 106
171 166 108
170 165 109
169 164 105
167 161 104
174 169 110
166 162 102
172 165 105
168 163 104
173 166 106
166 160 101
168 161 102
169 164 106
171 165 105
170 163 104
170 165 104
166 162 105
164 158 100
162 157 101
168 163 104
163 157 99
162 158 100
162 157 99
163 156 99
167 161 103
165 159 101
160 156 95
165 160 102
161 155 97
162 157 98
154 150 93
182 202 228
181 202 228
181 202 228
181 201 228
180 201 228
180 201 228
181 202 228
180 201 228
180 201 228
180 201 228
180 201 228
179 200 228
180 201 228
179 200 228
179 200 228
179 200 228
179 200 228
178 200 228
179 200 228
178 200 228
178 200 228
178 200 228
177 199 228
178 200 228
177 199 228
177 199 228
177 199 228
176 199 228
177 199 228
176 199 228
176 199 228
175 198 228
176 199 228
175 198 228
175 198 228
175 198 228
175 198 228
175 198 228
175 198 228
174 198 228
174 198 228
174 198 228
174 197 228
174 198 228
173 197 228
173 197 228
174 197 228
174 197 228
173 197 228
172 197 228
173 197 228
172 197 228
172 197 228
172 197 228
171 196 228
172 197 228
171 196 228
172 196 228
171 196 228
171 196 228
171 196 228
171 196 228
170 196 228
170 196 228
170 196 228
170 196 228
169 195 228
170 195 228
169 195 228
169 195 228
169 195 228
169 195 228
169 195 228
169 195 228
169 195 228
168 195 228
168 195 228
168 194 228
168 195 228
168 194 228
168 194 228
168 194 228
168 194 228
167 194 228
167 194 228
167 194 228
167 194 228
167 194 228
167 194 228
167 194 228
167 194 228
167 194 228
166 194 228
166 194 228
166 194 228
166 194 228
167 194 228
167 194 228
166 194 228
166 193 228
166 194 228
166 193 228
166 194 228
166 193 228
166 194 228
166 194 228
166 193 228
166 194 228
167 194 228
167 194 228
166 194 228
167 194 228
167 194 228
167 194 228
167 194 228
167 194 228
168 194 228
168 194 228
168 195 228
168 194 228
169 195 228
169 195 228
170 195 228
171 196 228
171 196 228
171 196 228
172 197 228
173 197 228
174 198 228
175 198 228
176 199 228
178 200 228
179 200 228
175 194 220
186 203 226
212 230 255
212 230 255
212 230 255
212 230 255
211 230 255
211 230 255
211 230 255
211 230 255
211 230 255
211 230 255
211 230 255
211 230 255
211 230 255
211 230 255
211 230 255
211 230 255
211 230 255
211 230 255
211 230 255
211 230 255
211 230 255
211 230 255
211 230 255
211 230 255
211 230 255
210 229 255
112 137 187
61 97 171
61 96 163
60 96 164
61 97 165
61 97 161
61 97 166
62 98 168
62 97 166
62 98 166
61 97 160
62 98 162
62 98 164
62 98 169
61 97 159
61 97 159
61 97 159
63 99 170
61 97 157
62 98 164
62 98 161
62 98 160
63 99 165
61 97 158
62 99 168
60 96 152
61 97 161
61 97 164
61 97 164
61 97 162
62 97 164
62 98 159
62 98 162
63 99 166
62 97 162
62 98 162
62 98 161
61 96 152
60 96 150
62 98 163
62 98 167
62 98 162
61 97 157
62 98 162
62 98 160
62 98 163
61 97 166
61 97 155
62 98 159
62 98 165
62 98 156
62 98 163
62 97 160
61 97 166
61 98 166
62 98 160
62 98 168
62 98 165
62 97 159
61 97 160
61 97 157
61 97 156
61 96 158
61 97 158
60 95 151
62 97 162
61 96 162
61 96 160
61 96 162
61 97 160
60 94 154
61 95 160
62 97 167
62 97 164
60 96 156
60 94 155
60 94 158
107 132 186
210 229 254
211 230 255
211 230 255
211 230 255
211 230 255
211 230 255
211 230 255
211 230 255
211 230 255
211 230 255
211 230 255
211 230 255
211 230 255
211 230 255
211 230 255
211 230 255
211 230 255
211 230 255
211 230 255
211 230 255
211 230 255
211 230 255
212 230 255
212 230 255
212 230 255
212 230 255
178 186 186
128 123 80
124 121 80
145 141 93
147 144 94
146 144 97
135 134 91
143 141 95
144 142 96
147 146 99
148 146 98
152 151 102
145 145 98
154 153 104
155 155 105
151 150 102
156 155 105
158 156 106
154 153 104
160 159 107
157 157 106
155 154 105
155 155 106
163 161 109
162 161 109
166 164 110
162 161 109
165 163 110
169 167 112
168 167 113
168 166 112
169 168 113
167 165 110
170 168 112
170 168 113
168 166 111
172 170 113
171 169 113
171 169 113
174 171 114
173 170 114
172 168 112
173 170 113
173 170 113
173 171 114
174 171 114
174 171 114
174 171 114
174 171 114
172 170 114
174 171 114
173 171 114
174 171 114
175 172 114
173 171 114
175 171 114
175 172 114
175 172 114
175 172 114
174 171 114
174 171 114
175 171 114
175 171 114
176 172 114
175 172 114
176 172 114
177 172 114
176 172 114
178 173 114
177 172 114
175 171 114
178 173 114
175 172 114
176 172 114
180 174 114
176 172 114
176 172 114
177 172 114
175 171 113
176 172 113
178 172 113
177 171 113
174 170 112
175 170 112
176 170 112
177 171 113
176 171 113
178 173 113
177 171 112
175 170 111
176 170 112
176 171 112
174 169 111
174 170 111
176 169 110
176 171 111
173 168 109
177 172 111
173 167 109
171 166 108
175 170 112
176 170 109
172 167 109
170 165 106
170 165 106
175 169 110
167 162 104
172 166 107
173 166 106
170 165 106
176 171 108
170 164 103
170 165 106
171 167 108
174 168 108
170 165 106
174 168 108
166 161 101
167 161 102
168 163 101
164 158 99
163 157 100
167 161 101
174 167 106
162 158 98
166 160 99
171 165 103
162 157 100
155 150 95
159 154 96
164 158 98
166 160 101
164 158 96
166 160 97
158 151 93
182 202 228
183 202 228
182 202 228
182 202 228
181 201 228
181 201 228
181 201 228
180 201 228
180 201 228
180 201 228
180 201 228
180 201 228
180 201 228
180 201 228
180 201 228
179 200 228
179 200 228
179 200 228
178 200 228
178 200 228
179 200 228
178 200 228
178 200 228
178 199 228
178 200 228
177 199 228
177 199 228
177 199 228
177 199 228
177 199 228
177 199 228
176 199 228
176 199 228
176 199 228
176 199 228
176 198 228
176 198 228
175 198 228
175 198 228
174 198 228
175 198 228
175 198 228
174 198 228
175 198 228
174 198 228
173 197 228
174 198 228
173 197 228
174 197 228
173 197 228
173 197 228
173 197 228
172 197 228
172 197 228
172 197 228
173 197 228
172 197 228
172 196 228
172 196 228
172 197 228
171 196 228
171 196 228
171 196 228
171 196 228
171 196 228
171 196 228
170 196 228
170 195 228
170 196 228
170 195 228
170 196 228
170 195 228
169 195 228
170 195 228
170 195 228
169 195 228
169 195 228
169 195 228
169 195 228
169 195 228
168 195 228
169 195 228
168 195 228
168 195 228
168 195 228
168 194 228
168 195 228
168 195 228
167 194 228
168 194 228
168 194 228
168 194 228
168 194 228
167 194 228
167 194 228
167 194 228
167 194 228
167 194 228
167 194 228
167 194 228
167 194 228
167 194 228
167 194 228
167 194 228
166 194 228
167 194 228
167 194 228
167 194 228
167 194 228
167 194 228
167 194 228
167 194 228
167 194 228
168 194 228
168 194 228
168 194 228
169 195 228
168 195 228
168 195 228
168 195 228
169 195 228
170 195 228
170 196 228
170 196 228
171 196 228
171 196 228
172 196 228
173 197 228
173 197 228
174 198 228
175 198 228
176 199 228
178 200 228
180 201 228
171 190 214
194 211 235
212 230 255
212 230 255
212 230 255
212 230 255
212 230 255
212 230 255
212 230 255
212 230 255
212 230 255
212 230 255
212 230 255
211 230 255
211 230 255
211 230 255
211 230 255
211 230 255
211 230 255
211 230 255
211 230 255
211 230 255
211 230 255
211 230 255
211 230 255
211 230 255
131 153 199
61 97 167
60 96 167
60 96 161
61 98 169
62 97 166
61 96 159
61 97 161
61 96 154
61 97 162
61 97 165
62 98 162
61 97 163
61 97 159
62 97 161
62 98 161
62 98 165
62 98 164
60 96 158
62 98 157
63 99 167
62 98 165
62 98 161
62 98 161
62 98 160
61 97 159
61 97 159
62 98 163
62 98 167
61 97 155
61 97 158
62 98 165
62 98 160
62 97 157
61 97 160
60 97 156
60 96 156
61 97 156
62 98 158
62 98 162
62 98 156
63 99 162
63 98 163
62 98 162
62 98 158
61 97 159
61 97 156
61 97 156
62 97 160
62 97 158
62 98 163
62 98 165
62 97 155
61 97 157
62 98 161
61 97 159
62 98 163
62 98 159
62 98 161
61 96 160
62 97 159
62 97 161
61 96 157
62 97 165
62 98 163
61 96 159
61 95 150
61 96 151
61 95 158
61 96 155
61 96 163
61 96 158
61 96 162
62 97 166
60 96 162
61 95 161
61 96 161
61 95 158
60 93 148
140 160 197
210 229 255
211 230 255
211 230 255
211 230 255
211 230 255
211 230 255
211 230 255
211 230 255
211 230 255
211 230 255
211 230 255
211 230 255
211 230 255
212 230 255
212 230 255
212 230 255
212 230 255
212 230 255
212 230 255
212 230 255
212 230 255
212 230 255
212 230 255
212 230 255
173 183 185
149 144 92
146 142 90
144 141 92
133 131 87
139 137 92
131 131 90
145 143 96
152 150 101
142 141 96
151 150 102
149 148 100
150 149 102
136 136 94
155 154 104
147 146 100
155 153 104
149 149 102
151 150 103
152 151 102
154 153 104
160 158 107
163 162 109
157 156 105
160 158 107
164 161 108
165 163 109
164 163 109
163 161 109
158 157 106
163 162 110
168 166 112
168 166 111
169 167 112
170 168 113
172 169 113
173 170 114
171 168 113
173 170 114
174 171 114
174 171 114
172 170 114
173 171 114
173 171 114
173 171 114
174 171 114
174 171 114
174 171 114
174 171 114
175 171 114
176 172 114
174 171 114
174 171 114
174 171 114
174 171 114
176 172 114
174 171 114
175 171 114
174 171 114
174 171 114
177 172 114
176 172 114
176 172 114
175 172 114
177 172 114
178 173 114
176 172 114
175 171 114
176 172 114
176 172 114
177 173 114
179 173 114
176 172 114
175 172 114
177 172 114
177 173 114
179 173 114
176 172 114
174 171 114
178 173 114
177 172 113
177 172 114
179 173 113
178 173 114
177 172 113
177 172 113
178 173 113
177 172 112
176 171 112
178 172 111
180 173 113
176 170 111
177 172 112
175 170 111
174 168 110
169 163 106
173 169 109
174 169 109
173 167 106
171 165 104
174 168 108
171 166 107
174 168 109
171 165 103
176 169 106
174 168 108
171 166 105
175 169 106
172 166 104
172 166 106
171 166 106
171 166 106
171 166 105
170 164 104
169 165 105
167 162 102
167 162 104
162 158 102
170 164 104
162 157 101
173 166 105
165 160 101
159 154 96
162 156 96
167 161 101
168 162 101
161 155 95
164 159 97
160 155 97
158 153 93
170 164 103
166 161 98
163 157 95
156 151 95
165 159 101
164 158 99
182 202 228
182 202 228
182 202 228
182 202 228
182 202 228
181 202 228
181 201 228
182 202 228
181 201 228
181 201 228
181 201 228
181 201 228
180 201 228
180 201 228
180 201 228
180 201 228
180 201 228
179 200 228
179 200 228
179 200 228
178 200 228
179 200 228
179 200 228
178 200 228
178 200 228
178 200 228
178 200 228
178 200 228
177 199 228
177 199 228
177 199 228
177 199 228
177 199 228
177 199 228
177 199 228
176 199 228
176 199 228
176 199 228
176 199 228
176 199 228
175 198 228
175 198 228
176 198 228
175 198 228
175 198 228
175 198 228
175 198 228
174 198 228
174 198 228
174 198 228
173 197 228
174 197 228
174 198 228
174 197 228
173 197 228
173 197 228
173 197 228
173 197 228
172 196 228
172 197 228
172 197 228
171 196 228
171 196 228
172 196 228
172 196 228
171 196 228
172 196 228
171 196 228
171 196 228
171 196 228
171 196 228
171 196 228
170 196 228
170 195 228
170 195 228
170 195 228
170 195 228
169 195 228
169 195 228
169 195 228
169 195 228
169 195 228
169 195 228
169 195 228
169 195 228
169 195 228
169 195 228
169 195 228
168 195 228
168 195 228
168 195 228
168 194 228
168 194 228
168 195 228
168 194 228
168 194 228
168 194 228
168 194 228
168 194 228
168 194 228
168 194 228
168 194 228
168 194 228
167 194 228
168 194 228
167 194 228
168 194 228
167 194 228
167 194 228
167 194 228
168 194 228
168 194 228
168 195 228
168 194 228
168 195 228
169 195 228
169 195 228
169 195 228
169 195 228
169 195 228
169 195 228
170 195 228
170 195 228
171 196 228
171 196 228
171 196 228
172 197 228
173 197 228
173 197 228
174 198 228
175 198 228
176 199 228
177 199 228
179 200 228
181 201 228
173 191 216
200 218 242
212 230 255
212 230 255
212 230 255
212 230 255
212 230 255
212 230 255
212 230 255
212 230 255
212 230 255
212 230 255
212 230 255
212 230 255
212 230 255
212 230 255
212 230 255
212 230 255
212 230 255
212 230 255
212 230 255
212 230 255
211 230 255
211 230 255
162 183 222
60 96 166
61 97 171
60 96 162
63 98 166
62 98 166
61 97 159
61 97 161
61 97 167
61 97 165
62 98 164
61 97 164
61 98 165
62 98 162
62 98 164
61 97 160
62 97 161
61 97 162
63 99 170
62 98 161
61 97 167
62 98 164
61 97 158
60 96 153
61 97 159
61 96 153
62 97 158
62 98 162
62 98 160
62 98 159
62 98 165
62 98 162
63 99 164
63 99 167
62 98 164
62 98 164
62 98 159
61 97 157
61 97 162
62 98 165
62 97 156
62 97 160
61 96 154
62 98 160
62 97 160
61 97 161
62 98 159
63 98 163
62 98 161
61 97 164
61 97 157
61 96 153
62 98 163
62 98 166
60 95 151
61 97 156
61 97 156
62 98 163
61 96 152
62 97 160
62 97 156
61 96 158
61 96 158
62 98 165
61 97 158
60 95 154
60 96 155
61 96 156
62 98 165
61 95 153
62 98 165
60 95 154
61 96 160
61 97 158
60 95 154
62 97 162
59 92 147
61 97 158
61 96 163
60 94 155
58 90 150
171 191 223
211 230 255
211 230 255
212 230 255
212 230 255
212 230 255
212 230 255
212 230 255
212 230 255
212 230 255
212 230 255
212 230 255
212 230 255
212 230 255
212 230 255
212 230 255
212 230 255
212 230 255
212 230 255
212 230 255
212 230 255
212 230 255
212 230 255
192 205 218
137 134 90
141 137 91
138 136 90
143 142 95
138 136 92
137 136 92
144 142 96
134 133 91
150 149 101
139 138 94
149 148 100
145 144 98
156 154 104
147 147 100
146 146 100
151 151 103
150 149 101
159 159 108
152 150 102
153 153 105
155 154 105
147 147 101
161 159 107
166 164 110
159 157 106
165 163 109
164 163 110
161 160 109
168 166 112
164 162 109
170 167 112
168 165 111
169 167 112
169 166 112
171 168 112
171 168 112
173 169 113
174 170 113
174 171 114
173 170 113
173 170 114
175 171 114
175 172 114
175 172 114
176 172 114
176 172 114
175 172 114
175 171 114
172 170 114
177 172 114
176 172 114
176 172 114
176 172 114
174 171 114
176 172 114
176 172 114
175 172 114
175 172 114
177 172 114
176 172 114
179 173 114
175 172 114
176 172 114
176 172 114
180 174 114
174 171 114
177 172 114
177 172 114
178 173 114
176 172 114
179 173 114
177 173 114
177 172 114
179 173 114
178 173 114
176 172 114
178 173 114
177 173 114
177 172 114
176 172 114
179 173 113
178 173 113
179 173 112
177 172 113
177 171 113
178 172 112
178 173 113
177 172 112
177 172 112
174 170 111
175 170 110
175 170 110
173 168 110
178 171 111
174 168 108
175 169 111
179 173 112
174 168 109
176 171 111
176 170 110
175 169 109
172 167 106
172 166 106
171 165 106
173 167 108
173 167 107
171 166 104
170 165 108
171 165 103
174 168 105
174 168 106
167 161 103
174 169 108
170 165 106
168 163 103
170 164 103
175 168 106
170 164 103
168 162 102
169 163 101
172 166 101
164 158 99
161 156 97
169 163 103
168 163 102
167 161 101
167 162 103
171 165 103
171 166 104
168 163 103
165 159 98
167 162 101
159 154 96
160 155 94
163 156 97
166 161 102
183 202 228
182 202 228
182 202 228
182 202 228
182 202 228
182 202 228
182 202 228
181 202 228
181 201 228
181 202 228
181 201 228
181 201 228
181 201 228
181 201 228
180 201 228
180 201 228
181 201 228
180 201 228
179 200 228
179 200 228
180 201 228
179 200 228
178 200 228
178 200 228
178 200 228
178 200 228
178 200 228
178 200 228
178 199 228
178 200 228
177 199 228
178 200 228
177 199 228
177 199 228
176 199 228
177 199 228
177 199 228
177 199 228
176 199 228
176 198 228
176 199 228
176 198 228
176 198 228
175 198 228
175 198 228
176 198 228
175 198 228
175 198 228
175 198 228
175 198 228
175 198 228
175 198 228
173 197 228
174 198 228
174 197 228
174 197 228
173 197 228
173 197 228
173 197 228
173 197 228
173 197 228
172 197 228
172 197 228
172 197 228
172 197 228
172 196 228
172 197 228
172 197 228
172 197 228
172 196 228
171 196 228
171 196 228
171 196 228
171 196 228
170 196 228
171 196 228
170 196 228
170 196 228
170 196 228
170 196 228
170 196 228
170 195 228
170 195 228
170 195 228
170 195 228
170 195 228
169 195 228
169 195 228
169 195 228
169 195 228
169 195 228
169 195 228
169 195 228
169 195 228
169 195 228
168 195 228
168 195 228
168 195 228
168 195 228
168 195 228
168 195 228
168 194 228
168 195 228
168 194 228
168 195 228
168 194 228
168 194 228
168 194 228
168 195 228
168 195 228
168 195 228
168 195 228
168 195 228
168 195 228
169 195 228
169 195 228
169 195 228
169 195 228
169 195 228
169 195 228
170 195 228
170 196 228
171 196 228
171 196 228
171 196 228
172 196 228
172 197 228
173 197 228
174 198 228
174 198 228
175 198 228
175 198 228
177 199 228
178 199 228
180 201 228
182 202 228
175 193 218
199 216 240
212 231 255
212 231 255
212 231 255
212 231 255
212 231 255
212 230 255
212 230 255
212 230 255
212 230 255
212 230 255
212 230 255
212 230 255
212 230 255
212 230 255
212 230 255
212 230 255
212 230 255
212 230 255
212 230 255
212 230 255
187 206 238
69 102 171
61 97 166
61 96 166
61 97 167
61 97 162
61 97 162
62 98 166
61 97 156
61 97 161
62 98 165
61 97 163
62 98 164
62 98 165
61 97 158
62 97 156
61 97 162
62 98 169
62 97 160
62 97 158
62 97 156
62 98 163
61 97 157
62 98 160
61 97 159
62 98 160
61 97 156
61 97 159
61 97 158
61 97 158
62 98 158
62 97 158
62 97 158
61 97 151
62 98 156
62 98 166
61 97 151
62 98 156
62 97 153
62 98 160
61 96 152
61 97 152
62 98 155
63 99 166
62 97 154
62 97 158
62 97 157
62 98 156
62 98 157
62 98 166
61 97 156
61 97 155
61 97 153
61 97 151
62 98 158
61 97 165
61 97 150
62 97 158
61 97 159
62 98 158
62 98 161
63 98 164
62 97 160
61 96 153
60 96 156
61 97 160
61 97 158
61 96 152
62 97 158
60 95 153
61 96 159
61 96 159
60 95 153
60 95 154
60 95 159
62 97 156
60 95 160
60 96 158
60 94 152
60 93 142
60 94 154
59 94 154
61 93 150
181 201 233
212 230 255
212 230 255
212 230 255
212 230 255
212 230 255
212 230 255
212 230 255
212 230 255
212 230 255
212 230 255
212 230 255
212 230 255
212 230 255
212 230 255
212 230 255
212 231 255
212 231 255
212 231 255
212 231 255
212 231 255
198 212 226
143 140 99
139 136 89
146 144 96
133 130 86
139 137 94
144 143 95
147 145 97
132 132 90
140 140 97
146 144 97
147 146 99
149 149 102
144 144 98
153 153 104
145 144 99
144 143 97
149 147 100
148 147 100
159 157 105
152 151 102
154 154 105
152 151 102
162 161 109
159 158 108
158 156 105
164 162 109
165 163 110
157 156 106
164 162 109
166 164 111
161 159 107
170 168 112
169 166 111
173 170 113
172 169 113
172 170 113
173 170 113
173 170 113
174 171 114
173 170 114
173 170 114
175 172 114
175 171 114
175 171 114
173 171 114
174 171 114
174 171 114
177 172 114
174 171 114
175 172 114
179 173 114
176 172 114
174 171 114
177 172 114
175 171 114
176 172 114
177 172 114
176 172 114
176 172 114
175 172 114
178 173 114
177 172 114
177 173 114
177 173 114
177 172 114
177 172 114
178 173 114
177 173 114
177 173 114
177 173 114
178 173 114
178 173 114
176 172 114
178 173 114
177 172 113
177 173 114
178 173 114
178 173 113
178 173 113
180 174 113
179 173 112
177 173 114
179 173 113
178 173 113
181 174 114
177 172 112
181 174 113
178 172 109
177 172 113
177 172 112
180 173 112
177 171 110
176 170 111
174 169 108
180 173 111
176 170 109
176 170 110
179 172 110
178 173 112
174 168 106
176 170 108
176 169 108
172 166 106
172 167 106
173 167 108
176 171 109
172 166 104
176 170 108
172 166 105
177 171 112
173 168 108
176 170 109
169 163 102
169 164 102
170 165 103
172 166 101
165 160 101
171 164 104
166 161 100
173 167 104
164 159 96
164 159 98
164 157 99
160 155 98
167 162 99
165 159 102
167 161 101
167 162 101
166 160 97
165 159 99
159 153 94
169 163 100
163 157 93
162 156 93
161 155 95
165 159 98
152 148 87
183 202 228
183 202 228
183 202 228
182 202 228
182 202 228
183 202 228
182 202 228
182 202 228
183 202 228
182 202 228
181 202 228
181 202 228
182 202 228
181 201 228
181 201 228
180 201 228
181 201 228
180 201 228
180 201 228
180 201 228
179 201 228
179 200 228
179 200 228
180 201 228
179 200 228
178 200 228
179 200 228
179 200 228
179 200 228
178 200 228
178 200 228
179 200 228
178 200 228
178 200 228
177 199 228
177 199 228
177 199 228
177 199 228
177 199 228
176 199 228
177 199 228
177 199 228
176 199 228
176 199 228
176 199 228
176 198 228
176 199 228
176 198 228
176 198 228
176 199 228
175 198 228
175 198 228
175 198 228
174 198 228
174 198 228
174 198 228
174 198 228
174 197 228
173 197 228
174 198 228
174 197 228
174 197 228
173 197 228
173 197 228
172 197 228
173 197 228
173 197 228
173 197 228
172 197 228
172 197 228
172 197 228
173 197 228
172 197 228
171 196 228
171 196 228
171 196 228
172 196 228
171 196 228
171 196 228
171 196 228
171 196 228
171 196 228
170 196 228
170 196 228
170 195 228
170 195 228
170 196 228
170 196 228
170 195 228
170 195 228
170 195 228
169 195 228
169 195 228
169 195 228
169 195 228
170 195 228
169 195 228
169 195 228
169 195 228
169 195 228
169 195 228
169 195 228
169 195 228
169 195 228
169 195 228
169 195 228
169 195 228
169 195 228
169 195 228
169 195 228
169 195 228
169 195 228
170 195 228
169 195 228
169 195 228
170 195 228
170 195 228
170 195 228
170 196 228
170 195 228
170 196 228
171 196 228
172 196 228
172 196 228
171 196 228
172 196 228
172 197 228
173 197 228
173 197 228
174 197 228
175 198 228
175 198 228
176 199 228
177 199 228
179 200 228
180 201 228
178 198 224
171 188 211
207 225 249
213 231 255
213 231 255
213 231 255
212 231 255
212 231 255
212 231 255
212 231 255
212 231 255
212 231 255
212 231 255
212 231 255
212 231 255
212 231 255
212 230 255
212 230 255
212 230 255
212 230 255
212 230 255
205 224 250
109 133 186
61 97 167
60 95 161
61 97 168
60 96 159
62 98 165
61 97 162
60 96 159
62 98 164
61 97 164
62 97 158
60 96 162
61 97 157
61 97 155
60 96 148
61 97 159
61 97 159
60 96 153
61 96 156
62 97 155
63 99 167
61 97 159
61 97 158
62 97 162
62 98 161
62 99 170
62 97 154
61 97 155
62 98 157
61 96 155
61 97 157
63 99 169
61 97 155
61 98 159
60 96 147
61 97 154
61 97 157
61 96 145
61 97 158
61 97 152
62 98 156
61 97 158
62 98 159
62 97 159
61 97 159
63 99 166
61 96 153
62 98 164
61 97 157
61 96 158
61 97 153
61 96 156
63 98 159
61 97 155
59 94 148
61 97 156
61 97 154
61 97 157
61 97 152
61 97 159
61 97 160
61 96 154
61 96 150
61 96 151
61 96 152
61 96 157
62 97 159
61 96 159
61 96 151
62 97 159
60 95 151
61 96 156
61 97 159
61 96 162
60 95 156
60 95 156
60 94 157
62 97 160
60 94 156
60 94 157
58 91 146
59 93 151
58 90 147
96 121 173
204 222 249
212 230 255
212 230 255
212 230 255
212 230 255
212 231 255
212 231 255
212 231 255
212 231 255
212 231 255
212 231 255
212 231 255
212 231 255
212 231 255
212 231 255
212 231 255
213 231 255
213 231 255
213 231 255
209 226 247
147 146 115
147 144 89
138 135 90
129 128 86
134 133 91
137 136 92
138 137 94
143 141 96
142 141 96
139 138 94
143 142 98
144 143 98
150 150 102
151 150 101
146 146 100
148 147 102
149 149 102
143 143 98
153 153 104
150 149 102
154 153 105
152 151 104
153 152 104
160 159 108
154 153 105
161 160 108
165 163 109
155 155 105
169 166 112
165 162 109
170 167 111
165 163 110
169 166 112
174 170 113
173 170 113
173 170 113
172 170 113
171 168 113
174 170 113
175 171 113
176 172 114
175 171 114
175 171 114
175 171 114
176 172 114
175 171 114
174 171 114
177 173 114
176 172 114
176 172 114
175 171 114
176 172 114
177 172 114
176 172 114
177 173 114
177 172 114
176 172 114
178 173 114
177 172 114
177 172 114
176 172 114
176 172 114
177 173 114
177 172 114
179 173 114
177 172 114
176 172 114
177 172 114
177 173 114
177 172 114
177 172 114
178 173 114
177 172 113
178 173 114
179 173 114
177 172 113
180 174 113
178 173 113
178 173 114
179 173 113
177 173 113
177 172 112
179 173 114
180 174 113
177 172 113
176 172 112
179 173 113
176 172 111
179 173 113
177 172 112
177 172 111
178 173 112
177 172 111
180 173 110
176 171 111
177 172 112
178 172 110
177 171 110
176 171 112
177 172 110
175 170 109
179 173 111
175 170 109
173 169 106
177 171 110
176 169 109
176 170 108
175 170 108
177 171 109
170 164 106
168 163 101
169 164 105
170 165 103
171 165 104
167 161 99
171 165 106
167 160 101
173 166 104
167 162 101
173 166 104
169 164 103
169 164 102
169 163 101
171 166 104
169 163 103
169 164 100
168 161 100
164 158 96
169 163 99
165 159 97
169 162 102
167 161 100
167 161 99
167 161 103
169 162 99
165 159 100
162 157 97
159 153 95
183 202 228
184 203 228
183 203 228
183 202 228
183 203 228
182 202 228
183 202 228
183 202 228
182 202 228
182 202 228
182 202 228
182 202 228
181 202 228
181 202 228
182 202 228
181 201 228
181 201 228
181 201 228
181 201 228
180 201 228
180 201 228
180 201 228
180 201 228
180 201 228
179 200 228
180 201 228
179 200 228
179 200 228
179 200 228
179 200 228
178 200 228
179 200 228
178 200 228
178 200 228
179 200 228
178 200 228
178 200 228
178 200 228
177 199 228
177 199 228
178 200 228
178 200 228
177 199 228
177 199 228
177 199 228
177 199 228
177 199 228
176 199 228
177 199 228
175 198 228
176 198 228
175 198 228
175 198 228
175 198 228
175 198 228
175 198 228
175 198 228
175 198 228
175 198 228
174 197 228
174 198 228
174 198 228
174 198 228
174 198 228
173 197 228
174 198 228
173 197 228
174 197 228
173 197 228
173 197 228
173 197 228
173 197 228
173 197 228
173 197 228
172 196 228
172 197 228
172 197 228
172 196 228
171 196 228
171 196 228
172 196 228
172 196 228
171 196 228
171 196 228
171 196 228
171 196 228
171 196 228
171 196 228
171 196 228
170 196 228
170 196 228
170 196 228
170 196 228
170 196 228
171 196 228
170 195 228
170 196 228
170 196 228
170 195 228
170 195 228
170 195 228
170 196 228
170 195 228
170 195 228
169 195 228
169 195 228
169 195 228
170 195 228
170 195 228
170 196 228
170 195 228
170 195 228
170 196 228
170 196 228
170 195 228
170 195 228
170 196 228
170 196 228
171 196 228
170 196 228
172 196 228
171 196 228
172 196 228
172 196 228
172 197 228
172 197 228
173 197 228
173 197 228
173 197 228
175 198 228
175 198 228
175 198 228
176 199 228
177 199 228
178 200 228
180 201 228
181 201 228
180 199 225
184 201 225
211 229 253
213 231 255
213 231 255
213 231 255
213 231 255
213 231 255
213 231 255
213 231 255
213 231 255
213 231 255
213 231 255
213 231 255
213 231 255
212 231 255
212 231 255
212 231 255
212 231 255
212 231 255
130 152 198
59 95 158
60 95 161
59 94 160
60 95 158
60 95 157
61 97 167
61 96 159
61 97 158
61 97 161
61 96 161
61 97 164
61 97 160
61 96 156
62 98 165
61 96 157
62 97 156
62 97 161
62 98 161
62 98 160
61 97 156
62 98 161
62 98 163
61 98 160
61 96 160
62 98 160
60 96 152
61 97 152
62 98 163
62 98 159
61 97 152
61 96 155
61 97 153
61 96 150
61 97 156
61 97 153
62 98 159
61 96 154
62 98 156
61 96 156
62 98 159
61 96 148
62 97 154
62 97 164
62 97 155
62 98 158
61 97 152
61 97 162
60 96 147
62 97 160
62 97 158
61 96 149
61 96 153
61 96 151
62 97 149
62 98 163
61 97 155
61 97 156
62 98 159
62 98 160
60 95 153
61 96 151
61 96 157
61 96 151
62 97 157
61 96 156
61 96 158
62 97 157
60 95 152
61 96 159
62 97 160
61 96 158
61 96 149
61 97 158
60 95 147
60 95 160
61 95 157
60 94 151
60 95 155
59 93 145
61 95 161
61 96 162
58 90 146
59 92 153
59 92 152
139 159 198
212 231 255
212 231 255
212 231 255
212 231 255
213 231 255
213 231 255
213 231 255
213 231 255
213 231 255
213 231 255
213 231 255
213 231 255
213 231 255
213 231 255
213 231 255
213 231 255
213 231 255
212 230 254
164 169 156
132 129 85
136 133 88
144 141 94
136 135 92
128 128 87
143 141 95
143 142 96
141 140 95
139 138 94
139 140 97
146 146 100
149 148 100
143 143 98
150 149 102
147 148 103
148 148 102
150 149 102
141 142 98
153 153 105
151 151 104
150 150 103
155 154 105
160 159 107
151 151 104
157 156 106
162 160 109
160 158 107
164 162 109
163 162 109
161 159 107
167 165 110
170 168 112
169 167 112
162 161 110
168 166 112
172 169 113
173 170 113
175 171 113
173 170 113
174 170 113
175 171 113
175 171 114
174 171 114
175 172 114
175 172 114
178 173 114
176 172 114
177 172 114
177 172 114
175 172 114
177 173 114
174 171 114
178 173 114
178 173 114
179 173 114
178 173 114
177 173 114
178 173 114
176 172 114
177 172 114
178 173 114
178 173 114
178 173 114
178 173 114
179 173 114
178 173 114
180 174 114
178 173 113
179 173 113
177 172 113
180 174 114
178 173 112
178 173 114
177 172 112
176 172 113
178 173 113
178 173 112
180 174 113
178 173 112
181 174 113
180 173 112
178 173 113
178 172 111
178 172 110
178 173 112
177 172 112
179 173 112
180 173 111
176 172 112
175 171 110
177 172 109
179 173 112
179 173 112
177 172 110
180 173 111
174 169 109
177 172 111
177 171 108
178 172 109
178 171 109
178 172 109
175 169 108
172 167 104
171 166 103
175 169 105
172 166 106
177 170 109
177 170 106
174 168 104
174 167 106
173 167 106
172 166 105
173 166 104
175 169 106
172 165 103
175 170 106
174 168 108
169 163 103
174 168 106
172 166 105
172 166 104
165 160 96
173 165 103
168 162 101
165 160 100
164 159 98
157 151 93
162 157 97
171 165 104
166 160 95
168 162 98
166 160 98
162 156 94
166 161 98
168 162 102
166 160 97
164 159 99
166 161 102
184 203 228
184 203 228
183 203 228
184 203 228
183 203 228
182 202 228
183 202 228
183 202 228
182 202 228
182 202 228
182 202 228
182 202 228
182 202 228
182 202 228
182 202 228
181 201 228
181 201 228
181 202 228
181 201 228
181 201 228
181 201 228
181 201 228
181 201 228
181 201 228
181 201 228
180 201 228
180 201 228
180 201 228
179 200 228
180 201 228
179 200 228
180 201 228
179 200 228
179 200 228
179 200 228
179 200 228
179 200 228
178 200 228
178 200 228
178 200 228
178 200 228
178 200 228
177 199 228
178 200 228
177 199 228
177 199 228
177 199 228
177 199 228
177 199 228
177 199 228
176 199 228
176 199 228
176 199 228
176 199 228
177 199 228
176 199 228
176 198 228
176 198 228
176 199 228
176 199 228
175 198 228
175 198 228
174 198 228
174 198 228
175 198 228
174 198 228
174 198 228
174 198 228
174 197 228
174 198 228
174 197 228
173 197 228
173 197 228
173 197 228
173 197 228
173 197 228
173 197 228
173 197 228
173 197 228
173 197 228
172 197 228
172 197 228
173 197 228
172 197 228
172 197 228
171 196 228
172 196 228
171 196 228
172 196 228
171 196 228
171 196 228
171 196 228
171 196 228
171 196 228
171 196 228
171 196 228
171 196 228
171 196 228
171 196 228
170 196 228
171 196 228
171 196 228
170 196 228
171 196 228
171 196 228
171 196 228
170 196 228
170 196 228
170 196 228
171 196 228
171 196 228
170 196 228
171 196 228
171 196 228
171 196 228
171 196 228
171 196 228
171 196 228
171 196 228
171 196 228
171 196 228
172 196 228
172 196 228
172 197 228
172 196 228
173 197 228
173 197 228
174 198 228
174 197 228
174 198 228
175 198 228
176 198 228
176 199 228
177 199 228
178 200 228
179 200 228
180 201 228
182 202 228
173 191 216
191 208 231
213 231 255
213 231 255
213 231 255
213 231 255
213 231 255
213 231 255
213 231 255
213 231 255
213 231 255
213 231 255
213 231 255
213 231 255
213 231 255
213 231 255
213 231 255
213 231 255
180 199 233
59 95 167
59 94 161
61 96 164
61 96 161
61 96 161
62 97 165
61 97 161
61 96 156
61 97 165
61 96 153
61 97 161
61 96 155
61 97 161
62 98 163
62 97 158
61 97 158
61 96 157
60 96 147
61 96 150
61 96 156
62 98 158
61 97 154
60 95 146
61 97 153
63 99 167
62 98 160
61 97 152
62 97 156
61 97 153
61 97 155
63 99 166
63 99 165
62 98 158
61 97 163
60 96 147
62 97 157
62 97 153
61 97 153
60 96 153
62 97 150
61 97 151
61 96 150
62 97 153
62 97 154
62 97 153
61 97 154
62 98 159
62 98 167
61 97 152
62 97 152
62 97 161
61 97 153
62 98 161
62 97 155
61 97 156
62 98 163
61 97 159
61 96 147
60 95 153
63 98 155
61 96 153
61 96 151
61 96 159
61 96 147
61 97 160
61 97 159
60 95 146
61 96 162
61 96 159
60 95 159
60 95 152
61 96 151
61 96 155
61 96 161
60 95 157
60 95 149
61 95 159
60 94 153
59 93 146
60 95 154
58 92 143
60 94 154
59 92 147
59 93 151
60 94 158
58 91 149
185 203 231
213 231 255
213 231 255
213 231 255
213 231 255
213 231 255
213 231 255
213 231 255
213 231 255
213 231 255
213 231 255
213 231 255
213 231 255
213 231 255
213 231 255
213 231 255
213 231 255
179 188 187
134 130 81
131 128 85
135 132 88
135 133 89
142 140 95
136 135 92
137 136 92
136 135 91
137 137 93
142 143 99
132 133 94
142 142 99
150 149 101
136 137 95
135 135 93
145 145 100
151 150 101
144 143 98
151 150 103
149 149 102
154 154 106
151 150 103
160 158 107
162 160 108
160 159 108
158 157 107
154 153 105
163 162 110
163 161 109
169 166 111
166 163 110
167 165 111
163 161 108
169 167 112
172 169 113
170 167 112
170 166 111
173 170 113
175 171 113
172 169 113
174 170 112
174 170 113
173 169 112
175 171 114
176 171 113
177 172 114
177 172 114
177 172 114
178 173 114
179 173 114
177 172 114
177 173 114
176 172 114
176 172 114
178 173 114
177 173 114
177 173 114
177 173 114
177 173 114
178 173 114
178 173 114
177 172 114
177 173 114
178 173 113
178 173 114
177 173 114
179 173 114
178 173 113
177 173 114
178 173 112
178 173 113
179 173 113
177 172 111
180 174 113
178 173 113
177 173 113
178 173 113
180 174 113
177 172 111
176 171 112
178 172 110
179 173 110
178 172 112
177 172 112
178 172 109
175 171 108
177 172 112
178 172 110
179 173 111
177 172 110
177 172 110
180 173 111
179 173 111
177 172 109
179 173 111
179 172 110
179 173 109
180 173 111
180 173 110
177 171 108
176 170 108
177 171 109
178 172 107
178 172 109
178 172 110
173 167 103
176 170 108
172 167 104
177 171 106
176 169 108
174 168 104
176 169 107
173 167 103
172 165 104
173 167 103
176 169 105
166 160 101
174 168 107
169 163 103
170 165 101
172 167 104
172 165 103
170 164 99
173 166 104
172 165 99
167 161 99
164 158 97
169 163 99
175 167 103
169 163 97
173 167 104
166 160 99
168 161 98
162 156 97
165 158 97
167 161 99
163 158 95
160 152 93
161 156 93
183 203 228
184 203 228
184 203 228
183 203 228
184 203 228
184 203 228
183 202 228
183 203 228
183 203 228
183 202 228
183 203 228
183 202 228
182 202 228
183 202 228
182 202 228
182 202 228
181 202 228
181 202 228
181 201 228
181 201 228
182 202 228
182 202 228
181 201 228
182 202 228
181 201 228
181 201 228
181 201 228
180 201 228
180 201 228
180 201 228
179 201 228
180 201 228
180 201 228
180 201 228
179 200 228
180 201 228
179 200 228
179 200 228
178 200 228
179 200 228
179 200 228
178 200 228
178 200 228
178 200 228
178 200 228
178 200 228
178 200 228
178 200 228
177 199 228
177 199 228
177 199 228
177 199 228
177 199 228
177 199 228
176 199 228
176 199 228
176 199 228
176 199 228
176 199 228
176 199 228
176 199 228
175 198 228
176 198 228
176 199 228
176 199 228
174 198 228
175 198 228
175 198 228
175 198 228
175 198 228
174 198 228
174 198 228
174 198 228
174 198 228
174 197 228
174 198 228
174 198 228
174 197 228
173 197 228
173 197 228
173 197 228
173 197 228
173 197 228
173 197 228
173 197 228
173 197 228
173 197 228
172 197 228
172 196 228
173 197 228
172 197 228
172 196 228
172 197 228
172 196 228
172 197 228
172 196 228
172 196 228
172 196 228
172 196 228
172 196 228
171 196 228
171 196 228
171 196 228
171 196 228
171 196 228
171 196 228
171 196 228
171 196 228
171 196 228
171 196 228
172 196 228
171 196 228
171 196 228
171 196 228
171 196 228
171 196 228
172 196 228
172 196 228
172 196 228
172 197 228
172 197 228
172 197 228
173 197 228
173 197 228
173 197 228
173 197 228
173 197 228
174 197 228
174 198 228
174 198 228
176 198 228
176 199 228
177 199 228
177 199 228
178 200 228
178 200 228
180 201 228
181 202 228
183 202 228
170 187 210
202 219 243
213 231 255
213 231 255
213 231 255
213 231 255
213 231 255
213 231 255
213 231 255
213 231 255
213 231 255
213 231 255
213 231 255
213 231 255
213 231 255
213 231 255
207 225 251
87 115 175
59 94 160
61 97 165
59 95 157
61 96 159
62 98 168
61 96 159
61 97 165
61 97 160
61 96 152
60 96 155
61 97 162
62 97 159
61 97 156
62 98 160
61 97 156
60 95 152
60 96 155
62 97 160
61 97 152
62 97 156
60 95 146
61 97 151
62 98 159
61 96 155
61 96 155
62 97 159
62 97 157
62 97 154
61 96 145
61 96 148
60 96 150
60 96 151
61 97 153
62 99 166
61 96 154
62 97 155
62 98 158
63 98 160
61 96 155
61 97 156
61 97 154
61 97 160
62 98 163
61 97 158
62 98 154
62 97 159
62 98 158
62 97 159
62 97 158
63 98 157
62 97 153
63 99 159
61 96 151
61 96 150
62 97 155
61 96 149
61 96 152
61 95 147
62 98 163
62 98 159
61 97 153
61 97 153
62 97 154
61 96 148
61 95 150
62 98 159
62 97 161
61 97 153
60 95 149
60 96 153
62 97 159
61 96 154
61 96 155
60 94 148
61 96 157
60 95 149
60 95 150
61 96 159
59 93 142
59 93 147
61 96 151
60 93 153
58 92 146
57 89 144
59 92 147
58 90 142
92 117 168
209 227 253
213 231 255
213 231 255
213 231 255
213 231 255
213 231 255
213 231 255
213 231 255
213 231 255
213 231 255
213 231 255
213 231 255
213 231 255
213 231 255
213 231 255
193 206 217
144 141 96
136 132 86
137 134 89
135 134 90
139 137 91
129 129 87
130 130 90
144 143 97
131 131 92
134 133 92
130 130 88
140 139 95
129 130 90
136 136 93
145 145 99
145 144 98
144 145 100
139 140 97
145 145 100
146 146 99
147 147 102
156 155 105
152 152 105
158 157 107
156 156 106
161 160 109
156 155 105
163 161 109
167 164 110
164 162 110
166 164 110
165 163 109
167 165 111
164 163 110
166 164 110
166 163 109
172 169 112
170 167 111
172 169 112
173 169 113
173 169 112
172 168 112
172 168 112
176 171 113
176 171 113
177 172 113
177 172 114
175 171 113
177 172 114
178 173 114
177 172 114
179 173 114
177 172 114
181 174 114
178 173 114
178 173 114
177 172 113
178 173 113
179 173 113
178 173 114
179 174 114
177 172 113
177 172 114
179 173 113
178 173 113
178 173 113
179 173 113
178 173 113
180 174 113
177 172 110
181 174 113
179 173 114
179 173 113
178 173 110
178 173 113
177 172 112
176 171 109
179 173 112
179 173 113
177 172 112
178 172 110
179 173 110
177 172 109
179 173 112
177 172 112
177 172 112
178 172 108
178 172 112
179 173 110
177 172 110
179 173 109
178 173 112
181 174 112
180 173 108
183 175 112
177 172 108
179 173 108
179 173 111
179 172 109
179 173 112
176 170 109
179 172 109
176 171 109
176 169 103
177 169 105
177 171 108
176 171 107
174 168 104
176 170 110
173 167 106
176 169 107
174 168 104
175 168 106
178 171 107
171 165 103
175 169 108
175 169 106
172 167 104
174 167 106
171 165 99
172 165 103
172 166 103
171 165 99
166 160 96
169 163 98
169 164 98
169 162 101
164 159 97
165 160 97
169 163 99
172 166 103
162 156 93
162 156 93
168 162 96
166 161 99
166 159 95
162 156 96
155 149 87
161 155 96
171 164 103
184 203 228
184 203 228
184 203 228
185 203 228
184 203 228
184 203 228
183 203 228
184 203 228
183 202 228
184 203 228
183 203 228
184 203 228
182 202 228
183 202 228
183 203 228
183 202 228
182 202 228
182 202 228
182 202 228
183 202 228
182 202 228
181 202 228
182 202 228
181 202 228
182 202 228
181 201 228
181 201 228
181 201 228
181 202 228
181 201 228
180 201 228
181 201 228
180 201 228
180 201 228
180 201 228
180 201 228
179 200 228
180 201 228
179 200 228
179 200 228
179 200 228
179 200 228
179 200 228
178 200 228
178 200 228
178 200 228
178 200 228
178 200 228
178 200 228
178 200 228
178 200 228
178 200 228
177 199 228
177 199 228
176 199 228
176 199 228
177 199 228
176 199 228
176 199 228
176 199 228
177 199 228
176 199 228
176 199 228
175 198 228
176 199 228
176 198 228
175 198 228
176 199 228
175 198 228
176 198 228
175 198 228
175 198 228
175 198 228
175 198 228
175 198 228
174 198 228
175 198 228
174 198 228
174 198 228
174 198 228
174 198 228
174 197 228
173 197 228
174 198 228
173 197 228
174 197 228
173 197 228
174 197 228
173 197 228
173 197 228
173 197 228
173 197 228
173 197 228
172 197 228
173 197 228
172 197 228
172 197 228
172 197 228
172 197 228
173 197 228
172 196 228
172 197 228
172 197 228
172 196 228
172 196 228
172 197 228
172 197 228
172 197 228
172 197 228
172 196 228
171 196 228
172 197 228
172 197 228
172 197 228
172 197 228
172 197 228
172 196 228
172 197 228
172 197 228
173 197 228
173 197 228
173 197 228
173 197 228
174 197 228
173 197 228
174 198 228
174 198 228
174 198 228
175 198 228
175 198 228
175 198 228
176 199 228
177 199 228
177 199 228
177 199 228
179 200 228
179 201 228
182 202 228
183 202 228
183 202 227
172 188 209
212 229 253
214 231 255
214 231 255
214 231 255
214 231 255
214 231 255
213 231 255
213 231 255
213 231 255
213 231 255
213 231 255
213 231 255
213 231 255
213 231 255
136 158 204
59 94 156
59 94 157
59 94 163
60 95 159
61 97 162
61 96 163
60 95 156
60 95 158
62 97 160
59 94 149
61 97 159
62 98 166
61 96 158
61 97 156
61 96 153
61 97 158
60 95 151
61 96 155
61 97 154
60 95 150
62 97 159
61 96 155
61 97 151
61 97 152
61 97 159
62 98 163
62 98 158
62 98 158
62 97 152
61 97 156
61 96 151
61 96 155
61 96 152
60 95 145
61 96 151
62 98 158
62 97 158
61 96 157
62 98 157
61 97 152
62 97 154
62 97 159
61 96 145
61 96 149
61 96 153
61 97 154
61 97 159
61 97 151
61 96 141
61 96 151
62 97 159
61 96 148
61 97 152
62 98 152
61 96 147
61 96 151
61 96 151
62 97 156
60 95 149
61 96 152
62 97 159
61 97 156
61 96 151
62 98 162
62 97 157
62 97 156
62 97 158
60 95 146
61 96 155
61 96 153
61 96 153
61 97 161
62 98 161
61 95 154
60 95 152
62 97 159
60 95 148
60 95 151
61 95 159
60 93 149
61 95 154
59 93 147
60 94 155
61 95 156
58 90 143
59 93 146
60 94 154
57 89 145
150 169 198
213 231 255
213 231 255
213 231 255
213 231 255
213 231 255
213 231 255
213 231 255
213 231 255
214 231 255
214 231 255
214 231 255
214 231 255
214 231 255
210 227 249
146 145 112
129 125 81
144 140 92
135 133 89
129 127 86
124 124 86
127 127 87
129 129 90
137 136 93
134 134 92
120 122 85
129 130 91
131 132 94
132 133 93
128 129 91
143 143 99
148 148 102
135 134 92
146 146 100
146 145 100
150 150 102
151 150 102
150 149 102
155 153 103
154 152 102
159 157 106
161 160 109
159 158 107
161 158 107
163 160 108
165 163 110
166 164 110
161 159 108
168 164 110
168 164 109
163 161 108
170 167 112
172 168 112
171 167 111
172 168 112
168 165 111
173 169 112
174 169 112
172 169 113
176 171 113
173 169 112
173 169 112
178 173 113
177 172 113
177 172 113
178 172 113
180 174 113
179 173 114
178 173 114
180 174 114
177 172 113
179 173 113
178 173 113
178 172 112
180 174 113
178 173 112
177 173 114
179 173 113
178 172 112
178 173 112
177 172 113
178 173 112
177 172 114
177 172 112
177 172 112
179 173 112
177 172 113
180 173 113
177 171 109
179 173 110
179 173 110
178 172 111
179 173 112
179 173 112
179 173 110
179 173 111
179 173 112
181 174 113
178 172 110
179 173 109
178 172 110
180 173 108
181 174 110
179 173 110
178 173 112
180 174 112
180 173 111
176 171 108
179 173 110
179 173 110
179 172 108
179 173 110
180 172 106
175 170 107
177 172 110
179 172 109
178 172 111
181 174 109
178 171 103
176 170 106
181 173 106
178 171 107
180 173 109
177 170 107
173 168 105
175 169 107
177 171 106
176 170 103
173 167 99
176 170 107
172 166 101
172 166 102
173 168 103
175 168 104
166 160 97
174 168 103
172 167 103
172 166 101
171 164 99
171 166 101
168 162 98
170 163 101
171 164 101
166 160 99
161 156 96
172 165 101
168 161 100
165 159 96
167 160 97
167 160 98
167 161 97
165 159 94
169 163 99
160 155 93
166 160 96
158 153 93
185 204 228
185 203 228
185 203 228
185 204 228
185 203 228
185 204 228
184 203 228
184 203 228
184 203 228
183 203 228
184 203 228
184 203 228
184 203 228
183 203 228
184 203 228
183 202 228
182 202 228
183 202 228
183 202 228
183 202 228
183 202 228
182 202 228
182 202 228
182 202 228
183 202 228
182 202 228
182 202 228
182 202 228
182 202 228
181 201 228
181 202 228
181 201 228
181 201 228
180 201 228
180 201 228
181 201 228
181 201 228
180 201 228
180 201 228
180 201 228
180 201 228
180 201 228
179 200 228
180 201 228
179 200 228
179 200 228
179 200 228
178 200 228
178 200 228
179 200 228
179 200 228
179 200 228
178 200 228
178 200 228
178 200 228
178 200 228
177 199 228
178 200 228
177 199 228
177 199 228
177 199 228
177 199 228
177 199 228
177 199 228
176 199 228
177 199 228
176 199 228
176 198 228
176 199 228
177 199 228
176 199 228
176 199 228
175 198 228
176 198 228
176 198 228
175 198 228
175 198 228
175 198 228
175 198 228
174 198 228
175 198 228
176 198 228
175 198 228
175 198 228
174 198 228
175 198 228
174 198 228
174 197 228
174 198 228
174 197 228
174 197 228
174 197 228
173 197 228
174 198 228
174 198 228
173 197 228
173 197 228
173 197 228
173 197 228
173 197 228
173 197 228
173 197 228
173 197 228
173 197 228
173 197 228
172 197 228
173 197 228
173 197 228
174 197 228
173 197 228
172 197 228
173 197 228
173 197 228
173 197 228
173 197 228
174 197 228
173 197 228
173 197 228
173 197 228
173 197 228
173 197 228
173 197 228
174 198 228
174 198 228
173 197 228
175 198 228
174 197 228
174 198 228
170 193 224
172 195 226
175 198 228
176 199 228
178 199 228
177 199 228
178 200 228
179 200 228
179 200 228
181 201 228
182 202 228
183 202 228
178 196 220
176 192 214
214 231 255
214 231 255
214 231 255
214 231 255
214 231 255
214 231 255
214 231 255
214 231 255
214 231 255
214 231 255
214 231 255
214 231 255
204 222 249
71 102 168
59 94 156
59 94 154
60 95 161
59 94 153
61 96 161
60 96 161
61 96 152
60 94 154
61 96 162
61 96 153
60 96 150
61 97 164
60 96 149
61 97 155
62 98 162
62 97 161
61 96 148
61 96 148
61 97 155
61 96 151
61 97 157
60 96 153
62 98 157
61 96 155
61 97 154
61 96 147
61 96 158
61 97 154
61 97 158
62 97 158
61 96 152
61 96 149
61 96 147
63 99 165
61 97 151
62 98 160
61 97 156
62 98 163
61 96 152
62 97 154
62 98 158
60 96 148
62 98 161
61 96 151
61 97 153
61 96 144
61 97 151
62 97 158
61 97 152
62 97 154
61 96 146
62 97 147
62 97 149
61 96 153
61 97 151
60 96 150
61 97 158
62 98 157
62 97 155
61 96 148
61 97 154
60 95 146
61 95 156
62 98 160
62 98 162
61 96 153
60 95 144
61 96 148
62 97 156
61 97 155
60 95 151
62 96 158
62 98 161
61 95 149
60 95 150
61 96 156
60 95 153
61 96 156
60 94 147
60 95 155
60 96 159
60 94 154
59 93 148
60 94 154
59 91 143
59 92 146
59 92 148
59 93 158
71 99 153
203 221 246
214 231 255
214 231 255
214 231 255
214 231 255
214 231 255
214 231 255
214 231 255
214 231 255
214 231 255
214 231 255
214 231 255
214 231 255
165 171 164
144 139 89
122 120 80
134 132 88
126 126 87
132 130 88
130 130 89
129 129 90
126 127 88
130 131 91
134 134 92
127 128 90
124 125 88
141 141 96
129 130 91
133 134 93
150 150 103
143 142 98
144 144 100
145 145 100
142 143 100
153 152 104
152 153 105
141 141 98
155 154 105
152 152 104
154 153 103
160 158 107
157 155 106
167 164 110
166 163 108
165 162 109
162 160 109
168 165 109
160 159 108
169 165 109
174 170 113
167 164 110
171 167 111
172 167 110
175 170 113
170 167 111
174 169 112
174 170 113
175 170 112
168 165 109
177 171 112
178 173 114
176 172 114
176 171 112
179 173 114
179 173 112
174 170 112
180 174 113
177 172 113
176 172 113
178 173 112
179 173 112
178 172 112
178 173 113
178 173 113
180 174 112
180 174 113
179 173 112
179 173 112
179 173 110
179 173 110
178 173 112
177 172 110
176 172 112
179 173 112
177 172 110
177 172 110
179 173 112
176 171 111
179 173 112
179 173 112
177 171 108
179 173 110
177 172 109
180 173 112
181 174 110
179 173 111
179 173 112
179 173 111
178 172 110
179 173 111
179 173 111
179 173 110
181 174 112
179 172 107
179 173 112
177 172 110
179 173 110
178 173 110
178 172 107
179 172 108
176 171 108
179 173 111
179 172 108
179 172 108
178 172 106
180 173 109
177 171 108
177 171 106
180 173 109
176 170 106
177 171 108
175 169 101
175 169 104
177 170 106
177 171 108
174 168 104
178 171 108
173 167 102
179 172 108
175 169 106
170 164 100
178 171 106
173 166 101
168 163 97
168 162 100
173 167 102
168 162 100
166 162 97
172 165 99
168 162 99
168 162 95
170 164 101
166 160 96
169 163 99
172 165 99
163 158 94
163 157 94
166 160 95
167 160 97
171 164 100
163 157 96
167 161 98
163 157 95
160 154 92
164 158 95
186 204 228
186 204 228
186 204 228
186 204 228
185 204 228
185 203 228
185 203 228
185 204 228
185 203 228
184 203 228
184 203 228
184 203 228
184 203 228
183 203 228
184 203 228
184 203 228
183 203 228
184 203 228
183 203 228
184 203 228
184 203 228
182 202 228
183 202 228
183 203 228
183 202 228
183 202 228
182 202 228
182 202 228
182 202 228
183 202 228
181 201 228
182 202 228
182 202 228
181 201 228
181 201 228
181 201 228
181 201 228
181 201 228
180 201 228
180 201 228
180 201 228
180 201 228
180 201 228
180 201 228
180 201 228
180 201 228
179 200 228
180 201 228
179 200 228
180 201 228
179 200 228
179 200 228
179 200 228
178 200 228
179 200 228
179 200 228
178 200 228
179 200 228
178 200 228
178 200 228
178 200 228
178 200 228
178 200 228
177 199 228
178 200 228
177 199 228
178 200 228
177 199 228
177 199 228
177 199 228
177 199 228
177 199 228
176 199 228
177 199 228
177 199 228
176 199 228
176 199 228
176 199 228
176 198 228
176 198 228
176 199 228
175 198 228
176 198 228
176 199 228
175 198 228
175 198 228
175 198 228
175 198 228
174 198 228
175 198 228
175 198 228
175 198 228
174 198 228
175 198 228
175 198 228
174 198 228
174 198 228
174 197 228
174 198 228
174 197 228
174 198 228
174 198 228
173 197 228
174 198 228
175 198 228
174 197 228
174 198 228
174 198 228
174 197 228
174 197 228
173 197 228
173 197 228
174 198 228
174 198 228
174 197 228
173 197 228
174 198 228
174 197 228
174 198 228
175 198 228
174 198 228
175 198 228
174 198 228
172 195 226
172 195 226
169 193 224
162 185 219
163 186 220
166 189 221
166 189 221
163 185 218
166 188 220
170 192 223
175 196 226
177 199 228
179 200 228
180 201 228
181 201 228
181 201 228
183 202 228
185 203 228
174 191 213
200 217 240
214 232 255
214 232 255
214 232 255
214 232 255
214 232 255
214 232 255
214 232 255
214 231 255
214 231 255
214 231 255
214 231 255
138 159 202
59 94 163
59 94 158
60 96 161
60 95 156
60 96 164
61 96 163
60 95 153
60 96 152
61 96 159
61 96 151
61 97 157
61 97 154
62 98 163
61 97 158
60 96 153
61 96 157
60 96 153
61 97 158
60 96 151
61 97 161
61 97 156
62 98 162
60 95 148
61 97 156
61 96 154
61 96 151
61 96 145
62 98 161
61 97 152
62 98 159
63 98 162
61 96 153
61 96 152
61 96 151
62 97 151
61 97 156
62 98 162
61 96 149
61 97 151
61 97 152
62 98 154
62 97 155
61 96 149
62 97 154
62 97 153
61 96 147
61 96 147
62 97 153
60 96 151
61 97 150
61 97 154
63 98 162
62 98 161
61 97 152
61 96 156
61 96 151
60 96 148
61 96 153
61 96 145
62 97 156
62 97 154
61 97 156
61 96 154
61 96 149
61 96 152
61 97 156
61 96 151
61 96 150
61 96 155
62 97 154
60 94 150
61 95 142
61 96 151
60 95 151
60 95 148
60 95 153
61 95 152
61 95 156
59 92 146
60 94 151
60 95 144
60 94 153
60 93 144
60 93 147
61 94 153
60 93 146
60 93 153
58 90 142
58 90 145
59 92 152
149 168 203
214 231 255
214 231 255
214 231 255
214 231 255
214 232 255
214 232 255
214 232 255
214 232 255
214 232 255
214 232 255
214 232 255
195 207 220
133 128 80
130 127 79
117 117 81
138 136 91
127 126 87
114 115 81
126 127 88
123 125 89
128 129 91
134 135 95
122 124 88
141 141 97
125 127 89
121 123 88
140 140 97
131 132 92
138 139 96
139 140 96
147 147 100
148 147 100
147 147 101
154 153 105
150 149 102
148 147 101
150 149 102
157 156 106
160 158 107
160 158 106
159 158 108
162 159 108
167 164 110
160 158 107
168 164 109
164 161 108
168 165 110
162 160 107
164 161 107
167 163 108
172 168 112
170 166 110
170 167 111
170 165 110
168 165 109
173 168 111
171 167 110
173 168 108
173 169 110
175 170 111
173 168 110
177 171 111
177 172 111
177 172 113
176 171 112
177 172 112
177 172 112
177 172 110
180 174 113
178 173 112
179 173 113
177 172 112
180 174 112
181 174 112
177 172 109
180 173 111
178 173 112
178 172 111
177 172 110
178 173 112
174 170 108
180 174 113
178 172 110
179 173 110
181 174 110
179 173 110
176 171 107
176 171 109
177 171 108
178 172 109
176 171 108
178 172 108
178 172 109
178 172 108
179 172 109
178 172 112
176 171 107
177 172 109
178 172 108
178 172 110
178 172 109
180 173 111
179 173 110
179 173 109
180 173 110
178 171 106
179 173 108
177 171 106
181 174 110
178 171 105
178 172 108
179 172 107
178 172 108
179 172 106
174 169 103
179 172 107
178 172 108
177 170 104
180 172 105
177 171 107
176 170 104
178 171 106
178 172 106
176 169 105
177 170 104
178 170 106
177 171 105
173 167 103
178 171 104
172 167 101
176 169 103
173 166 101
170 164 101
172 166 101
172 166 103
171 165 99
169 163 100
177 170 104
171 165 98
172 165 103
169 163 99
169 163 97
164 159 97
164 158 97
166 161 95
169 163 98
168 161 93
169 162 97
170 163 97
167 161 95
166 160 96
171 164 98
164 158 97
165 158 92
186 204 228
186 204 228
186 204 228
186 204 228
186 204 228
185 204 228
186 204 228
185 203 228
185 204 228
184 203 228
185 203 228
184 203 228
185 203 228
185 203 228
185 203 228
185 203 228
185 203 228
184 203 228
184 203 228
184 203 228
183 203 228
183 203 228
183 203 228
183 202 228
183 203 228
182 202 228
183 202 228
183 203 228
183 202 228
183 202 228
182 202 228
182 202 228
182 202 228
183 202 228
182 202 228
182 202 228
182 202 228
182 202 228
182 202 228
181 201 228
181 201 228
181 201 228
181 201 228
181 201 228
180 201 228
180 201 228
181 201 228
180 201 228
181 201 228
180 201 228
180 201 228
180 201 228
179 200 228
179 200 228
179 200 228
179 200 228
179 200 228
179 200 228
178 200 228
179 200 228
179 200 228
179 200 228
179 200 228
178 200 228
178 200 228
179 200 228
178 200 228
177 199 228
178 200 228
178 200 228
178 200 228
177 199 228
177 199 228
177 199 228
177 199 228
177 199 228
177 199 228
177 199 228
176 199 228
177 199 228
176 199 228
177 199 228
177 199 228
176 199 228
177 199 228
176 199 228
176 198 228
176 199 228
176 199 228
176 199 228
175 198 228
175 198 228
175 198 228
174 198 228
175 198 228
175 198 228
175 198 228
175 198 228
175 198 228
175 198 228
175 198 228
175 198 228
174 198 228
175 198 228
175 198 228
175 198 228
175 198 228
174 198 228
175 198 228
175 198 228
175 198 228
174 198 228
174 198 228
175 198 228
174 198 228
174 198 228
175 198 228
175 198 228
175 198 228
174 198 228
175 198 228
173 196 227
169 192 224
167 191 223
163 186 219
157 180 215
157 180 215
159 182 216
153 176 212
151 174 211
163 185 219
147 170 208
158 180 214
166 188 219
171 193 223
177 198 227
177 198 227
181 201 228
182 202 228
183 202 228
184 203 228
183 202 226
181 197 219
214 232 255
214 232 255
214 232 255
214 232 255
214 232 255
214 232 255
214 232 255
214 232 255
214 232 255
214 232 255
195 213 240
65 97 159
58 93 156
59 94 159
59 94 159
60 94 156
60 95 150
60 95 153
60 95 153
59 94 145
60 95 153
59 94 149
60 96 158
60 96 158
61 97 154
61 97 158
60 95 151
61 96 160
62 98 159
61 97 156
62 97 158
61 96 155
61 97 154
61 97 157
61 97 151
61 96 154
61 96 154
62 98 161
62 98 157
61 97 153
61 96 153
62 97 147
62 97 154
62 97 158
61 96 154
62 97 152
62 97 156
61 97 147
62 97 154
62 98 158
61 97 153
61 97 152
63 98 158
61 97 152
61 96 148
61 96 144
61 97 152
61 97 147
61 97 152
62 97 156
61 96 143
61 96 148
61 96 144
62 98 155
61 96 151
61 95 146
62 97 153
61 96 151
62 98 159
62 97 159
60 94 144
60 95 147
62 97 161
59 94 142
61 96 148
61 96 151
60 96 154
61 96 147
61 96 152
61 97 160
61 96 149
62 98 159
62 98 156
59 94 146
62 97 154
59 93 145
60 95 148
61 96 151
62 97 159
61 96 150
61 95 146
59 92 144
59 92 149
60 93 148
61 95 149
60 94 143
58 90 141
60 93 142
60 94 148
58 91 143
58 90 146
57 88 139
57 88 141
192 209 233
214 232 255
214 232 255
214 232 255
214 232 255
214 232 255
214 232 255
214 232 255
214 232 255
214 232 255
214 232 255
143 143 115
137 133 85
129 126 84
128 126 85
122 121 84
116 118 84
124 124 86
125 124 84
124 126 88
121 122 85
123 125 89
133 133 91
115 118 85
139 139 96
140 140 96
139 138 96
133 134 93
135 137 96
136 136 95
144 145 100
142 142 98
138 138 96
144 144 100
146 146 101
151 150 102
147 146 100
154 153 103
154 154 103
158 157 105
156 155 104
158 156 105
162 160 106
158 156 104
167 164 108
162 160 107
165 161 109
167 164 108
170 166 110
172 167 110
166 162 108
172 167 108
171 168 110
169 165 109
167 164 108
173 168 108
169 165 108
176 170 111
175 169 110
177 171 109
177 171 111
178 172 112
176 171 111
179 173 112
175 171 110
179 173 110
178 172 113
180 173 110
178 172 109
180 173 110
178 172 110
179 173 111
178 173 110
180 173 110
179 173 108
177 172 111
178 172 110
178 172 109
178 173 113
178 172 109
175 171 109
179 173 112
177 172 109
177 172 108
178 172 109
178 172 110
179 173 110
180 173 110
176 171 109
178 172 109
179 173 109
178 172 109
179 173 110
178 172 108
178 172 109
178 172 109
177 172 108
178 172 109
178 172 108
180 173 108
178 172 109
180 173 109
178 172 106
180 173 109
177 172 107
177 171 104
180 173 109
179 172 108
179 173 109
178 172 106
179 172 106
178 172 109
180 173 107
178 172 110
180 173 109
182 174 110
179 172 106
180 173 109
177 171 105
178 172 107
176 170 104
177 172 107
180 173 106
176 170 104
176 170 104
178 171 105
178 172 106
173 167 98
172 166 103
173 166 103
177 170 104
170 164 95
178 171 105
171 165 101
176 169 103
176 169 103
173 166 97
170 165 100
171 164 97
173 165 99
170 164 99
172 165 101
170 164 97
159 153 90
173 166 101
174 166 99
170 163 97
173 166 102
167 161 97
166 160 97
163 157 93
164 158 95
168 161 90
167 161 95
186 204 228
186 204 228
187 205 228
186 204 228
186 204 228
186 204 228
186 204 228
186 204 228
186 204 228
185 203 228
185 204 228
185 203 228
185 203 228
185 204 228
185 204 228
185 204 228
184 203 228
184 203 228
184 203 228
185 203 228
184 203 228
184 203 228
184 203 228
183 203 228
183 203 228
184 203 228
183 203 228
183 203 228
183 203 228
183 203 228
183 203 228
183 203 228
182 202 228
183 202 228
182 202 228
183 202 228
182 202 228
183 202 228
182 202 228
182 202 228
182 202 228
182 202 228
182 202 228
181 201 228
181 201 228
181 202 228
182 202 228
181 201 228
181 201 228
180 201 228
181 201 228
181 201 228
181 201 228
180 201 228
180 201 228
180 201 228
180 201 228
180 201 228
179 201 228
180 201 228
180 201 228
180 201 228
180 201 228
179 200 228
179 200 228
179 200 228
179 200 228
179 200 228
179 200 228
179 200 228
178 200 228
179 200 228
178 200 228
178 200 228
178 200 228
178 200 228
177 199 228
178 200 228
178 199 228
178 199 228
177 199 228
177 199 228
178 200 228
177 199 228
177 199 228
176 199 228
177 199 228
177 199 228
177 199 228
176 199 228
177 199 228
176 199 228
176 199 228
176 199 228
176 199 228
176 199 228
176 199 228
177 199 228
176 199 228
176 199 228
176 198 228
176 199 228
176 198 228
176 198 228
175 198 228
176 198 228
175 198 228
175 198 228
175 198 228
176 198 228
176 198 228
175 198 228
176 198 228
175 198 228
176 199 228
176 198 228
175 198 228
176 199 228
175 198 228
175 198 228
172 194 226
165 188 220
163 186 218
158 181 216
152 175 212
155 178 213
145 168 207
140 163 201
141 164 203
148 171 208
146 169 207
150 172 208
144 167 204
152 174 211
161 183 216
157 178 212
170 191 222
177 198 226
181 201 228
183 202 228
185 203 228
185 204 228
175 192 214
198 214 237
215 232 255
215 232 255
215 232 255
215 232 255
215 232 255
215 232 255
215 232 255
215 232 255
215 232 255
131 152 194
57 91 157
58 92 152
58 92 153
61 96 165
59 94 155
60 95 151
60 95 152
61 96 154
61 97 160
60 96 154
60 95 154
62 97 156
61 96 154
61 96 155
61 96 149
61 97 154
62 97 159
60 95 155
61 96 151
61 96 152
61 97 155
62 98 164
60 95 145
62 98 160
62 98 160
62 97 156
61 96 150
62 98 157
62 97 152
61 97 150
60 96 145
60 96 147
61 96 147
61 97 153
61 96 147
62 97 153
62 97 150
62 97 151
62 97 153
62 98 157
62 97 154
61 97 152
61 97 151
62 97 158
61 96 152
61 96 152
62 98 156
61 96 155
61 97 151
62 98 155
61 97 153
62 98 155
61 97 151
61 96 150
61 96 157
60 96 147
60 95 146
62 97 152
62 97 157
62 98 160
61 97 153
61 96 146
61 96 154
62 97 162
60 95 152
61 95 145
61 96 149
60 95 149
60 95 146
61 96 146
61 97 150
61 95 148
61 96 154
62 97 158
62 97 160
61 96 156
60 95 143
61 95 149
60 94 148
61 96 151
59 94 146
61 95 153
58 90 141
59 92 139
59 91 145
59 92 140
61 94 156
58 93 149
61 94 148
59 91 146
58 89 136
56 87 139
129 148 182
215 232 255
215 232 255
215 232 255
215 232 255
215 232 255
215 232 255
215 232 255
215 232 255
215 232 255
183 196 208
143 138 87
130 127 83
131 129 84
127 125 84
117 117 80
127 127 89
127 128 89
120 121 84
119 122 86
115 116 82
122 124 87
123 125 87
131 132 92
129 130 89
125 127 90
132 134 94
134 136 95
126 128 89
140 141 98
146 147 101
133 133 93
142 143 100
143 142 99
147 146 100
154 153 103
151 151 104
160 158 106
147 146 101
160 158 106
163 160 108
154 153 102
159 157 106
163 159 106
163 159 104
157 155 103
158 156 104
160 158 105
167 164 108
163 160 105
173 168 110
167 163 106
172 168 108
170 166 108
173 168 111
173 168 108
171 166 108
175 169 108
178 172 111
175 170 111
175 170 108
175 170 108
178 172 112
175 170 110
178 172 110
178 172 111
178 172 110
177 172 110
178 173 112
181 174 112
178 172 109
180 173 110
179 173 110
179 173 109
179 173 112
177 172 109
178 172 109
179 173 112
178 172 109
178 172 110
179 173 110
178 172 109
178 172 110
178 172 109
178 172 110
179 172 109
179 173 110
179 173 110
175 171 108
181 174 110
180 173 111
177 172 109
179 173 109
179 173 110
178 172 108
179 172 108
178 172 110
178 171 106
179 172 107
178 172 108
179 173 110
178 172 107
177 171 104
180 173 109
179 172 107
178 172 109
177 171 106
177 172 108
178 172 105
177 171 105
179 172 106
179 172 107
178 172 108
177 171 104
177 170 104
178 172 105
180 173 108
179 172 108
177 170 101
177 170 104
178 172 108
180 173 106
175 168 99
175 169 103
177 170 103
177 171 108
174 169 103
176 169 104
173 165 98
177 170 105
173 167 103
174 168 103
174 168 101
172 166 98
176 169 105
173 167 98
177 170 101
173 167 101
169 163 97
170 164 99
171 165 95
171 164 96
170 164 97
172 165 99
170 163 98
167 161 94
170 163 99
160 155 93
172 165 99
166 159 96
166 159 95
167 161 93
171 164 95
171 164 96
187 204 228
186 204 228
187 204 228
187 204 228
186 204 228
186 204 228
186 204 228
186 204 228
187 204 228
186 204 228
185 204 228
186 204 228
186 204 228
186 204 228
185 204 228
185 204 228
185 203 228
185 203 228
186 204 228
185 204 228
185 204 228
184 203 228
185 203 228
185 203 228
185 203 228
184 203 228
183 203 228
183 203 228
184 203 228
183 203 228
183 203 228
184 203 228
184 203 228
184 203 228
183 202 228
183 203 228
183 202 228
183 202 228
183 203 228
182 202 228
183 202 228
182 202 228
182 202 228
183 202 228
182 202 228
183 202 228
182 202 228
182 202 228
182 202 228
182 202 228
181 201 228
181 201 228
181 201 228
180 201 228
181 201 228
181 202 228
181 201 228
181 201 228
180 201 228
180 201 228
181 201 228
180 201 228
180 201 228
180 201 228
180 201 228
180 201 228
180 201 228
179 200 228
179 200 228
179 200 228
179 200 228
179 200 228
179 200 228
179 200 228
179 200 228
179 200 228
178 200 228
178 200 228
178 200 228
178 200 228
178 200 228
178 200 228
178 200 228
179 200 228
177 199 228
178 200 228
178 200 228
178 200 228
178 200 228
177 199 228
178 200 228
177 199 228
177 199 228
177 199 228
177 199 228
178 200 228
177 199 228
176 199 228
176 199 228
177 199 228
177 199 228
177 199 228
177 199 228
177 199 228
176 199 228
176 199 228
177 199 228
176 199 228
176 199 228
177 199 228
177 199 228
176 199 228
176 199 228
176 199 228
176 199 228
176 199 228
176 199 228
177 199 228
177 199 228
171 193 224
169 192 223
161 184 217
155 178 213
160 183 216
150 173 209
141 164 203
140 163 201
134 157 198
134 157 196
126 150 191
132 155 197
129 152 195
142 164 203
136 158 199
141 162 201
145 166 201
148 169 203
158 179 212
172 192 222
183 202 228
184 203 228
185 204 228
185 202 226
175 190 211
215 232 255
215 232 255
215 232 255
215 232 255
215 232 255
215 232 255
215 232 255
215 232 255
207 224 249
68 99 163
58 93 154
58 92 152
59 93 151
60 96 154
60 95 163
61 96 156
61 96 155
59 94 151
62 98 163
60 95 149
59 94 150
61 96 157
62 97 157
60 96 153
60 95 153
60 95 154
61 96 150
60 96 150
61 96 151
61 96 155
60 96 152
62 97 154
62 98 158
61 96 151
60 95 143
60 95 152
61 96 151
61 96 147
62 97 150
61 97 152
61 96 158
61 97 159
61 97 155
61 96 147
60 95 148
61 96 143
60 95 137
62 98 158
61 97 149
63 98 162
62 97 151
61 96 145
61 96 149
61 97 158
62 97 156
62 97 157
62 97 152
61 97 153
61 97 156
61 96 147
61 96 146
61 96 148
61 97 152
62 97 152
62 97 156
61 96 151
63 98 160
61 97 156
61 96 152
61 96 150
62 97 152
61 97 152
60 95 137
60 95 154
61 96 151
61 97 155
61 95 145
62 98 158
61 96 145
61 96 151
61 96 147
60 95 149
60 94 146
61 96 156
61 96 149
58 91 139
61 96 145
60 94 147
59 92 142
61 96 162
59 93 148
60 93 146
59 94 150
60 94 151
61 95 148
58 88 134
59 93 146
60 93 146
58 91 151
59 91 144
59 92 151
57 87 136
68 94 140
201 219 244
215 232 255
215 232 255
215 232 255
215 232 255
215 232 255
215 232 255
215 232 255
213 229 251
127 126 95
123 120 78
114 114 79
118 117 78
122 121 83
116 117 81
114 116 81
106 109 78
111 114 83
126 127 89
115 117 83
122 123 86
125 126 88
129 130 90
128 130 91
130 132 93
127 128 91
131 132 92
136 136 95
143 143 98
147 148 103
140 141 98
142 142 97
132 134 95
148 146 100
146 145 100
154 153 104
149 148 100
153 151 102
156 153 101
161 159 105
159 157 104
155 153 103
166 162 107
162 160 107
164 161 105
162 159 104
161 158 103
164 161 106
165 163 106
164 160 101
164 161 103
171 167 109
172 167 109
176 170 111
171 166 105
173 168 109
177 172 109
173 168 110
174 168 107
179 173 110
176 170 109
176 170 108
177 172 111
176 171 107
178 172 107
179 172 108
180 173 112
179 173 110
177 171 108
177 172 109
178 172 108
177 172 110
178 172 110
180 173 110
178 172 106
178 172 109
178 172 110
179 173 110
176 170 105
175 170 108
179 173 110
178 172 106
177 171 108
178 172 109
179 173 110
179 173 109
177 171 106
177 172 109
177 171 106
179 172 108
179 173 108
178 172 108
176 171 107
180 173 109
177 171 106
178 172 108
177 171 106
177 171 103
178 172 108
178 171 103
177 171 104
178 172 108
179 172 106
178 172 106
178 172 104
178 171 106
178 171 104
180 173 106
179 173 110
179 172 106
175 169 99
177 171 102
177 171 103
176 170 102
177 171 104
179 172 106
180 172 104
179 172 105
177 171 102
176 170 104
176 169 103
181 172 106
175 169 102
178 170 103
175 168 99
176 170 106
179 172 106
169 163 96
175 168 97
175 169 103
174 168 101
174 168 99
175 168 101
172 166 99
177 170 101
175 167 102
167 161 95
169 163 95
171 164 97
175 168 100
169 163 94
173 167 99
173 166 101
170 163 99
170 165 100
167 160 93
165 159 93
166 160 92
168 161 96
172 165 96
168 161 95
170 163 101
167 161 96
188 205 228
188 205 228
188 205 228
187 205 228
186 204 228
187 205 228
186 204 228
186 204 228
186 204 228
186 204 228
186 204 228
186 204 228
187 204 228
186 204 228
186 204 228
186 204 228
186 204 228
186 204 228
186 204 228
185 203 228
185 204 228
185 203 228
186 204 228
184 203 228
185 204 228
185 204 228
186 204 228
185 203 228
185 204 228
184 203 228
184 203 228
184 203 228
185 203 228
184 203 228
183 203 228
184 203 228
184 203 228
184 203 228
184 203 228
184 203 228
184 203 228
183 202 228
183 202 228
182 202 228
182 202 228
182 202 228
183 202 228
182 202 228
182 202 228
183 202 228
182 202 228
182 202 228
183 202 228
182 202 228
182 202 228
182 202 228
182 202 228
181 201 228
182 202 228
182 202 228
181 202 228
180 201 228
181 201 228
181 201 228
181 201 228
181 201 228
180 201 228
180 201 228
181 201 228
181 201 228
180 201 228
181 201 228
180 201 228
180 201 228
180 201 228
180 201 228
179 200 228
180 201 228
179 200 228
179 200 228
179 200 228
178 200 228
180 201 228
178 200 228
179 200 228
179 200 228
180 201 228
178 200 228
178 200 228
178 200 228
178 200 228
179 200 228
178 200 228
178 200 228
179 200 228
178 200 228
178 200 228
178 200 228
177 199 228
178 200 228
178 200 228
177 199 228
177 199 228
178 200 228
177 199 228
178 200 228
177 199 228
178 200 228
178 200 228
177 199 228
177 199 228
177 199 228
178 200 228
177 199 228
177 199 228
178 200 228
177 199 228
177 199 228
170 192 222
169 191 223
157 179 213
155 177 212
159 181 214
145 168 205
138 161 201
142 165 202
130 153 196
121 145 191
113 136 180
124 147 190
120 144 186
128 151 192
120 143 187
123 146 189
116 139 184
129 150 190
140 161 200
150 171 205
152 173 207
171 191 220
182 201 227
185 204 228
186 204 228
182 198 220
198 214 237
215 232 255
215 232 255
215 232 255
215 232 255
215 232 255
215 232 255
215 232 255
150 169 204
57 91 160
57 90 152
58 92 152
59 94 156
58 92 139
60 95 153
60 95 151
60 96 157
59 93 146
60 95 152
59 93 141
61 96 157
61 96 154
61 97 155
61 96 151
61 97 159
59 94 143
62 97 158
60 94 139
61 96 153
61 97 152
61 96 142
61 96 153
61 96 152
62 98 158
62 97 157
61 96 145
61 96 144
61 96 147
59 94 141
62 98 160
62 98 159
61 97 154
61 97 154
61 96 151
61 96 148
61 96 154
60 95 137
62 97 150
60 95 145
61 97 152
61 96 149
61 97 153
62 97 152
61 96 145
62 98 159
62 97 152
61 96 142
61 96 152
61 96 152
61 97 149
60 96 149
62 97 155
61 96 150
61 96 149
61 96 151
61 96 150
62 97 152
61 96 149
60 94 141
61 95 143
61 96 147
62 97 155
61 95 147
62 97 152
61 96 148
61 95 143
61 95 151
61 96 147
62 97 154
62 97 150
61 96 149
60 94 139
60 95 152
61 94 142
59 92 141
59 94 138
61 95 150
61 97 154
60 94 146
61 96 156
61 95 152
59 92 143
61 94 150
61 95 150
59 92 145
59 91 140
56 89 134
60 93 144
59 92 146
58 89 137
57 90 139
55 85 128
56 88 144
161 178 206
215 232 255
215 232 255
215 232 255
215 232 255
215 232 255
215 232 255
215 232 255
183 193 201
122 119 75
120 119 79
112 111 74
114 113 76
116 117 81
114 115 79
123 124 86
103 106 75
100 103 75
108 110 79
114 117 83
117 120 86
121 123 87
125 126 88
117 121 87
123 125 87
115 117 83
139 138 94
143 143 98
135 135 94
133 134 92
146 145 100
147 146 101
144 144 99
151 149 100
149 148 100
146 145 97
157 156 104
155 153 102
149 148 99
162 159 106
159 157 106
163 160 105
166 163 106
159 157 105
170 166 109
167 163 107
154 152 103
169 165 108
170 166 107
167 163 106
167 164 107
168 164 105
172 167 107
171 166 106
167 164 103
169 165 105
170 165 104
178 171 107
176 171 112
178 172 110
178 171 108
176 171 109
176 171 106
176 171 109
178 172 109
178 172 109
177 172 107
175 171 108
176 171 108
177 171 107
180 173 110
177 171 106
175 170 105
178 172 110
178 172 107
178 172 109
178 172 106
179 173 110
180 173 109
178 172 108
178 172 108
177 172 109
177 171 106
177 170 103
179 173 109
177 171 108
176 170 104
179 172 105
179 172 105
177 172 110
180 173 108
179 172 108
178 172 108
178 172 108
176 170 103
180 173 108
178 172 106
178 171 104
176 171 107
178 171 105
177 171 103
177 171 108
175 169 103
177 171 106
180 172 104
178 172 106
178 171 104
182 174 108
178 172 106
179 172 103
178 172 108
177 171 103
180 173 108
179 172 104
174 169 101
179 172 106
178 172 104
180 172 104
180 173 106
176 170 101
177 171 104
174 169 104
175 168 103
174 169 101
179 171 102
177 170 101
174 167 98
177 170 102
175 168 102
175 169 99
179 171 103
174 168 100
177 170 102
175 167 97
176 168 99
172 165 95
178 170 105
171 165 98
172 166 101
171 165 99
174 167 100
171 165 100
172 164 100
171 163 98
164 157 92
168 161 97
165 159 95
168 161 95
168 162 96
168 161 94
165 159 90
169 161 97
170 163 95
188 205 228
187 205 228
188 205 228
188 205 228
189 205 228
187 205 228
188 205 228
188 205 228
187 205 228
187 204 228
186 204 228
187 204 228
186 204 228
186 204 228
187 204 228
187 204 228
186 204 228
187 204 228
186 204 228
186 204 228
186 204 228
186 204 228
186 204 228
185 204 228
185 204 228
185 204 228
185 203 228
186 204 228
185 204 228
185 203 228
185 203 228
185 203 228
185 203 228
184 203 228
184 203 228
185 204 228
185 203 228
184 203 228
183 202 228
184 203 228
184 203 228
184 203 228
184 203 228
183 203 228
183 203 228
184 203 228
183 203 228
184 203 228
184 203 228
183 202 228
183 203 228
183 202 228
183 202 228
182 202 228
182 202 228
182 202 228
182 202 228
182 202 228
182 202 228
182 202 228
182 202 228
182 202 228
182 202 228
181 201 228
181 202 228
182 202 228
181 201 228
181 201 228
181 201 228
181 202 228
181 201 228
181 201 228
181 201 228
180 201 228
181 201 228
181 202 228
180 201 228
180 201 228
180 201 228
180 201 228
180 201 228
180 201 228
180 201 228
180 201 228
180 201 228
180 201 228
180 201 228
179 200 228
180 201 228
179 200 228
179 200 228
180 201 228
179 200 228
179 200 228
180 201 228
179 200 228
178 200 228
179 200 228
179 200 228
179 200 228
179 200 228
178 200 228
179 200 228
178 200 228
178 200 228
178 200 228
178 200 228
178 200 228
179 200 228
178 200 228
178 200 228
179 200 228
178 200 228
179 200 228
179 200 228
179 200 228
178 200 228
172 194 224
170 191 222
164 186 219
157 179 213
152 174 208
151 173 210
147 169 207
129 152 191
123 146 187
129 152 192
130 153 194
109 133 181
109 133 179
104 128 179
92 117 167
103 127 175
91 116 168
107 130 178
120 142 186
113 136 181
129 150 189
133 153 193
160 179 211
171 190 217
183 202 227
185 204 228
187 204 227
184 200 221
216 232 255
216 232 255
216 232 255
216 232 255
215 232 255
215 232 255
211 228 251
70 100 161
56 90 143
58 92 152
58 93 142
59 94 153
60 94 153
60 95 153
60 94 150
60 95 154
59 94 147
59 94 149
60 95 147
60 94 149
60 95 144
60 96 150
60 95 145
60 96 149
61 96 150
61 96 145
61 97 148
61 97 153
60 95 140
61 96 149
61 96 147
60 95 145
62 98 157
61 97 152
61 97 153
62 98 160
60 95 146
61 97 155
62 97 157
61 96 147
62 97 151
62 97 153
62 98 155
62 97 151
61 97 150
62 97 154
61 95 151
61 97 152
61 96 150
62 97 152
61 97 152
61 96 144
61 96 149
60 95 145
62 97 150
61 96 147
61 96 152
61 96 148
61 97 145
61 96 153
61 96 155
61 96 151
60 95 145
60 95 145
60 95 143
61 97 155
61 96 151
61 96 143
61 96 147
60 95 145
60 95 146
61 95 142
60 95 142
61 96 149
62 97 151
61 96 152
60 95 151
61 95 149
61 96 152
60 95 144
60 94 146
60 95 147
61 95 152
60 95 149
61 96 153
60 96 155
61 96 159
60 95 139
60 94 147
59 93 150
59 91 137
60 94 150
59 92 144
60 93 147
59 92 143
60 94 149
57 90 138
58 91 142
60 92 137
56 88 140
57 90 139
57 89 141
85 107 146
211 228 251
215 232 255
216 232 255
216 232 255
216 232 255
216 232 255
216 232 255
156 156 126
119 118 74
116 117 79
99 99 68
112 113 80
103 104 74
96 99 72
105 108 78
103 106 77
114 116 82
121 122 85
115 118 84
118 121 88
130 131 91
122 124 88
143 143 98
124 126 88
126 127 88
118 122 88
138 138 96
129 130 89
143 142 98
137 138 96
146 146 100
146 145 99
157 156 104
153 151 101
153 151 104
151 149 100
158 156 105
154 152 100
148 148 100
156 155 103
155 152 98
164 160 104
164 161 106
160 158 105
167 163 104
166 162 106
167 163 105
165 162 103
170 166 109
170 165 109
170 166 109
172 168 110
168 164 105
171 167 108
169 165 106
173 168 106
176 171 109
171 167 102
175 169 105
175 169 106
174 169 104
178 171 109
178 172 107
176 170 107
176 170 104
178 172 108
178 172 109
179 172 108
177 171 103
177 171 104
180 173 111
178 172 108
177 172 109
178 172 109
179 172 108
180 173 108
178 172 106
178 172 106
176 170 102
179 172 107
177 171 105
179 172 104
180 173 110
177 171 106
179 172 107
177 171 107
178 172 108
179 172 106
178 171 107
180 173 108
181 173 106
179 172 105
176 171 107
179 172 106
178 171 104
179 172 106
179 172 104
178 171 106
178 171 104
182 174 106
177 171 105
178 171 105
180 173 106
180 173 109
180 173 106
177 170 103
176 169 102
177 171 104
179 172 103
179 172 107
179 172 107
179 172 106
177 171 103
177 171 103
179 172 107
178 171 101
176 170 102
177 171 104
178 171 103
178 171 103
178 172 105
175 168 97
177 170 99
177 169 102
176 170 100
174 167 101
171 165 93
174 168 97
179 171 103
175 168 104
173 167 97
177 170 104
168 162 92
173 167 98
168 162 97
172 166 96
172 165 96
172 165 94
174 167 103
170 164 97
169 163 95
170 162 92
171 164 99
172 165 95
169 163 97
168 162 97
173 167 103
171 165 93
166 160 93
167 161 92
164 158 92
170 164 95
188 205 228
188 205 228
189 205 228
188 205 228
188 205 228
188 205 228
187 205 228
188 205 228
187 205 228
188 205 228
188 205 228
188 205 228
187 205 228
187 204 228
187 205 228
187 205 228
187 204 228
187 205 228
187 204 228
187 205 228
186 204 228
186 204 228
187 204 228
186 204 228
186 204 228
186 204 228
186 204 228
185 204 228
186 204 228
186 204 228
186 204 228
186 204 228
185 203 228
185 203 228
184 203 228
185 204 228
185 204 228
186 204 228
185 203 228
184 203 228
184 203 228
185 203 228
184 203 228
184 203 228
185 203 228
184 203 228
184 203 228
184 203 228
183 203 228
183 203 228
185 203 228
183 203 228
183 203 228
184 203 228
183 203 228
183 203 228
183 202 228
183 203 228
182 202 228
183 202 228
183 202 228
182 202 228
183 202 228
182 202 228
183 202 228
183 202 228
182 202 228
182 202 228
182 202 228
182 202 228
182 202 228
182 202 228
182 202 228
181 202 228
181 201 228
181 201 228
182 202 228
182 202 228
182 202 228
182 202 228
181 201 228
181 201 228
181 201 228
181 201 228
181 201 228
181 201 228
180 201 228
180 201 228
181 201 228
180 201 228
180 201 228
180 201 228
180 201 228
180 201 228
180 201 228
180 201 228
180 201 228
179 200 228
180 201 228
180 201 228
180 201 228
180 201 228
180 201 228
179 200 228
180 201 228
179 201 228
179 200 228
180 201 228
179 201 228
179 200 228
179 201 228
179 200 228
178 200 228
179 201 228
179 200 228
178 199 228
175 196 226
173 194 224
164 185 216
158 179 212
143 165 200
138 160 198
132 155 195
126 149 190
134 156 194
114 138 183
114 137 180
101 125 173
93 119 172
99 123 171
89 114 168
80 106 160
75 102 159
86 111 165
84 109 165
93 117 167
92 116 167
100 121 169
122 144 186
132 152 190
143 163 200
172 191 220
183 201 227
187 204 228
178 194 216
195 210 231
216 233 255
216 233 255
216 233 255
216 232 255
216 232 255
185 203 232
57 91 153
56 90 149
58 92 153
58 92 150
58 92 141
60 95 154
60 94 147
61 96 158
60 95 150
61 96 158
59 93 143
61 95 152
60 95 151
60 96 152
61 96 157
60 95 142
60 95 143
60 95 148
61 96 151
60 95 147
61 96 144
60 96 148
62 98 160
60 95 147
60 95 146
61 97 156
60 95 138
60 95 142
62 97 152
60 95 147
61 97 153
61 96 144
61 96 145
62 97 152
61 96 148
61 96 143
60 96 146
60 96 152
61 97 150
61 96 144
61 97 154
61 96 151
61 96 137
60 95 139
61 96 145
61 96 150
60 95 140
62 97 153
61 96 147
61 96 145
60 95 141
60 96 150
61 97 151
61 96 144
61 96 146
60 95 147
60 96 151
61 97 156
62 98 155
62 97 158
61 96 148
62 97 148
60 95 146
61 96 152
61 96 148
59 94 132
62 97 154
61 96 151
60 95 144
61 96 156
61 96 147
61 96 151
60 95 145
59 93 139
61 96 150
60 94 148
59 93 139
61 95 154
61 96 156
60 95 148
59 91 130
60 94 146
60 94 147
60 94 145
60 95 152
59 92 148
60 93 147
60 93 139
59 93 145
59 93 145
59 92 141
58 90 141
57 89 133
58 89 137
57 87 134
56 87 136
190 206 230
216 232 255
216 232 255
216 232 255
216 233 255
216 233 255
185 196 206
114 111 70
114 111 73
126 124 82
114 114 79
113 113 78
110 112 79
103 105 73
97 101 75
103 105 74
112 115 81
105 109 78
116 118 82
113 116 82
94 100 74
119 121 85
124 125 87
119 121 86
127 129 92
125 127 90
140 140 97
136 137 95
131 132 93
135 137 96
139 138 93
148 147 99
152 150 101
148 147 96
155 153 102
152 150 101
154 153 100
153 151 100
152 150 100
157 155 103
163 160 104
159 156 102
166 162 106
155 153 100
157 155 99
169 164 107
169 163 105
162 159 104
168 164 105
169 164 105
164 161 102
167 163 104
169 164 106
173 168 108
168 164 104
172 167 108
173 168 107
169 164 100
176 169 105
175 169 105
179 172 111
177 170 106
178 172 109
171 167 100
175 170 105
178 171 104
178 172 106
175 170 106
179 172 103
177 171 108
177 171 106
181 174 112
180 173 109
178 172 107
179 172 108
179 172 106
175 170 104
177 170 101
177 171 106
181 174 109
176 170 105
176 170 103
178 172 107
181 174 109
179 173 108
178 172 107
176 170 101
176 171 106
179 172 105
180 173 108
179 172 108
180 173 105
180 173 107
178 171 106
177 171 101
178 171 104
177 170 101
182 174 109
179 172 107
178 171 106
177 170 102
180 172 103
177 171 103
177 170 101
179 172 105
177 170 101
177 171 104
181 173 106
177 171 104
179 172 105
180 173 108
180 172 106
177 171 103
179 171 103
177 171 103
181 173 105
175 169 99
178 171 104
179 171 102
176 169 97
177 170 101
176 168 99
177 170 101
177 170 102
177 170 101
173 168 101
169 162 92
176 169 97
171 165 97
175 169 98
174 167 95
173 166 99
174 167 99
173 167 98
172 165 96
176 169 98
171 165 96
174 167 97
171 165 94
170 164 87
170 163 92
171 165 97
173 166 101
173 166 99
171 164 97
171 165 94
167 161 94
172 164 96
162 155 92
170 163 95
166 160 97
162 156 88
189 206 228
189 205 228
188 205 228
189 206 228
188 205 228
188 205 228
188 205 228
189 206 228
188 205 228
187 205 228
187 205 228
187 205 228
187 205 228
188 205 228
187 205 228
188 205 228
188 205 228
187 205 228
187 204 228
187 205 228
187 204 228
187 204 228
187 205 228
187 205 228
187 205 228
187 205 228
186 204 228
186 204 228
187 205 228
187 204 228
186 204 228
186 204 228
186 204 228
187 204 228
185 204 228
186 204 228
186 204 228
185 204 228
186 204 228
185 204 228
185 203 228
186 204 228
185 204 228
185 204 228
184 203 228
185 203 228
185 203 228
185 203 228
185 204 228
185 203 228
185 203 228
184 203 228
184 203 228
184 203 228
185 204 228
183 203 228
184 203 228
184 203 228
184 203 228
183 203 228
184 203 228
184 203 228
184 203 228
184 203 228
183 202 228
183 202 228
183 202 228
183 202 228
183 203 228
183 202 228
183 202 228
183 202 228
183 202 228
183 202 228
183 202 228
183 202 228
182 202 228
182 202 228
181 202 228
182 202 228
182 202 228
182 202 228
181 202 228
182 202 228
181 201 228
181 201 228
181 202 228
181 202 228
182 202 228
181 202 228
181 201 228
180 201 228
181 201 228
181 201 228
181 201 228
181 201 228
181 201 228
181 201 228
181 201 228
181 201 228
181 201 228
181 201 228
180 201 228
181 202 228
180 201 228
181 201 228
180 201 228
180 201 228
181 201 228
180 201 228
180 201 228
180 201 228
180 201 228
181 201 228
180 201 228
179 200 228
171 192 221
165 186 217
158 179 211
152 174 208
145 167 202
128 151 190
134 157 198
122 144 187
114 137 180
102 126 170
98 123 172
86 112 163
84 110 160
62 90 145
67 95 157
61 90 153
64 92 150
53 83 145
61 90 153
70 96 152
72 97 152
101 123 170
95 117 166
117 137 179
136 155 193
144 163 197
174 192 219
187 204 228
188 205 227
188 204 225
216 233 255
216 233 255
216 233 255
216 233 255
216 233 255
132 152 192
57 91 153
57 92 152
58 93 154
58 93 146
60 95 157
60 95 152
60 95 148
58 93 145
60 95 152
61 96 158
59 94 147
60 94 145
61 96 152
60 96 148
59 93 147
61 95 153
60 96 153
60 96 157
60 95 144
59 94 146
61 96 147
60 95 144
62 97 154
61 96 149
61 96 146
60 95 148
60 94 137
61 97 152
62 98 160
61 96 147
61 96 147
61 97 152
61 96 147
61 96 149
61 96 149
61 97 155
60 96 146
61 96 152
61 96 150
61 96 149
62 98 156
61 96 151
61 96 146
61 96 144
61 96 145
62 97 154
61 96 145
61 96 144
61 96 145
62 97 147
60 95 150
61 96 147
61 96 142
62 98 154
60 94 136
61 96 146
61 96 147
62 97 152
60 95 141
61 97 156
61 96 144
60 95 137
61 96 143
60 95 144
60 96 145
59 94 142
59 93 145
60 95 148
61 96 143
60 94 138
61 96 150
61 96 153
61 97 153
61 96 155
60 93 137
60 95 151
61 96 154
61 95 149
60 95 146
59 93 140
60 95 150
59 92 139
60 94 145
60 93 136
61 95 149
57 90 138
60 95 146
61 94 143
59 92 142
60 93 147
58 90 134
59 92 142
56 87 132
58 90 142
57 87 132
57 88 134
135 153 186
216 233 255
216 233 255
216 233 255
216 233 255
216 233 255
145 147 128
110 108 68
110 110 71
109 109 76
115 114 77
108 109 76
116 115 78
111 113 80
116 119 85
111 114 81
107 110 79
99 103 75
102 105 74
105 109 79
114 116 82
116 117 81
116 119 85
113 117 83
128 129 89
127 129 92
128 129 87
146 145 98
128 130 93
147 146 100
139 140 95
142 141 96
139 139 96
138 137 92
150 148 98
146 144 97
153 150 98
147 145 96
150 148 97
159 156 102
153 151 97
163 159 104
160 157 100
157 154 100
169 164 103
163 159 101
165 161 102
167 162 99
170 166 106
164 160 103
164 161 103
169 164 103
174 167 107
171 166 107
170 165 104
172 168 106
175 169 106
176 171 108
172 167 103
176 170 106
174 168 104
177 171 107
177 171 107
175 169 105
176 170 105
178 171 102
177 171 107
180 173 108
179 172 105
176 170 105
179 172 107
177 172 108
180 173 106
177 171 106
179 172 106
177 171 106
177 170 101
179 172 108
177 171 104
176 170 104
177 171 103
175 169 101
177 170 103
177 171 106
180 173 108
175 169 103
178 171 99
177 171 104
178 172 105
178 171 104
178 171 101
176 170 101
176 170 104
178 171 104
180 172 106
179 172 105
179 172 108
178 172 107
176 170 100
179 172 103
179 172 106
177 171 103
179 172 104
175 169 97
177 170 101
179 172 105
174 169 97
179 171 103
178 171 102
176 170 101
179 172 106
181 174 109
177 170 101
179 172 103
179 172 108
180 172 104
176 170 104
177 171 103
176 170 103
176 170 99
177 170 101
180 171 101
177 170 100
176 169 100
177 170 99
175 169 102
175 168 102
176 168 95
173 167 96
173 167 100
174 167 95
175 168 99
177 170 101
168 163 91
174 168 95
173 165 99
173 166 99
172 165 101
172 166 96
172 166 94
174 167 95
174 167 99
172 164 93
172 166 96
169 162 95
173 166 99
169 163 96
170 163 95
171 165 96
174 166 96
172 165 95
165 159 91
190 206 228
190 206 228
189 206 228
189 206 228
189 206 228
189 206 228
188 205 228
189 205 228
189 206 228
188 205 228
189 206 228
188 205 228
189 206 228
189 206 228
188 205 228
188 205 228
188 205 228
189 205 228
188 205 228
188 205 228
188 205 228
188 205 228
188 205 228
187 205 228
188 205 228
187 205 228
187 204 228
188 205 228
188 205 228
187 205 228
187 205 228
186 204 228
186 204 228
187 204 228
186 204 228
186 204 228
187 205 228
186 204 228
186 204 228
186 204 228
186 204 228
186 204 228
186 204 228
186 204 228
186 204 228
186 204 228
186 204 228
185 204 228
185 204 228
186 204 228
186 204 228
185 204 228
185 203 228
185 203 228
185 203 228
185 203 228
185 203 228
184 203 228
184 203 228
185 203 228
185 203 228
184 203 228
184 203 228
184 203 228
184 203 228
184 203 228
184 203 228
183 203 228
183 203 228
184 203 228
183 203 228
184 203 228
184 203 228
183 203 228
184 203 228
183 203 228
183 202 228
183 202 228
183 203 228
183 202 228
182 202 228
183 202 228
183 202 228
183 202 228
182 202 228
182 202 228
182 202 228
182 202 228
182 202 228
182 202 228
182 202 228
182 202 228
182 202 228
183 202 228
182 202 228
182 202 228
182 202 228
182 202 228
181 201 228
181 202 228
182 202 228
181 201 228
182 202 228
181 201 228
181 201 228
181 202 228
182 202 228
181 201 228
182 202 228
181 202 228
181 201 228
181 201 228
181 201 228
181 201 228
180 200 228
175 195 224
171 191 221
161 181 212
153 173 206
152 173 205
148 169 204
135 157 193
121 144 183
117 140 183
105 129 173
93 117 166
82 108 159
69 97 150
61 91 150
54 84 145
52 83 146
52 84 148
53 84 148
50 81 140
50 81 141
49 79 143
53 83 146
53 83 144
77 101 155
99 121 169
116 136 178
129 148 185
159 177 205
179 197 221
188 205 228
178 193 213
213 229 251
216 233 255
216 233 255
216 233 255
214 231 254
76 103 158
57 91 152
58 92 150
58 93 155
57 91 146
60 95 155
57 90 145
59 94 147
59 93 144
60 95 154
61 96 151
58 92 143
60 96 153
61 96 149
59 94 151
61 96 159
61 96 153
61 96 151
60 95 149
62 98 158
61 95 151
60 95 147
60 95 149
61 97 154
61 96 152
61 96 145
61 96 151
60 96 144
60 95 146
60 96 151
61 96 139
60 96 147
62 97 151
60 94 135
60 94 137
60 96 143
60 95 145
60 95 141
59 93 137
59 94 135
62 97 155
60 95 144
60 95 146
61 96 149
61 96 141
61 96 151
60 95 143
62 97 149
61 96 145
61 95 146
61 97 155
61 96 147
61 97 149
60 96 148
61 95 143
61 96 151
60 95 149
60 95 149
60 94 149
59 93 133
61 96 140
60 95 145
62 97 153
61 96 142
60 95 151
60 95 148
60 95 140
61 96 146
61 96 150
60 96 146
60 94 148
58 92 133
60 95 148
61 96 152
60 94 133
61 97 158
60 93 140
60 95 146
59 93 139
60 94 144
61 95 146
59 92 134
58 91 132
60 94 141
58 91 137
61 95 143
60 94 145
59 92 138
58 91 137
59 92 139
58 91 145
59 93 149
57 88 132
56 87 128
60 91 141
56 86 130
55 84 133
60 85 121
215 232 255
216 233 255
216 233 255
216 233 255
199 212 226
132 128 81
97 97 64
94 95 64
91 92 64
91 94 67
96 98 70
105 107 77
108 110 78
93 95 67
103 105 74
101 104 73
110 113 81
114 117 82
109 111 78
112 114 80
108 111 79
121 124 86
113 115 80
128 130 90
123 125 86
136 137 95
141 141 97
137 137 94
136 136 93
139 139 94
147 146 100
149 147 96
141 141 95
141 140 92
154 150 95
150 148 98
152 150 99
159 157 103
151 150 95
157 155 100
158 155 98
161 158 100
159 156 101
165 160 103
165 162 104
161 157 98
162 160 102
161 158 101
163 159 101
169 164 102
170 165 103
171 165 102
167 162 104
172 166 102
172 166 105
172 167 105
173 168 102
175 170 107
175 170 104
175 170 104
177 171 106
176 170 106
175 169 105
180 172 106
174 169 102
177 170 101
178 171 106
179 172 108
175 170 104
179 172 108
179 172 104
178 171 103
181 173 108
178 171 103
179 172 108
176 169 99
175 169 97
179 172 106
176 171 104
178 172 105
179 172 103
178 171 102
180 173 106
178 171 103
177 170 101
179 172 104
177 170 101
179 172 104
174 169 101
179 172 105
176 169 99
179 171 103
178 171 101
180 172 104
181 173 108
179 171 102
177 170 98
178 172 104
177 170 100
176 170 101
177 171 103
176 170 101
177 171 104
176 170 101
177 171 101
176 170 99
178 170 100
178 171 101
177 170 101
176 170 104
180 173 106
179 172 102
174 168 95
177 170 99
175 169 97
177 170 100
179 171 101
176 169 97
180 172 102
176 170 99
177 171 103
176 169 101
179 171 100
175 169 97
175 169 99
176 168 101
175 168 101
175 168 101
179 171 102
174 167 95
174 167 99
174 167 99
172 165 94
173 167 97
171 164 95
169 163 94
168 161 95
170 163 87
172 165 94
174 168 100
171 164 97
169 162 93
168 162 92
171 165 96
165 159 90
166 160 90
165 159 91
170 163 90
171 164 99
162 155 86
171 164 94
190 206 228
190 206 228
190 206 228
190 206 228
190 206 228
189 206 228
190 206 228
189 206 228
189 206 228
189 206 228
189 206 228
189 206 228
188 205 228
189 206 228
189 206 228
189 206 228
188 205 228
189 206 228
188 205 228
189 206 228
188 205 228
188 205 228
188 205 228
188 205 228
189 205 228
187 205 228
188 205 228
187 205 228
188 205 228
187 205 228
188 205 228
187 205 228
188 205 228
188 205 228
187 205 228
187 204 228
187 205 228
187 205 228
187 204 228
188 205 228
186 204 228
187 204 228
187 204 228
187 205 228
186 204 228
186 204 228
186 204 228
186 204 228
186 204 228
186 204 228
186 204 228
185 204 228
186 204 228
186 204 228
185 204 228
185 204 228
185 204 228
185 203 228
185 204 228
185 204 228
185 204 228
185 204 228
185 204 228
185 204 228
185 204 228
184 203 228
185 204 228
185 204 228
185 203 228
185 204 228
184 203 228
184 203 228
184 203 228
185 203 228
184 203 228
185 203 228
185 203 228
184 203 228
184 203 228
184 203 228
184 203 228
184 203 228
183 202 228
184 203 228
183 202 228
183 202 228
184 203 228
184 203 228
183 202 228
183 202 228
183 202 228
183 203 228
182 202 228
183 203 228
183 202 228
183 202 228
182 202 228
182 202 228
183 202 228
183 202 228
183 202 228
182 202 228
182 202 228
183 202 228
183 202 228
182 202 228
182 202 228
183 202 228
182 202 228
182 202 228
182 202 228
182 202 228
183 202 228
182 202 228
174 194 222
169 189 218
167 187 218
165 186 216
158 178 210
144 165 198
136 157 189
111 134 175
111 134 179
109 132 176
95 119 166
86 112 160
67 96 152
53 84 146
53 84 145
51 82 141
51 82 145
51 82 145
51 82 143
49 79 139
49 78 134
50 80 141
49 79 142
50 80 147
47 76 136
78 101 152
87 108 158
106 126 169
139 158 193
168 186 214
187 204 228
187 203 225
193 208 228
217 233 255
217 233 255
217 233 255
174 191 219
56 89 147
58 92 148
57 91 153
58 92 145
58 93 150
59 93 142
59 94 147
59 94 148
59 94 146
59 94 146
59 94 144
59 93 136
61 95 149
60 95 146
61 96 156
61 97 157
60 96 147
60 95 144
60 95 142
60 95 143
59 93 138
60 95 141
61 96 146
61 96 154
61 96 152
60 94 137
60 95 145
61 96 150
60 96 150
62 98 158
60 95 137
61 96 150
61 96 141
60 95 149
61 96 150
61 97 147
61 97 149
61 96 145
61 96 153
60 95 142
61 96 144
62 97 151
61 96 153
61 97 149
61 96 147
60 96 144
60 95 139
59 94 141
61 97 145
61 96 143
60 95 145
60 95 147
60 95 147
60 95 141
61 96 148
59 93 135
61 96 146
61 96 147
61 96 147
61 97 150
59 94 136
61 96 149
62 97 152
60 94 143
60 95 148
60 94 145
60 95 143
60 94 148
61 96 147
60 94 142
60 94 140
62 96 156
60 94 143
60 94 142
61 94 144
60 95 143
59 93 142
59 93 139
60 93 143
60 95 151
60 94 147
60 94 143
60 95 146
59 93 143
59 93 145
60 93 141
58 92 135
59 92 142
59 92 131
57 89 125
60 93 149
57 90 138
58 90 135
58 90 138
57 88 135
56 86 130
54 84 128
51 78 117
182 199 224
217 233 255
217 233 255
217 233 255
164 171 169
111 109 72
112 111 73
103 103 72
98 100 68
96 97 68
94 97 70
104 106 75
115 116 81
95 99 73
96 99 72
98 101 70
105 108 77
104 107 76
101 105 76
110 113 81
116 119 86
117 119 85
121 123 86
124 126 87
118 118 81
122 125 86
135 136 94
142 141 95
143 142 97
141 141 96
135 134 90
138 138 92
141 140 92
145 144 93
153 151 98
139 138 91
145 143 95
157 154 100
155 152 98
165 161 104
160 156 100
154 152 97
166 163 106
158 154 94
163 159 100
164 160 99
159 156 101
164 160 99
162 158 100
167 162 98
169 165 102
167 161 99
171 165 101
169 164 104
170 165 102
173 167 103
169 164 104
177 171 106
175 169 104
175 169 103
174 169 101
175 170 104
175 169 102
175 169 103
177 171 106
177 171 103
176 170 101
181 173 108
178 171 106
179 172 103
177 170 101
173 169 101
175 169 101
178 172 107
178 172 108
179 172 106
178 172 106
180 173 106
178 171 109
178 171 103
176 171 104
179 171 103
178 171 103
180 173 107
178 171 103
178 170 99
178 171 106
176 170 102
175 169 99
177 171 104
177 171 103
177 171 103
179 171 101
178 171 104
175 169 101
179 171 101
177 170 101
176 170 100
175 169 97
177 171 102
177 170 101
176 170 99
174 168 95
175 170 101
178 171 101
177 170 101
177 170 99
177 170 98
177 171 102
177 170 99
178 171 100
179 172 103
175 169 99
176 169 99
181 173 105
175 169 95
178 171 101
179 172 104
179 171 102
177 170 99
176 169 96
177 170 101
182 173 106
176 169 99
178 171 104
177 169 98
177 168 96
174 167 94
175 168 99
175 168 99
172 165 94
172 165 94
173 166 96
170 163 96
173 167 94
170 164 96
171 164 94
171 165 94
172 165 97
172 166 93
169 163 88
173 166 101
169 162 93
168 161 91
166 159 88
171 164 99
160 154 84
166 159 89
165 158 89
170 163 93
170 163 93
190 206 228
190 206 228
190 206 228
190 206 228
191 207 228
190 206 228
190 206 228
190 206 228
190 206 228
190 206 228
190 206 228
189 206 228
189 206 228
189 206 228
190 206 228
189 205 228
190 206 228
189 206 228
189 205 228
189 206 228
190 206 228
189 205 228
189 206 228
188 205 228
189 205 228
188 205 228
189 206 228
188 205 228
189 206 228
189 206 228
188 205 228
188 205 228
188 205 228
188 205 228
188 205 228
188 205 228
188 205 228
187 205 228
188 205 228
187 205 228
187 205 228
188 205 228
187 205 228
187 205 228
187 205 228
187 204 228
188 205 228
187 205 228
186 204 228
187 204 228
187 205 228
186 204 228
186 204 228
186 204 228
186 204 228
186 204 228
186 204 228
186 204 228
186 204 228
186 204 228
186 204 228
186 204 228
186 204 228
186 204 228
186 204 228
186 204 228
185 203 228
186 204 228
185 203 228
186 204 228
185 204 228
186 204 228
185 203 228
186 204 228
185 204 228
184 203 228
185 203 228
185 204 228
185 204 228
185 204 228
184 203 228
184 203 228
185 203 228
184 203 228
185 203 228
184 203 228
184 203 228
184 203 228
184 203 228
185 203 228
184 203 228
184 203 228
184 203 228
185 203 228
184 203 228
184 203 228
184 203 228
184 203 228
184 203 228
184 203 228
183 202 228
183 203 228
183 202 228
184 203 228
184 203 228
184 203 228
182 202 228
184 203 228
184 203 228
183 202 228
184 203 228
183 202 228
183 202 228
181 201 227
174 194 221
165 185 212
161 181 212
159 179 210
152 172 203
136 157 193
126 148 182
122 143 180
107 129 170
88 113 157
76 102 153
60 90 149
53 84 142
52 82 137
53 83 138
50 80 138
51 82 143
51 81 139
50 81 147
51 81 140
49 78 137
49 78 141
49 78 142
47 76 140
46 75 137
47 76 141
53 80 138
98 118 164
118 136 174
145 162 194
177 194 220
190 206 228
168 182 200
217 233 255
217 233 255
217 233 255
145 163 199
55 88 146
59 92 149
57 91 146
58 92 144
60 94 151
59 94 159
58 92 141
59 94 149
58 92 150
58 92 138
59 93 136
60 94 147
60 95 142
59 94 143
61 96 150
61 97 148
59 94 139
59 94 136
60 95 143
59 94 141
58 92 136
61 96 150
60 95 143
60 94 140
61 97 150
61 95 144
60 95 141
61 97 147
60 96 146
62 97 158
61 96 147
60 95 147
61 97 147
61 96 149
61 96 147
61 97 154
62 97 149
60 95 142
60 96 149
61 96 149
62 97 161
62 97 149
62 97 156
60 94 132
61 96 147
61 96 136
59 94 135
61 96 145
61 96 147
61 95 148
61 97 149
60 95 145
60 95 135
62 97 154
61 96 153
61 96 144
60 95 142
62 97 155
61 96 152
61 95 141
59 93 136
59 94 138
60 95 141
59 94 139
61 96 152
60 94 140
60 95 145
61 97 149
60 95 148
61 96 143
61 96 148
60 94 138
60 94 138
61 95 150
59 93 140
61 95 154
61 96 151
60 94 139
61 95 152
60 94 138
61 95 149
61 95 146
60 94 143
60 94 142
60 94 143
59 93 135
60 94 147
59 92 140
60 94 147
59 92 139
59 92 140
57 89 135
59 91 136
58 89 135
57 87 134
56 85 125
55 85 127
54 82 114
151 167 191
217 233 255
217 233 255
217 233 255
132 131 101
101 101 68
100 99 66
87 88 63
92 93 64
93 96 70
81 85 63
91 94 67
92 95 68
91 96 70
96 100 73
87 92 66
102 107 77
97 100 72
112 114 81
111 113 80
110 113 81
114 117 83
125 126 87
101 106 78
122 124 87
133 134 93
123 125 87
129 129 86
135 135 93
136 135 90
136 136 91
133 132 90
148 146 98
150 148 98
149 147 97
147 146 96
143 140 91
154 152 96
151 148 95
157 153 97
152 150 94
148 146 94
164 159 101
162 157 100
164 159 100
166 162 101
168 163 103
162 158 98
169 164 100
167 162 99
165 161 97
170 164 102
173 167 106
163 160 96
175 169 105
170 164 100
174 168 102
175 169 105
175 170 103
173 168 102
175 169 101
176 170 101
178 171 104
177 170 104
176 170 101
177 170 105
173 168 100
176 171 104
177 170 104
176 170 101
179 172 104
176 170 101
180 173 106
179 172 105
178 171 103
178 172 106
178 171 103
177 171 101
178 171 103
177 171 101
181 173 104
179 171 103
178 171 103
179 171 103
176 170 98
179 171 104
176 170 101
176 170 102
176 170 101
178 171 102
177 171 103
178 171 103
179 172 103
180 172 104
176 170 101
177 170 101
180 173 104
177 170 99
178 171 100
175 169 100
180 173 106
176 170 98
177 170 101
175 169 97
178 171 101
179 171 99
177 170 99
176 170 101
177 170 99
177 170 98
176 169 96
178 170 99
178 170 98
177 171 101
178 171 102
176 170 101
176 169 97
179 172 104
176 169 97
177 170 95
178 171 101
177 170 99
178 171 101
177 169 99
177 169 101
173 166 95
173 167 96
175 167 98
173 167 91
172 166 95
173 167 95
174 168 101
174 167 96
175 168 93
171 165 93
170 163 94
176 169 101
169 162 91
169 162 90
172 165 95
168 162 93
169 163 92
172 165 95
168 161 89
170 163 93
163 157 85
166 160 91
169 161 95
168 161 93
162 156 92
162 156 87
191 207 228
190 207 228
192 207 228
191 207 228
191 207 228
191 207 228
191 207 228
191 207 228
191 207 228
190 206 228
190 206 228
190 206 228
190 206 228
190 206 228
190 206 228
190 206 228
191 207 228
189 206 228
190 206 228
190 206 228
189 206 228
189 206 228
190 206 228
190 206 228
189 206 228
189 206 228
189 206 228
189 206 228
189 206 228
189 206 228
190 206 228
190 206 228
189 206 228
188 205 228
189 205 228
188 205 228
188 205 228
188 205 228
188 205 228
189 206 228
188 205 228
189 205 228
188 205 228
188 205 228
188 205 228
188 205 228
188 205 228
188 205 228
188 205 228
188 205 228
187 205 228
188 205 228
188 205 228
187 205 228
187 205 228
187 205 228
187 205 228
188 205 228
187 205 228
187 205 228
187 205 228
187 204 228
186 204 228
187 205 228
187 205 228
186 204 228
187 204 228
187 204 228
187 204 228
187 204 228
186 204 228
186 204 228
186 204 228
186 204 228
187 204 228
185 204 228
186 204 228
185 204 228
185 204 228
185 204 228
186 204 228
186 204 228
185 204 228
186 204 228
186 204 228
185 204 228
186 204 228
185 204 228
185 204 228
185 203 228
186 204 228
185 203 228
185 204 228
185 203 228
185 203 228
184 203 228
185 203 228
185 203 228
184 203 228
185 203 228
185 203 228
184 203 228
185 203 228
185 203 228
185 204 228
185 203 228
185 204 228
184 203 228
184 203 228
184 203 228
185 203 228
184 203 228
184 203 228
180 199 225
181 200 227
163 183 212
160 180 212
156 176 206
150 170 201
142 163 197
120 141 180
111 133 177
102 125 167
90 114 160
57 87 144
53 84 143
52 82 139
51 82 135
51 82 136
53 83 137
52 83 141
51 81 140
49 78 131
50 80 139
48 78 136
48 78 137
47 76 137
46 75 135
46 75 134
46 74 138
45 73 133
50 76 131
102 122 163
121 139 173
163 180 208
189 205 228
181 196 216
208 224 245
217 233 255
217 233 255
75 103 159
54 87 139
55 88 144
56 89 135
59 94 146
58 93 149
60 94 151
59 93 145
60 94 148
59 94 147
60 95 149
59 94 144
60 94 147
59 93 134
60 94 146
60 94 138
60 95 150
60 95 141
61 96 148
61 96 149
60 94 146
61 96 150
60 95 146
61 95 142
61 96 151
60 95 141
61 96 148
61 97 152
62 97 151
62 97 154
61 96 151
61 96 150
61 96 144
59 94 141
60 95 143
61 96 147
61 96 154
60 96 145
61 96 147
60 95 148
61 96 144
60 95 136
60 94 139
60 95 145
60 94 143
60 96 144
61 96 150
61 97 150
61 96 142
60 95 147
60 95 142
61 96 143
60 95 141
61 97 151
60 94 139
61 95 141
61 95 143
62 97 151
59 94 133
59 94 139
61 96 150
60 95 147
60 96 145
60 94 141
60 94 134
61 96 141
60 95 133
61 96 149
59 94 140
60 95 144
60 94 141
60 94 147
61 95 148
61 96 147
61 96 151
62 97 155
61 95 143
59 93 136
59 94 143
60 93 141
60 94 138
60 94 148
61 95 149
61 95 153
59 93 140
59 93 135
59 91 132
61 94 141
58 90 131
59 92 142
58 91 143
58 90 134
58 90 135
59 91 134
58 90 137
57 88 130
56 87 131
57 87 127
52 80 112
92 112 142
217 233 255
217 233 255
195 208 220
124 120 77
110 109 71
108 107 72
101 101 69
94 95 68
91 94 67
91 94 68
86 89 64
97 101 73
99 103 74
96 100 72
102 106 78
89 95 71
93 99 73
101 106 77
101 105 74
103 106 75
114 117 83
118 119 80
113 115 81
115 118 81
122 124 89
138 137 94
128 129 88
129 129 86
138 138 92
137 137 88
141 140 92
140 139 88
150 148 96
137 137 93
152 150 95
150 148 95
152 150 95
152 148 94
155 152 98
157 154 97
160 156 96
146 145 93
154 151 94
156 153 95
157 154 96
164 160 100
164 160 101
165 160 100
165 160 97
165 161 95
171 165 99
170 166 99
170 165 101
168 163 96
173 167 99
170 164 100
172 166 101
173 167 99
174 168 103
175 168 105
175 168 102
177 170 105
178 171 103
175 169 96
177 171 102
179 172 109
176 170 101
178 171 103
177 170 102
177 171 103
177 171 103
178 172 105
176 170 100
177 170 101
175 169 97
176 169 99
178 171 103
177 170 99
177 171 101
176 170 101
178 171 101
178 170 101
177 170 101
176 170 99
176 169 98
178 171 101
176 169 99
177 171 101
179 171 101
179 171 103
178 171 101
179 171 102
177 169 101
177 170 98
175 169 97
177 170 96
176 169 96
178 170 97
176 170 101
179 171 100
180 172 104
174 168 94
177 170 99
177 170 100
178 170 98
178 171 101
173 167 93
177 170 101
177 171 100
178 171 101
176 169 97
178 171 100
177 169 99
179 171 99
178 171 101
178 171 101
175 168 96
176 169 97
174 168 90
178 171 103
175 168 97
176 170 99
177 170 100
177 170 97
173 166 95
175 168 93
176 169 97
177 170 99
174 167 94
173 166 95
177 169 97
173 166 89
174 167 97
172 165 97
177 169 97
167 160 93
171 164 93
168 162 91
174 166 95
169 163 90
169 163 97
166 159 92
168 161 91
171 165 93
172 165 98
164 158 83
171 163 94
171 164 93
163 156 86
167 160 91
191 207 228
191 207 228
191 207 228
191 207 228
190 206 228
191 207 228
191 207 228
190 206 228
191 207 228
191 207 228
191 207 228
191 207 228
191 207 228
191 207 228
190 206 228
190 206 228
191 207 228
190 206 228
190 206 228
190 206 228
191 207 228
190 206 228
190 206 228
190 206 228
190 206 228
190 206 228
190 206 228
190 206 228
189 206 228
190 206 228
190 206 228
190 206 228
190 206 228
190 206 228
190 206 228
189 206 228
189 206 228
189 206 228
189 205 228
189 206 228
189 206 228
189 206 228
190 206 228
189 205 228
189 206 228
188 205 228
188 205 228
189 205 228
188 205 228
189 206 228
188 205 228
188 205 228
189 206 228
188 205 228
188 205 228
188 205 228
188 205 228
187 205 228
187 205 228
188 205 228
188 205 228
188 205 228
187 205 228
188 205 228
188 205 228
187 205 228
188 205 228
187 205 228
188 205 228
187 205 228
187 205 228
187 205 228
187 205 228
188 205 228
187 205 228
187 205 228
187 205 228
186 204 228
186 204 228
187 204 228
186 204 228
186 204 228
186 204 228
187 204 228
186 204 228
186 204 228
187 204 228
187 204 228
187 204 228
186 204 228
186 204 228
186 204 228
186 204 228
186 204 228
185 204 228
185 204 228
186 204 228
186 204 228
186 204 228
185 204 228
185 204 228
186 204 228
186 204 228
185 204 228
186 204 228
185 204 228
185 204 228
185 203 228
185 204 228
186 204 228
185 204 228
185 203 228
185 204 228
181 200 224
173 191 218
163 182 210
156 175 206
151 171 202
130 150 185
130 151 184
120 142 181
102 125 165
90 114 163
81 107 156
53 85 140
53 84 139
52 84 140
51 82 137
53 84 137
52 83 139
51 81 137
53 84 144
49 79 131
48 78 136
47 76 132
45 73 128
46 74 129
47 76 133
44 73 130
43 69 124
44 71 132
41 66 124
57 81 135
105 123 161
148 165 197
183 199 223
183 198 218
188 202 222
218 234 255
202 218 241
53 85 136
57 91 148
56 89 146
57 91 138
57 91 140
59 93 155
60 94 154
59 94 145
59 93 141
60 94 143
59 93 144
58 93 140
59 93 143
60 95 145
59 94 144
60 95 141
59 94 142
60 96 149
59 93 134
60 94 141
60 95 141
59 94 137
60 95 144
60 95 140
61 96 150
60 95 141
60 94 137
60 96 146
61 96 149
61 97 145
60 95 138
60 94 138
61 97 155
61 96 146
60 95 141
61 96 151
61 96 148
61 97 153
60 95 141
60 94 139
60 94 136
61 96 148
61 96 142
61 95 148
61 95 140
61 96 139
61 96 142
61 96 148
62 97 150
61 96 147
61 96 140
60 94 137
61 96 142
60 95 143
61 96 153
59 94 140
61 96 142
60 94 140
62 96 144
60 95 145
61 95 148
62 97 150
60 94 142
61 97 149
61 96 151
60 95 145
61 96 148
61 96 145
60 95 146
60 94 133
61 95 150
61 96 147
60 95 147
59 93 132
60 95 143
61 94 142
61 96 148
59 93 140
61 95 150
60 94 147
60 94 143
59 92 136
60 94 143
59 93 140
59 92 140
60 93 141
60 93 142
59 92 136
59 91 141
58 91 132
58 91 131
59 91 132
59 92 140
56 87 121
60 95 154
57 89 132
58 89 136
53 82 117
54 83 122
53 81 123
200 216 238
218 233 255
187 197 202
119 114 71
112 111 69
91 91 61
92 94 66
97 97 66
72 77 56
78 82 60
69 74 56
92 96 70
78 84 65
83 89 67
85 91 70
80 86 64
105 108 76
105 109 79
101 105 76
116 118 84
118 120 84
112 114 80
116 119 84
122 123 84
134 134 90
120 121 81
127 128 87
133 134 93
137 138 89
133 133 88
129 130 90
139 138 91
141 140 93
153 149 95
135 134 88
147 145 96
149 147 94
151 149 93
157 154 99
156 152 91
157 154 94
160 156 100
163 159 101
158 154 95
161 157 93
157 154 96
159 155 95
164 159 98
167 162 103
163 158 98
164 160 97
168 163 100
167 162 100
170 165 100
173 167 101
169 163 98
173 167 105
178 170 100
175 169 105
171 166 101
172 166 98
173 167 98
174 168 98
177 170 101
178 170 104
177 170 99
175 169 98
176 170 100
175 169 101
180 172 103
176 170 100
177 170 101
174 167 99
177 170 101
179 172 102
178 171 102
176 169 99
176 169 98
179 171 101
177 170 101
173 167 90
175 168 99
180 172 102
178 171 102
176 170 98
176 169 97
178 171 101
177 170 97
176 169 97
179 171 97
177 170 101
176 169 98
175 168 96
177 170 98
179 171 101
176 170 99
179 171 102
177 171 102
178 171 102
175 169 96
177 169 96
173 167 91
178 171 101
179 172 101
177 170 95
177 169 95
177 170 97
177 170 96
176 168 96
178 171 101
176 169 98
178 171 104
177 170 99
177 170 98
174 168 93
176 170 97
177 169 93
177 170 99
178 170 99
176 170 98
178 170 98
176 170 97
177 169 96
179 171 99
177 170 99
176 169 94
173 167 93
176 169 95
175 168 94
173 166 93
173 166 93
175 169 96
170 163 90
172 165 95
173 165 93
176 168 95
170 163 90
172 165 91
175 167 92
174 167 95
168 161 90
169 163 90
176 168 101
168 161 95
166 160 88
170 163 90
172 165 93
171 163 90
165 158 89
172 165 97
191 207 228
192 207 228
193 208 228
192 207 228
192 207 228
192 207 228
192 207 228
192 207 228
192 208 228
191 207 228
191 207 228
191 207 228
192 207 228
191 207 228
191 207 228
191 207 228
192 207 228
190 206 228
191 207 228
191 207 228
191 207 228
190 207 228
190 207 228
191 207 228
190 206 228
191 207 228
191 207 228
191 207 228
191 207 228
190 206 228
191 207 228
191 207 228
190 206 228
191 207 228
190 206 228
190 206 228
190 206 228
190 206 228
190 206 228
190 206 228
190 206 228
190 206 228
190 206 228
190 206 228
190 206 228
190 206 228
189 206 228
189 206 228
189 206 228
190 206 228
189 206 228
190 206 228
189 206 228
190 206 228
189 205 228
188 205 228
189 206 228
188 205 228
189 206 228
188 205 228
189 206 228
188 205 228
188 205 228
189 206 228
188 205 228
189 205 228
188 205 228
188 205 228
188 205 228
189 206 228
188 205 228
188 205 228
188 205 228
188 205 228
188 205 228
187 205 228
187 205 228
187 205 228
188 205 228
188 205 228
187 205 228
187 205 228
187 205 228
187 205 228
187 205 228
187 205 228
188 205 228
187 205 228
187 205 228
187 205 228
187 204 228
187 205 228
186 204 228
187 205 228
187 205 228
186 204 228
187 205 228
187 205 228
187 204 228
187 204 228
187 205 228
186 204 228
186 204 228
187 205 228
186 204 228
186 204 228
186 204 228
186 204 228
187 204 228
186 204 228
186 204 228
186 204 228
185 203 227
174 192 216
170 188 216
158 176 201
159 177 205
133 153 187
136 156 186
125 145 182
107 129 169
84 109 153
71 98 147
54 84 136
53 84 140
52 83 137
52 83 136
51 82 131
52 82 141
51 81 134
49 79 136
49 79 134
50 80 133
47 76 134
46 75 132
47 76 132
46 74 127
45 73 130
41 68 127
40 66 118
43 71 129
39 64 122
44 72 130
82 101 145
129 146 180
159 175 203
190 205 227
178 191 209
218 234 255
166 183 210
54 87 140
56 89 141
57 90 141
56 89 143
58 92 147
59 92 143
59 93 148
56 89 136
57 91 137
59 94 146
58 92 139
60 96 154
61 95 149
60 95 147
61 96 154
59 94 140
61 96 156
60 94 140
61 96 151
61 96 147
60 96 149
59 94 140
60 96 149
59 93 134
59 94 143
61 96 144
61 95 146
59 94 131
59 94 137
61 96 144
60 95 149
60 95 143
61 96 151
60 95 148
61 96 145
59 94 136
62 97 145
61 96 149
61 96 147
61 95 139
61 96 144
60 95 142
60 95 143
60 96 150
60 95 142
60 95 143
60 95 143
60 95 141
60 95 141
60 95 137
61 95 143
61 96 143
59 94 140
61 97 149
61 97 150
60 95 135
59 94 135
61 97 150
60 95 147
61 96 147
61 96 147
60 95 143
61 96 140
60 94 139
59 93 136
60 94 145
60 94 145
60 95 136
60 94 135
61 96 146
61 96 144
60 96 147
60 96 148
59 93 130
60 95 145
60 94 141
60 94 139
60 95 144
59 92 129
60 94 139
59 93 142
60 94 142
60 93 142
60 94 146
59 92 137
61 94 145
58 90 132
59 91 132
60 93 143
59 91 136
57 90 130
59 92 136
59 92 143
59 91 139
59 91 140
58 90 128
54 84 127
56 87 131
54 82 107
52 78 113
184 200 222
218 234 255
144 147 130
105 104 62
86 86 58
89 90 61
94 96 67
73 77 57
80 83 60
82 86 62
83 87 63
83 88 65
81 87 64
81 87 65
82 89 67
102 106 78
98 103 74
102 106 76
100 103 72
104 107 76
119 120 83
111 115 82
113 116 80
118 119 78
117 119 81
126 127 86
131 131 87
127 128 84
141 139 93
128 128 82
136 136 88
143 142 92
142 140 89
148 146 93
147 145 95
147 144 93
142 140 87
154 151 98
147 144 89
155 151 92
153 149 96
157 153 93
155 152 94
156 153 93
155 151 94
160 155 91
165 160 94
168 162 97
154 152 92
162 158 97
163 159 95
168 162 97
169 164 97
168 163 98
170 165 100
174 168 99
170 164 98
172 166 96
172 166 100
173 167 101
173 166 96
175 168 98
175 168 99
173 167 95
176 170 101
175 168 95
176 169 98
174 168 98
177 170 100
179 171 101
176 169 98
177 170 101
177 170 97
177 170 103
177 170 102
175 168 97
176 169 99
176 169 93
178 170 101
176 169 97
177 171 102
176 169 97
178 171 103
177 170 97
178 171 99
176 169 99
177 169 97
176 169 93
177 169 95
180 172 102
176 169 101
177 169 95
177 170 99
174 168 98
177 170 98
178 171 101
177 170 98
178 171 101
177 170 101
177 170 97
177 169 93
178 171 101
176 169 97
178 171 99
176 169 97
177 170 98
176 169 98
180 172 101
177 170 98
175 168 93
174 167 92
178 171 99
177 169 97
176 169 95
177 170 97
175 169 95
178 170 97
179 171 101
178 170 99
177 169 95
176 169 96
180 172 103
176 170 101
178 170 99
177 169 96
175 169 97
173 167 92
173 167 96
177 169 99
175 168 95
173 167 90
169 163 87
172 164 90
172 165 91
171 164 92
172 165 89
176 168 99
173 166 95
168 161 84
172 165 91
170 162 90
174 166 96
164 158 85
172 165 97
164 158 85
167 160 93
169 162 90
168 161 87
164 159 87
166 159 88
193 208 228
193 208 228
192 207 228
193 208 228
192 208 228
192 208 228
192 207 228
192 207 228
192 207 228
191 207 228
192 207 228
192 207 228
192 208 228
192 207 228
192 207 228
192 207 228
192 207 228
192 207 228
191 207 228
192 207 228
191 207 228
192 207 228
191 207 228
192 207 228
192 207 228
191 207 228
191 207 228
191 207 228
191 207 228
191 207 228
190 207 228
191 207 228
191 207 228
191 207 228
191 207 228
190 206 228
191 207 228
191 207 228
190 206 228
191 207 228
191 207 228
190 207 228
190 206 228
190 207 228
190 206 228
190 206 228
190 206 228
191 207 228
191 207 228
190 206 228
190 206 228
189 206 228
190 206 228
190 206 228
189 206 228
189 206 228
190 206 228
189 206 228
190 206 228
189 206 228
189 206 228
189 206 228
189 206 228
189 205 228
189 206 228
189 206 228
189 206 228
189 206 228
189 206 228
189 206 228
189 206 228
189 206 228
189 206 228
189 206 228
190 206 228
189 206 228
189 206 228
188 205 228
189 206 228
189 206 228
189 206 228
188 205 228
189 205 228
188 205 228
188 205 228
188 205 228
188 205 228
188 205 228
187 205 228
189 205 228
188 205 228
188 205 228
188 205 228
188 205 228
188 205 228
188 205 228
188 205 228
187 205 228
188 205 228
188 205 228
187 205 228
188 205 228
188 205 228
188 205 228
188 205 228
187 204 228
189 206 228
187 204 228
186 204 228
187 205 228
187 204 228
186 203 226
180 197 220
169 186 209
165 183 209
159 177 205
148 167 196
149 167 194
124 145 178
111 133 167
95 119 161
82 107 149
71 98 151
53 84 137
53 84 142
52 83 140
52 82 135
50 81 138
51 81 130
51 81 138
49 79 132
48 76 124
49 78 127
47 75 132
48 76 132
46 74 125
43 70 124
45 73 127
44 71 127
43 69 122
41 67 124
40 66 121
37 61 115
58 77 121
103 120 156
149 164 191
181 196 219
178 191 210
214 230 251
147 166 199
54 85 140
57 90 144
55 89 138
58 92 140
58 93 148
58 92 149
56 89 130
59 94 147
60 95 148
60 95 147
60 94 149
59 94 146
60 95 149
61 96 145
59 94 135
59 93 133
61 96 149
60 95 147
60 94 141
58 92 140
61 96 149
60 94 137
60 94 138
59 94 139
60 95 144
60 95 139
60 95 142
61 96 149
59 93 130
60 95 146
59 94 134
62 97 144
60 95 144
62 97 151
61 96 146
59 94 125
62 96 152
61 96 143
61 96 148
61 96 146
61 96 150
60 95 147
60 95 141
60 94 135
61 96 141
61 96 144
61 96 144
61 96 141
61 96 145
61 95 136
61 96 153
61 95 147
61 96 145
60 94 147
60 96 148
61 96 143
61 96 141
61 96 143
60 95 137
59 94 130
60 95 146
60 95 138
61 97 153
60 95 142
60 94 144
60 94 144
60 94 139
60 94 143
60 95 147
61 96 148
61 96 148
61 96 153
59 93 139
58 92 138
59 93 132
60 94 140
61 95 151
61 95 145
60 95 148
60 95 144
59 94 139
60 94 143
60 95 140
60 95 145
60 94 139
59 91 136
60 93 142
57 90 133
59 92 140
58 91 128
59 92 138
58 90 134
57 89 131
58 90 136
58 89 135
56 87 126
58 89 134
56 86 132
52 80 110
53 81 121
142 158 182
215 230 250
108 105 67
92 92 58
89 89 60
90 90 60
75 77 54
63 68 51
68 71 52
82 86 62
80 84 60
58 66 50
70 77 56
89 93 68
84 89 64
93 98 70
83 89 65
94 99 70
95 99 69
106 110 79
96 101 73
103 107 74
115 117 78
117 117 79
125 126 83
124 125 82
131 131 84
129 130 85
138 136 89
137 137 91
140 139 88
133 132 83
144 142 90
145 142 89
142 140 88
152 149 93
146 143 89
139 137 87
153 149 92
158 155 95
153 150 91
150 147 92
163 159 95
159 155 94
154 151 91
162 158 93
163 159 96
164 159 93
165 160 99
165 160 98
161 156 91
164 159 95
174 167 101
172 166 97
163 159 94
170 165 96
174 168 100
169 163 97
174 168 100
172 166 94
174 168 98
175 169 99
172 166 94
176 169 100
178 171 104
173 167 98
175 168 97
177 170 99
178 171 103
178 171 101
179 171 101
177 170 98
177 170 97
174 167 93
176 170 99
175 168 95
177 170 99
175 168 96
177 170 100
177 170 101
177 171 101
177 170 97
178 170 99
178 171 99
173 167 93
174 168 94
178 171 99
176 170 98
180 171 98
176 169 93
176 169 100
179 171 100
174 168 95
179 171 96
179 171 100
179 171 101
174 168 94
180 171 97
176 169 93
179 171 99
176 169 97
179 171 98
176 169 96
176 169 93
179 171 101
177 170 95
175 169 97
177 169 97
172 166 93
175 168 95
176 170 99
176 169 96
176 169 95
178 171 99
175 168 90
179 171 99
175 169 95
177 169 95
177 170 99
178 170 95
176 169 92
175 168 93
173 166 92
178 170 96
175 168 93
175 168 90
176 169 97
173 167 95
177 169 97
171 165 90
175 167 93
167 160 87
176 168 93
175 167 95
173 166 93
170 162 91
171 164 92
171 164 93
171 163 87
173 167 93
177 169 95
167 159 84
171 164 93
172 165 96
165 159 88
172 165 93
170 162 87
167 161 89
163 156 87
171 163 93
192 208 228
192 207 228
193 208 228
192 208 228
193 208 228
193 208 228
193 208 228
192 208 228
193 208 228
193 208 228
193 208 228
192 207 228
193 208 228
193 208 228
192 207 228
192 208 228
193 208 228
192 207 228
192 207 228
192 207 228
192 207 228
192 207 228
192 207 228
191 207 228
192 208 228
192 207 228
191 207 228
193 208 228
191 207 228
191 207 228
191 207 228
192 207 228
191 207 228
191 207 228
191 207 228
191 207 228
192 207 228
192 207 228
191 207 228
191 207 228
191 207 228
191 207 228
191 207 228
191 207 228
191 207 228
192 207 228
191 207 228
190 206 228
191 207 228
191 207 228
190 206 228
191 207 228
191 207 228
190 206 228
190 206 228
190 206 228
190 206 228
191 207 228
190 206 228
190 206 228
190 206 228
191 207 228
190 206 228
190 206 228
190 206 228
190 206 228
190 206 228
190 206 228
190 206 228
190 206 228
189 206 228
189 206 228
189 206 228
190 206 228
190 206 228
190 206 228
190 206 228
189 206 228
189 206 228
189 206 228
189 206 228
189 206 228
189 206 228
189 206 228
189 206 228
188 205 228
190 206 228
189 206 228
189 206 228
189 206 228
190 206 228
189 206 228
189 206 228
188 205 228
189 206 228
189 206 228
189 206 228
189 206 228
188 205 228
189 206 228
189 206 228
189 206 228
188 205 228
189 206 228
189 205 228
188 205 228
188 205 228
188 205 228
189 206 228
189 206 228
188 205 226
184 200 221
182 199 220
170 187 212
166 183 205
147 165 190
139 157 185
140 159 189
129 149 183
118 138 175
98 121 162
72 99 148
53 84 133
53 84 138
53 83 139
53 84 135
52 83 134
52 83 139
52 82 131
49 78 128
49 78 127
49 79 136
47 75 129
46 74 124
46 74 130
46 74 124
47 75 130
43 71 121
41 67 121
41 67 118
39 64 115
38 63 114
39 64 121
37 61 116
72 91 138
108 124 161
164 179 205
184 199 220
204 219 239
124 143 181
55 87 134
55 87 139
57 92 147
58 92 147
57 90 134
59 93 145
58 92 142
59 93 150
59 93 145
58 92 142
60 95 147
60 95 143
60 95 154
59 93 141
59 94 139
60 95 145
61 95 149
60 94 136
59 93 136
60 95 142
61 96 151
60 95 147
60 95 140
60 94 141
61 95 142
59 93 132
59 94 142
60 95 139
59 94 143
61 96 146
60 95 144
60 95 138
59 94 145
60 95 144
59 94 136
61 96 147
60 95 139
59 93 130
62 97 147
61 95 143
61 96 151
61 96 137
61 97 144
60 95 140
60 95 136
60 95 137
60 95 143
60 94 136
61 96 143
61 96 147
60 94 131
59 93 134
61 96 143
61 96 149
60 94 144
61 97 152
59 93 128
62 97 147
61 96 153
61 96 147
60 95 141
60 94 136
61 97 147
60 95 143
60 94 136
61 96 147
61 96 149
60 94 146
61 96 147
61 96 147
61 96 147
61 95 136
61 96 148
58 93 131
60 94 134
59 93 142
61 96 149
59 93 144
58 92 134
60 94 142
59 92 129
59 93 141
58 91 129
59 94 147
59 92 135
60 95 148
59 93 138
60 93 142
57 89 123
59 91 136
58 91 135
57 89 128
58 90 131
57 88 139
57 89 135
57 88 131
57 89 132
56 87 133
55 85 121
51 78 111
112 130 157
199 212 224
116 113 73
91 90 57
76 76 46
82 83 57
67 69 47
69 73 50
68 71 49
67 71 51
77 82 61
62 69 52
74 80 58
68 76 59
73 80 58
87 92 67
93 97 70
85 92 70
102 105 75
103 107 76
93 99 69
106 109 78
110 113 77
124 124 82
120 122 77
115 116 77
132 132 86
128 129 84
118 119 78
124 126 84
134 133 87
143 141 89
145 143 87
138 138 87
141 139 87
141 138 86
156 153 91
153 149 93
155 151 90
151 147 90
157 153 91
155 152 92
156 152 93
160 155 92
158 154 91
157 153 97
159 154 92
168 162 94
166 160 93
162 158 93
163 158 93
167 161 95
168 162 98
171 164 97
168 163 100
166 161 94
169 164 95
175 168 99
163 159 91
168 162 92
171 165 98
171 165 97
177 170 101
177 170 97
174 168 99
176 169 100
176 170 101
175 168 97
178 171 100
176 169 95
172 166 91
176 169 100
178 170 99
176 170 97
176 168 97
174 168 98
176 169 95
175 168 95
177 170 99
175 169 97
179 171 99
177 170 94
173 166 90
177 170 99
174 168 98
178 170 99
176 169 97
178 170 97
177 170 99
175 168 93
175 168 95
176 169 97
177 170 99
177 171 101
177 169 97
173 167 87
176 169 97
175 168 92
175 169 95
175 168 91
178 170 96
176 168 93
178 170 103
175 168 93
178 170 97
178 171 101
178 171 101
176 169 99
180 172 102
178 171 99
175 168 90
177 169 95
176 169 95
174 167 92
177 170 96
177 169 95
172 166 87
177 170 95
176 169 94
179 171 99
178 170 97
176 168 91
176 169 95
177 169 93
177 170 101
178 170 94
173 167 90
177 169 95
171 165 92
176 169 97
172 165 91
169 163 85
170 165 90
174 167 97
170 163 93
177 170 99
166 159 84
171 164 88
169 162 89
172 165 96
171 164 94
167 161 90
172 164 93
165 158 85
172 164 87
169 161 89
170 163 93
170 163 93
169 162 88
173 165 94
193 208 228
193 208 228
193 208 228
193 208 228
193 208 228
193 208 228
193 208 228
193 208 228
192 208 228
194 208 228
193 208 228
193 208 228
194 209 228
193 208 228
193 208 228
193 208 228
193 208 228
194 208 228
193 208 228
193 208 228
193 208 228
192 207 228
192 208 228
193 208 228
193 208 228
193 208 228
193 208 228
191 207 228
192 208 228
193 208 228
193 208 228
193 208 228
193 208 228
193 208 228
192 207 228
192 208 228
192 208 228
192 207 228
192 207 228
192 207 228
192 207 228
192 207 228
192 207 228
191 207 228
191 207 228
192 207 228
192 207 228
192 207 228
192 207 228
192 207 228
191 207 228
192 207 228
191 207 228
191 207 228
191 207 228
191 207 228
191 207 228
192 207 228
190 206 228
191 207 228
191 207 228
191 207 228
191 207 228
191 207 228
191 207 228
191 207 228
191 207 228
191 207 228
190 206 228
192 207 228
191 207 228
190 206 228
191 207 228
191 207 228
191 207 228
191 207 228
191 207 228
190 207 228
190 206 228
191 207 228
189 206 228
190 206 228
190 207 228
190 206 228
190 206 228
190 206 228
191 207 228
190 206 228
191 207 228
190 206 228
189 206 228
190 206 228
190 206 228
191 207 228
190 206 228
189 206 228
189 206 228
190 206 228
190 206 228
190 206 228
190 206 228
189 206 228
190 206 228
190 206 228
189 206 228
189 206 228
190 206 228
189 206 228
190 206 228
189 206 228
188 204 226
182 197 217
178 194 214
169 184 205
165 181 205
154 171 193
135 153 181
131 151 185
127 147 178
110 130 163
95 118 158
68 95 138
52 83 135
52 83 133
52 82 132
51 82 125
52 82 126
52 82 127
49 78 123
50 79 132
51 80 129
49 78 130
49 78 129
45 73 124
42 68 112
45 73 120
46 74 128
42 68 119
42 67 118
43 70 122
43 69 125
40 65 116
38 62 109
41 67 122
45 65 112
94 108 144
159 174 199
186 200 219
193 207 226
87 109 153
54 85 132
55 88 143
56 89 146
55 89 143
57 91 139
59 93 142
59 94 149
58 92 137
58 92 142
59 94 140
59 94 143
58 92 127
60 95 146
60 95 151
59 94 138
59 93 129
61 96 150
59 94 140
59 93 133
60 94 142
61 96 151
62 97 154
60 94 143
60 94 144
61 96 147
60 95 141
60 95 138
61 96 143
61 96 153
60 94 134
60 94 137
60 94 139
61 95 140
60 94 138
61 96 149
60 94 139
61 96 142
61 96 149
63 98 153
60 95 139
61 96 145
59 93 134
61 96 145
60 95 142
60 94 134
59 94 139
62 97 148
61 95 144
60 94 134
59 94 131
61 96 144
59 94 136
61 96 141
60 94 134
60 95 140
60 94 141
60 95 140
61 96 145
61 97 148
60 94 138
60 95 139
61 96 138
59 93 133
61 95 144
60 94 142
60 95 142
61 96 144
61 95 147
60 94 138
61 95 147
59 93 133
61 96 148
60 95 143
61 95 146
61 96 146
60 95 145
60 95 142
59 93 127
61 95 142
58 92 135
60 94 147
59 93 141
59 93 136
58 91 128
60 93 142
61 96 143
58 92 125
58 91 133
59 93 138
58 91 134
58 90 137
57 89 124
57 89 135
56 88 121
58 90 137
58 90 132
54 82 115
55 85 120
55 84 122
53 82 120
69 91 122
181 190 197
111 108 68
86 86 58
73 75 53
63 66 47
73 75 53
75 78 55
68 72 52
72 76 55
64 70 52
61 67 49
74 80 59
81 87 65
74 80 58
90 96 68
93 98 70
95 99 69
91 97 71
100 104 73
108 111 78
98 101 71
120 122 81
115 117 80
112 115 76
108 110 73
117 118 81
123 124 83
133 132 83
131 131 82
130 130 77
139 137 89
131 131 83
143 141 91
142 140 87
152 148 89
150 147 86
150 147 86
149 146 91
151 148 91
159 154 90
156 152 89
149 147 88
157 154 93
163 157 92
154 150 91
164 160 96
165 160 97
168 162 95
167 162 96
160 155 90
159 155 88
167 161 92
169 163 95
168 162 92
173 167 98
169 164 95
170 164 97
171 164 94
174 167 97
174 167 95
169 163 87
173 166 97
175 168 96
173 166 92
179 171 100
175 168 94
175 168 98
174 167 96
175 168 92
174 167 95
179 171 100
180 172 98
177 169 94
175 168 95
171 165 88
177 169 97
179 171 99
178 171 101
174 167 92
178 171 99
171 166 92
176 169 95
176 169 94
179 171 99
173 167 94
175 168 90
178 171 100
177 170 97
175 168 96
176 169 95
172 165 86
175 168 94
177 170 96
175 169 93
172 166 89
174 167 93
178 170 94
174 167 94
175 168 88
177 170 98
178 170 98
180 172 100
176 169 96
175 168 91
174 168 89
172 166 87
177 169 95
175 168 94
175 169 93
175 168 92
174 168 92
178 170 95
176 169 93
179 171 98
175 168 95
174 167 88
176 169 93
175 168 93
175 169 97
175 168 92
178 170 99
175 167 89
177 169 95
175 168 90
177 169 95
175 167 92
173 166 90
174 167 93
172 166 93
171 164 89
174 167 93
171 165 88
174 167 93
171 164 90
171 164 90
170 163 93
168 160 89
172 164 93
169 162 88
168 160 84
165 159 84
168 161 87
166 160 85
165 158 87
169 162 88
168 162 88
157 153 80
169 162 87
166 160 86
194 209 228
194 209 228
194 209 228
194 208 228
194 208 228
194 208 228
194 209 228
194 209 228
194 208 228
194 208 228
193 208 228
194 208 228
194 208 228
194 209 228
193 208 228
193 208 228
194 208 228
194 208 228
193 208 228
194 208 228
194 208 228
193 208 228
193 208 228
194 208 228
193 208 228
194 208 228
193 208 228
195 209 228
193 208 228
193 208 228
193 208 228
193 208 228
193 208 228
193 208 228
193 208 228
193 208 228
193 208 228
193 208 228
192 207 228
192 207 228
192 207 228
193 208 228
193 208 228
192 208 228
193 208 228
192 207 228
192 207 228
192 207 228
192 207 228
192 207 228
192 207 228
192 207 228
193 208 228
192 208 228
193 208 228
193 208 228
192 207 228
192 207 228
192 208 228
192 208 228
192 207 228
192 207 228
191 207 228
192 207 228
192 207 228
192 207 228
192 208 228
191 207 228
192 207 228
192 207 228
192 208 228
191 207 228
191 207 228
192 207 228
192 207 228
192 207 228
191 207 228
191 207 228
191 207 228
191 207 228
191 207 228
191 207 228
191 207 228
190 206 228
191 207 228
191 207 228
192 207 228
191 207 228
192 207 228
191 207 228
191 207 228
191 207 228
191 207 228
191 207 228
190 206 228
191 207 228
191 207 228
191 207 228
191 207 228
192 207 228
191 207 228
190 206 228
190 206 228
191 207 228
190 206 228
191 207 228
191 207 228
190 206 228
190 206 228
189 205 225
188 203 223
181 196 213
177 193 215
168 184 208
153 169 193
160 177 205
149 166 188
127 145 177
113 134 168
102 124 162
91 114 155
61 89 136
52 82 130
52 83 136
50 80 123
51 81 121
50 80 120
51 81 126
50 79 121
49 78 130
49 78 124
47 76 129
45 73 114
48 76 125
45 73 120
46 74 122
45 73 123
43 69 120
42 68 114
41 67 122
39 64 112
39 64 111
37 59 110
34 56 107
34 56 105
81 98 135
137 151 177
179 193 215
175 188 206
54 87 142
54 86 134
56 89 136
56 88 134
56 89 130
57 91 134
58 93 142
60 95 150
59 93 142
58 93 138
58 92 138
59 94 144
57 91 130
60 95 145
60 95 141
58 92 131
60 95 133
61 96 145
58 93 137
60 94 144
60 94 137
59 94 141
60 94 134
60 95 142
60 95 143
60 94 140
61 96 141
60 95 140
60 95 141
59 94 131
60 95 145
60 95 139
58 92 125
60 95 140
62 98 150
60 94 139
61 96 150
60 95 137
59 94 130
60 95 143
61 96 147
59 93 140
60 95 137
61 96 148
62 97 150
61 97 145
60 95 137
61 96 144
60 95 140
60 94 128
59 94 135
60 95 143
61 96 145
60 94 136
61 96 142
58 91 125
61 95 140
61 96 147
60 95 143
60 96 143
59 93 136
60 95 142
60 95 140
61 96 148
58 92 134
61 95 139
59 93 134
60 95 143
61 96 146
59 93 128
61 95 136
59 92 129
59 93 132
59 92 121
60 95 143
59 93 138
59 93 136
61 95 141
59 92 134
62 96 152
60 94 141
59 92 137
58 92 126
60 94 134
59 92 131
59 92 139
58 91 128
58 92 133
61 95 150
59 93 148
58 91 136
59 92 132
59 92 136
55 85 114
57 89 130
56 87 129
58 89 135
53 80 114
54 83 116
56 85 119
54 84 119
50 76 100
137 145 146
90 89 56
88 89 59
86 86 56
75 78 55
66 69 49
60 65 48
70 74 53
65 70 51
64 69 49
76 82 59
62 69 52
67 75 58
77 82 61
81 87 64
90 94 68
73 81 61
87 93 67
99 104 73
94 99 70
95 98 67
105 108 73
107 109 72
123 123 82
116 119 82
126 126 83
130 129 81
132 131 80
132 132 86
120 122 78
138 136 84
144 141 86
136 134 80
135 133 81
138 137 82
145 142 84
145 143 88
153 149 91
153 149 86
146 144 83
146 144 82
153 150 90
164 158 89
156 153 88
152 148 83
161 156 91
154 151 88
162 158 91
160 156 91
160 156 93
168 163 96
169 163 94
166 160 91
169 163 92
174 167 99
172 165 98
165 160 91
171 165 92
174 167 97
170 163 92
172 165 90
171 165 92
173 166 90
171 165 89
176 169 96
177 169 97
171 165 95
176 168 92
177 169 95
175 168 94
173 167 93
176 169 94
177 170 99
175 168 92
178 170 99
179 171 99
176 169 97
176 169 95
178 171 100
175 169 94
174 167 90
176 169 92
175 168 91
176 168 95
175 168 93
175 169 97
173 166 91
177 170 96
176 169 95
175 168 92
177 170 99
173 166 90
175 168 93
175 168 97
175 168 92
176 169 99
176 169 95
176 169 99
176 169 91
172 166 91
177 170 100
179 171 98
178 170 97
177 169 90
174 167 90
176 169 95
175 168 90
175 167 90
177 169 94
175 168 92
178 170 97
176 169 97
174 167 90
175 168 91
177 169 91
177 170 96
174 167 90
174 167 88
176 169 95
174 167 92
178 170 97
175 168 92
180 171 97
177 169 95
179 171 101
176 168 94
174 167 95
174 167 88
177 169 94
172 166 92
174 167 93
174 166 93
177 169 95
168 161 82
176 168 95
167 161 86
173 166 90
166 160 84
167 160 87
174 167 91
169 162 89
169 161 90
168 161 87
170 164 87
167 160 87
171 164 87
171 164 88
168 161 82
170 163 91
195 209 228
194 209 228
195 209 228
194 208 228
195 209 228
194 208 228
194 209 228
194 209 228
194 209 228
194 209 228
194 209 228
195 209 228
194 208 228
195 209 228
194 208 228
194 209 228
193 208 228
194 208 228
194 209 228
194 208 228
195 209 228
194 208 228
194 208 228
194 208 228
193 208 228
194 208 228
194 208 228
194 208 228
194 208 228
194 208 228
194 208 228
194 208 228
194 209 228
194 208 228
194 209 228
194 208 228
193 208 228
194 208 228
194 208 228
193 208 228
193 208 228
193 208 228
194 208 228
193 208 228
193 208 228
193 208 228
193 208 228
193 208 228
193 208 228
193 208 228
193 208 228
194 208 228
193 208 228
194 208 228
193 208 228
193 208 228
193 208 228
193 208 228
193 208 228
193 208 228
193 208 228
193 208 228
192 208 228
192 208 228
192 208 228
193 208 228
192 208 228
192 207 228
193 208 228
193 208 228
193 208 228
193 208 228
192 208 228
193 208 228
192 207 228
192 208 228
192 207 228
193 208 228
192 208 228
193 208 228
192 207 228
192 207 228
192 207 228
192 207 228
192 207 228
192 208 228
191 207 228
193 208 228
191 207 228
192 208 228
192 207 228
192 207 228
191 207 228
191 207 228
192 207 228
192 207 228
192 208 228
192 207 228
192 207 228
192 207 228
191 207 228
192 207 228
192 208 228
192 207 228
192 207 228
191 207 228
191 207 228
192 207 228
192 207 228
191 205 225
186 201 219
187 201 221
173 188 207
163 179 202
163 178 198
153 168 192
134 150 173
128 145 169
107 127 159
102 123 158
69 95 135
56 86 135
52 83 134
53 84 135
53 83 129
51 81 122
52 82 131
49 78 125
49 78 124
48 77 120
48 76 127
47 75 120
46 75 124
47 75 122
45 71 111
43 69 111
43 70 119
42 68 115
40 66 118
38 63 106
39 64 115
37 61 111
36 60 109
33 54 103
30 51 99
60 77 120
107 120 150
174 188 209
159 173 193
50 81 127
54 87 134
54 86 122
57 90 142
56 89 133
58 92 139
58 92 140
58 91 129
59 93 134
58 93 143
58 93 138
60 94 151
59 93 139
59 93 135
59 93 135
59 94 139
59 94 136
60 95 143
60 95 149
59 93 132
58 92 132
58 93 130
59 93 136
61 96 142
61 96 147
58 92 131
59 94 138
61 95 142
60 95 143
61 96 147
61 95 146
60 95 137
59 94 127
60 95 148
60 95 138
60 95 133
61 96 148
58 92 131
60 95 135
61 96 145
60 95 142
60 95 141
60 96 149
60 94 137
60 95 136
60 95 145
60 94 136
60 95 140
61 95 141
59 94 137
60 94 137
60 95 141
60 95 139
60 94 143
60 94 136
60 94 135
59 94 139
59 92 129
61 96 145
60 94 140
60 94 142
59 94 135
60 95 143
61 97 148
61 95 141
60 94 136
59 94 134
60 95 139
61 95 143
60 95 136
59 93 135
61 95 144
59 94 136
60 94 142
60 94 139
60 94 142
60 94 138
59 92 133
61 95 144
59 93 141
61 94 134
59 93 132
60 94 138
59 92 135
57 90 129
59 92 142
57 90 126
59 92 134
58 91 128
58 91 137
58 91 140
58 91 134
56 88 124
56 88 122
57 88 126
57 88 131
57 87 125
57 89 129
54 84 122
54 83 121
53 80 115
51 77 108
104 104 75
99 97 64
76 76 48
69 71 48
71 72 48
50 56 41
63 67 48
60 66 49
47 54 41
60 64 46
52 61 46
51 61 49
60 67 51
72 78 57
84 91 67
57 67 52
85 91 66
79 86 58
87 93 66
97 103 76
99 103 71
97 102 73
115 116 79
117 118 80
117 118 74
119 119 76
117 117 76
134 133 81
135 134 81
131 129 83
138 137 86
141 139 85
132 132 82
148 144 85
138 136 82
149 146 88
145 141 84
149 146 86
148 145 86
151 147 85
151 147 87
148 145 87
162 157 91
158 153 89
163 158 92
155 151 88
162 157 92
164 158 93
161 156 92
160 155 93
162 157 89
158 155 90
166 160 89
170 163 97
164 158 92
170 163 95
166 160 88
173 166 92
169 163 94
174 167 96
169 163 91
172 165 92
171 165 85
174 167 94
178 170 97
174 167 90
174 167 91
174 166 90
174 168 94
178 170 99
176 168 93
173 167 90
176 169 94
176 169 95
178 170 95
173 167 89
178 170 98
175 168 91
179 171 99
175 168 94
179 171 99
176 168 97
172 166 90
177 169 98
175 168 93
177 169 93
173 167 93
176 169 96
177 169 97
177 169 94
174 166 89
176 170 99
174 167 92
177 169 95
179 170 96
174 168 93
175 168 94
176 169 93
175 168 90
176 169 93
176 169 94
175 168 91
179 171 98
174 167 91
178 170 97
176 169 94
174 167 91
173 166 87
174 167 84
178 170 97
173 166 84
177 169 95
175 168 93
172 165 86
173 166 90
180 171 99
175 168 91
176 169 92
178 170 96
178 170 95
179 171 97
173 166 90
178 170 94
177 169 93
175 168 90
174 166 91
174 167 91
173 166 90
172 165 92
176 168 92
174 166 92
175 167 94
165 159 84
168 161 80
171 164 87
171 163 90
170 162 89
170 163 88
172 165 89
169 162 89
167 160 87
166 159 86
172 164 89
172 165 94
173 166 94
172 164 91
167 160 89
163 156 81
169 162 84
195 209 227
194 209 227
195 209 227
194 209 227
193 208 224
195 209 228
195 208 225
194 209 228
193 208 225
195 209 228
195 209 227
195 209 228
194 209 227
195 209 228
195 209 228
194 208 227
195 209 228
195 209 228
194 209 228
194 209 228
195 209 228
195 209 227
194 209 228
194 209 228
195 209 228
195 209 228
195 209 228
194 208 228
194 209 228
195 209 228
194 209 228
195 209 228
194 208 228
195 209 228
194 208 228
194 208 228
196 209 228
195 209 228
194 208 228
194 208 228
194 209 228
194 208 228
194 208 228
194 208 228
194 209 228
194 208 228
194 209 228
194 209 228
194 208 228
193 208 228
194 208 228
194 208 228
194 209 228
194 208 228
194 208 228
193 208 228
193 208 228
194 208 228
194 208 228
194 209 228
194 208 228
193 208 228
194 208 228
194 208 228
194 208 228
193 208 228
193 208 228
193 208 228
194 209 228
194 208 228
193 208 228
193 208 228
193 208 228
194 208 228
193 208 228
192 208 228
193 208 228
193 208 228
193 208 228
193 208 228
193 208 228
192 208 228
194 208 228
193 208 228
193 208 228
193 208 228
194 208 228
193 208 228
193 208 228
193 208 228
194 208 228
193 208 228
193 208 228
194 208 228
193 208 228
193 208 228
193 208 228
193 208 228
192 208 228
192 208 228
193 208 228
193 208 228
192 208 228
193 208 228
193 208 228
193 208 228
193 208 228
192 208 228
192 207 227
187 201 219
185 199 214
184 199 218
171 184 199
167 180 195
158 174 198
144 159 179
137 154 182
122 139 161
101 122 155
88 111 144
73 98 136
52 82 128
53 84 127
52 82 133
51 81 125
51 81 122
50 80 121
50 79 122
48 77 120
47 76 110
49 79 118
47 76 120
50 79 134
44 71 113
48 76 121
44 71 114
45 71 116
40 65 111
40 65 108
40 64 108
38 63 102
38 62 106
32 53 95
31 51 96
27 46 90
35 53 94
107 120 142
175 189 206
162 176 194
52 83 131
56 88 131
54 86 129
54 87 118
58 92 145
57 90 132
57 91 134
60 94 142
59 93 143
58 92 132
58 92 141
58 92 137
59 93 135
58 92 135
59 94 140
61 95 140
60 94 138
61 96 151
60 94 144
58 92 124
61 95 145
59 93 131
61 95 145
60 95 142
61 95 139
61 96 151
61 96 146
60 95 135
61 96 144
60 94 139
59 94 145
60 95 151
61 96 143
58 93 139
61 96 142
59 94 139
59 94 141
60 95 139
61 96 148
61 95 141
61 96 149
59 93 134
60 94 139
60 94 134
60 95 137
60 95 137
60 94 133
60 95 143
60 95 140
59 94 141
61 95 145
59 94 131
59 94 139
60 96 140
60 95 141
60 95 136
59 93 137
60 95 140
58 91 129
60 95 137
59 94 137
59 94 137
59 93 139
60 94 135
60 95 143
60 94 140
61 96 146
59 93 135
59 92 139
61 95 144
61 96 142
59 93 136
59 93 132
60 94 141
60 95 133
59 93 136
60 93 140
60 94 143
59 94 145
60 93 134
59 92 134
59 93 140
58 91 129
59 93 132
59 92 130
58 90 130
58 92 139
59 92 138
60 94 142
58 90 122
58 91 133
58 90 132
58 91 134
56 87 124
57 88 128
57 88 120
56 86 124
53 83 115
55 85 117
54 84 123
53 81 111
50 76 107
84 87 73
86 85 51
73 73 47
50 52 32
48 51 37
57 61 43
51 57 41
40 48 36
67 74 57
51 58 44
63 70 53
51 61 47
59 66 51
61 69 50
56 66 51
75 82 58
80 86 61
92 96 67
90 95 64
98 100 65
90 94 64
99 103 71
113 115 76
126 125 83
113 114 72
117 117 78
120 121 74
133 131 81
122 122 72
119 120 74
125 125 76
132 130 83
133 133 80
134 133 82
137 135 82
142 140 87
144 142 84
146 143 83
151 147 89
155 151 87
153 148 80
152 149 89
155 151 85
155 151 86
163 157 95
168 161 91
156 152 90
164 159 89
161 156 89
159 154 87
163 158 88
164 158 88
167 161 89
168 163 94
164 158 84
168 163 95
169 163 94
170 164 92
172 165 94
173 166 93
173 166 94
173 166 95
173 166 90
169 163 87
171 165 86
175 168 93
172 165 89
176 168 95
173 167 92
176 169 96
171 165 89
174 167 90
174 167 92
174 167 93
177 170 95
173 167 93
174 167 91
175 168 90
178 170 97
172 166 87
177 169 92
175 168 92
177 170 95
176 169 92
176 168 91
177 170 95
175 167 89
175 167 92
176 169 95
174 167 90
176 169 97
178 170 95
175 168 92
171 164 81
174 167 90
172 166 88
179 171 97
174 167 87
178 170 97
177 170 95
172 166 87
176 168 94
177 169 97
180 171 97
179 170 97
173 167 89
177 169 94
175 168 93
174 167 89
173 167 87
177 169 98
174 167 93
175 167 91
176 169 95
178 170 98
175 168 92
178 170 97
175 168 92
174 167 88
175 169 95
175 167 90
175 167 88
178 170 95
174 167 85
178 170 95
175 169 94
179 170 95
175 167 90
174 166 89
168 162 84
171 164 84
171 164 88
176 168 95
170 164 86
175 168 94
174 167 90
171 164 90
165 158 82
171 164 87
168 161 84
172 165 88
167 160 84
165 158 80
172 164 89
170 162 91
170 163 83
173 165 87
162 156 86
162 156 76
194 208 226
193 207 223
193 208 223
194 208 223
195 209 226
194 208 225
193 207 221
193 207 221
194 208 225
193 207 221
194 208 220
194 208 224
193 207 221
193 207 221
193 207 220
193 208 225
194 208 223
194 208 225
193 207 223
194 209 226
195 209 227
193 207 223
195 209 226
194 208 225
195 209 228
194 208 224
194 208 226
193 208 223
194 208 224
195 209 228
193 208 224
194 208 226
194 208 225
195 209 228
195 209 227
195 209 228
194 208 226
194 208 226
194 209 228
194 208 225
194 208 225
195 209 228
194 209 228
195 209 227
194 208 227
193 208 225
195 209 228
194 208 226
195 209 228
194 208 225
195 209 228
195 209 227
195 209 227
194 208 227
194 209 228
194 209 228
194 208 228
194 209 228
194 209 228
195 209 228
195 209 228
194 209 228
194 208 228
194 209 227
194 208 227
194 209 228
194 209 227
194 209 228
194 209 228
194 209 228
194 209 228
195 209 228
195 209 228
194 209 228
194 208 228
194 209 228
194 208 228
194 209 228
194 208 228
194 208 228
194 208 228
194 208 228
194 208 228
194 208 228
194 209 228
194 208 228
194 209 228
195 209 228
194 209 228
194 209 228
193 208 228
194 209 228
193 208 228
193 208 228
195 209 228
194 208 228
194 209 228
194 208 228
193 208 228
194 208 228
194 208 228
193 208 228
194 208 228
194 209 228
194 208 228
194 208 228
194 208 228
193 208 228
192 206 224
190 203 221
185 197 211
177 190 205
169 182 195
166 180 195
156 171 194
147 162 182
132 149 176
121 138 165
98 118 153
85 108 145
61 88 128
52 83 127
51 81 118
52 83 132
52 82 131
51 81 123
50 80 121
49 78 124
49 77 114
48 76 117
48 77 125
48 77 117
47 75 118
43 69 106
45 72 103
44 70 109
43 69 116
43 69 111
40 66 102
38 63 103
35 58 99
32 54 95
34 56 100
32 54 99
31 52 96
27 44 84
91 104 135
154 167 184
146 161 180
51 81 127
54 85 130
53 85 120
57 91 141
56 89 134
55 88 132
57 90 125
57 90 134
59 93 145
57 91 123
58 93 143
57 92 134
60 95 141
59 94 139
58 91 134
58 92 135
60 95 141
60 94 135
59 94 138
60 94 145
59 93 138
59 93 132
59 92 130
59 93 136
60 95 139
59 94 138
59 93 139
60 95 145
59 93 129
60 95 139
60 94 135
60 94 141
59 94 136
60 94 138
61 97 151
60 94 135
60 95 140
60 95 141
60 95 144
60 95 148
58 92 129
60 95 134
60 95 140
61 96 142
60 94 144
59 94 134
60 95 142
59 94 136
60 94 135
60 94 132
60 95 138
60 94 133
60 95 140
59 93 136
61 96 142
61 96 141
60 94 139
60 95 136
60 94 137
60 94 141
61 96 143
60 95 131
61 96 143
60 94 130
60 94 134
59 93 133
59 94 131
60 94 140
60 94 134
60 94 140
60 95 136
59 93 137
59 93 133
58 91 124
61 96 144
60 94 132
59 93 132
59 93 136
59 93 143
59 93 134
59 92 135
60 94 134
58 91 132
59 93 140
58 91 123
60 94 141
59 92 140
59 93 137
58 91 132
60 93 143
59 91 134
55 87 118
58 89 126
58 90 135
57 88 118
57 89 123
56 86 118
56 86 123
54 82 112
51 79 108
53 82 104
50 76 101
82 86 71
76 76 46
63 65 42
50 53 39
50 52 33
37 41 31
54 61 46
44 53 43
60 66 48
52 59 44
62 70 53
51 61 47
51 61 46
58 67 48
66 73 51
77 84 60
86 91 67
74 81 59
91 96 69
87 93 65
97 101 70
102 105 70
97 102 66
104 107 71
105 107 65
127 126 79
112 114 72
121 121 71
133 132 79
128 128 80
132 131 80
121 122 70
136 134 81
140 136 75
139 137 80
139 138 82
139 137 79
141 138 80
143 140 85
145 142 83
160 155 91
160 154 85
152 148 85
155 151 87
165 159 93
157 153 90
155 150 84
154 151 82
164 158 88
165 160 87
169 163 91
164 159 93
165 159 86
172 165 91
164 158 86
163 158 90
164 158 88
166 160 86
173 165 88
172 165 90
172 165 89
170 162 88
176 168 96
174 167 91
175 168 95
171 165 89
174 166 92
174 167 88
176 168 97
176 168 94
177 169 95
171 165 88
173 166 88
173 166 88
176 169 95
177 169 94
172 166 87
169 162 84
174 167 92
172 165 90
174 168 89
174 166 90
176 169 93
177 169 97
176 168 93
174 166 93
175 167 93
178 170 97
173 166 89
172 164 81
175 168 93
175 168 94
176 168 93
177 169 94
174 167 90
178 170 95
172 166 88
172 165 86
173 166 86
172 165 87
175 168 94
176 168 93
178 170 97
176 168 93
177 169 93
172 166 86
175 168 93
176 168 91
176 168 91
175 168 90
174 167 92
175 168 91
177 169 93
174 166 88
173 166 85
176 168 93
173 167 88
175 168 90
177 169 92
174 167 84
173 166 87
176 169 93
176 168 90
171 165 83
177 169 93
175 167 91
175 168 87
170 164 88
172 165 87
173 166 87
170 163 87
173 166 90
170 164 84
172 165 89
171 164 89
169 163 84
174 166 92
173 166 88
165 159 82
171 163 87
168 160 85
166 160 85
164 158 87
172 164 90
169 162 88
167 160 86
167 160 82
167 161 87
162 156 79
192 207 218
191 205 212
192 206 217
193 207 218
191 206 214
192 207 217
191 206 216
191 206 214
193 208 221
193 207 221
191 206 216
190 204 208
192 206 216
191 206 214
191 206 219
192 207 219
192 207 220
191 205 213
193 207 219
193 207 220
190 205 211
192 207 218
193 207 220
192 206 217
193 207 221
193 208 223
192 206 217
193 207 220
192 206 218
190 205 214
191 205 213
192 206 218
192 207 220
193 207 220
193 207 221
192 207 219
193 207 219
193 207 221
192 207 219
194 208 225
193 208 223
192 207 219
191 206 218
193 207 220
193 207 221
192 206 217
193 207 220
192 207 220
192 207 219
195 209 225
192 206 219
195 209 226
194 208 224
194 208 225
192 207 220
193 208 223
193 207 220
192 207 219
193 207 219
191 206 217
192 207 221
194 208 224
194 208 226
191 206 219
196 209 228
193 207 221
193 207 224
193 208 223
194 208 225
193 208 224
194 208 224
193 207 221
194 209 226
192 207 219
193 208 224
193 208 223
194 208 226
194 208 225
192 207 223
194 208 224
194 209 227
194 208 226
193 207 224
194 208 225
193 208 225
195 209 227
194 208 226
193 207 220
193 208 225
193 207 224
195 209 227
193 207 223
194 208 226
194 208 224
192 207 221
194 208 224
193 208 224
193 208 225
192 207 221
194 208 226
195 209 228
194 208 225
194 209 228
194 209 227
194 208 225
193 208 224
194 208 225
193 207 224
192 207 225
187 201 215
182 195 206
180 193 205
167 180 190
155 169 185
148 162 182
138 152 169
132 148 167
114 130 157
111 128 154
92 112 142
63 90 123
52 83 127
51 82 116
51 81 123
52 82 131
49 78 117
49 79 126
50 80 121
48 77 118
46 74 113
49 78 115
47 75 116
49 77 123
45 73 115
45 72 118
43 69 111
42 67 111
44 71 113
41 66 108
39 64 110
37 60 96
34 55 94
32 53 87
27 46 84
27 45 86
26 44 81
75 88 118
147 161 169
121 136 159
55 87 131
53 84 128
55 87 125
54 86 122
56 89 137
57 90 135
58 91 137
58 92 134
57 90 134
58 92 143
57 91 132
57 90 123
58 93 138
59 94 136
59 93 137
59 93 135
58 92 125
59 93 145
60 94 143
61 96 149
61 96 149
58 92 134
58 92 134
59 93 132
59 94 135
57 90 118
60 94 136
60 95 137
60 95 134
61 95 145
61 96 145
59 94 141
60 95 136
60 95 143
59 94 129
61 96 145
60 95 143
61 96 147
61 95 137
60 95 140
59 94 135
61 96 135
62 97 146
59 94 132
60 95 136
58 92 129
60 94 133
59 93 136
58 92 132
60 95 140
61 96 142
60 95 137
60 96 147
60 95 138
60 95 141
60 94 137
60 95 141
61 96 148
60 95 134
61 95 139
60 95 140
59 94 129
59 94 132
60 94 138
60 95 142
59 94 136
60 95 134
60 95 141
60 94 138
58 93 130
59 93 128
59 92 131
60 95 138
61 95 140
60 93 128
60 94 139
60 94 138
60 95 144
58 91 128
58 91 129
60 94 140
59 93 139
60 94 141
57 89 126
58 91 133
60 93 141
58 91 123
57 89 126
60 94 138
58 91 124
59 92 131
58 90 124
59 91 135
56 87 121
55 86 112
58 88 120
56 86 122
55 86 122
56 87 124
57 87 129
54 83 114
49 75 99
77 80 60
81 79 48
75 75 49
51 52 33
47 52 39
46 51 37
41 47 31
52 59 41
52 59 43
46 55 40
47 54 40
50 59 41
45 56 42
65 73 55
64 73 54
56 67 49
63 72 53
79 86 63
78 85 58
81 87 59
89 95 64
113 113 70
105 108 71
107 109 69
120 121 77
110 112 67
117 118 71
114 117 71
116 117 73
135 133 72
131 129 78
144 141 83
141 139 86
133 131 78
144 140 83
143 140 76
141 138 79
150 147 82
141 138 80
147 144 85
151 147 85
149 146 83
154 149 82
155 150 84
161 156 87
160 156 86
156 152 82
160 155 87
162 157 85
156 151 81
166 160 94
165 159 88
168 163 89
164 158 84
172 165 96
170 164 87
171 164 90
171 164 90
173 166 95
164 159 80
176 168 94
170 163 88
170 164 87
170 163 83
172 166 91
172 166 89
172 165 87
172 164 91
172 165 85
176 168 92
180 171 100
173 166 90
177 169 95
172 166 89
174 168 93
176 169 93
175 168 97
176 169 94
172 165 80
172 166 84
170 163 84
174 167 90
176 168 89
176 168 93
175 168 89
175 167 90
177 169 94
176 168 90
173 166 86
176 168 90
175 168 93
172 163 86
179 170 93
174 166 90
175 167 93
174 168 93
173 166 88
172 165 85
172 165 86
173 167 87
175 167 87
174 166 86
175 168 90
175 167 90
178 169 92
175 167 90
177 169 92
173 166 84
174 167 87
174 167 90
176 168 93
177 169 92
172 166 90
172 164 87
173 166 91
177 168 94
172 165 83
176 168 90
175 168 92
178 170 95
174 167 89
172 165 84
176 168 90
175 167 87
173 165 86
176 169 93
174 167 87
172 166 88
174 167 90
172 165 90
175 166 93
169 162 90
168 162 84
170 163 87
166 159 83
169 162 89
173 165 89
162 156 83
168 161 84
172 164 94
175 167 91
161 155 77
163 157 84
171 163 85
165 159 83
165 158 83
163 157 81
170 163 92
172 165 87
190 204 208
189 204 206
191 205 213
190 205 211
192 206 214
189 204 206
192 206 216
193 207 219
191 206 216
191 206 214
192 206 216
188 203 204
192 206 217
190 205 211
191 206 213
194 208 221
191 205 211
192 206 217
192 206 216
190 204 207
191 205 212
191 206 213
190 205 211
191 205 211
192 206 216
192 206 216
191 206 214
191 206 213
191 205 213
190 205 212
192 206 216
190 205 211
191 206 214
189 204 206
191 206 214
190 204 209
193 207 217
190 205 212
191 206 216
191 206 214
190 205 211
191 206 214
192 206 216
192 206 218
193 207 220
190 205 212
191 205 212
191 205 213
192 206 217
191 206 214
191 205 213
191 206 214
191 205 212
189 204 206
192 206 217
191 206 214
190 205 212
191 206 214
190 205 212
190 205 211
192 206 217
190 205 211
192 207 219
187 203 204
190 205 211
191 206 217
190 205 211
190 205 212
191 205 213
192 206 217
192 206 214
193 207 220
191 206 214
192 207 219
193 207 220
190 205 213
192 206 216
192 206 216
188 203 207
190 205 212
193 207 221
192 206 219
191 205 214
192 206 218
192 206 216
194 208 223
190 205 214
190 205 213
192 206 216
191 206 216
191 206 216
192 206 218
193 207 221
189 204 209
191 206 216
191 205 214
194 208 223
190 205 213
193 207 221
192 206 218
192 207 220
190 205 214
193 207 220
192 207 219
192 206 217
191 206 216
189 204 211
192 206 216
187 201 210
187 200 206
179 191 194
171 184 189
165 178 190
158 171 178
151 166 181
137 152 169
122 136 155
117 133 153
94 113 138
72 96 123
60 87 121
52 82 124
51 80 118
51 81 123
51 81 118
51 81 120
50 78 116
49 79 119
48 77 114
46 74 104
50 79 114
42 68 96
46 73 115
45 71 111
47 76 117
43 69 106
41 67 100
41 66 107
41 67 105
38 62 101
38 62 104
33 54 93
33 55 91
32 53 90
29 48 90
25 42 73
73 87 113
141 153 168
132 148 160
51 82 124
53 84 126
55 86 122
56 89 133
56 89 127
56 89 129
56 89 130
56 88 127
58 92 138
59 94 147
56 89 121
59 93 131
60 94 143
60 94 139
58 93 119
58 91 134
59 94 146
59 93 135
59 92 139
60 95 145
59 93 132
60 95 138
59 93 131
60 94 133
58 92 128
60 94 138
59 93 132
60 95 140
60 95 137
60 94 133
59 93 132
61 96 143
59 94 132
60 95 143
60 94 142
58 93 134
58 93 139
60 94 135
61 96 139
59 92 126
61 96 141
60 94 135
60 94 129
60 95 139
61 95 136
61 96 141
61 96 141
60 95 140
59 94 137
61 96 139
60 95 139
60 95 140
59 93 131
59 93 126
60 95 137
60 95 134
59 94 136
59 93 134
59 93 130
61 96 142
60 95 139
59 93 130
60 95 139
59 92 126
58 92 133
59 94 145
60 95 143
59 93 129
59 92 132
60 95 133
60 94 135
59 93 130
61 95 141
60 94 140
59 92 130
60 94 139
59 93 134
61 95 139
58 92 123
61 95 143
60 94 143
60 94 142
59 93 135
59 92 130
60 93 139
59 92 127
58 91 137
57 88 121
58 91 129
57 89 126
58 91 135
57 89 135
58 90 130
57 89 121
57 88 130
55 84 111
56 86 126
56 85 116
54 84 114
52 80 107
54 83 117
49 75 103
72 81 80
83 81 46
61 62 36
52 56 37
58 60 37
34 39 26
38 44 33
50 56 40
39 48 34
44 53 37
49 57 41
37 49 40
45 56 42
48 59 46
57 66 49
57 68 53
61 70 54
88 92 61
80 86 60
84 90 61
87 91 59
103 106 72
98 102 66
105 106 67
120 120 75
109 112 68
122 122 74
128 126 77
121 121 71
116 118 67
132 130 77
131 130 73
124 125 74
140 138 73
147 144 81
142 139 81
146 142 80
142 140 76
141 138 80
144 140 78
148 145 84
151 147 82
148 144 78
155 151 87
146 143 80
161 156 86
160 155 82
163 158 92
162 156 88
165 160 85
165 159 85
163 157 86
157 152 81
168 162 83
166 160 85
168 161 89
166 161 84
164 159 81
166 161 85
170 163 86
173 166 94
168 162 85
172 166 88
172 166 91
172 165 90
174 167 93
171 164 87
172 165 84
170 164 87
169 163 85
173 166 90
169 163 84
173 166 87
172 166 87
173 166 89
175 167 89
169 162 87
177 169 91
171 165 88
178 170 99
175 168 91
172 165 87
173 166 87
174 166 89
172 166 85
174 167 86
173 166 87
174 166 88
174 166 86
172 165 85
176 168 95
175 167 90
173 166 89
173 166 85
173 165 87
175 167 89
174 166 87
171 164 84
176 169 97
176 168 91
173 166 85
173 167 87
174 166 90
174 166 87
175 168 90
175 168 88
172 165 88
173 166 87
175 167 89
174 167 87
176 169 92
170 164 86
175 167 89
173 166 85
172 165 84
175 167 88
174 168 91
175 168 89
173 167 89
174 167 87
173 167 91
172 166 84
172 165 82
175 168 91
172 165 87
176 168 90
175 167 92
174 167 87
170 163 82
175 167 88
174 167 88
177 169 93
170 163 87
169 163 84
170 163 90
169 162 84
168 161 85
170 163 84
170 163 87
170 163 88
173 166 93
168 161 86
168 162 86
166 160 81
169 162 83
163 156 85
160 153 76
161 155 80
171 164 87
187 202 198
189 204 206
189 204 204
189 204 207
190 204 208
189 204 204
190 205 211
189 204 206
191 206 213
189 203 202
188 203 204
190 204 211
191 205 212
191 206 213
192 206 216
190 204 208
190 205 209
190 204 206
191 205 211
190 205 209
187 202 199
189 204 206
189 204 206
189 204 206
190 205 211
189 204 206
191 205 212
190 205 211
190 205 211
189 204 207
190 205 208
190 205 211
189 204 207
191 205 211
190 204 209
191 206 213
189 204 209
190 205 207
190 205 211
188 203 206
190 204 208
188 203 204
191 205 211
190 205 209
188 203 202
188 203 204
190 204 206
189 204 206
188 203 203
190 205 208
192 206 214
190 205 211
187 203 200
189 204 204
187 202 199
191 205 211
187 202 198
190 205 207
189 203 208
187 202 198
190 205 209
189 204 207
190 204 208
192 206 218
190 204 208
189 203 204
190 205 211
191 205 213
190 205 208
188 203 203
190 205 211
190 205 212
190 205 209
187 202 200
191 205 213
188 203 203
191 205 213
190 204 208
192 206 216
190 204 208
188 203 204
190 205 211
190 204 209
190 205 211
191 205 211
189 204 209
190 204 209
189 204 208
190 204 208
188 203 206
189 204 206
186 201 196
191 205 212
187 202 199
191 206 214
190 205 209
187 203 203
187 202 200
189 204 207
187 202 196
189 204 207
189 204 206
190 205 209
191 205 212
189 204 206
188 203 203
188 203 202
187 201 201
184 198 196
183 196 194
178 193 182
170 182 174
164 176 172
149 162 161
151 164 177
132 146 156
125 141 155
106 123 144
111 127 148
68 89 122
58 87 124
53 83 120
53 83 129
49 78 106
50 80 114
49 78 112
50 79 113
49 78 120
46 74 116
47 75 113
46 74 107
44 72 108
47 76 110
45 72 109
46 73 119
43 69 104
42 67 104
39 64 98
43 68 108
40 65 106
34 56 85
35 56 88
36 59 92
32 52 88
28 46 78
23 40 74
59 71 95
129 143 151
112 130 142
53 84 128
52 83 121
53 85 127
55 88 125
54 87 129
56 88 120
55 88 126
57 90 133
56 89 130
55 88 117
60 94 147
59 93 134
58 92 137
57 91 126
58 92 132
58 92 131
59 93 133
58 92 135
60 94 135
60 95 135
59 94 135
59 94 137
59 94 140
59 93 133
60 95 137
60 94 138
60 94 139
60 95 143
59 93 134
60 95 144
60 94 131
60 94 139
59 94 142
59 93 127
59 94 135
59 93 133
60 95 139
59 94 129
59 94 135
59 94 127
59 93 131
60 95 134
60 95 134
59 92 133
59 94 132
60 95 143
59 93 137
59 93 126
61 96 144
60 95 141
61 96 144
60 94 143
59 93 134
60 94 135
60 94 135
59 94 131
59 92 128
60 95 135
58 92 133
60 95 136
60 94 130
60 95 134
61 96 139
60 95 139
62 96 145
59 93 132
59 93 135
60 94 133
59 93 130
60 94 134
59 93 129
60 94 135
59 94 132
60 95 142
57 91 128
59 93 137
59 92 130
58 91 130
60 94 136
58 92 138
59 93 133
59 92 134
60 93 134
59 92 130
58 91 124
58 90 126
59 92 135
57 88 125
59 91 126
56 88 122
57 90 130
58 90 135
58 91 134
59 90 132
56 87 122
56 87 118
56 87 123
56 87 126
53 82 115
55 84 121
54 82 116
46 70 89
66 78 76
68 67 37
61 62 36
46 48 29
39 43 29
46 50 34
33 40 29
28 36 23
44 53 39
43 50 34
47 55 42
43 52 35
42 53 39
43 55 41
42 55 44
50 61 42
65 74 54
77 83 61
81 87 58
85 91 57
78 82 48
88 92 55
88 93 58
98 101 66
103 105 63
108 109 61
119 119 69
115 116 69
133 131 76
133 131 78
133 130 68
138 136 78
136 134 76
139 135 72
131 129 70
136 135 74
147 143 80
142 139 80
138 136 79
153 149 81
150 146 78
156 151 86
152 148 84
162 156 83
160 154 89
156 151 83
158 154 81
158 153 80
158 153 77
157 152 82
162 157 87
156 152 79
159 154 88
165 158 88
161 156 79
169 162 89
171 163 92
165 158 82
165 160 86
163 158 85
165 159 81
168 161 81
175 168 95
174 167 93
172 165 85
170 164 83
177 169 93
170 163 84
175 167 93
175 168 94
172 166 88
171 164 83
171 164 87
172 166 87
169 162 86
172 165 87
174 167 92
172 165 87
176 169 93
173 166 87
172 165 87
171 164 84
173 166 87
171 164 84
173 166 84
178 170 96
177 168 93
173 166 88
169 162 80
170 164 79
173 166 87
177 169 95
176 168 90
172 165 85
175 167 87
172 165 81
174 167 87
174 167 88
173 166 86
170 164 82
173 166 88
175 167 89
176 168 90
173 166 86
173 166 84
175 167 89
169 163 76
176 169 93
172 165 80
172 166 85
174 166 89
173 166 84
172 166 81
175 166 84
171 165 85
172 165 85
172 165 84
177 169 95
174 166 88
172 164 84
175 167 91
173 167 87
174 167 88
175 167 87
177 169 90
172 165 86
176 168 93
175 168 93
175 167 89
173 165 88
175 167 90
168 161 83
170 163 83
175 167 91
172 164 87
173 166 90
169 162 84
168 162 83
170 162 83
164 157 80
171 164 88
168 161 84
170 163 84
170 163 81
167 160 84
165 158 80
162 156 85
167 160 83
173 164 85
189 203 202
186 201 195
189 203 202
189 204 207
187 202 200
191 205 212
186 201 194
185 200 191
190 205 209
189 204 204
188 203 200
191 206 212
188 203 203
188 203 202
189 203 206
187 202 200
186 201 192
187 202 198
189 204 204
187 202 199
190 204 208
187 202 198
189 204 204
186 201 194
188 202 199
188 203 200
187 203 202
187 202 198
186 201 194
187 202 195
189 204 204
189 203 203
188 203 199
187 202 198
185 201 192
187 202 195
187 203 202
187 202 199
186 201 194
186 201 194
190 204 208
186 201 195
187 202 198
185 201 192
185 200 190
188 203 203
188 203 202
187 202 195
188 203 200
188 203 202
188 203 200
186 202 195
187 202 200
185 200 194
189 204 204
185 200 188
189 203 203
188 202 198
191 205 211
188 202 195
189 204 206
188 203 203
185 200 188
188 203 202
187 202 199
189 203 203
189 203 204
187 203 200
186 201 195
186 201 195
183 198 181
186 201 194
189 204 208
189 203 202
186 201 195
188 202 199
185 200 194
188 203 203
190 204 208
187 202 202
188 203 199
187 202 199
187 202 198
186 201 190
187 202 199
186 202 196
186 201 195
187 202 198
187 202 196
186 201 195
189 204 204
188 203 202
185 200 191
184 199 187
187 202 199
187 202 198
187 202 200
185 201 194
186 201 195
186 201 192
189 204 203
188 203 202
188 203 206
186 202 198
185 201 195
186 201 194
187 202 198
185 200 198
185 199 199
174 187 178
174 189 178
169 183 171
165 177 166
151 165 151
150 164 158
135 151 158
121 136 148
104 121 141
87 106 118
82 103 129
52 81 118
50 80 114
52 82 122
50 80 116
51 80 122
49 78 120
49 77 117
47 75 111
47 75 106
48 76 112
47 75 107
45 73 109
45 72 108
46 73 106
44 71 102
42 68 100
40 64 92
39 63 98
39 63 102
36 58 93
34 55 85
32 52 80
33 53 84
28 46 77
25 42 74
24 40 72
49 60 76
127 139 144
106 125 142
51 81 127
54 85 131
53 85 123
55 87 128
55 88 119
56 89 128
58 92 144
57 91 126
57 90 122
58 92 133
57 91 131
59 94 139
57 90 131
58 92 133
59 94 134
59 94 134
59 93 131
59 93 137
57 90 127
60 94 135
59 94 142
59 94 137
59 94 129
59 93 127
60 94 139
59 94 128
58 92 129
59 94 135
60 95 142
60 95 134
61 96 144
60 95 139
61 95 143
60 95 139
59 94 127
60 95 139
60 94 134
60 95 137
60 95 141
59 94 137
60 94 130
59 94 134
61 95 142
61 96 142
61 95 143
59 93 135
60 95 128
60 96 140
60 95 134
58 92 132
60 95 140
60 95 134
59 93 131
62 97 152
61 96 143
60 94 138
58 92 122
59 92 128
59 92 129
59 94 133
61 96 145
59 92 132
61 96 142
59 93 141
60 95 130
59 94 134
59 93 135
59 93 137
60 94 138
59 93 134
59 93 128
60 94 130
59 93 135
60 94 135
60 93 136
59 92 128
60 93 145
60 94 134
57 89 124
58 91 129
59 93 143
58 90 120
58 92 125
58 90 129
60 94 141
58 91 125
59 91 133
59 91 128
58 91 135
59 92 133
57 89 128
58 90 129
56 87 121
57 88 124
56 86 125
55 86 119
57 88 121
56 86 123
52 79 104
55 83 114
51 78 100
50 77 104
69 77 65
82 80 47
62 62 32
39 41 23
39 44 24
46 50 36
49 55 39
34 42 30
34 44 29
37 46 32
33 43 30
43 53 34
46 58 43
39 51 39
37 50 37
50 62 44
61 70 49
67 76 52
80 85 54
78 84 52
93 97 60
90 93 59
98 100 62
109 110 65
105 106 63
116 116 69
118 118 67
109 110 62
118 119 70
115 116 70
127 127 74
132 130 78
136 134 74
128 127 72
131 130 75
137 134 77
143 140 81
144 141 75
141 138 76
146 142 81
154 150 80
139 136 76
144 141 76
148 145 77
149 146 78
155 151 82
157 152 83
154 149 76
160 154 84
162 156 83
161 155 89
162 156 87
164 157 84
162 156 81
163 157 79
164 158 86
165 159 85
169 162 90
168 161 88
172 165 91
170 163 89
169 162 83
169 162 85
172 165 91
167 161 76
170 164 85
171 164 85
171 164 84
174 167 91
175 168 90
176 168 93
175 168 89
172 164 86
169 163 86
175 168 89
169 163 85
166 160 73
172 166 85
173 166 89
171 164 86
170 163 84
173 166 87
173 166 84
173 166 85
175 167 87
174 167 88
177 169 95
171 165 85
173 166 87
170 164 85
174 166 86
169 163 81
172 165 84
174 167 88
174 167 87
172 165 85
174 167 86
172 165 84
172 165 82
174 166 83
174 167 87
172 165 80
172 165 84
176 169 90
173 165 86
174 167 90
173 165 87
173 166 84
177 169 90
172 165 85
174 167 84
172 166 88
172 166 85
173 166 85
176 168 91
175 167 88
173 166 84
178 170 93
171 164 80
175 167 84
176 168 89
177 168 88
177 168 90
175 167 88
172 165 83
172 165 84
171 163 84
173 166 87
174 166 90
170 163 86
169 163 84
174 167 90
169 163 84
171 164 89
168 161 84
170 163 84
168 162 74
170 162 83
171 164 85
174 166 91
171 164 90
170 163 82
164 157 82
167 160 84
167 160 81
165 158 84
170 162 87
166 160 80
167 159 86
186 201 190
187 202 195
184 200 187
184 199 187
189 204 204
187 202 198
189 204 204
186 201 194
186 201 194
184 199 184
184 199 187
182 198 183
186 201 194
184 199 184
183 199 183
188 203 200
187 202 195
188 203 199
186 201 190
189 204 204
184 199 187
187 202 199
186 201 194
186 201 192
188 203 200
185 200 190
186 201 195
186 201 195
184 200 186
184 200 187
182 198 180
186 201 191
186 201 192
186 201 194
185 200 190
186 201 194
187 202 196
184 199 187
184 199 186
187 202 195
185 200 188
184 200 190
186 201 192
184 199 186
186 201 192
186 201 191
185 200 190
188 203 202
184 199 186
187 202 198
185 201 191
186 200 192
183 199 183
187 202 194
187 202 198
188 203 202
184 200 188
184 199 186
183 199 181
187 201 196
182 198 181
188 202 196
188 203 199
188 202 198
187 202 195
187 202 199
182 198 181
184 199 186
184 199 184
186 201 192
186 201 192
185 200 190
184 199 186
185 200 194
184 200 188
187 202 195
184 199 186
181 197 180
188 203 199
185 200 190
186 201 194
183 199 184
182 198 181
185 200 191
186 201 192
183 199 181
187 202 198
180 196 177
189 203 199
182 197 178
187 202 195
182 198 184
187 202 196
185 200 190
186 201 192
181 197 175
186 201 191
184 199 184
185 200 190
182 198 177
182 198 184
182 198 180
183 199 183
183 199 186
183 198 183
182 197 184
184 199 184
179 193 174
177 192 171
178 192 180
174 186 164
170 182 161
154 168 142
145 159 156
139 153 144
143 158 147
125 140 143
106 124 132
88 107 122
78 98 114
55 84 119
50 79 107
51 80 108
51 81 118
49 78 110
51 80 122
50 79 111
50 79 120
47 76 112
47 75 112
48 77 111
46 73 99
43 69 103
45 72 108
41 67 96
42 68 99
39 64 96
39 63 92
40 64 102
38 61 98
37 61 93
36 59 93
32 52 82
29 48 73
27 45 73
23 38 62
62 72 85
125 138 137
109 126 149
53 84 124
52 83 123
55 87 126
55 88 126
54 85 124
55 87 126
56 89 124
57 91 129
59 93 133
57 90 127
59 93 138
57 91 137
57 90 126
57 90 123
58 91 125
58 93 128
59 93 132
58 92 139
59 93 134
58 91 126
60 94 133
59 94 130
59 94 140
60 94 127
59 93 133
58 92 125
60 94 133
59 93 123
59 94 132
58 92 132
58 92 129
60 94 131
58 91 126
59 94 127
61 96 143
59 93 132
59 93 131
59 93 130
59 93 126
60 94 136
60 94 140
58 92 128
59 94 134
57 91 127
61 95 138
58 92 131
58 91 127
59 94 140
60 94 136
60 95 137
61 96 139
58 92 126
62 97 151
59 93 125
59 93 131
59 92 128
60 95 137
59 93 134
59 94 133
59 93 130
60 94 137
61 96 143
60 94 132
60 95 141
60 94 138
60 95 136
60 94 139
60 94 130
61 96 145
61 95 145
59 93 136
59 92 130
60 94 138
58 91 122
58 91 127
58 92 124
58 91 127
59 93 127
60 94 138
59 94 140
58 91 120
56 88 115
59 93 134
59 92 139
57 90 120
59 93 137
59 93 136
58 90 126
58 89 120
59 92 129
59 91 125
56 88 117
58 90 129
56 86 118
58 91 126
57 89 132
56 87 122
54 85 126
55 85 118
53 81 102
51 78 109
51 77 94
61 69 65
81 80 48
56 56 28
53 55 28
47 49 28
41 46 29
32 39 26
35 45 33
40 50 35
41 48 30
39 50 37
39 50 38
44 55 35
40 53 40
43 55 37
48 60 45
58 67 41
72 79 53
71 77 50
79 83 48
86 91 58
89 94 61
105 106 65
95 99 56
102 103 60
115 116 70
123 122 67
119 119 68
120 120 66
126 126 65
119 119 69
127 125 69
132 131 67
133 131 76
131 129 72
137 136 73
132 131 79
138 135 75
144 141 80
146 143 76
137 134 78
154 150 82
156 151 80
141 138 68
153 148 80
154 149 75
156 152 72
153 149 74
164 158 83
157 152 82
165 158 85
159 154 78
163 157 81
159 154 70
165 159 84
163 157 84
165 160 89
165 159 85
169 163 84
169 162 85
168 162 83
173 166 88
165 159 80
168 162 80
172 165 85
166 159 79
171 163 86
170 163 84
169 162 85
174 166 85
175 167 89
170 163 80
170 164 85
171 164 84
173 166 83
171 164 80
170 164 81
169 163 84
174 167 84
174 166 87
172 165 87
175 167 87
171 164 85
170 163 77
171 164 80
174 166 87
170 163 82
177 169 91
170 163 81
174 166 90
168 162 73
170 164 84
176 169 93
171 164 82
170 164 83
172 166 86
173 166 82
173 165 90
173 166 80
171 164 84
175 167 90
174 167 85
177 169 90
173 166 87
173 165 82
171 164 84
173 166 86
173 166 83
171 164 84
175 167 91
175 167 90
171 163 82
176 167 88
173 166 84
170 164 78
171 164 81
174 166 84
173 165 83
174 166 90
174 166 85
174 166 87
172 165 84
174 166 83
174 166 87
172 165 84
173 166 86
173 166 85
173 165 84
170 163 87
171 164 81
168 161 83
171 164 81
175 167 87
174 167 84
170 163 80
171 163 84
166 160 80
171 164 85
167 160 79
167 161 82
173 166 89
166 160 86
162 156 75
167 160 83
170 163 87
168 161 85
165 158 80
164 157 84
169 162 87
189 204 206
187 202 195
186 201 192
185 200 188
187 202 199
187 201 195
184 199 187
184 199 184
183 199 183
187 202 194
183 199 184
183 199 183
186 201 194
184 200 187
185 200 188
183 199 181
184 199 186
183 199 183
184 199 186
187 202 196
183 198 180
186 201 191
184 199 184
182 198 181
187 202 196
187 202 198
184 199 186
184 199 187
181 197 175
186 201 194
181 197 177
187 201 196
184 200 187
185 200 188
186 201 194
187 202 196
185 200 188
187 202 196
182 197 177
183 198 180
183 199 183
184 199 184
185 200 188
184 199 187
186 201 192
182 197 177
184 199 183
179 196 169
183 199 184
183 198 178
182 197 175
183 199 183
184 199 184
185 200 188
184 199 188
184 199 186
184 199 186
181 197 178
184 199 186
184 200 187
181 197 178
181 197 177
185 200 186
183 198 181
181 197 174
184 199 187
183 198 180
185 200 186
184 199 183
184 199 184
183 199 186
181 197 177
182 198 178
184 199 186
184 199 181
185 200 190
183 199 181
183 198 181
183 198 178
178 194 165
181 196 174
185 200 187
180 196 175
182 198 178
181 197 175
180 196 171
183 199 183
186 201 192
182 198 180
185 200 188
181 197 175
182 198 178
183 198 183
181 197 177
180 196 169
181 197 175
181 197 175
178 194 168
178 194 163
181 197 177
180 196 172
180 196 174
179 195 168
183 198 184
183 199 181
179 195 171
176 192 156
179 194 168
175 190 159
170 185 146
178 190 167
166 179 149
151 163 144
148 162 141
147 159 148
132 146 139
126 141 130
105 122 123
102 119 117
72 94 107
53 82 117
49 78 105
52 82 120
49 77 99
49 77 105
49 78 105
47 75 105
50 79 113
47 75 97
47 74 107
46 74 111
47 74 109
47 74 104
46 73 106
44 70 99
44 69 105
41 65 102
39 63 91
36 59 93
34 56 73
35 57 81
33 53 86
33 53 74
26 43 70
27 44 66
22 38 61
56 67 80
127 141 127
128 145 144
51 81 116
54 86 133
52 83 121
55 88 127
55 87 127
54 86 120
56 89 131
57 91 134
58 92 141
58 92 129
57 90 130
59 94 137
57 91 121
58 91 133
60 95 145
59 94 134
59 93 136
59 93 133
58 92 124
57 91 120
57 91 124
59 93 129
58 92 133
59 93 136
61 96 143
59 93 130
59 93 129
58 93 126
59 94 129
59 93 127
59 93 129
58 92 122
59 93 130
59 94 133
60 94 133
58 93 134
60 95 142
60 95 134
60 95 141
60 94 130
61 96 137
59 93 131
59 94 130
59 93 135
60 94 136
59 94 128
58 92 115
60 95 140
61 96 144
60 94 137
59 93 122
59 92 120
60 94 139
60 95 135
59 94 136
60 95 135
59 94 138
59 93 130
59 93 137
61 95 140
61 95 144
59 93 126
59 94 135
60 94 131
59 93 134
61 96 142
61 95 139
58 93 130
58 91 119
58 92 128
59 93 129
59 93 132
60 94 144
60 94 133
60 94 139
58 93 120
58 92 135
58 91 134
59 93 135
58 92 127
57 90 116
58 91 129
58 91 131
58 91 125
58 91 127
59 92 127
58 91 128
58 90 130
59 91 128
57 89 120
57 89 128
58 89 126
57 89 123
55 85 118
56 89 123
55 85 120
55 85 119
56 85 120
54 83 109
53 82 103
51 77 95
47 71 88
63 72 69
79 77 42
58 59 32
36 38 18
37 42 23
35 40 20
39 44 20
36 43 24
40 48 30
37 45 23
41 49 32
36 48 31
46 56 37
39 51 38
40 52 35
50 61 43
61 68 33
57 67 42
79 83 53
90 93 53
92 95 57
104 105 64
89 93 55
85 89 55
111 113 63
116 115 67
119 119 66
115 115 57
126 124 67
123 123 66
132 130 73
120 120 63
126 124 66
132 130 71
136 133 69
138 135 72
133 132 70
139 137 78
140 137 76
137 134 69
137 135 73
144 141 71
148 144 76
155 149 77
147 143 75
158 153 81
155 150 78
151 147 78
157 151 79
159 153 81
161 155 78
161 156 81
162 157 80
160 155 79
161 155 78
169 162 84
164 157 82
162 157 77
167 161 83
168 161 82
168 161 81
166 160 79
171 164 83
167 160 78
173 165 87
167 161 76
166 160 76
171 164 82
171 163 84
169 162 81
169 163 75
170 163 81
169 162 77
172 165 84
171 164 83
169 162 82
170 164 80
172 165 85
170 164 78
172 164 81
171 165 84
174 167 84
170 163 83
168 161 77
171 164 83
171 164 83
173 165 83
175 167 87
169 163 83
176 168 87
170 163 79
174 166 84
174 167 86
174 166 83
170 163 78
176 168 87
171 164 82
171 164 82
172 165 84
170 164 84
176 168 90
172 164 84
172 165 83
174 167 88
171 165 80
170 163 77
177 169 87
169 162 80
169 163 80
171 164 80
170 163 84
176 168 87
173 166 83
171 164 80
173 166 84
173 166 82
177 169 93
177 168 91
174 166 87
176 168 90
173 165 83
171 164 83
172 164 84
175 167 84
172 165 87
173 165 85
170 163 77
172 165 85
173 166 85
169 163 80
172 165 86
169 162 81
168 162 78
172 165 83
166 160 75
171 164 83
170 162 88
166 159 79
167 159 83
170 162 79
167 160 84
162 156 75
171 163 85
162 155 80
165 159 75
175 166 91
168 161 84
169 160 87
164 156 78
181 197 177
180 196 171
184 199 184
183 198 180
185 200 187
186 201 191
185 200 188
182 198 175
183 198 180
184 199 181
184 200 187
186 201 191
182 198 178
181 197 177
182 198 175
185 200 190
176 193 160
181 197 171
182 198 183
185 200 190
186 200 191
184 199 184
181 197 177
184 199 183
182 198 177
182 198 180
183 199 183
181 197 174
182 198 177
182 198 177
186 201 191
179 195 165
185 200 188
182 198 180
183 198 180
182 197 181
181 197 175
181 197 175
182 198 177
179 195 169
180 196 169
183 198 181
181 196 174
182 198 180
184 199 181
182 198 180
178 194 166
179 195 163
180 196 169
182 198 178
182 197 177
181 197 172
179 196 168
178 195 165
181 197 172
181 196 171
182 197 177
179 195 165
179 195 163
183 198 177
179 195 161
181 197 177
181 197 175
179 195 166
178 194 163
182 198 177
177 193 160
181 197 175
179 195 165
180 196 169
181 197 180
173 191 144
181 197 177
180 196 169
177 194 161
176 193 153
178 194 163
180 196 174
177 193 158
179 195 168
179 195 166
179 195 168
176 193 153
179 195 172
178 194 163
179 195 163
179 194 169
179 195 165
178 194 166
181 196 175
175 192 158
178 194 163
180 196 172
178 194 160
174 191 148
178 194 158
178 194 158
178 194 165
178 194 161
179 195 169
182 197 180
173 189 146
175 191 158
175 192 151
174 191 151
179 195 168
177 193 161
179 195 172
171 188 139
169 182 150
168 183 143
159 172 131
155 170 131
142 156 131
146 161 137
127 142 118
116 132 124
111 129 127
99 115 108
76 98 107
59 86 122
51 81 113
51 80 113
48 76 104
49 78 107
50 78 111
49 78 110
48 77 108
47 75 99
45 73 89
47 75 108
45 72 104
44 70 101
43 69 94
43 68 100
44 70 99
37 59 82
37 60 82
36 59 78
39 63 92
39 62 86
31 50 71
30 50 71
31 51 75
25 42 65
25 41 60
75 87 94
132 146 133
127 144 131
47 76 110
53 85 118
55 87 120
55 87 123
55 88 122
55 87 113
56 89 129
56 88 130
58 92 133
58 92 134
58 92 128
56 89 118
57 90 125
59 92 123
58 92 130
59 93 135
57 91 130
59 93 128
57 91 125
59 92 128
59 93 137
59 93 134
58 92 129
59 93 131
59 93 135
59 93 131
61 95 139
60 94 136
60 94 131
60 95 145
58 92 136
60 94 133
59 94 130
60 95 141
59 93 133
60 95 136
60 94 142
60 95 133
60 94 135
58 92 125
58 92 131
61 96 144
59 93 135
59 94 127
59 93 122
60 94 130
60 94 136
60 95 143
59 93 136
59 94 133
59 93 134
60 94 136
59 93 136
60 94 134
61 95 136
58 92 118
59 93 130
61 96 137
59 93 128
60 95 135
59 93 135
58 92 124
60 94 142
60 94 131
60 94 136
58 92 132
58 91 124
60 94 140
60 94 128
61 95 144
60 94 134
59 93 134
59 93 130
59 92 131
58 90 131
59 93 131
57 90 117
58 91 124
59 92 133
58 92 123
60 93 133
58 91 124
59 92 128
58 91 127
59 93 124
59 91 128
59 91 128
58 90 132
57 89 122
57 89 121
58 91 121
56 86 119
54 84 118
57 88 132
55 87 125
55 84 112
55 86 113
55 85 115
53 81 105
53 81 107
48 74 98
49 74 93
78 83 66
75 74 40
55 54 27
52 53 19
47 49 26
40 44 16
53 58 35
32 40 27
33 41 20
42 52 34
46 55 34
40 49 21
43 52 30
38 48 29
49 59 39
52 61 36
62 69 44
71 78 48
76 82 50
83 88 53
85 89 59
92 95 50
99 100 55
106 109 61
91 95 49
110 111 64
105 107 52
120 120 68
125 124 66
131 129 68
126 124 64
126 125 70
126 126 70
130 129 67
135 133 74
138 136 76
140 137 73
143 140 68
146 142 73
151 146 78
144 141 72
139 137 73
150 146 80
155 150 81
156 151 79
150 146 74
150 146 77
156 151 83
161 155 84
155 150 82
151 147 70
158 153 75
167 161 85
160 154 78
163 157 81
161 156 75
167 161 81
172 165 86
167 161 82
169 162 84
167 161 81
165 159 81
168 161 83
170 163 81
165 158 80
166 159 81
167 160 76
167 160 77
167 161 78
171 164 82
169 162 81
173 165 82
169 163 76
169 162 83
173 166 84
170 163 80
172 164 82
170 163 81
170 163 82
172 164 83
171 164 78
171 164 81
170 163 78
171 164 84
170 163 77
171 164 79
170 163 83
171 164 86
169 162 77
169 163 74
172 165 83
174 167 90
173 165 87
173 166 86
172 165 79
176 167 86
176 168 90
168 162 74
174 167 87
174 167 86
172 165 84
173 165 84
171 164 83
171 164 79
173 166 85
172 165 83
172 166 87
174 166 83
174 166 83
171 164 84
170 164 80
172 165 86
173 166 84
170 163 78
171 164 78
174 166 87
174 166 84
175 167 90
174 166 81
173 166 86
178 169 93
174 167 87
173 165 85
174 166 84
175 167 91
167 161 75
174 165 87
169 163 83
170 163 84
170 162 78
168 161 77
173 166 84
171 164 86
169 162 81
171 164 80
170 163 84
164 158 78
168 160 80
170 163 84
169 162 87
172 164 89
167 159 80
169 162 81
159 152 77
168 161 80
169 161 81
167 160 85
166 159 78
168 161 84
181 197 174
183 198 177
182 198 183
183 198 180
185 200 186
182 197 174
181 197 177
181 197 177
179 195 165
179 195 165
182 197 174
183 199 183
185 200 187
181 197 175
183 199 181
180 196 171
180 196 169
183 198 181
176 192 155
178 195 165
180 196 172
182 198 177
181 196 171
176 193 155
181 197 177
181 197 177
176 193 155
181 196 169
181 197 171
180 196 168
183 198 178
181 197 177
179 195 166
177 193 160
180 196 168
180 196 172
181 197 177
183 199 183
182 197 174
178 195 163
177 194 161
182 198 180
180 196 166
177 193 158
178 195 163
182 198 178
179 195 166
180 196 168
178 194 166
182 198 175
178 195 165
181 197 171
182 198 180
181 197 172
180 196 174
179 195 166
175 192 150
181 197 172
176 193 153
178 194 160
181 197 174
179 196 169
176 193 155
183 198 178
179 195 169
173 191 146
176 193 153
174 191 148
178 194 161
176 193 151
181 196 172
179 195 165
179 195 166
177 194 160
177 194 156
176 193 155
177 194 158
177 194 160
178 194 161
170 188 135
178 194 161
175 191 153
176 193 153
179 195 169
177 193 156
177 193 156
172 189 137
176 193 155
179 195 168
176 192 165
175 192 153
174 190 148
172 189 144
173 190 144
177 193 160
175 192 153
180 195 169
173 189 144
176 192 155
177 194 160
168 186 129
172 188 144
174 191 142
175 191 160
173 188 150
173 190 148
176 192 156
169 186 142
171 187 139
162 177 124
166 181 123
154 167 130
156 171 126
147 160 114
130 147 108
125 141 109
119 134 102
103 120 108
102 120 96
76 98 108
62 87 100
51 80 103
50 80 98
50 79 116
48 77 106
49 77 99
47 74 103
47 74 100
45 72 99
44 71 98
47 74 100
46 73 92
44 70 96
44 71 98
45 71 98
41 67 86
40 64 92
38 61 89
37 59 85
32 53 73
34 55 79
32 52 66
30 50 63
27 44 43
27 45 59
21 35 49
75 88 85
140 155 145
134 150 141
47 76 107
51 81 121
54 86 119
55 87 125
55 87 115
57 90 123
56 89 126
57 90 133
58 91 131
58 92 136
58 92 134
57 91 133
57 90 118
58 91 133
58 92 129
59 93 137
57 91 120
58 91 130
58 93 128
59 94 136
58 92 123
59 94 130
57 91 130
59 93 123
59 93 131
58 91 126
59 93 133
59 93 134
59 93 130
61 95 141
57 91 121
59 93 125
60 95 145
58 92 121
60 94 137
59 94 127
60 94 135
61 95 140
59 93 126
60 95 131
60 95 137
59 93 132
59 93 131
60 94 137
60 95 137
58 92 126
58 92 133
59 94 137
58 93 128
60 95 138
60 94 133
59 93 129
61 96 141
61 95 133
58 92 128
59 93 136
60 95 136
60 94 136
59 93 129
59 92 126
59 93 117
60 95 134
59 93 129
58 92 126
59 93 136
61 95 142
59 92 124
57 90 116
59 93 135
59 93 120
60 94 134
59 93 133
58 92 128
59 93 135
58 91 121
59 94 131
59 93 129
59 92 123
58 91 129
58 91 116
58 92 126
57 89 127
58 91 122
58 92 130
58 91 115
58 92 124
60 93 133
57 90 133
57 89 126
58 89 123
56 88 120
57 88 122
56 87 118
55 85 108
56 87 128
56 87 114
54 84 116
55 84 110
52 79 101
55 83 111
53 81 104
49 76 101
72 78 62
75 75 35
66 64 30
57 58 26
32 37 21
39 44 17
36 44 22
30 39 24
39 45 24
31 40 20
41 50 32
40 53 41
41 52 34
46 55 34
39 52 35
50 61 39
56 64 40
63 70 36
75 81 51
69 75 42
85 88 44
86 90 55
98 100 57
103 104 61
108 108 58
96 97 47
112 113 56
120 119 72
109 110 57
109 111 58
119 119 62
128 127 67
127 126 67
124 123 66
128 127 65
141 137 75
142 139 70
140 137 70
138 135 63
136 134 65
150 146 76
150 146 76
146 142 74
145 142 69
151 146 71
154 149 74
151 147 69
156 151 85
155 150 79
152 147 73
151 146 69
158 152 74
166 159 83
157 152 75
163 157 80
163 156 81
164 157 72
161 156 76
161 155 75
163 157 75
161 155 77
167 160 83
171 164 79
163 157 73
170 163 77
165 158 75
170 162 75
167 160 79
170 163 82
169 162 82
171 164 83
174 166 84
174 166 84
166 159 75
168 161 80
172 165 82
170 164 80
169 163 80
171 163 82
171 164 85
169 162 75
173 165 81
171 164 80
171 164 80
170 163 79
171 163 81
173 166 83
169 162 80
171 164 83
169 161 81
171 164 82
171 165 83
169 161 78
167 160 73
174 166 85
173 166 86
169 162 75
170 163 80
173 166 83
168 161 78
172 164 82
168 161 78
173 165 82
175 168 89
174 167 86
172 164 80
174 166 87
171 164 81
172 164 83
169 163 82
169 163 75
174 166 83
172 165 80
174 166 81
175 167 86
172 165 78
175 167 87
169 163 79
175 167 84
172 164 81
169 163 75
173 165 80
171 164 81
175 168 87
173 166 84
169 163 80
173 166 85
174 166 86
172 165 84
171 163 79
165 158 74
172 165 87
165 158 75
168 162 73
169 162 77
170 162 78
167 160 80
164 157 83
168 161 81
170 163 86
166 159 80
164 158 75
169 162 84
167 160 81
165 157 80
168 161 79
165 158 85
164 157 80
166 158 84
177 194 161
181 197 174
181 197 171
182 197 177
182 198 177
180 195 171
179 195 169
178 194 161
183 198 177
180 196 172
177 194 165
180 196 168
184 199 184
181 197 172
177 194 158
174 191 148
177 194 161
182 197 174
184 200 184
180 195 168
182 197 175
179 195 169
182 198 178
179 195 166
175 192 148
178 194 161
181 197 177
179 195 166
181 196 169
180 196 165
178 194 161
176 193 158
178 194 161
173 191 144
183 198 178
176 193 156
176 193 150
178 194 163
178 195 163
173 191 150
176 193 153
177 193 156
177 194 161
179 195 163
173 190 148
178 194 161
176 193 156
173 190 141
177 194 158
173 190 142
179 195 166
176 193 153
178 195 163
175 191 151
179 195 165
174 191 148
173 190 142
175 192 151
180 196 166
178 194 158
173 191 148
176 193 151
177 193 158
175 192 151
175 192 150
179 195 166
177 194 155
177 193 156
173 190 142
170 188 133
177 194 155
175 192 151
173 190 144
177 193 160
176 192 151
171 189 133
174 191 148
173 190 144
173 190 141
174 191 148
171 188 129
174 191 142
173 190 141
173 190 139
173 190 139
178 194 160
173 190 142
171 189 131
170 188 142
174 190 146
175 191 148
171 187 139
172 190 141
172 189 141
175 191 146
174 191 146
167 185 123
172 189 139
166 184 116
169 186 131
168 185 129
173 190 146
170 186 135
172 189 139
168 185 127
173 189 146
172 188 139
170 187 139
169 185 133
170 183 138
162 175 122
151 166 104
149 163 114
138 154 111
134 148 115
117 133 115
106 123 110
111 128 117
86 106 101
80 101 96
68 92 101
51 80 107
47 76 103
50 79 107
46 73 100
48 76 103
47 75 95
48 76 109
47 74 99
44 71 91
46 74 104
45 72 89
44 71 97
44 70 98
44 70 93
40 64 93
40 64 89
39 63 87
37 59 81
37 60 87
33 55 61
32 52 70
30 50 76
28 46 57
28 46 62
31 48 55
96 109 100
158 173 150
145 161 143
49 78 113
51 82 115
54 86 126
56 89 120
55 87 127
55 88 127
56 89 121
55 87 124
57 91 134
57 90 127
59 92 132
57 90 127
60 95 139
57 90 122
59 93 137
58 92 129
57 91 121
58 91 132
59 93 133
58 92 134
59 93 135
58 93 136
61 95 139
59 93 125
59 93 134
58 92 124
58 92 132
60 94 131
59 93 124
60 94 144
59 94 133
59 93 126
58 92 125
59 93 122
61 95 137
59 93 126
61 95 136
59 93 126
58 92 119
58 92 126
59 94 131
59 93 127
60 94 137
58 91 128
60 94 134
60 95 135
58 93 124
59 94 128
60 94 139
60 94 136
59 94 137
61 96 135
59 93 124
59 93 129
58 92 122
60 94 130
59 93 125
58 92 129
58 91 126
62 97 154
59 92 139
61 95 141
58 92 128
61 95 138
58 92 124
59 93 133
59 92 131
59 92 128
59 92 125
60 94 134
59 92 128
60 94 134
58 92 120
58 91 126
57 90 120
59 92 130
61 96 145
58 92 125
58 92 120
58 91 129
57 90 118
58 90 130
59 92 136
60 93 137
56 89 125
58 91 133
56 87 116
58 91 120
58 89 123
56 88 116
58 90 121
55 86 117
55 85 117
57 88 117
56 86 118
54 83 104
55 85 108
55 84 116
52 80 102
53 80 105
48 73 83
46 69 92
85 88 62
72 71 33
66 65 35
49 52 18
46 48 20
21 26 11
43 48 24
39 46 24
43 50 30
46 54 29
50 57 34
41 50 34
40 50 33
53 60 33
51 59 34
59 66 29
61 68 30
69 75 35
84 87 49
75 78 41
84 89 49
79 85 51
91 94 48
104 106 57
99 101 52
105 104 53
119 118 60
117 117 61
114 113 58
125 124 59
120 118 61
117 118 63
129 127 68
141 137 69
122 121 70
124 124 61
142 138 70
134 131 64
145 141 74
144 141 72
145 141 72
142 139 71
148 145 76
144 140 70
150 146 74
150 146 72
152 147 76
160 154 81
160 154 82
153 148 68
164 157 82
158 152 78
156 150 72
168 161 87
163 157 76
159 154 74
165 158 76
157 152 73
166 159 75
165 158 80
163 157 78
170 163 83
168 162 80
168 161 72
163 157 72
170 163 84
170 163 77
170 162 83
172 164 84
163 157 67
171 164 80
169 162 79
169 161 80
169 162 77
172 165 83
171 164 78
168 162 77
169 163 80
170 163 79
166 160 73
169 162 78
172 164 81
173 165 82
170 163 80
169 162 75
171 163 79
169 162 84
172 164 82
174 167 84
173 166 84
171 164 81
175 167 90
171 164 77
173 165 81
175 167 91
170 163 80
174 166 90
170 163 74
173 166 80
168 161 71
166 160 65
174 166 84
174 167 85
170 163 80
172 165 76
171 163 78
174 167 85
172 164 79
171 164 80
172 165 82
172 164 83
175 166 83
173 165 80
173 165 82
174 166 80
169 162 74
171 163 78
169 163 75
172 165 81
170 163 81
172 164 81
172 164 82
171 164 76
170 163 83
173 165 87
172 164 84
167 160 71
175 167 89
169 162 79
174 166 84
167 160 80
169 162 78
170 163 75
172 164 84
166 160 75
167 160 78
167 160 77
168 160 81
165 158 75
163 156 76
169 162 82
162 156 71
163 157 74
166 160 77
165 158 80
162 155 79
166 159 76
166 159 80
165 158 76
179 195 163
181 197 172
177 194 156
183 199 180
180 196 168
181 197 175
177 194 160
177 194 160
180 196 166
180 196 169
172 190 142
182 198 178
178 195 161
176 193 155
180 196 166
177 193 156
176 193 155
178 194 161
178 194 160
177 194 161
176 193 153
173 190 141
182 198 174
175 192 150
173 190 144
173 190 142
176 193 155
181 196 171
178 194 160
175 192 151
174 192 150
175 192 153
176 192 151
175 192 151
176 193 155
177 193 156
173 190 142
173 191 144
172 189 142
175 192 148
178 194 160
175 191 144
177 194 156
175 192 151
174 191 144
174 190 139
174 191 139
172 190 139
174 191 146
175 192 150
174 191 146
176 193 153
174 191 144
174 191 142
176 192 155
176 193 150
172 190 139
172 189 139
178 195 163
176 193 156
175 192 146
169 187 127
172 190 142
170 188 129
171 189 131
169 187 125
172 189 139
170 188 129
169 187 125
169 187 125
170 188 135
169 187 123
172 189 141
173 190 142
171 188 131
167 185 114
162 181 109
173 190 144
167 185 121
170 187 125
171 188 129
170 188 133
170 187 133
168 186 116
168 185 127
169 187 127
167 185 129
169 185 129
172 190 139
169 187 125
171 189 129
164 182 112
166 184 114
169 187 131
164 181 118
168 185 114
165 183 107
164 182 112
164 182 109
164 182 118
162 180 109
165 182 118
166 183 123
167 184 118
164 181 116
163 179 116
164 181 116
164 182 109
160 176 114
162 177 118
159 173 111
149 163 94
151 165 103
138 150 97
130 145 96
129 145 91
104 125 103
99 118 90
91 109 92
85 104 79
67 90 97
50 79 102
50 80 107
49 78 101
49 78 104
49 78 115
46 73 90
47 75 93
48 76 115
46 73 94
43 69 81
47 74 103
45 72 103
43 69 92
44 70 96
41 65 79
41 65 78
36 59 79
37 60 78
33 53 80
35 56 71
30 49 56
32 53 69
23 39 56
31 51 46
45 61 65
95 108 87
160 175 146
136 152 120
49 78 94
55 87 128
53 85 119
54 86 128
54 85 117
56 88 121
56 89 127
57 90 120
56 89 124
58 92 132
58 91 129
58 91 127
58 91 132
56 89 120
56 90 120
57 90 126
58 91 129
58 92 127
59 93 128
58 92 124
58 91 119
59 93 133
57 90 119
58 92 124
59 93 133
58 92 123
59 93 126
59 92 127
59 92 115
59 93 128
58 92 131
57 91 123
60 94 135
59 93 134
58 91 120
59 93 131
59 94 137
61 95 143
60 94 127
60 94 141
59 93 126
60 95 140
59 94 134
59 93 127
59 93 131
59 94 130
59 93 121
59 94 121
58 92 124
60 94 143
60 94 133
59 93 126
60 95 139
59 93 128
58 92 125
59 92 125
59 93 125
59 94 139
58 92 128
59 93 128
60 94 133
58 91 126
60 94 139
61 95 143
59 93 123
59 93 135
60 94 128
61 95 136
58 91 134
58 92 125
58 92 133
58 91 121
59 92 128
59 92 137
59 93 138
60 93 125
59 93 133
56 89 115
58 92 131
57 90 124
59 92 121
59 91 120
59 92 141
56 88 117
58 90 128
58 92 120
58 92 136
57 89 121
56 86 113
57 89 128
57 89 118
57 89 123
58 91 131
55 85 119
55 86 115
54 84 116
54 84 109
55 84 117
53 82 109
52 79 99
51 77 99
45 68 87
114 115 85
87 85 38
68 67 34
54 54 18
55 57 22
35 39 12
35 42 19
45 50 24
45 50 18
44 53 30
47 54 29
49 57 34
50 56 28
53 61 35
46 55 28
61 66 34
63 70 40
60 69 39
83 86 44
76 82 45
72 78 41
84 88 41
89 93 52
99 99 45
97 98 51
100 102 48
109 109 58
112 113 52
111 110 53
101 105 55
127 125 66
123 123 58
119 118 59
122 122 57
140 136 74
142 138 72
134 132 67
141 138 75
138 135 66
155 149 78
136 134 63
143 139 73
144 140 70
146 143 71
150 145 74
151 146 70
151 146 74
158 152 76
153 148 72
153 149 68
154 149 72
152 148 71
158 153 74
160 155 79
156 150 71
161 155 72
160 154 76
163 156 77
150 147 66
168 161 78
163 157 73
164 158 75
164 158 69
166 159 74
164 157 74
164 157 75
166 159 76
166 159 77
169 162 84
167 160 72
168 161 76
166 160 75
167 160 71
169 161 81
172 165 84
170 163 82
169 162 72
169 162 80
171 164 81
169 162 74
170 162 78
166 160 71
170 163 82
171 164 81
169 163 78
174 166 86
167 160 72
174 166 85
168 161 72
169 163 73
166 159 75
167 161 74
175 167 84
173 166 84
171 164 80
171 163 81
172 164 82
170 164 80
171 164 78
170 162 80
171 164 76
174 166 86
172 165 83
169 162 78
167 161 73
168 161 75
172 164 79
173 165 83
171 164 77
166 159 75
172 164 84
171 163 79
173 165 82
173 166 84
170 163 74
170 163 75
174 166 87
168 162 75
170 163 76
173 167 85
172 164 83
170 162 81
173 166 83
169 162 80
174 167 87
169 162 76
173 165 85
170 162 81
171 163 80
166 159 73
173 166 86
170 163 82
167 160 75
169 162 78
167 161 72
167 159 82
170 162 84
169 162 79
171 163 84
172 164 88
164 157 76
165 158 78
165 158 79
164 157 74
164 156 78
163 156 77
172 163 87
159 153 73
167 159 81
176 193 153
178 194 158
178 194 160
177 193 158
176 193 155
180 195 165
178 194 165
177 193 158
177 193 153
176 193 153
175 192 144
175 192 151
178 195 163
173 191 144
174 191 151
175 192 153
176 193 156
173 190 141
172 189 137
176 193 151
174 191 144
174 191 144
173 190 141
180 196 166
178 194 156
174 192 148
173 190 139
177 193 151
174 191 144
172 189 141
173 190 141
173 190 139
174 191 146
177 194 155
174 191 141
174 191 144
173 190 141
174 191 144
174 191 139
170 188 127
174 190 137
168 186 118
168 186 123
169 186 127
174 191 146
171 189 131
171 189 139
175 192 150
168 186 127
170 188 125
169 187 125
174 191 144
172 189 135
171 189 133
169 187 125
174 191 146
170 188 125
169 186 116
171 188 135
165 183 104
168 186 118
172 189 133
173 191 142
168 186 123
167 186 114
168 186 123
166 184 116
170 188 127
170 187 125
171 189 137
171 189 131
168 186 123
166 184 112
167 185 114
166 184 107
170 188 133
169 187 125
171 189 129
165 184 109
167 185 114
163 182 99
169 187 125
166 184 107
164 183 102
170 188 125
163 182 102
163 181 99
167 185 114
167 184 114
160 179 91
166 183 112
164 182 112
164 182 107
169 187 127
162 181 91
165 184 107
167 185 118
158 177 72
160 179 75
161 180 85
159 178 88
165 182 121
161 180 97
161 179 99
159 179 91
158 176 79
158 175 75
156 174 91
155 173 88
158 174 94
150 166 91
152 166 89
144 159 105
137 151 92
127 141 88
109 126 71
117 133 61
101 116 86
93 113 91
75 98 103
64 88 100
50 78 95
50 79 110
50 79 102
48 77 96
48 75 96
48 75 101
46 73 94
46 74 92
46 73 99
43 68 84
43 69 90
44 70 94
42 67 82
42 67 91
39 62 82
41 66 83
37 59 76
34 56 77
35 57 56
31 51 64
31 51 57
26 44 54
28 47 50
27 44 46
66 81 47
121 135 110
166 182 153
173 186 184
46 74 86
53 84 110
52 82 91
52 82 108
54 86 116
55 87 124
58 91 127
54 87 115
56 89 121
58 91 125
56 88 116
56 89 116
57 90 127
59 92 129
58 92 130
58 92 132
59 93 130
58 92 128
58 91 126
58 91 120
57 90 119
59 93 134
58 92 118
56 89 115
59 93 132
60 94 141
59 93 130
60 94 142
59 92 128
59 93 134
60 94 139
59 93 118
58 92 125
61 96 146
59 93 120
59 94 131
59 94 136
60 94 136
59 93 118
58 91 122
59 93 135
59 94 131
59 94 134
59 93 125
60 95 140
60 94 139
58 92 125
58 92 125
60 94 128
58 92 119
61 95 143
58 92 125
58 92 123
61 95 136
59 93 129
59 92 133
59 93 125
59 93 129
56 89 121
59 93 125
59 92 125
58 93 115
58 92 123
60 94 134
59 93 133
59 94 132
60 94 129
58 92 121
58 91 120
59 93 125
59 92 124
59 93 132
56 88 110
58 92 129
58 92 119
59 92 134
58 91 135
59 93 130
58 91 123
58 90 118
58 90 126
56 88 124
58 91 123
57 89 120
60 93 131
57 90 116
57 89 124
57 90 125
58 90 128
55 85 117
57 88 125
56 87 113
57 88 129
55 86 117
55 85 112
57 87 118
54 83 101
52 80 107
53 80 98
54 82 108
49 74 96
48 71 88
150 156 152
90 87 47
51 52 23
52 52 25
57 58 24
43 47 18
54 58 24
51 54 21
41 48 24
53 56 22
40 49 31
45 51 27
54 60 26
48 57 29
55 63 32
61 68 36
59 67 37
68 74 41
74 78 37
68 74 43
78 81 37
93 95 48
88 91 38
97 101 50
102 102 53
101 103 50
114 113 59
108 108 50
124 121 63
122 122 65
111 112 58
118 117 54
116 116 58
135 133 66
123 122 54
137 133 64
135 133 60
135 131 62
140 136 62
147 143 70
128 126 56
138 135 63
139 135 67
143 138 67
142 138 68
149 146 68
143 141 60
148 144 72
158 152 74
156 151 69
148 144 66
152 147 65
159 154 73
153 149 73
157 152 67
162 156 78
160 154 70
159 154 70
163 157 71
161 155 77
167 160 73
166 158 78
160 154 71
167 160 70
167 160 74
165 158 73
169 162 80
165 159 76
164 158 74
165 159 77
164 157 72
170 163 76
168 161 73
167 161 75
168 161 75
161 154 69
167 161 76
171 164 80
166 159 70
168 162 76
169 162 74
169 162 80
172 165 84
168 161 76
167 161 71
166 159 75
170 162 79
170 162 79
167 159 75
174 166 84
174 166 83
170 163 80
170 163 79
172 164 81
172 164 78
167 161 75
170 164 77
170 162 78
169 162 74
169 162 76
171 164 80
166 160 75
172 164 83
169 161 71
174 165 83
170 163 73
173 165 80
171 163 76
170 163 76
172 164 81
170 163 78
170 162 76
171 164 78
173 166 82
170 163 80
176 168 90
171 164 76
174 166 83
170 163 79
171 164 82
169 162 75
172 165 84
172 165 83
169 162 77
172 164 77
168 160 73
169 162 75
167 161 80
172 165 80
166 160 75
168 160 80
170 163 79
168 161 80
170 163 83
173 165 83
167 161 75
167 160 77
169 161 78
172 164 86
164 158 71
167 159 79
165 159 80
164 157 75
166 158 80
165 158 79
164 157 78
168 160 80
166 158 80
172 165 83
173 191 144
175 192 151
175 192 150
176 192 150
177 194 156
173 191 146
175 192 148
175 192 150
180 196 165
176 192 150
173 190 144
177 194 156
176 193 150
172 190 135
175 192 153
176 193 156
175 192 148
172 189 135
168 186 114
172 189 137
176 193 153
173 190 142
174 191 144
175 192 146
175 192 148
169 187 125
172 189 137
171 189 133
170 187 127
172 189 139
169 187 125
170 188 125
171 189 131
172 189 137
176 192 148
171 189 135
171 188 129
168 185 116
169 187 121
170 188 123
169 188 125
171 188 133
172 189 135
168 186 116
167 186 116
168 186 123
164 184 104
166 185 118
169 187 121
168 186 116
167 185 118
163 182 85
168 185 125
168 186 116
171 189 129
167 185 118
168 186 123
166 185 112
165 184 102
168 186 116
171 188 127
169 187 123
166 184 104
165 184 109
164 183 107
169 187 125
167 185 104
165 183 114
164 183 102
166 184 112
165 183 104
164 183 99
164 182 109
163 182 91
165 184 102
167 185 121
167 185 116
162 181 97
160 178 102
160 180 85
164 183 109
162 181 85
160 179 88
162 181 91
163 182 97
163 182 99
164 182 99
159 180 72
159 179 79
159 179 68
160 179 94
158 177 82
163 182 99
162 181 94
161 180 88
158 177 85
161 179 82
158 177 75
159 178 91
155 172 75
158 177 72
158 175 99
158 177 82
151 169 79
158 177 75
151 170 68
155 173 68
155 174 72
155 172 79
152 170 72
147 162 60
148 162 65
134 151 53
141 158 50
125 141 65
126 143 70
107 125 75
101 120 73
99 117 89
75 96 88
65 87 88
53 81 103
48 75 96
47 75 91
48 76 83
46 73 93
44 70 88
48 76 101
47 74 97
47 74 97
46 73 91
41 66 75
40 64 77
43 68 85
45 72 91
39 63 85
38 61 73
36 58 73
38 60 72
34 56 61
35 57 79
33 53 65
30 49 45
30 50 45
31 48 38
77 91 73
136 153 120
164 181 140
194 208 209
84 104 130
48 77 100
53 84 123
53 85 116
55 87 119
57 90 124
55 87 123
55 86 119
56 88 125
57 91 126
56 89 127
57 89 115
55 88 114
58 91 133
56 89 124
58 91 130
58 91 121
58 91 120
59 92 130
58 92 124
58 91 124
59 93 126
58 91 119
58 91 122
58 92 130
59 92 125
59 93 134
58 92 131
59 93 135
58 92 127
58 91 120
59 93 125
58 92 128
58 91 126
59 93 130
58 91 122
59 93 131
59 92 129
60 95 136
59 93 131
59 94 129
60 94 136
60 95 136
57 90 117
59 92 123
59 94 136
60 94 134
59 93 126
59 93 130
60 95 135
58 91 118
59 93 131
60 94 133
59 92 134
58 91 117
61 95 139
59 93 124
60 94 129
60 94 136
59 93 125
59 94 128
58 91 123
57 90 129
58 91 120
57 90 121
61 95 140
59 93 125
60 94 128
59 92 125
59 94 131
58 92 129
58 91 120
59 93 139
58 91 121
57 90 124
58 91 124
58 91 123
58 91 124
57 89 117
57 90 131
58 90 127
58 91 117
58 91 127
56 87 117
59 91 125
58 91 126
58 90 122
58 91 125
56 88 125
58 90 125
57 89 124
57 89 126
57 88 119
55 85 109
56 87 117
54 84 105
53 81 102
55 86 119
53 82 113
54 81 108
48 72 80
78 95 99
177 185 190
90 88 41
82 80 28
77 76 24
68 68 24
57 61 13
50 55 19
58 62 20
55 60 25
32 41 21
45 53 33
48 54 27
54 60 25
47 55 29
53 61 30
62 66 30
61 68 38
67 72 38
68 74 37
71 76 33
84 88 37
82 86 42
76 81 39
101 102 47
92 94 40
106 107 53
114 114 52
99 102 51
114 113 58
132 129 62
122 119 57
123 123 65
123 121 56
129 127 63
140 136 69
129 126 65
128 125 61
137 134 66
125 123 58
142 137 71
148 143 70
138 135 58
148 143 63
142 137 66
146 143 61
145 140 69
149 144 70
146 141 61
158 152 68
152 147 69
154 149 72
153 147 71
163 156 76
164 157 78
162 155 78
157 151 71
159 153 68
161 155 69
160 154 67
162 156 69
156 151 57
165 159 71
169 161 78
164 158 73
166 160 76
169 162 80
165 159 72
165 159 68
167 160 75
165 158 72
169 162 76
169 162 76
168 161 71
168 161 76
167 160 73
166 159 70
168 161 76
166 158 74
168 161 76
165 159 66
165 159 72
172 164 76
165 159 71
167 160 73
162 156 67
170 163 75
168 160 76
170 163 75
171 164 79
169 163 75
170 163 75
169 162 75
169 162 73
172 164 80
171 163 76
171 164 80
167 160 68
166 160 74
166 160 73
171 164 80
171 164 78
170 163 71
168 161 78
170 163 77
172 164 76
167 160 76
175 167 84
170 163 77
168 161 74
173 164 82
169 162 80
171 163 79
171 164 80
171 163 76
172 164 80
173 166 84
170 163 77
170 164 76
170 163 78
170 163 78
174 166 83
171 164 75
171 164 80
172 165 79
169 163 80
168 161 75
167 160 73
168 162 74
168 160 76
165 159 69
167 161 73
168 161 75
166 159 75
166 159 77
169 162 81
163 157 74
163 157 73
162 156 73
161 154 73
165 159 74
165 158 74
169 162 77
160 154 71
168 161 76
167 160 80
161 154 73
162 156 72
163 156 78
163 156 78
174 191 146
175 192 151
172 190 137
174 191 144
171 189 133
170 188 127
173 190 141
168 187 121
172 189 133
175 191 144
171 188 133
176 193 151
173 190 139
173 190 139
173 190 141
171 188 129
169 187 127
172 190 141
174 191 141
169 187 125
172 190 133
171 189 133
173 190 142
169 187 123
169 187 125
168 186 114
170 187 127
175 191 141
167 186 116
171 188 125
169 187 118
173 190 137
169 187 123
170 188 125
168 186 114
169 187 121
163 182 99
168 186 116
168 187 116
170 188 127
167 185 118
171 189 129
166 184 107
166 185 109
165 183 109
160 179 91
166 184 109
163 182 91
167 185 112
165 184 97
164 183 99
165 184 102
164 183 94
168 186 114
163 182 102
163 182 97
165 184 109
164 183 97
164 183 97
162 182 91
159 179 75
164 182 94
169 187 125
163 181 97
165 184 104
165 183 97
164 182 99
164 183 91
163 182 94
162 180 94
162 182 88
162 181 94
160 180 72
159 178 68
159 179 79
160 180 82
159 178 68
156 176 64
159 179 85
159 179 72
159 178 72
158 178 72
159 178 85
156 176 68
159 179 45
157 177 60
157 177 72
157 178 56
157 177 51
157 175 68
157 176 39
153 173 45
151 170 32
155 176 45
157 176 68
152 171 60
150 170 39
153 172 39
149 169 51
151 170 39
152 171 39
152 171 51
148 166 22
148 166 32
145 163 22
153 171 51
149 168 0
145 163 32
150 168 32
144 162 32
149 167 0
145 162 42
136 149 54
127 144 49
132 148 40
117 134 55
104 123 66
93 111 69
100 119 75
80 100 74
78 100 98
61 86 95
48 76 92
46 74 84
48 76 95
45 72 87
46 73 95
47 74 104
44 70 95
44 71 79
43 69 81
44 70 93
43 69 78
42 68 75
41 65 75
41 66 86
39 63 79
37 60 62
37 60 72
37 60 74
34 55 66
30 50 44
30 49 55
29 48 46
69 84 56
116 130 94
148 164 130
167 184 144
200 212 221
122 139 162
51 81 106
53 84 115
53 84 110
55 87 115
55 87 118
56 89 123
56 88 112
54 86 112
56 89 113
56 88 112
54 86 109
56 89 118
57 90 127
59 93 136
56 88 114
58 92 129
57 91 115
59 92 125
56 89 100
57 91 125
58 91 119
57 90 119
58 92 125
58 92 132
58 92 124
58 91 124
58 91 124
58 92 125
58 91 124
60 94 128
60 95 130
59 93 132
59 93 128
59 94 129
59 93 128
60 94 137
60 94 127
59 93 128
59 92 124
57 90 125
60 95 135
58 91 120
61 95 129
59 94 137
61 95 144
58 91 118
59 94 129
60 94 135
60 94 134
59 93 128
58 91 116
60 95 135
59 93 125
58 92 121
59 92 134
60 94 140
59 93 134
59 93 129
58 91 124
58 91 126
59 94 125
59 92 126
57 90 120
57 90 121
57 89 118
59 92 128
60 94 133
58 92 121
58 92 121
57 91 119
58 91 128
59 92 119
56 90 115
59 93 132
58 91 128
58 91 125
58 91 123
57 89 121
59 93 129
58 92 132
57 90 124
58 90 126
56 88 117
59 92 126
58 91 119
56 88 115
56 87 110
57 90 124
55 86 111
55 86 109
56 87 113
56 86 112
53 82 103
55 84 112
56 86 117
52 81 98
54 82 104
51 79 91
51 78 104
49 75 86
117 132 147
196 206 213
92 91 39
95 92 35
78 78 23
59 60 18
51 51 13
47 50 15
34 40 17
41 48 17
61 65 26
63 68 18
49 56 28
59 64 23
60 64 29
58 63 29
60 68 37
57 64 27
68 74 34
72 78 32
86 89 38
76 80 41
90 91 40
92 96 45
101 102 50
102 102 45
92 94 41
98 101 48
102 102 48
114 114 49
106 106 43
125 124 67
123 121 59
114 114 53
120 118 59
128 125 61
131 129 62
124 123 54
134 132 62
130 128 62
137 133 64
136 133 62
139 136 62
152 147 74
144 140 69
143 139 63
147 142 67
154 149 76
148 144 63
151 147 63
155 150 64
152 147 76
159 152 70
152 147 68
166 159 81
159 153 70
158 152 61
162 156 74
154 150 68
157 151 66
157 153 64
161 155 67
166 159 78
160 154 65
167 160 70
165 159 70
167 160 74
162 156 67
167 160 71
164 157 69
166 159 64
166 159 73
166 159 75
169 161 76
166 158 71
170 163 76
169 162 76
168 161 75
169 162 76
168 160 71
167 161 70
172 163 78
166 159 70
169 162 77
169 162 77
167 161 73
172 164 78
166 160 69
169 162 76
167 160 67
172 164 85
166 159 69
162 155 64
169 162 78
169 162 82
165 160 68
169 163 75
171 164 78
166 160 68
167 160 71
170 163 77
165 158 70
172 164 78
169 162 75
171 164 75
169 162 75
168 162 75
168 161 74
170 162 75
168 162 72
168 161 73
168 161 72
169 162 74
166 159 74
170 163 77
167 160 68
173 166 80
168 161 72
167 161 70
171 164 76
168 161 71
172 165 81
171 164 84
174 166 84
171 164 77
171 163 76
166 159 72
170 163 80
170 162 77
170 163 75
169 162 75
169 162 80
172 164 80
170 163 77
174 166 90
169 162 78
168 161 80
164 158 72
167 161 76
166 159 77
167 160 75
166 158 75
169 161 83
160 153 72
163 156 73
161 154 74
162 155 75
171 163 80
163 155 66
166 159 75
169 187 127
174 191 142
171 189 131
173 190 141
174 191 139
172 189 133
171 189 133
169 188 127
173 190 131
174 191 150
165 184 107
168 186 118
167 185 118
169 187 121
172 189 135
173 190 139
173 190 139
168 186 114
165 184 99
169 187 127
171 188 131
167 185 107
167 185 112
167 185 121
167 185 109
164 183 97
167 185 109
162 182 99
161 180 94
164 183 102
167 185 107
162 181 82
165 184 104
166 184 114
164 183 102
164 184 104
166 185 104
167 185 107
162 181 82
162 181 82
162 182 82
165 184 107
166 184 104
159 179 75
163 182 85
162 181 91
159 178 72
163 182 88
165 183 102
163 182 99
162 181 79
163 182 104
161 180 88
159 178 79
164 183 94
162 181 88
159 179 85
158 178 64
156 177 60
161 180 75
161 180 82
163 182 88
157 178 45
163 183 91
158 178 64
159 179 64
157 178 64
159 179 64
159 179 72
159 179 60
155 175 56
156 177 56
161 180 72
153 174 45
160 180 72
158 178 64
155 176 39
154 175 22
153 173 39
155 176 39
151 171 32
154 174 22
155 175 39
152 172 22
154 175 32
153 173 22
155 176 32
155 175 22
151 173 0
155 175 22
151 172 0
154 175 0
152 171 0
152 172 0
150 171 0
148 169 0
152 172 0
148 169 0
152 172 0
149 167 0
151 172 0
146 166 0
144 164 0
150 169 0
149 170 0
149 169 0
145 164 0
140 158 0
145 164 0
144 161 0
139 155 0
140 156 0
140 156 16
132 148 29
128 143 36
117 133 60
100 119 70
99 118 62
87 105 80
82 101 79
67 89 85
69 92 81
50 77 79
50 77 90
47 74 85
46 73 100
47 74 81
46 73 82
44 70 84
43 69 85
46 73 96
41 65 59
42 68 80
40 65 74
40 64 75
39 63 73
40 63 74
36 58 66
32 53 56
31 51 57
33 53 64
33 53 59
32 52 51
41 58 50
72 87 55
108 124 66
162 179 123
158 174 130
222 235 253
149 164 184
52 82 109
53 84 121
54 85 113
55 86 114
54 86 108
53 84 95
56 88 120
55 86 117
55 87 110
57 89 122
58 92 127
56 89 126
58 92 130
57 90 115
57 90 128
58 92 132
55 88 110
59 93 130
57 90 124
58 92 123
57 90 124
60 94 132
57 90 127
57 91 120
57 90 116
58 92 124
58 93 126
57 90 119
58 91 120
60 94 126
58 92 130
58 92 124
58 91 123
58 92 126
59 93 130
61 95 142
59 93 131
58 91 113
60 94 129
58 91 118
59 93 129
58 92 121
57 91 114
58 92 123
58 91 120
59 93 126
60 95 138
60 94 137
59 92 125
58 92 126
58 92 118
59 93 132
59 93 126
56 89 115
59 93 131
58 92 131
58 92 126
59 93 133
60 95 133
60 94 133
60 95 136
57 91 121
58 92 122
59 92 128
59 93 124
59 93 128
58 92 123
59 92 129
58 91 123
58 91 127
59 93 136
57 90 122
58 91 117
58 91 132
57 89 114
58 91 131
59 92 127
59 93 127
58 91 126
57 90 115
59 92 119
58 90 127
58 91 119
59 92 123
57 89 121
56 87 115
57 90 121
55 87 113
55 86 105
57 89 121
57 89 123
56 87 115
56 87 124
54 83 107
53 81 104
55 86 115
50 76 91
51 78 87
49 76 89
46 71 81
142 155 169
221 234 252
108 105 54
83 82 36
67 67 28
71 71 27
59 59 15
59 62 17
54 58 20
57 59 18
50 57 27
52 58 25
47 53 23
63 67 25
51 58 31
52 59 25
57 62 25
72 77 22
67 73 31
79 83 35
67 74 41
76 81 40
83 87 41
105 105 49
101 101 40
97 99 51
112 112 49
102 101 48
102 102 50
107 107 50
114 113 48
115 114 52
121 119 54
129 127 58
132 130 55
126 124 56
125 122 60
129 127 54
133 130 58
137 133 58
139 137 58
129 127 55
143 138 62
136 133 65
145 140 63
142 139 63
147 143 62
142 139 57
153 148 65
152 147 66
154 149 67
150 145 64
154 150 73
150 146 61
153 147 63
155 149 65
155 149 69
159 153 68
160 154 68
166 158 72
159 154 68
165 158 71
165 158 77
166 158 75
163 157 70
161 154 71
161 155 66
161 155 63
167 160 77
163 157 66
163 156 68
167 160 72
166 160 72
165 157 70
171 164 80
169 162 74
168 161 75
164 158 74
167 160 76
169 162 80
168 162 72
166 159 69
172 164 79
169 162 74
170 162 74
165 158 69
169 162 73
167 160 73
169 162 75
168 162 75
167 160 74
167 160 68
167 160 71
171 163 78
170 162 78
166 160 75
166 159 70
169 162 74
167 161 72
170 162 72
170 163 76
165 159 66
172 164 79
169 162 75
171 164 78
168 160 74
169 162 75
173 165 80
167 160 71
167 159 72
169 161 75
163 158 64
171 164 75
169 163 74
165 159 67
168 161 71
169 162 75
170 162 77
170 163 75
169 162 75
172 165 78
169 162 76
173 165 81
168 162 71
172 164 75
169 162 72
172 164 79
169 161 79
169 163 78
168 161 78
164 157 75
166 160 74
172 164 80
168 160 75
167 160 73
168 160 80
167 159 78
168 160 79
170 163 80
170 162 80
165 158 75
158 153 74
163 157 66
158 152 75
163 156 76
162 155 79
160 152 74
157 151 64
165 158 78
160 153 72
172 189 133
170 188 129
170 188 127
168 186 125
173 190 137
168 186 118
172 189 129
168 187 118
165 184 107
166 184 109
167 186 121
168 186 114
169 187 129
166 184 102
165 184 107
167 186 112
163 183 99
167 186 118
164 183 99
164 183 94
162 182 85
164 183 102
165 184 104
163 183 99
168 186 114
164 183 99
164 183 102
167 185 112
161 180 79
160 180 82
164 182 107
164 183 109
163 182 94
161 181 88
160 180 79
165 183 94
162 182 85
163 182 88
162 181 79
163 182 94
163 182 94
164 183 97
166 185 102
159 179 72
161 180 88
162 181 85
159 179 82
157 177 64
160 179 75
159 179 75
156 176 56
160 179 68
161 180 79
162 181 82
159 179 68
156 176 56
159 178 60
156 176 56
155 176 51
159 179 72
158 177 68
157 176 51
157 177 51
155 176 32
156 177 45
154 175 22
155 176 39
155 175 32
153 174 22
153 174 0
153 174 0
153 174 0
155 176 0
153 174 0
155 176 0
153 173 0
153 173 0
151 172 0
154 175 0
154 175 0
148 168 0
153 173 0
151 172 0
151 171 0
151 172 0
151 171 0
152 172 0
153 173 0
150 169 0
152 172 0
154 174 0
149 169 0
149 169 0
151 172 0
148 168 0
153 174 0
152 172 0
149 169 0
148 168 0
149 169 0
147 166 0
147 166 0
150 169 0
147 166 0
146 165 0
144 163 0
142 160 0
144 162 0
140 157 0
144 162 0
140 157 0
137 154 0
142 158 16
131 146 28
122 138 36
113 131 45
101 116 45
108 126 65
90 109 81
88 107 69
74 95 78
77 97 88
59 83 84
49 75 85
45 72 90
47 75 83
47 74 94
44 70 77
44 71 80
43 69 78
44 71 91
40 64 69
43 68 78
40 65 81
41 65 73
39 63 75
36 59 57
37 59 57
35 57 60
33 53 49
34 55 62
32 53 51
34 53 40
61 78 48
94 112 60
138 157 68
163 181 109
168 183 149
218 232 236
183 197 202
46 74 87
48 76 89
53 85 112
56 88 124
52 83 105
56 89 107
55 88 109
54 85 108
55 87 107
58 91 120
56 89 117
53 84 109
58 91 133
58 91 123
57 90 112
58 92 125
58 92 130
56 89 110
56 90 112
57 91 120
58 91 124
58 92 122
59 93 128
59 93 124
58 92 129
59 93 135
56 89 117
59 93 122
58 91 132
58 91 123
60 94 134
59 93 134
58 91 124
59 92 134
57 90 123
58 92 109
59 93 124
58 91 119
58 92 122
58 91 130
58 92 124
58 91 121
58 91 115
57 91 117
60 95 135
59 94 126
57 90 129
61 95 134
58 92 122
60 94 135
59 93 135
59 92 133
60 94 131
58 92 122
60 94 137
58 91 114
58 91 118
58 92 129
56 88 115
59 92 124
60 94 133
60 95 137
58 91 129
60 95 133
59 93 130
60 95 138
58 91 121
58 91 126
57 90 120
58 91 117
58 92 128
59 92 126
58 92 133
58 92 126
58 91 124
59 92 125
58 91 134
58 91 120
59 91 126
58 91 116
58 90 117
58 90 118
59 91 128
58 91 119
58 91 123
57 90 124
57 88 124
57 88 118
57 88 114
56 88 122
57 88 119
56 87 121
50 78 96
55 86 114
52 81 97
54 83 109
52 80 105
51 78 91
49 75 87
47 70 78
170 184 177
214 229 224
136 140 103
100 97 43
67 68 24
73 73 25
72 71 28
50 52 16
42 47 18
56 61 24
57 61 19
56 59 19
60 64 15
50 55 19
52 57 26
44 52 26
70 74 24
73 76 27
68 73 28
60 65 30
81 86 39
85 88 39
85 87 35
95 95 47
94 96 32
103 104 43
117 115 56
110 109 45
104 105 44
111 110 42
124 123 53
121 118 48
117 116 50
107 106 46
117 116 52
119 118 51
126 123 63
121 121 53
139 136 57
136 133 59
134 131 51
130 126 58
140 137 56
139 134 61
140 136 56
143 140 65
149 145 60
144 140 61
152 146 66
147 143 61
153 147 66
149 144 71
156 150 72
162 155 77
165 157 75
155 150 65
158 152 64
160 154 73
157 152 60
156 150 62
162 155 67
163 157 72
160 154 66
165 158 71
162 155 64
163 156 74
159 153 69
161 156 63
163 156 65
163 156 69
162 155 65
164 158 69
161 155 68
168 161 70
163 157 67
161 154 66
158 153 56
167 160 72
171 163 79
170 162 80
163 156 72
165 158 68
164 158 66
169 162 76
165 158 67
170 163 78
166 160 70
165 158 70
171 163 79
166 160 68
169 162 75
165 159 71
170 162 79
160 155 59
167 160 74
170 162 69
170 164 78
166 158 68
169 162 76
169 162 80
165 159 69
170 163 76
171 163 76
164 157 67
168 160 74
169 162 73
168 161 71
167 161 70
173 165 80
166 159 70
171 163 78
170 163 77
166 159 74
168 161 70
168 161 72
166 159 67
171 163 77
171 164 78
167 160 73
165 156 69
169 162 75
170 162 75
170 162 74
168 160 77
168 161 74
167 160 71
173 165 82
165 158 67
166 159 71
170 162 78
170 162 78
169 161 72
165 158 71
168 160 84
169 162 80
167 161 77
168 161 76
160 153 68
167 159 75
157 151 68
168 161 77
166 159 75
163 158 70
160 154 70
164 157 81
164 157 74
166 158 78
164 157 75
158 152 73
157 150 70
163 183 104
170 188 123
166 184 109
170 188 129
170 188 123
169 187 121
165 184 102
170 188 121
162 182 91
167 185 112
166 185 114
165 183 102
165 184 112
167 185 112
164 183 99
168 185 116
163 183 94
168 185 107
165 184 102
163 182 94
162 181 85
162 181 85
164 183 94
162 181 97
165 183 99
166 185 107
162 181 99
163 183 91
164 183 94
158 178 56
165 184 94
160 180 82
161 181 75
163 182 88
162 181 79
162 181 75
158 178 60
161 180 72
158 178 64
158 178 56
160 180 56
159 179 51
157 177 68
158 179 64
157 178 56
154 175 39
158 178 60
158 178 56
156 176 32
156 176 32
155 176 39
157 177 45
154 175 32
153 173 32
156 176 22
157 177 45
152 173 22
155 176 32
151 172 0
155 175 0
155 175 22
152 173 0
152 174 0
154 175 0
154 175 0
153 174 0
153 173 0
152 173 0
153 174 0
153 175 0
152 173 0
154 175 0
153 174 0
154 175 0
153 174 0
151 172 0
152 173 0
151 172 0
152 173 0
155 175 0
153 174 0
152 173 0
152 173 0
148 170 0
148 168 0
152 173 0
150 171 0
146 166 0
148 169 0
152 173 0
152 173 0
153 173 0
151 171 0
150 171 0
147 166 0
146 167 0
144 164 0
152 173 0
146 164 0
145 164 0
148 168 0
148 167 0
150 169 0
144 163 0
140 160 0
145 164 0
145 163 0
138 155 0
141 158 0
140 158 0
136 152 0
143 159 0
136 152 0
132 147 16
125 143 38
120 136 44
111 129 72
101 119 53
97 114 77
85 103 68
91 112 84
69 90 73
57 81 72
46 73 83
46 74 84
46 73 87
46 73 94
44 71 91
46 74 81
41 66 82
42 67 76
40 64 72
42 67 63
42 67 72
39 62 65
39 62 70
38 61 66
37 60 61
36 59 53
36 58 55
31 51 38
35 57 49
40 58 48
79 96 41
114 132 42
149 167 87
164 182 116
160 179 75
174 198 0
160 182 33
51 81 94
51 81 98
51 80 106
52 82 101
53 84 110
54 86 106
55 88 115
56 89 122
55 88 109
56 88 114
56 89 113
58 91 121
57 90 117
56 89 121
60 94 131
56 89 109
59 92 126
59 93 126
56 90 118
59 93 131
57 91 117
57 89 117
58 91 123
58 92 121
58 91 122
60 94 131
57 90 119
57 89 119
60 94 130
58 92 125
60 94 130
59 93 128
57 91 121
58 92 121
58 92 115
58 92 123
59 93 126
57 91 123
57 90 118
59 92 127
57 91 110
59 93 129
57 91 120
59 94 132
59 92 129
59 92 135
59 93 121
60 95 135
60 94 136
59 93 124
57 90 117
59 94 131
58 92 121
59 93 130
58 92 131
58 92 124
58 92 124
58 92 124
58 91 121
59 93 120
59 93 132
58 91 124
59 93 124
58 92 120
57 91 117
59 93 133
58 92 125
60 93 126
57 90 118
58 91 124
57 89 113
58 91 132
58 90 119
58 92 128
55 87 110
55 87 108
57 89 115
57 89 116
58 91 131
59 92 129
59 92 130
56 88 116
56 88 112
55 86 104
55 86 107
55 85 101
56 87 116
55 86 122
56 88 116
59 91 125
56 87 107
56 86 117
54 84 112
54 83 99
52 81 101
52 80 97
52 81 90
49 75 85
51 78 98
47 70 80
161 182 37
176 198 0
140 150 39
104 100 42
89 87 28
63 65 19
70 70 14
68 68 15
44 49 15
49 53 17
66 69 23
59 63 20
57 59 18
58 62 17
51 57 24
67 70 24
67 70 22
55 61 25
80 83 29
68 72 28
76 80 32
82 86 32
81 84 32
97 98 32
99 101 42
109 109 43
97 98 39
104 105 40
103 104 43
112 110 54
114 113 54
112 110 49
119 117 48
128 125 53
119 118 51
123 122 48
119 118 47
128 125 56
134 131 58
136 132 60
138 133 60
136 133 61
134 131 53
139 135 58
143 139 60
148 144 64
143 139 63
136 133 59
148 143 61
142 139 48
152 146 68
146 142 62
154 148 69
152 147 63
152 147 63
164 157 74
153 148 66
161 155 73
155 149 68
159 153 69
160 154 65
160 153 70
157 151 67
159 153 63
162 156 70
154 149 60
165 158 65
160 155 64
163 157 69
160 154 55
164 157 63
165 159 67
161 155 64
164 157 64
163 156 65
169 162 75
166 159 69
167 160 69
163 157 65
164 158 70
168 161 69
166 159 72
170 162 78
171 163 73
163 157 66
168 161 71
169 162 77
164 158 68
164 158 64
165 158 71
165 157 73
161 155 62
167 160 75
168 161 72
169 161 74
168 160 72
168 161 74
171 163 77
168 161 73
167 160 73
163 157 65
170 163 77
172 164 76
166 160 69
166 159 68
168 161 68
162 156 62
169 162 73
171 164 77
164 158 63
168 160 75
169 161 75
165 159 67
169 162 74
164 157 69
172 164 75
167 161 73
163 157 59
169 161 68
170 163 74
168 161 69
168 162 67
165 160 70
170 163 78
166 159 75
163 157 66
165 158 70
166 160 71
165 157 69
166 159 75
167 160 77
167 160 70
164 158 72
166 160 75
166 158 74
164 157 72
164 156 73
165 158 73
165 157 72
160 153 65
164 158 69
159 153 70
165 157 70
161 155 70
158 152 62
164 158 70
161 155 70
158 152 69
157 149 72
161 155 67
165 183 97
167 185 104
166 185 109
165 184 102
166 185 107
167 186 112
166 185 107
168 186 116
165 184 107
165 184 102
165 184 99
165 183 91
164 183 97
164 183 91
163 182 88
164 183 91
161 181 79
161 181 79
163 182 82
163 182 85
163 181 82
159 180 82
163 182 88
160 179 75
159 179 64
162 181 68
159 179 64
158 179 56
157 178 72
157 178 51
160 180 64
159 179 56
160 180 68
159 179 60
156 177 39
156 177 56
158 178 56
157 177 45
158 178 45
156 177 39
153 175 22
155 175 22
156 177 39
154 175 32
154 176 0
156 176 22
156 177 0
154 174 0
154 175 0
153 174 0
153 174 0
154 176 0
155 175 0
153 173 0
154 175 0
151 173 0
153 175 0
152 173 0
154 175 0
155 175 0
154 175 0
153 173 0
155 176 0
152 173 0
150 172 0
154 175 0
154 175 0
152 173 0
157 176 0
149 170 0
153 174 0
151 172 0
155 176 0
155 176 0
152 172 0
152 173 0
154 174 0
152 172 0
151 172 0
151 172 0
148 168 0
151 171 0
152 172 0
150 170 0
151 171 0
146 167 0
150 170 0
150 171 0
151 172 0
150 171 0
150 171 0
150 169 0
147 168 0
148 169 0
147 166 0
148 169 0
143 162 0
149 170 0
147 168 0
143 164 0
145 164 0
143 163 0
146 165 0
144 164 0
145 163 0
145 164 0
140 158 0
142 160 0
132 148 0
134 151 0
134 151 0
132 149 0
129 145 0
132 148 0
110 126 42
103 118 22
113 132 48
102 119 48
98 116 60
88 107 57
76 94 62
82 101 71
74 95 72
52 77 85
54 79 82
45 71 79
47 74 89
43 69 74
45 72 84
43 69 77
43 69 74
41 65 74
39 63 67
43 69 77
42 67 78
40 64 64
39 63 63
40 63 63
34 55 46
32 52 45
34 55 58
41 60 35
65 83 34
99 117 37
133 150 73
155 175 76
159 177 109
168 190 39
173 197 0
176 198 0
73 96 77
48 77 93
51 81 103
51 82 103
52 83 113
53 85 106
56 89 121
55 88 113
56 88 118
55 87 108
56 88 110
56 88 121
57 90 122
56 89 115
55 87 120
59 92 127
58 92 121
58 91 120
57 90 113
57 90 126
58 91 120
57 90 117
57 91 112
58 92 122
57 90 126
57 90 121
55 88 103
57 91 128
58 92 133
59 93 122
59 93 129
58 92 121
60 95 131
58 91 122
59 93 126
59 93 129
57 91 107
59 92 128
59 92 125
58 92 121
61 95 134
58 92 114
58 92 126
60 94 130
57 91 120
57 91 121
60 95 141
58 92 126
58 92 124
59 93 129
59 93 125
59 93 130
58 92 125
58 91 121
60 94 130
58 92 124
57 89 121
58 91 123
57 90 110
58 92 130
59 93 125
58 91 121
59 92 120
58 90 128
57 90 107
56 88 113
59 93 122
59 92 128
59 92 123
58 91 124
59 93 137
58 91 118
60 94 126
56 88 116
57 89 119
60 94 134
58 90 117
57 89 117
59 93 131
56 88 116
58 91 123
55 87 103
56 87 112
55 86 109
57 89 122
56 88 106
55 85 118
57 88 120
55 86 114
56 88 121
54 84 109
54 84 103
55 86 104
54 83 108
56 86 113
53 81 100
51 79 94
54 81 101
50 76 90
68 88 65
173 197 0
175 198 0
167 187 25
101 98 47
85 84 29
73 73 18
77 77 27
58 59 9
67 68 16
56 59 16
55 59 16
56 61 27
56 61 19
61 66 18
54 58 19
64 67 26
57 62 24
78 82 30
74 76 32
71 76 25
70 75 26
84 87 36
96 98 37
89 91 32
98 100 37
100 99 31
98 99 42
109 109 45
117 116 47
105 106 45
103 104 44
118 115 46
107 107 43
122 121 47
118 116 41
130 127 54
126 123 53
132 128 56
131 129 54
134 130 50
142 138 62
146 140 58
140 135 58
138 133 55
143 139 53
142 137 63
147 142 64
144 140 65
143 139 55
145 142 56
147 143 56
153 147 65
150 146 54
150 145 68
154 149 63
156 150 62
155 150 68
162 155 69
154 148 63
158 152 67
159 153 64
160 153 69
154 149 58
166 158 67
159 153 62
156 150 59
163 156 70
158 152 64
167 160 68
160 154 58
164 158 65
164 158 64
161 154 64
164 157 60
166 159 71
166 158 70
166 159 65
163 157 64
167 160 65
156 151 59
164 158 67
164 158 64
161 155 64
163 157 67
169 161 75
163 155 70
160 154 63
160 155 59
165 158 63
168 160 70
163 157 65
164 157 67
168 161 75
167 160 72
170 162 71
167 160 71
167 160 72
169 162 74
168 161 69
166 160 68
164 157 61
172 164 76
161 155 59
167 160 67
167 161 72
170 163 79
167 160 70
166 159 71
167 160 72
164 158 64
167 160 70
171 164 74
169 162 75
168 161 73
167 160 65
170 162 71
165 158 69
167 160 67
172 163 78
167 161 65
168 161 72
170 162 74
168 161 70
169 162 74
167 160 72
168 161 71
164 158 68
164 156 68
168 161 75
169 161 75
167 161 74
160 152 68
169 161 78
169 160 78
162 155 71
165 157 75
166 159 73
158 150 61
163 156 70
165 157 77
167 159 76
162 155 72
161 153 70
164 157 72
165 159 72
164 157 69
160 153 67
159 151 70
163 156 67
161 153 68
168 186 118
165 184 102
158 177 68
168 186 114
162 181 94
161 181 85
163 183 104
164 183 99
163 182 85
161 181 85
160 180 82
160 180 82
161 181 79
166 184 109
162 182 82
161 181 82
159 179 64
160 180 79
160 180 68
158 179 60
158 178 56
160 180 72
160 179 72
160 180 56
160 180 72
157 177 56
157 177 45
157 178 56
155 176 32
157 177 45
158 178 45
154 175 32
153 174 0
156 176 22
156 177 22
155 176 0
154 176 22
154 175 0
154 175 22
154 176 0
155 176 0
154 174 0
154 175 0
155 176 0
154 175 0
152 173 0
155 175 0
155 175 0
152 174 0
155 175 0
155 176 0
151 172 0
153 174 0
153 174 0
154 175 0
152 173 0
155 175 0
153 174 0
154 175 0
152 173 0
153 174 0
154 174 0
149 170 0
154 174 0
155 176 0
152 173 0
152 173 0
154 175 0
154 175 0
152 173 0
151 173 0
149 170 0
152 173 0
154 174 0
154 174 0
151 171 0
151 173 0
150 171 0
151 170 0
151 171 0
152 172 0
151 172 0
149 169 0
151 172 0
151 171 0
149 170 0
152 173 0
149 171 0
145 166 0
148 169 0
148 169 0
148 168 0
148 168 0
144 164 0
150 171 0
147 168 0
144 164 0
149 169 0
147 167 0
144 163 0
144 163 0
140 159 0
144 164 0
145 163 0
141 160 0
145 165 0
141 158 0
136 155 0
127 145 0
139 158 0
133 152 0
125 141 0
132 150 0
125 141 16
118 133 0
117 133 32
115 133 36
103 119 35
92 108 50
81 97 55
82 102 69
80 98 67
71 91 66
62 84 72
55 77 69
43 69 69
43 69 69
44 69 76
45 72 82
44 69 77
43 68 72
41 65 78
41 65 77
41 65 74
39 63 58
39 63 55
37 60 50
38 61 63
33 53 45
33 54 38
42 61 41
66 85 22
73 91 30
114 132 47
141 161 42
154 174 60
151 168 82
173 197 0
174 198 0
174 198 0
103 124 66
50 80 94
52 83 115
48 78 88
55 87 115
52 83 111
56 89 118
55 87 118
55 88 111
57 90 118
55 87 116
57 91 124
57 91 124
56 89 115
57 89 120
58 91 124
56 89 116
56 89 122
57 90 115
57 90 117
57 91 119
59 92 128
57 90 123
58 91 125
58 91 117
58 92 126
58 92 133
57 90 112
57 91 124
58 92 116
58 92 115
57 89 119
57 90 127
58 93 122
58 91 113
58 90 115
60 94 134
57 91 122
55 87 107
59 92 120
59 92 126
57 91 118
58 91 113
58 92 125
60 94 136
56 89 108
60 94 127
58 92 124
59 94 129
58 92 128
58 91 121
60 94 131
58 92 115
58 92 126
58 92 124
58 91 122
59 94 133
57 91 115
57 90 125
55 88 103
58 92 118
58 92 125
57 90 114
58 91 123
56 89 115
56 89 110
57 90 115
58 91 123
58 92 120
59 93 130
58 91 124
58 91 128
57 89 114
59 93 128
59 92 131
59 92 128
57 89 116
59 91 127
57 90 118
56 88 109
57 89 114
57 90 114
57 88 106
55 86 112
57 90 121
56 88 119
58 89 120
55 86 106
55 87 113
54 83 107
56 87 114
53 83 100
55 85 104
54 83 100
54 84 106
50 76 94
53 80 91
53 81 104
47 71 92
117 136 35
174 198 0
174 198 0
174 198 0
128 127 52
96 93 46
74 74 23
68 67 18
63 65 5
67 69 21
54 58 19
54 57 18
64 68 20
65 66 19
61 66 25
52 57 18
70 74 23
67 71 21
74 78 25
68 71 23
72 74 20
72 77 27
89 91 37
88 88 36
87 87 24
91 92 31
87 90 31
100 100 36
109 109 42
112 111 44
115 114 50
114 112 47
109 109 47
120 118 50
119 116 43
120 119 48
129 125 48
122 120 41
119 118 49
125 124 48
131 129 45
136 133 54
138 134 51
133 129 51
136 131 56
132 130 52
134 130 51
152 146 59
142 138 56
135 133 46
147 143 61
143 140 52
150 145 62
155 148 62
153 147 62
151 147 61
155 150 61
154 148 57
159 152 72
163 157 67
154 148 63
160 154 63
165 158 68
156 151 57
158 152 57
162 155 67
163 157 69
160 153 61
161 155 64
159 153 63
164 157 60
158 151 63
163 156 67
159 153 56
167 160 70
163 157 64
162 154 72
167 161 75
165 159 64
164 157 66
163 156 58
165 159 68
165 158 65
160 153 63
166 159 67
165 159 68
167 161 72
161 155 58
172 164 80
169 161 74
162 155 64
169 161 75
168 161 68
163 156 56
163 157 62
161 155 60
169 161 73
164 158 64
167 160 70
164 158 63
168 161 69
162 157 57
163 157 62
160 154 57
168 161 72
164 157 62
167 160 69
170 162 72
164 158 64
164 158 68
167 159 68
167 159 74
162 156 62
169 162 71
167 160 71
167 160 70
167 160 75
168 161 69
166 160 68
167 160 68
167 158 69
166 159 65
170 162 73
166 159 65
164 157 69
164 157 74
170 163 76
169 161 74
168 161 75
165 159 77
166 159 73
167 159 72
161 155 71
167 160 75
170 162 76
168 160 75
163 157 68
167 159 75
163 157 69
163 156 69
162 154 73
157 150 67
159 152 68
165 158 75
164 156 73
164 158 77
162 155 67
163 156 74
159 152 71
162 154 76
163 156 78
163 182 91
163 182 88
165 184 99
163 182 79
161 181 88
161 181 75
161 181 72
161 181 85
159 180 68
160 180 68
160 180 79
159 179 60
159 179 72
156 177 60
162 181 82
163 182 88
160 180 68
159 179 45
156 177 45
158 178 56
159 179 60
155 176 39
154 175 32
156 177 22
156 177 22
155 176 22
153 175 0
154 175 0
155 176 0
155 175 0
154 175 0
156 176 0
155 176 0
148 170 0
157 177 0
153 174 0
153 175 0
153 174 0
154 175 0
155 175 0
155 176 0
154 175 0
154 175 0
154 176 0
151 172 0
154 175 0
155 176 0
154 175 0
155 176 0
154 174 0
153 173 0
155 175 0
154 175 0
154 175 0
152 173 0
154 175 0
153 174 0
153 174 0
152 172 0
151 172 0
152 173 0
148 169 0
150 172 0
154 174 0
152 172 0
152 173 0
154 174 0
151 172 0
151 172 0
152 173 0
149 170 0
151 172 0
153 174 0
149 169 0
152 174 0
150 171 0
152 173 0
153 173 0
151 171 0
151 171 0
151 172 0
152 173 0
149 169 0
151 172 0
149 170 0
149 170 0
150 171 0
142 162 0
145 165 0
148 169 0
147 167 0
147 166 0
148 169 0
145 165 0
147 168 0
144 164 0
144 164 0
147 165 0
142 162 0
143 163 0
139 159 0
139 158 0
140 159 0
142 162 0
142 161 0
140 159 0
133 151 0
132 150 0
130 146 0
142 161 0
129 144 0
126 143 0
117 132 0
125 142 0
124 139 0
109 126 42
105 119 42
100 117 42
101 117 38
93 111 62
87 105 54
64 83 62
69 90 51
58 81 74
51 74 63
48 71 65
41 66 65
43 69 71
44 70 71
44 70 65
42 67 71
42 66 80
43 68 79
39 63 54
39 63 53
35 56 41
36 58 50
38 61 54
39 61 52
47 67 39
66 84 44
78 95 19
101 120 37
132 151 27
148 167 32
149 168 68
156 175 64
174 197 0
173 197 0
175 198 0
148 170 34
49 78 94
52 83 88
54 85 111
55 86 115
55 87 120
55 87 117
55 87 120
55 87 113
56 89 116
57 90 115
55 87 110
57 90 120
55 87 106
56 89 122
56 89 119
57 90 121
58 91 124
59 93 128
57 91 116
56 89 124
56 89 111
58 92 122
58 91 117
58 91 114
58 91 122
60 94 131
57 90 125
57 91 121
58 92 122
57 91 119
59 93 128
57 90 108
59 93 127
57 90 117
57 91 115
58 91 127
56 89 119
56 89 109
57 90 115
56 89 105
58 92 124
58 91 117
58 91 126
56 89 113
56 89 113
59 93 128
58 91 120
59 92 126
59 92 126
57 90 112
60 94 126
57 91 122
57 91 126
58 91 126
57 90 118
59 93 125
58 91 118
57 90 115
57 90 117
58 92 118
60 94 128
57 90 124
58 92 121
58 92 126
59 92 124
57 89 110
59 93 128
58 91 120
57 90 118
59 92 124
59 93 126
57 90 117
58 90 121
56 88 116
56 87 110
59 92 123
56 88 110
56 89 121
58 90 121
57 89 118
57 88 115
55 85 105
55 87 113
57 89 117
56 87 111
56 87 115
57 89 122
57 89 116
56 86 111
55 85 110
52 80 93
54 84 101
50 77 90
53 82 96
50 76 91
49 75 86
51 77 88
47 71 74
145 167 37
176 198 0
175 197 0
174 198 0
144 155 34
101 97 33
82 81 27
78 78 27
66 66 25
78 78 19
62 64 16
54 57 15
69 69 15
62 64 15
64 66 20
60 63 19
72 75 18
71 74 24
65 70 25
76 80 22
87 89 22
81 82 22
82 84 28
88 88 32
93 94 35
94 95 37
86 89 36
95 97 32
102 102 36
98 100 36
107 107 38
105 105 37
120 118 52
115 114 45
119 118 51
120 116 46
125 122 47
129 126 48
131 128 48
121 119 42
139 136 49
143 139 53
124 122 44
137 133 52
145 141 57
144 138 55
139 135 61
142 138 56
140 136 48
155 149 62
146 142 60
150 145 49
153 147 62
148 142 61
152 146 55
154 148 67
149 144 56
159 153 61
152 147 57
152 148 57
153 147 58
158 152 66
153 147 60
161 154 62
159 153 61
154 150 57
155 150 51
165 157 72
160 154 59
160 154 63
151 146 57
154 150 51
157 150 53
163 157 66
159 154 61
163 158 63
155 150 48
161 155 64
162 154 64
162 156 64
166 159 70
164 157 64
165 159 66
157 151 56
167 160 66
169 161 70
166 159 60
160 154 63
167 160 71
164 157 66
162 156 58
164 157 66
168 160 69
166 160 66
164 158 62
161 155 60
166 159 72
167 160 66
166 160 67
168 160 74
164 157 64
164 158 63
165 159 68
162 154 60
161 155 56
163 156 65
165 158 65
166 159 67
168 161 75
166 159 70
167 160 69
164 158 62
166 160 68
167 160 69
163 156 64
169 161 74
165 159 70
167 160 67
169 162 73
168 161 66
169 162 71
168 161 70
174 165 80
173 164 80
164 158 71
168 161 71
165 158 65
166 160 68
167 160 73
166 158 72
168 161 78
165 158 65
168 159 78
162 155 64
168 161 73
169 161 79
163 156 69
160 154 64
167 159 76
162 156 72
164 157 70
162 155 68
167 160 75
160 152 66
165 157 77
156 150 64
159 153 64
155 149 61
161 153 74
161 155 66
153 146 69
161 181 88
159 179 64
159 179 64
156 177 60
160 180 68
159 179 64
160 180 68
160 180 68
161 180 68
157 177 32
158 178 45
157 177 45
157 177 45
157 178 56
157 177 51
158 178 45
157 177 32
155 176 0
154 174 39
156 177 22
154 175 0
154 175 0
155 176 0
157 177 0
155 176 0
153 175 0
155 176 0
154 175 0
155 175 0
153 174 0
153 175 0
156 177 0
153 175 0
152 174 0
155 175 0
156 177 0
152 174 0
155 176 0
153 174 0
152 173 0
155 175 0
155 176 0
154 175 0
153 174 0
152 173 0
153 174 0
152 173 0
153 175 0
154 175 0
151 172 0
154 175 0
151 172 0
153 174 0
152 174 0
153 175 0
151 173 0
154 175 0
151 173 0
152 174 0
153 174 0
153 173 0
151 172 0
152 173 0
152 173 0
150 171 0
152 173 0
152 173 0
150 171 0
150 171 0
150 171 0
154 175 0
150 172 0
150 171 0
153 173 0
151 172 0
149 170 0
147 167 0
147 167 0
150 170 0
150 171 0
147 168 0
150 169 0
148 168 0
149 170 0
147 168 0
150 170 0
145 165 0
143 164 0
144 165 0
146 166 0
147 167 0
145 166 0
149 169 0
142 161 0
143 163 0
148 168 0
144 164 0
140 159 0
139 158 0
140 160 0
140 159 0
141 161 0
142 161 0
131 150 0
133 152 0
140 160 0
138 155 0
139 159 0
126 145 0
136 155 0
123 141 0
129 147 0
128 145 0
124 142 0
121 138 0
118 135 0
109 127 38
101 119 39
85 100 39
107 124 48
86 103 57
83 101 51
66 86 67
63 83 63
45 67 69
52 74 59
52 73 63
52 75 72
43 67 70
43 68 72
42 66 69
40 63 64
41 66 69
39 63 51
38 60 54
36 59 52
39 60 53
42 62 34
49 69 46
72 90 21
81 99 40
107 126 27
117 137 28
147 167 0
149 169 51
148 167 72
170 191 45
174 197 0
174 197 0
173 197 0
169 193 18
51 77 80
50 80 99
52 82 104
51 81 105
55 86 110
55 86 111
55 87 121
54 86 106
56 88 113
57 90 127
56 89 118
56 88 112
56 88 114
55 87 103
57 90 117
58 92 126
57 90 113
57 89 125
56 88 108
57 91 119
56 88 116
59 93 134
58 92 125
58 91 126
58 91 120
58 91 118
56 89 111
58 92 115
57 91 117
57 90 119
57 89 113
58 92 125
57 90 108
59 92 127
57 91 125
59 92 127
59 92 123
56 89 114
59 94 129
58 92 125
57 91 125
59 93 131
56 89 118
58 92 118
56 88 111
59 93 124
59 92 128
56 89 114
60 94 129
59 92 126
57 90 123
58 92 121
58 92 121
59 92 129
57 90 108
57 91 120
58 91 117
57 91 117
58 91 125
57 91 124
57 90 116
57 90 114
58 91 128
59 93 126
59 92 128
59 92 118
57 90 116
59 93 133
57 90 124
58 91 124
57 90 121
57 90 117
56 87 115
57 90 116
57 90 120
57 90 120
56 88 109
56 89 117
57 90 121
55 87 115
58 91 118
55 86 106
56 88 119
56 87 109
56 88 118
58 90 114
58 89 116
57 88 121
57 89 122
55 85 107
54 84 109
54 83 104
51 79 89
53 80 97
53 82 105
53 81 101
46 71 93
61 84 85
170 193 0
172 196 0
173 196 0
173 197 0
166 187 11
104 100 44
89 89 31
73 72 17
74 73 28
79 77 25
56 57 13
61 63 9
64 66 15
75 76 19
58 61 16
64 66 18
62 65 19
72 74 25
68 71 28
69 71 24
76 77 17
91 94 25
74 77 30
82 83 26
88 90 29
96 96 31
95 97 36
103 104 36
106 105 35
104 104 34
105 104 39
116 114 48
108 107 42
121 119 53
104 105 43
119 118 45
123 122 48
124 123 50
132 129 49
120 119 45
137 131 52
127 124 48
122 119 45
141 136 51
134 130 56
135 132 47
137 132 52
150 144 54
139 136 52
144 140 47
144 140 54
142 138 58
141 137 51
145 140 46
150 145 49
148 143 56
150 145 55
156 150 64
154 148 60
159 152 64
157 151 52
156 150 57
153 148 58
155 149 57
163 156 67
154 147 54
155 148 58
157 151 61
159 153 59
165 158 61
166 159 67
163 156 65
157 150 57
163 156 62
161 155 59
161 155 60
162 155 62
165 158 65
160 154 57
164 157 64
165 158 69
162 155 57
165 157 66
159 153 54
160 154 63
158 151 56
160 154 59
166 160 68
166 159 69
166 160 65
160 154 56
161 155 58
164 158 67
163 157 60
164 157 64
167 160 71
163 156 60
166 159 66
160 154 58
164 158 63
164 157 68
170 162 74
165 159 64
165 159 74
165 159 71
164 157 67
163 156 65
160 155 59
164 158 62
165 158 68
167 161 65
167 159 69
165 158 72
169 161 70
166 159 70
166 159 66
170 163 74
166 158 69
170 162 73
162 156 58
166 160 67
167 160 68
166 159 65
166 159 67
167 159 70
166 159 75
168 161 77
168 161 68
165 157 63
164 158 62
164 157 70
166 159 74
164 156 65
163 156 72
163 156 71
163 155 62
169 162 79
163 156 68
160 153 65
161 155 66
162 155 70
160 152 70
171 162 76
165 158 76
166 160 74
161 154 75
163 155 76
164 158 65
159 152 64
163 156 75
156 148 76
159 179 64
160 179 60
159 179 60
156 176 32
158 178 45
157 177 45
160 180 72
155 176 39
155 176 22
156 176 32
155 176 22
157 177 39
157 177 22
155 176 0
155 176 0
155 176 0
154 175 0
155 176 0
157 177 0
155 176 0
154 175 0
154 175 0
154 175 0
154 176 0
154 174 0
154 175 0
154 175 0
155 176 0
155 176 0
154 175 0
153 174 0
152 174 0
156 177 0
155 176 0
153 174 0
154 175 0
154 175 0
155 176 0
154 175 0
154 174 0
153 174 0
153 174 0
151 173 0
154 174 0
155 176 0
151 172 0
153 174 0
153 174 0
156 176 0
153 174 0
154 174 0
153 174 0
154 174 0
152 173 0
152 174 0
150 171 0
150 171 0
152 174 0
152 173 0
152 173 0
151 173 0
151 172 0
151 171 0
153 175 0
153 174 0
153 174 0
148 169 0
150 170 0
151 171 0
150 171 0
153 173 0
147 168 0
151 172 0
152 174 0
151 170 0
150 171 0
147 167 0
150 171 0
152 173 0
150 170 0
150 171 0
148 169 0
147 168 0
149 169 0
149 170 0
150 171 0
145 166 0
147 167 0
145 166 0
143 163 0
141 162 0
144 164 0
142 162 0
145 164 0
146 166 0
141 161 0
140 159 0
137 157 0
145 165 0
140 159 0
140 160 0
140 160 0
130 149 0
139 158 0
136 154 0
141 161 0
133 153 0
130 148 0
132 150 0
129 147 0
133 151 0
130 147 0
121 139 0
120 137 0
122 138 0
113 130 0
113 129 22
112 129 32
84 100 35
85 102 35
71 89 64
77 94 55
71 88 49
62 81 49
67 86 56
56 76 56
42 62 55
47 68 61
49 72 57
40 64 66
43 66 52
42 64 58
41 64 62
42 65 59
39 61 44
42 60 36
46 68 52
53 72 45
65 81 33
83 101 19
94 112 36
106 124 37
128 148 21
147 168 0
147 167 22
148 167 68
172 196 0
174 197 0
172 196 0
176 198 0
175 198 0
115 137 71
49 77 86
51 81 95
55 87 115
56 87 105
56 88 114
54 86 108
56 88 113
56 88 115
55 86 113
56 88 108
57 90 120
54 87 109
57 90 112
56 89 111
57 90 122
56 89 112
56 89 120
56 89 113
57 90 118
56 89 111
57 89 114
56 88 108
56 89 112
57 91 119
58 91 119
57 91 118
58 91 120
59 92 125
59 92 133
57 90 111
57 91 119
58 92 125
58 91 121
58 92 122
58 92 128
56 88 110
59 93 120
57 90 117
57 90 121
58 91 121
57 91 115
58 92 114
59 93 124
59 93 125
56 89 114
56 89 114
58 91 118
57 91 117
56 88 105
58 91 128
58 92 128
57 90 117
58 91 125
58 92 120
58 91 114
57 91 113
55 88 114
57 90 124
57 90 122
57 90 124
57 91 115
59 92 132
58 92 125
58 91 114
58 91 115
59 93 126
57 90 118
58 92 124
58 91 126
55 87 109
56 89 110
58 90 116
57 90 117
56 88 116
56 88 112
55 87 109
57 89 115
56 87 113
58 91 124
56 88 114
56 87 113
53 84 96
57 89 117
56 88 106
56 88 110
54 84 98
55 85 102
53 83 103
54 83 103
51 79 94
52 80 92
51 79 83
51 79 89
52 81 106
48 73 68
48 73 79
106 125 48
175 198 0
173 195 0
173 197 0
171 195 0
173 196 0
131 138 39
93 91 33
82 80 24
85 83 23
80 79 13
66 66 15
62 65 16
69 71 12
68 71 12
68 69 17
62 66 22
57 62 21
70 71 22
77 79 25
79 81 24
85 87 27
84 88 34
78 82 27
88 88 30
92 93 20
95 95 28
102 103 34
91 93 33
101 102 30
99 100 31
106 106 31
104 103 39
114 113 35
131 127 46
118 116 46
114 113 45
109 109 33
119 118 41
129 126 44
128 125 37
129 126 47
134 130 45
139 136 51
118 117 43
132 127 43
137 133 54
129 126 46
139 135 53
140 137 46
141 137 51
138 133 44
145 140 58
139 134 49
151 146 51
148 143 52
147 142 49
155 148 63
151 145 58
147 141 51
149 145 48
154 147 53
155 148 57
156 150 58
156 150 59
153 147 54
159 154 59
160 154 64
153 147 47
159 153 63
159 154 59
166 159 70
161 154 64
158 152 53
161 155 60
158 151 54
159 152 59
160 154 58
161 155 56
158 153 54
161 155 61
159 152 56
161 155 62
162 155 67
160 153 59
164 156 67
163 156 64
165 159 63
165 157 62
169 162 73
160 154 62
167 159 70
158 153 54
165 157 69
160 154 59
165 157 64
164 156 68
163 157 61
163 157 59
168 161 67
163 156 64
162 155 56
164 157 59
166 159 61
162 155 58
168 161 70
161 155 65
167 159 64
166 159 65
165 158 69
164 157 70
161 154 53
163 157 68
164 157 64
165 159 64
162 156 63
168 160 75
165 158 68
165 158 69
160 153 61
168 161 72
166 160 67
165 159 71
168 161 69
163 155 59
166 158 70
162 156 59
166 159 68
166 159 61
169 161 72
164 157 66
161 155 63
165 159 72
169 162 79
160 154 68
161 154 68
161 153 62
167 160 74
162 157 66
169 161 78
158 151 62
163 156 72
158 151 67
159 153 60
162 154 66
162 156 68
158 151 64
161 155 66
156 149 62
161 153 68
162 155 72
156 149 62
158 177 39
156 177 45
154 175 0
156 177 22
155 176 32
157 177 0
154 175 0
156 177 0
154 176 0
153 174 0
155 176 0
155 176 0
156 176 0
154 176 0
155 176 0
155 176 0
156 177 0
155 175 0
153 173 0
153 174 0
155 177 0
155 176 0
155 175 0
154 175 0
153 174 0
154 175 0
154 175 0
153 174 0
155 175 0
154 175 0
154 173 0
156 176 0
155 176 0
153 174 0
155 175 0
152 174 0
152 173 0
154 174 0
151 172 0
153 174 0
154 175 0
155 175 0
153 174 0
153 174 0
154 175 0
155 175 0
151 173 0
154 174 0
153 173 0
149 171 0
153 174 0
150 172 0
152 174 0
152 173 0
153 174 0
152 172 0
154 174 0
151 172 0
148 169 0
153 173 0
151 171 0
151 173 0
151 171 0
155 175 0
154 174 0
150 171 0
147 168 0
151 172 0
150 171 0
150 171 0
148 169 0
149 169 0
146 167 0
152 173 0
148 168 0
148 168 0
150 170 0
150 170 0
146 166 0
151 171 0
147 167 0
147 167 0
150 170 0
147 168 0
148 169 0
149 170 0
148 169 0
147 168 0
146 166 0
142 162 0
147 168 0
143 164 0
142 162 0
146 166 0
143 162 0
146 166 0
139 159 0
144 164 0
143 162 0
139 158 0
135 154 0
133 154 0
140 160 0
128 146 0
129 147 0
133 153 0
134 154 0
131 152 0
125 144 0
130 148 0
127 145 0
118 136 0
118 136 0
118 136 0
110 127 0
116 133 0
108 124 0
97 112 22
112 128 31
95 113 56
88 106 28
86 104 45
73 91 45
66 84 53
66 85 55
55 75 50
57 75 19
45 66 42
45 67 53
43 64 52
41 62 53
44 66 47
54 73 65
46 66 44
46 66 42
50 69 29
57 75 42
71 89 45
83 100 28
89 106 27
108 126 35
127 147 10
138 158 0
149 170 0
147 166 39
160 180 51
172 196 0
171 195 0
173 197 0
174 197 0
173 196 0
149 172 45
48 77 81
51 81 108
51 80 93
53 85 110
56 88 115
55 87 119
53 84 100
52 83 103
57 90 129
56 89 115
56 88 119
55 88 108
55 87 108
57 89 113
56 89 118
56 89 116
57 90 117
57 90 113
57 90 114
56 89 119
55 87 112
58 91 109
58 92 126
55 88 110
58 92 118
56 89 121
56 88 111
58 91 118
58 91 128
60 93 125
58 91 120
59 93 130
58 91 116
57 90 120
59 92 128
59 93 121
54 86 107
58 92 121
57 90 110
57 91 122
58 91 126
56 90 114
59 93 128
58 91 129
60 94 134
58 92 120
58 91 122
58 91 120
57 90 125
57 90 121
59 92 113
58 91 118
58 92 133
58 91 120
58 91 114
58 92 121
59 92 122
58 92 126
58 92 114
57 90 121
58 91 120
56 88 110
56 88 100
56 88 107
57 89 117
56 88 110
54 86 108
57 90 111
57 89 116
56 89 110
57 90 115
58 91 117
59 91 124
57 89 110
58 91 110
55 87 108
58 91 123
55 87 107
56 87 112
55 87 103
55 84 103
56 86 116
54 85 109
55 87 97
54 85 103
56 86 108
53 82 108
53 82 100
55 86 111
54 85 110
54 84 97
54 83 106
52 82 94
52 80 91
50 77 101
50 75 84
147 169 41
172 197 0
172 196 0
173 197 0
175 198 0
174 197 0
151 168 19
114 110 47
97 95 28
76 74 25
76 76 17
75 75 23
66 68 18
64 65 11
69 71 18
61 64 17
64 65 20
76 75 15
75 76 20
76 76 16
74 77 22
75 78 25
82 84 16
82 84 25
82 84 24
88 89 26
88 89 20
102 102 28
100 100 26
96 96 31
89 91 29
101 100 34
96 97 16
122 119 44
108 109 44
99 99 37
124 123 35
126 124 43
122 119 44
130 127 48
119 116 43
129 126 48
123 121 39
122 120 44
134 130 46
134 130 48
131 128 40
141 136 57
140 135 34
139 134 46
138 134 45
143 139 54
147 143 54
152 146 52
143 140 50
150 144 50
156 150 58
146 142 36
152 146 54
151 147 43
146 141 47
155 150 56
155 149 60
156 149 53
158 153 57
155 150 52
153 147 53
151 147 47
155 148 59
158 151 54
160 154 60
154 148 56
157 151 59
158 152 54
157 152 51
161 153 63
160 153 62
158 152 58
155 149 57
165 158 63
160 153 63
161 154 57
156 151 53
163 156 61
157 153 52
162 156 61
159 153 56
163 156 60
160 153 52
161 154 53
161 155 58
161 154 62
161 155 56
164 157 68
160 154 57
166 159 68
159 153 56
166 158 64
162 155 51
167 160 67
167 159 68
165 157 63
164 158 65
163 157 61
163 156 61
167 160 62
164 157 65
166 160 64
163 156 58
163 156 61
166 159 68
164 157 60
172 164 75
165 159 67
167 159 62
165 159 67
164 156 63
168 161 70
162 155 60
167 160 64
167 160 69
168 162 71
160 154 61
163 156 64
162 155 62
167 160 70
166 159 71
163 156 67
160 153 58
162 155 61
170 162 77
163 156 66
164 156 66
163 158 68
166 158 72
160 154 67
163 156 69
158 152 65
162 155 72
163 156 68
167 159 70
158 151 65
161 154 70
161 155 71
161 154 69
163 156 70
160 153 63
161 153 69
164 157 74
162 155 69
162 155 72
160 153 64
155 176 32
155 176 0
156 177 0
155 176 0
155 176 0
154 174 0
156 177 0
155 176 0
156 177 0
156 177 0
153 175 0
154 176 0
155 175 0
154 174 0
155 175 0
153 175 0
155 175 0
156 177 0
155 176 0
155 176 0
153 174 0
154 174 0
153 174 0
153 174 0
154 174 0
153 174 0
155 176 0
152 173 0
152 173 0
153 174 0
154 175 0
152 174 0
156 177 0
153 174 0
155 176 0
154 175 0
154 175 0
152 173 0
152 173 0
153 173 0
154 175 0
154 174 0
154 175 0
153 174 0
155 175 0
155 175 0
152 173 0
152 174 0
152 173 0
153 174 0
152 173 0
152 173 0
154 175 0
152 174 0
153 173 0
152 173 0
153 174 0
152 173 0
151 172 0
154 175 0
150 171 0
151 172 0
151 172 0
152 172 0
150 170 0
149 170 0
149 170 0
148 169 0
148 169 0
152 173 0
150 170 0
146 168 0
149 169 0
148 169 0
149 170 0
142 163 0
147 167 0
151 170 0
150 170 0
145 167 0
148 169 0
148 169 0
139 160 0
146 167 0
145 165 0
144 165 0
147 169 0
151 172 0
146 166 0
145 166 0
142 163 0
144 165 0
142 161 0
145 165 0
137 158 0
138 159 0
140 161 0
141 160 0
140 159 0
142 162 0
145 164 0
136 156 0
132 151 0
135 153 0
133 151 0
129 148 0
121 141 0
129 148 0
123 140 0
123 143 0
116 134 0
122 141 0
125 142 0
115 133 0
116 134 0
105 121 0
122 139 0
102 118 22
96 114 32
100 116 42
102 118 28
76 94 35
83 100 40
74 90 44
79 95 48
64 82 53
54 71 42
48 67 49
54 73 52
53 73 48
42 63 40
46 64 41
56 75 50
54 71 36
61 79 51
63 83 53
66 84 44
75 93 32
98 116 28
111 130 18
117 135 23
139 159 16
147 168 0
146 167 0
144 163 56
174 197 0
174 197 0
173 197 0
173 196 0
172 196 0
171 195 0
168 191 0
65 90 78
49 77 92
52 83 93
50 79 94
54 85 105
55 87 110
54 86 101
53 84 103
54 85 105
56 89 118
56 88 116
54 86 98
56 89 115
57 89 116
55 88 103
56 89 108
57 90 129
58 91 122
56 89 113
56 89 109
59 93 123
56 88 112
57 90 117
56 89 119
59 93 131
56 89 112
58 91 118
58 91 121
57 90 123
58 92 130
59 93 131
58 91 124
58 91 122
57 91 114
58 91 115
58 91 122
59 93 127
57 90 114
56 89 114
57 90 109
59 92 130
58 92 124
57 90 113
58 91 118
57 89 113
59 94 129
57 91 111
57 90 110
58 92 125
58 91 117
57 90 113
58 91 122
57 90 115
58 91 121
58 91 114
58 91 120
57 90 113
59 93 124
58 91 111
57 90 115
55 88 113
59 92 129
57 89 113
58 91 112
58 91 126
57 89 108
57 89 117
56 89 114
55 88 117
55 87 107
58 91 129
57 90 115
57 90 114
56 88 113
55 86 108
57 89 113
56 88 106
56 87 112
57 88 111
55 86 110
55 87 97
57 89 118
54 85 99
57 90 117
55 86 112
52 82 91
54 85 103
54 83 104
55 84 100
52 81 102
53 81 107
50 77 82
53 81 89
51 78 90
48 73 83
73 92 47
169 193 18
172 195 0
174 198 0
173 196 0
172 195 0
172 196 0
172 195 0
125 128 42
102 99 34
84 80 33
86 82 33
77 78 22
69 69 7
80 80 11
74 77 12
62 65 14
77 77 14
68 71 22
65 67 13
76 77 17
76 77 16
81 84 24
88 89 26
78 81 16
86 88 27
82 82 17
90 91 26
104 104 30
103 103 26
100 101 24
102 102 26
103 102 26
101 101 26
111 108 33
110 110 27
115 115 25
126 123 41
114 113 38
124 123 40
127 125 40
121 119 30
118 117 43
134 130 52
123 121 46
131 127 41
134 131 41
136 133 41
129 127 40
130 127 34
137 134 40
142 138 50
144 140 51
151 144 57
141 137 51
140 136 42
142 138 44
154 149 56
152 146 53
145 141 46
149 143 55
154 148 54
157 151 59
158 153 53
149 144 36
159 153 60
153 149 52
162 155 60
158 151 60
156 150 52
154 148 52
152 147 51
158 152 62
159 153 54
159 154 54
156 150 57
158 152 57
160 153 58
157 150 58
163 156 62
162 155 57
162 156 56
155 149 54
162 156 58
151 147 41
161 155 57
166 158 68
163 156 64
161 154 59
157 151 49
167 159 64
164 157 61
160 154 57
164 157 62
158 152 53
162 155 56
154 148 52
163 155 58
164 159 60
158 152 57
157 152 54
161 156 57
159 154 56
165 158 68
167 161 65
164 157 61
159 152 54
164 157 66
164 157 59
161 155 58
163 157 58
160 155 49
166 158 69
166 158 61
160 153 62
166 160 70
170 162 74
161 155 58
165 158 67
167 160 69
169 162 73
168 160 69
164 156 59
168 161 70
168 161 70
167 160 66
165 158 68
162 155 62
166 158 68
166 159 67
162 156 59
168 161 66
162 154 65
161 154 67
163 156 63
161 155 62
159 153 64
157 150 63
159 153 63
163 156 70
163 155 75
166 158 76
156 150 67
160 153 65
161 154 71
159 153 59
163 156 66
156 149 60
160 153 63
155 148 63
160 153 69
161 155 63
162 154 74
153 175 0
155 176 0
157 177 0
157 177 0
153 175 0
156 177 0
154 174 0
156 176 0
153 174 0
154 175 0
155 176 0
155 175 0
157 177 0
154 174 0
153 174 0
155 175 0
154 175 0
154 175 0
153 173 0
154 175 0
156 176 0
155 176 0
154 175 0
153 174 0
152 172 0
154 175 0
154 175 0
154 175 0
154 174 0
151 172 0
152 173 0
151 172 0
153 174 0
153 174 0
152 173 0
153 174 0
153 174 0
152 173 0
152 173 0
153 174 0
153 173 0
151 171 0
154 175 0
151 172 0
151 172 0
152 173 0
153 174 0
153 174 0
153 174 0
151 172 0
154 175 0
152 173 0
149 170 0
147 168 0
153 174 0
152 172 0
150 171 0
153 174 0
153 173 0
151 173 0
154 174 0
152 173 0
147 168 0
152 173 0
149 170 0
151 172 0
151 171 0
149 169 0
147 167 0
149 169 0
149 170 0
148 167 0
147 166 0
149 169 0
148 169 0
146 167 0
149 170 0
149 169 0
147 167 0
147 168 0
145 165 0
143 163 0
147 168 0
147 168 0
146 166 0
144 164 0
146 166 0
144 165 0
143 163 0
143 163 0
142 161 0
143 162 0
143 163 0
141 162 0
140 159 0
144 164 0
143 163 0
138 159 0
137 156 0
141 161 0
136 154 0
135 155 0
131 150 0
131 151 0
136 155 0
128 147 0
118 137 0
121 141 0
122 141 0
119 138 0
130 148 0
121 140 0
128 146 0
115 133 0
111 129 0
104 121 0
110 127 0
104 121 0
98 114 16
90 105 16
95 111 32
84 100 42
76 93 42
78 95 36
70 86 32
66 83 35
61 81 49
66 84 38
61 78 17
53 70 44
64 81 45
60 78 37
57 75 45
65 83 39
57 75 30
68 84 28
74 90 31
89 107 20
102 120 24
123 141 16
129 148 0
135 154 0
142 162 0
140 160 0
161 183 39
169 193 0
174 197 0
172 196 0
172 195 0
173 196 0
174 197 0
173 196 0
133 154 47
50 80 97
52 82 97
51 82 102
52 83 97
53 84 92
54 85 106
53 84 99
55 88 108
56 89 109
54 86 101
56 89 99
54 87 107
56 88 113
56 88 115
54 86 98
57 90 125
56 89 121
57 91 121
58 92 125
57 90 112
55 87 106
56 89 116
57 90 114
56 88 118
58 91 127
58 92 120
57 91 115
58 92 129
57 91 115
56 89 102
57 91 124
57 91 121
56 89 108
58 91 127
58 92 120
57 91 111
57 90 117
58 92 121
57 90 117
58 92 121
56 89 113
59 94 130
58 91 120
58 91 124
58 91 125
58 91 115
58 92 124
56 89 125
57 89 113
56 89 120
58 92 117
58 91 120
57 90 124
58 92 128
56 90 108
56 89 114
55 87 104
56 89 111
58 91 123
57 90 126
57 90 117
58 91 125
58 91 108
56 88 115
57 91 115
58 91 120
56 89 115
59 92 126
55 87 109
56 89 110
57 90 115
56 89 121
57 90 112
56 88 106
56 89 116
56 88 105
56 88 110
54 85 107
57 89 127
55 86 110
54 84 93
54 85 106
55 85 109
53 83 107
53 84 98
55 86 110
52 81 91
52 81 100
51 79 88
53 81 102
52 80 92
53 81 92
48 73 80
42 64 68
134 156 41
173 197 0
171 195 0
171 194 0
173 197 0
173 197 0
173 197 0
174 197 0
153 169 29
98 95 32
101 96 36
81 78 23
72 71 19
69 70 22
67 66 22
68 69 13
71 73 18
76 77 17
76 74 3
83 80 5
76 78 14
73 76 10
79 80 25
74 76 18
77 79 18
84 85 22
84 85 22
93 93 27
92 92 25
103 103 32
97 98 22
89 90 28
103 103 26
112 111 29
116 113 35
117 115 29
121 118 28
111 111 37
114 111 39
117 115 33
127 124 39
117 115 38
122 119 42
140 135 50
136 132 40
123 120 39
126 123 32
137 134 50
131 129 50
132 128 39
136 134 38
135 129 40
145 139 55
141 136 50
146 140 52
144 139 42
141 137 46
148 143 46
152 146 51
147 142 48
150 145 55
143 139 45
153 147 54
149 144 47
147 142 44
148 144 48
151 146 44
154 150 44
160 153 61
154 150 51
158 152 58
157 151 52
152 146 48
157 152 57
157 151 49
155 148 56
157 151 53
160 153 54
157 151 58
157 150 56
156 149 52
159 154 54
157 151 53
158 151 53
157 152 51
164 156 64
164 158 60
161 153 59
159 153 49
159 154 49
155 150 48
163 156 62
163 156 59
158 152 57
160 154 54
156 149 52
162 156 57
155 149 52
160 154 52
159 153 51
160 154 56
163 157 58
163 155 65
163 157 54
162 156 59
162 155 56
163 156 64
166 159 69
160 153 56
162 155 57
169 161 70
166 159 64
161 155 57
166 159 64
162 155 57
161 155 59
163 156 63
163 156 59
167 160 67
165 158 65
163 157 61
164 157 65
165 158 66
164 157 64
165 157 62
166 158 67
159 152 61
165 159 68
164 157 62
161 154 64
164 156 66
166 159 65
164 157 66
165 158 67
164 157 71
161 153 69
163 155 64
163 155 69
160 153 68
160 154 66
162 154 65
165 157 72
159 152 57
156 149 64
162 155 67
153 147 62
165 158 70
158 150 69
160 153 69
164 156 75
162 155 68
160 153 66
157 150 65
156 177 0
156 177 0
155 175 0
151 172 0
155 176 0
154 175 0
153 174 0
154 175 0
155 175 0
152 174 0
156 176 0
153 175 0
153 174 0
154 175 0
155 176 0
151 172 0
154 175 0
154 175 0
156 177 0
156 176 0
153 174 0
153 175 0
153 174 0
152 173 0
152 173 0
152 173 0
156 176 0
152 172 0
152 173 0
154 175 0
154 175 0
153 173 0
156 177 0
154 175 0
152 173 0
154 175 0
153 174 0
153 174 0
154 175 0
153 174 0
151 172 0
151 172 0
152 174 0
151 172 0
149 170 0
153 174 0
153 174 0
155 176 0
151 172 0
152 172 0
155 176 0
149 170 0
151 171 0
150 171 0
152 172 0
148 169 0
151 171 0
149 170 0
150 171 0
150 171 0
148 168 0
150 171 0
148 168 0
149 170 0
152 173 0
152 172 0
151 172 0
150 170 0
148 169 0
151 172 0
148 169 0
149 168 0
149 169 0
151 171 0
146 167 0
145 165 0
144 165 0
145 164 0
147 166 0
142 162 0
147 167 0
143 164 0
148 169 0
147 168 0
144 165 0
143 164 0
138 158 0
142 162 0
144 165 0
140 160 0
144 164 0
147 167 0
146 166 0
140 160 0
139 158 0
139 159 0
137 156 0
139 160 0
133 153 0
137 156 0
133 153 0
132 152 0
129 148 0
135 154 0
136 155 0
128 146 0
128 147 0
124 143 0
118 136 0
129 146 0
125 143 0
125 144 0
124 142 0
114 130 0
118 135 0
104 121 0
116 133 0
108 122 0
110 126 0
99 115 0
94 109 22
91 106 16
77 91 16
89 104 27
82 98 33
58 75 28
77 93 40
72 87 41
64 79 31
76 91 28
63 80 42
68 85 41
63 78 27
73 89 31
87 103 33
83 99 34
94 111 31
102 121 24
120 139 0
121 140 0
127 146 0
138 158 0
145 165 0
142 160 32
169 192 0
172 197 0
173 196 0
173 197 0
172 195 0
172 195 0
168 193 0
172 197 0
165 188 24
52 78 72
51 81 96
53 83 85
52 83 100
51 81 90
55 87 110
54 86 108
55 86 112
56 89 121
54 86 114
54 85 110
55 87 95
56 88 108
55 87 109
55 87 113
55 88 111
56 89 116
58 92 131
55 87 109
58 91 119
55 87 115
56 88 117
56 89 112
58 91 124
55 87 100
56 88 115
57 90 116
57 91 116
57 90 119
58 91 120
58 91 118
56 89 113
59 92 128
56 88 105
56 88 109
56 89 111
57 91 111
55 86 108
59 93 121
57 90 117
59 92 122
59 93 120
57 90 122
58 91 122
58 92 115
59 93 130
59 92 126
58 91 118
56 89 115
58 91 114
57 90 117
57 90 111
56 88 103
57 91 115
60 95 143
56 88 113
58 91 120
55 87 95
56 88 110
57 89 109
59 92 118
55 87 120
57 90 110
57 89 110
57 90 124
57 90 121
59 92 115
55 87 107
54 84 91
58 90 115
58 91 124
56 87 113
57 90 123
56 87 106
58 90 124
55 85 110
57 89 117
55 87 107
57 89 119
55 87 105
53 83 94
57 88 103
54 84 112
53 83 94
57 89 116
54 84 95
53 82 103
54 82 94
53 83 103
51 78 84
53 82 100
52 80 100
50 76 87
50 74 80
158 179 18
174 196 0
172 196 0
174 197 0
172 196 0
172 196 0
171 195 0
173 196 0
170 191 0
129 129 45
86 84 22
84 82 24
81 78 31
83 81 23
77 77 3
89 87 23
76 76 3
74 75 11
71 73 15
67 69 16
82 82 12
76 79 20
79 79 20
86 86 16
87 87 22
79 78 16
83 85 19
91 92 25
98 95 22
104 103 22
104 104 29
101 101 18
103 103 34
97 95 31
111 111 26
110 109 28
117 115 36
116 114 33
113 110 22
115 113 26
110 111 32
123 119 26
119 117 31
118 116 30
125 123 39
135 130 38
132 128 38
125 123 32
124 122 37
121 118 40
139 136 45
138 134 45
147 143 39
144 139 37
142 138 38
147 142 51
148 142 52
141 136 42
140 137 42
150 145 46
146 142 47
148 143 41
151 146 50
148 143 44
153 147 51
148 144 48
154 148 53
152 147 44
152 147 39
157 150 58
155 150 45
149 143 39
156 150 53
153 146 52
154 148 44
155 149 49
157 153 52
155 150 44
157 151 59
160 153 53
160 153 58
151 145 44
161 154 53
158 152 53
154 148 48
156 151 52
160 154 53
162 155 59
155 149 52
159 152 53
157 150 54
158 152 51
159 153 53
157 152 49
161 155 61
166 159 62
165 158 62
160 153 54
163 156 64
163 156 53
161 155 54
163 156 61
160 154 56
163 157 62
159 154 51
161 154 60
161 155 57
158 152 60
159 152 60
164 157 57
159 153 47
160 153 58
164 158 59
161 155 56
165 159 66
160 153 53
165 158 63
165 158 64
164 157 61
160 154 60
162 155 57
163 156 65
163 156 62
162 155 59
166 159 63
162 156 62
162 155 64
159 152 54
160 153 63
160 153 60
157 151 52
160 153 58
165 158 69
163 156 64
162 154 69
166 158 67
160 154 64
160 153 63
159 152 71
161 154 65
155 148 59
160 153 61
160 154 63
155 149 54
160 154 65
158 151 63
151 144 52
159 152 64
162 154 75
155 149 65
152 147 58
156 149 61
160 153 59
154 175 0
154 176 0
152 173 0
155 176 0
155 175 0
154 175 0
154 175 0
153 174 0
153 174 0
155 176 0
154 175 0
154 175 0
154 174 0
152 173 0
155 176 0
155 175 0
154 175 0
155 176 0
151 172 0
155 175 0
155 176 0
154 175 0
154 175 0
153 174 0
153 174 0
153 174 0
152 174 0
155 175 0
154 174 0
152 173 0
152 173 0
149 169 0
151 172 0
154 175 0
153 174 0
153 174 0
154 175 0
153 173 0
155 176 0
155 176 0
151 172 0
153 174 0
152 173 0
151 172 0
151 172 0
152 173 0
149 169 0
152 172 0
152 173 0
149 170 0
152 172 0
149 170 0
152 173 0
152 173 0
147 168 0
151 171 0
152 173 0
152 172 0
150 171 0
149 170 0
152 172 0
148 170 0
148 168 0
149 169 0
150 172 0
147 169 0
151 172 0
147 168 0
147 167 0
153 173 0
151 171 0
149 170 0
140 161 0
145 166 0
150 170 0
147 168 0
147 167 0
141 162 0
147 167 0
143 163 0
145 166 0
146 165 0
146 166 0
144 165 0
144 164 0
139 160 0
140 160 0
140 160 0
143 164 0
138 159 0
144 164 0
144 164 0
142 162 0
134 154 0
139 159 0
138 157 0
144 164 0
140 160 0
133 154 0
132 151 0
137 158 0
132 151 0
137 157 0
128 146 0
130 149 0
130 149 0
128 145 0
127 146 0
129 149 0
126 144 0
128 145 0
118 136 0
116 134 0
112 129 0
110 127 0
106 123 0
104 121 0
114 130 0
108 125 0
103 120 0
102 116 0
91 107 16
90 106 16
83 98 16
76 92 28
77 93 22
76 93 28
75 90 22
81 96 0
66 82 31
72 88 16
68 82 21
82 96 6
75 89 14
88 105 22
97 113 16
102 120 14
116 134 0
118 136 0
128 147 0
139 160 0
139 159 0
140 159 32
161 182 22
172 195 0
172 196 0
170 194 0
172 196 0
169 192 0
170 194 0
171 195 0
173 196 0
170 194 0
103 125 74
48 76 89
45 73 78
51 82 86
51 81 100
54 85 111
52 83 88
54 86 108
55 87 106
56 88 114
54 86 102
56 89 105
53 84 110
53 85 93
55 87 96
54 85 100
55 87 108
56 89 121
55 88 103
56 88 107
53 84 102
55 87 105
55 86 101
57 90 116
55 87 108
58 91 117
57 90 122
57 89 112
55 86 98
57 90 117
58 92 115
57 90 115
57 90 111
56 89 110
58 92 122
57 91 111
56 89 107
57 90 122
56 89 103
57 90 117
56 89 117
54 86 86
58 92 122
54 86 103
56 89 113
57 90 114
58 91 114
58 91 117
57 90 118
58 91 117
57 89 105
56 89 115
58 92 115
57 90 125
58 92 118
59 92 125
57 90 117
56 89 104
54 86 96
58 92 116
56 88 108
56 89 105
57 90 113
57 90 123
57 90 123
56 88 115
57 90 121
56 88 114
55 87 116
56 88 117
54 84 103
55 87 114
57 89 109
56 88 114
57 90 114
55 85 101
56 88 113
54 85 108
56 87 115
54 86 97
55 85 108
52 82 104
55 85 107
52 82 93
53 83 98
53 81 105
52 81 98
53 82 90
53 81 104
52 79 97
49 75 77
49 76 90
47 71 66
104 122 40
172 195 0
172 196 0
171 194 0
170 194 0
172 194 0
173 196 0
172 196 0
172 195 0
170 194 0
152 168 22
99 95 39
90 88 31
96 92 36
89 87 27
78 77 16
80 79 18
66 68 18
68 71 12
79 77 17
82 82 15
75 74 18
67 70 16
75 74 9
86 87 16
84 85 23
92 91 15
97 97 20
91 91 22
98 97 22
93 93 21
101 99 22
95 95 24
103 102 28
106 105 26
108 108 33
108 108 28
103 102 22
101 99 22
124 122 32
113 111 37
121 119 33
116 113 27
118 116 27
127 122 32
124 122 24
123 119 39
132 128 46
125 122 36
134 131 39
139 136 34
136 132 30
135 131 43
139 135 45
140 136 37
144 139 52
140 135 42
141 137 45
139 135 41
145 140 37
143 139 40
145 139 44
141 137 39
152 147 44
145 140 39
141 137 39
148 144 37
150 145 47
149 144 44
159 153 58
155 151 45
157 151 51
152 147 45
152 145 47
154 148 41
156 150 51
156 151 41
155 150 48
153 147 51
155 149 44
152 146 51
154 149 47
159 152 53
159 152 61
152 146 51
158 152 56
163 156 58
157 152 53
156 150 48
155 149 47
155 149 54
159 153 47
153 147 49
154 150 47
155 148 42
156 151 47
160 153 51
158 152 56
159 153 57
166 159 66
161 155 57
159 152 53
164 158 61
162 155 52
163 156 57
166 159 66
157 151 51
163 156 58
164 157 61
161 155 61
159 153 54
163 156 56
158 151 51
161 154 57
161 156 53
165 159 63
162 156 59
165 158 66
165 158 58
162 155 59
164 157 61
164 158 61
163 155 68
167 160 66
157 150 51
159 153 59
158 152 64
159 152 54
162 154 66
162 154 58
162 154 64
160 154 59
161 154 63
158 152 54
163 156 60
161 153 66
158 152 60
162 155 66
157 151 56
160 152 67
160 153 66
160 154 62
157 151 58
158 151 64
165 158 66
152 146 62
157 151 58
161 154 62
157 151 63
160 154 61
162 155 62
161 153 69
161 154 67
160 153 68
155 175 0
154 175 0
153 174 0
155 176 0
152 174 0
155 176 0
154 175 0
155 175 0
154 175 0
155 175 0
153 174 0
153 174 0
155 176 0
154 175 0
154 175 0
154 176 0
155 175 0
154 175 0
153 174 0
153 174 0
154 175 0
154 174 0
153 174 0
154 175 0
151 173 0
153 174 0
154 174 0
149 170 0
152 174 0
154 174 0
152 173 0
149 170 0
150 170 0
153 174 0
155 175 0
155 176 0
154 174 0
152 173 0
150 171 0
152 173 0
153 173 0
152 173 0
152 173 0
152 173 0
153 173 0
149 169 0
153 174 0
150 171 0
151 172 0
150 171 0
149 170 0
150 170 0
150 171 0
150 171 0
155 175 0
149 169 0
149 168 0
146 166 0
151 172 0
144 164 0
150 171 0
146 166 0
148 169 0
147 167 0
146 167 0
146 167 0
147 167 0
148 169 0
145 166 0
148 170 0
151 172 0
146 167 0
149 169 0
144 164 0
149 170 0
144 164 0
149 170 0
143 163 0
148 169 0
149 169 0
144 165 0
142 162 0
142 162 0
144 165 0
139 159 0
144 164 0
142 162 0
143 163 0
139 160 0
142 162 0
143 163 0
141 161 0
137 156 0
137 157 0
138 158 0
135 155 0
136 156 0
137 156 0
134 154 0
136 157 0
134 153 0
131 150 0
135 155 0
133 153 0
130 149 0
130 149 0
129 147 0
132 152 0
128 148 0
129 147 0
120 139 0
126 143 0
126 145 0
115 133 0
115 133 0
121 138 0
112 128 0
116 132 0
102 116 0
99 114 0
98 112 0
100 115 0
96 111 16
85 100 21
83 98 0
79 95 28
90 104 22
70 85 16
82 97 22
77 92 38
74 89 21
78 93 16
82 96 16
80 96 16
98 114 0
99 115 0
109 126 0
119 137 0
124 143 0
135 154 0
133 153 0
143 163 0
148 168 0
171 194 0
168 192 0
170 194 0
172 195 0
169 192 0
173 197 0
170 194 0
170 193 0
171 194 0
170 193 0
150 173 24
60 86 74
49 79 77
50 80 92
51 82 91
54 85 90
51 82 106
53 84 100
55 87 110
55 87 110
55 86 103
54 86 111
54 85 112
55 87 116
53 85 102
57 89 105
55 87 103
56 89 115
55 88 112
58 90 123
55 87 105
56 89 112
57 89 115
56 89 107
55 87 113
55 87 108
56 89 108
57 90 116
54 86 98
56 89 112
58 91 123
58 91 121
57 91 115
56 89 111
56 89 121
57 89 123
57 90 115
57 90 121
56 89 108
58 91 122
56 89 108
57 89 109
56 89 108
54 87 108
56 88 107
55 88 97
56 89 107
59 92 120
55 87 105
56 88 110
57 90 117
58 91 113
56 89 110
57 90 105
56 90 110
57 90 108
58 91 115
56 88 99
56 89 111
58 91 115
56 88 110
56 89 111
56 88 113
55 87 102
57 89 124
57 89 110
58 91 123
57 89 113
58 91 117
57 89 113
54 84 100
55 86 108
57 89 124
56 88 104
57 89 111
58 90 120
53 82 100
55 86 106
55 86 102
53 82 99
57 89 117
56 87 106
56 87 105
52 82 97
53 81 98
52 82 100
53 82 96
53 82 94
50 79 89
50 76 87
50 76 79
50 76 78
48 73 74
152 174 32
173 195 0
169 192 0
171 194 0
170 192 0
172 194 0
174 197 0
173 196 0
171 195 0
175 198 0
171 193 0
121 125 37
115 110 42
80 80 27
89 87 33
89 86 30
88 87 25
76 76 17
82 82 14
78 78 16
84 82 12
82 83 20
76 77 18
82 82 14
84 84 14
88 88 9
78 79 16
79 81 16
91 93 18
90 89 21
87 90 14
101 101 21
100 100 24
95 96 21
102 100 20
99 98 19
113 110 23
108 106 29
114 112 22
113 111 20
120 116 31
129 124 30
121 120 29
124 122 31
133 130 37
125 122 34
122 119 29
132 127 37
132 128 37
130 127 29
135 132 30
132 128 38
134 129 39
135 130 38
134 130 37
139 135 36
142 138 37
146 142 45
134 131 16
152 146 42
133 128 32
148 143 40
155 147 58
139 135 25
149 144 41
144 139 37
145 140 34
151 146 47
151 145 48
151 146 52
153 146 47
150 144 39
152 147 47
147 142 44
152 146 47
152 146 51
149 142 37
150 145 42
153 149 44
153 148 52
154 149 52
157 151 51
155 150 49
155 150 51
154 148 45
156 151 51
152 146 39
156 150 51
159 152 59
153 148 42
159 152 48
157 151 51
160 153 52
161 154 56
164 157 60
162 156 58
157 151 52
161 155 58
158 152 49
163 156 62
160 154 52
160 153 48
160 153 51
161 154 51
159 153 52
162 155 58
158 152 57
158 153 52
165 157 63
159 153 56
162 155 60
163 155 59
158 153 52
160 154 56
161 154 48
162 155 56
160 153 61
164 157 63
163 156 62
158 152 52
159 152 54
164 157 64
164 156 62
159 153 57
165 157 73
158 151 59
158 152 56
160 153 61
160 153 62
161 154 61
169 161 70
160 154 57
160 153 59
157 152 51
159 152 57
157 150 65
159 152 69
161 154 62
157 150 57
162 155 63
149 142 53
158 151 65
159 153 60
154 146 62
157 150 65
152 147 56
153 147 61
165 157 70
153 148 57
159 153 64
156 150 60
155 149 59
153 148 59
156 151 53
154 175 0
156 176 0
154 175 0
154 175 0
154 175 0
153 174 0
155 176 0
155 175 0
154 174 0
151 172 0
153 174 0
154 175 0
152 173 0
155 176 0
153 174 0
153 175 0
153 174 0
152 173 0
151 172 0
155 176 0
154 175 0
152 173 0
151 173 0
151 172 0
150 171 0
152 173 0
153 174 0
153 174 0
151 172 0
153 174 0
153 174 0
152 173 0
153 173 0
153 174 0
154 175 0
152 173 0
155 175 0
153 173 0
149 170 0
152 173 0
152 172 0
151 173 0
152 172 0
151 172 0
152 172 0
150 171 0
152 172 0
153 173 0
152 173 0
152 172 0
151 172 0
152 172 0
151 172 0
149 171 0
153 173 0
150 171 0
147 167 0
148 169 0
149 169 0
151 172 0
149 170 0
152 174 0
147 168 0
150 170 0
147 168 0
149 170 0
142 163 0
144 165 0
145 166 0
149 170 0
150 171 0
149 168 0
148 167 0
144 164 0
148 168 0
143 164 0
147 166 0
146 166 0
145 165 0
147 167 0
146 167 0
143 163 0
143 164 0
144 163 0
138 158 0
148 168 0
145 166 0
145 165 0
138 158 0
141 161 0
140 160 0
143 164 0
143 163 0
138 158 0
139 159 0
145 165 0
137 156 0
139 159 0
136 155 0
137 156 0
135 155 0
130 149 0
126 146 0
135 154 0
123 142 0
131 150 0
129 148 0
123 141 0
120 138 0
126 145 0
123 142 0
123 141 0
124 142 0
122 141 0
111 129 0
114 131 0
112 129 0
113 130 0
103 119 0
87 103 0
93 110 0
99 115 0
89 103 0
86 100 0
78 92 0
82 94 0
76 89 0
69 82 16
78 92 22
76 91 16
81 94 16
99 114 0
86 101 0
103 118 0
108 125 16
109 124 0
110 128 0
122 141 0
123 141 0
135 154 0
138 158 0
133 152 0
165 189 0
173 196 0
174 197 0
171 194 0
171 194 0
172 195 0
168 192 0
171 194 0
172 195 0
170 194 0
171 195 0
171 194 0
107 129 57
48 76 80
50 80 91
52 82 97
52 83 90
53 83 99
50 79 93
53 84 100
52 83 94
54 86 102
55 87 106
51 82 94
55 86 105
56 88 108
54 86 103
56 88 108
56 89 113
56 89 119
55 87 106
55 87 104
57 90 115
55 87 95
55 87 102
58 91 118
56 89 102
56 89 113
57 90 111
55 87 102
58 91 118
56 89 104
55 88 106
57 90 116
56 89 109
56 89 119
56 88 109
59 92 122
58 91 119
56 89 114
59 92 124
56 89 108
57 89 117
57 90 117
58 91 118
58 90 113
59 93 121
58 90 121
58 91 110
55 88 103
56 88 113
57 90 115
59 92 117
52 83 88
58 91 121
56 89 111
58 91 120
56 88 104
57 90 113
56 89 120
54 85 101
55 88 99
56 87 113
55 88 99
57 89 115
57 90 123
56 88 107
55 88 105
55 87 104
55 87 110
56 88 110
57 89 111
56 89 112
57 89 105
57 89 120
54 85 101
55 86 102
53 82 91
53 83 103
54 84 98
55 85 103
53 84 98
54 85 101
53 84 94
53 82 106
55 86 105
51 79 80
53 84 93
51 80 91
51 78 88
52 78 90
51 79 90
46 71 79
98 117 50
164 187 0
171 195 0
171 193 0
172 194 0
169 193 0
172 195 0
173 196 0
173 196 0
172 195 0
173 195 0
174 197 0
157 176 11
107 103 33
92 89 33
84 80 31
82 81 16
95 92 19
78 78 11
72 73 9
67 69 14
81 81 14
75 76 0
79 78 12
73 73 9
87 86 18
77 76 14
89 88 9
93 94 19
93 93 18
97 95 21
98 98 16
88 88 20
95 96 21
92 93 22
104 104 21
105 102 11
107 105 24
113 111 25
114 113 29
114 111 21
121 118 22
110 106 24
116 114 31
121 119 24
115 113 25
127 123 29
128 124 36
133 131 34
129 126 30
136 131 35
133 129 36
140 135 39
136 132 36
137 133 37
136 132 26
144 139 46
143 139 38
140 135 41
141 136 37
144 139 36
143 137 37
148 143 37
146 141 47
150 144 39
139 134 37
154 148 48
150 144 45
148 144 42
147 141 44
148 142 47
156 149 48
148 143 41
154 147 45
151 146 49
154 148 45
154 148 49
154 149 51
150 146 37
158 152 48
154 149 42
152 146 49
152 146 45
151 145 41
155 150 44
154 148 44
157 151 52
154 148 42
157 151 56
156 151 39
156 150 49
156 151 51
154 149 41
155 149 48
161 155 54
152 147 41
154 148 45
156 150 48
156 150 52
157 151 48
161 155 60
155 149 30
157 151 52
157 151 49
158 153 47
161 154 52
158 152 54
160 153 58
157 151 53
158 151 53
160 154 45
162 155 53
161 156 56
159 153 49
164 156 58
164 157 58
160 156 49
156 150 53
163 155 57
160 154 52
157 150 58
157 150 54
160 154 57
156 149 52
161 154 54
163 157 61
162 155 59
164 157 68
156 151 56
160 154 58
160 153 56
163 156 61
156 150 56
156 149 60
164 157 62
157 150 53
160 152 62
157 149 60
162 154 63
158 150 59
164 156 61
164 156 68
155 149 51
161 153 64
158 152 62
158 151 63
158 151 57
156 149 67
155 147 62
152 145 60
160 154 62
160 153 64
158 152 65
158 151 67
153 147 54
154 175 0
153 173 0
152 173 0
153 174 0
156 176 0
152 172 0
155 176 0
153 173 0
152 173 0
154 175 0
156 176 0
153 174 0
153 174 0
153 174 0
152 172 0
153 173 0
154 175 0
154 174 0
154 175 0
151 171 0
153 173 0
155 176 0
153 173 0
154 175 0
152 173 0
154 175 0
151 172 0
151 171 0
152 173 0
151 171 0
153 174 0
152 173 0
154 175 0
153 174 0
153 174 0
151 171 0
152 173 0
153 174 0
152 172 0
153 174 0
152 172 0
151 172 0
152 173 0
151 172 0
151 171 0
149 170 0
152 173 0
150 171 0
150 171 0
152 173 0
148 169 0
153 173 0
149 170 0
146 167 0
147 168 0
147 168 0
148 169 0
148 169 0
149 170 0
152 173 0
148 169 0
149 169 0
149 170 0
144 166 0
149 169 0
148 169 0
151 171 0
149 169 0
145 165 0
143 164 0
151 171 0
145 164 0
150 170 0
140 160 0
146 165 0
145 165 0
145 164 0
146 167 0
142 162 0
143 163 0
142 162 0
140 160 0
143 164 0
142 163 0
142 162 0
142 163 0
142 161 0
143 163 0
145 165 0
136 154 0
143 165 0
139 158 0
138 157 0
144 164 0
144 164 0
144 163 0
137 158 0
139 159 0
133 153 0
129 148 0
138 157 0
128 147 0
136 156 0
132 149 0
128 147 0
128 148 0
136 155 0
131 151 0
120 139 0
124 143 0
120 139 0
112 130 0
125 142 0
120 137 0
106 123 0
113 131 0
116 134 0
116 134 0
101 117 0
108 125 0
106 122 0
101 116 0
98 113 0
96 111 0
94 109 0
92 106 0
92 107 0
85 98 0
83 97 0
87 101 0
90 105 0
89 104 0
102 116 0
101 117 0
112 130 0
101 116 0
117 135 0
125 144 0
124 142 0
136 155 0
138 158 0
151 171 22
170 194 0
165 189 0
168 191 0
172 195 0
173 196 0
167 191 0
167 190 0
170 193 0
171 195 0
171 194 0
168 191 0
167 190 0
160 183 30
50 78 72
48 77 85
52 82 96
52 82 88
52 82 105
54 85 112
52 83 95
53 84 96
53 83 102
51 82 100
55 87 97
54 85 102
55 87 115
54 85 101
56 87 108
56 88 113
55 88 109
56 88 112
55 87 110
56 89 109
56 89 108
57 90 112
58 92 116
57 90 118
55 88 114
56 89 108
56 89 107
54 86 106
57 89 111
54 85 100
55 88 103
55 87 117
56 89 113
58 92 121
55 87 88
57 91 118
56 89 108
57 91 114
56 88 108
56 88 105
57 90 118
57 90 108
57 89 121
57 89 103
57 89 110
56 89 108
58 91 121
57 90 110
56 89 114
55 87 105
56 89 110
57 90 110
56 89 103
57 90 110
56 90 108
57 90 124
56 88 110
55 87 113
55 88 105
55 87 108
56 88 121
55 87 111
54 86 102
55 88 105
58 91 117
57 89 107
56 88 114
55 86 108
55 88 107
57 89 118
56 88 103
55 87 107
57 89 117
56 87 99
56 88 117
56 88 112
55 87 108
56 87 108
55 86 96
54 84 105
53 84 103
52 81 87
51 80 87
53 82 99
51 80 88
50 77 94
53 82 107
50 76 75
46 72 74
52 76 66
163 185 0
167 190 0
170 194 0
171 194 0
171 193 0
169 192 0
168 190 0
169 192 0
171 194 0
170 193 0
167 189 0
170 192 0
171 194 0
140 148 42
103 99 38
86 84 37
98 94 34
76 73 16
84 81 21
75 76 16
84 82 28
90 89 21
78 78 14
83 83 16
91 90 14
89 87 8
86 86 19
91 91 18
97 95 19
85 84 17
93 93 14
104 103 9
99 97 12
95 95 14
103 99 11
100 100 16
100 100 25
109 107 23
116 113 28
112 112 24
111 109 14
119 116 20
121 118 30
122 119 35
113 111 28
120 117 28
118 116 26
128 125 30
130 127 30
128 125 32
133 128 32
137 131 33
128 125 27
138 134 30
139 135 29
136 133 35
142 137 33
138 134 38
137 131 25
141 136 32
141 136 42
139 134 40
144 138 34
139 134 25
138 134 28
148 142 34
148 143 37
144 139 39
146 142 34
142 138 34
154 148 39
150 143 45
155 149 45
154 148 45
151 147 39
146 142 41
153 147 42
152 146 41
152 146 45
152 147 45
149 144 42
155 148 45
156 149 52
154 148 42
152 147 45
155 149 51
161 153 48
152 145 42
155 148 41
157 150 49
159 153 51
156 149 48
153 148 49
156 149 44
153 148 39
153 148 47
160 154 47
155 150 49
159 152 49
150 143 44
152 147 44
158 153 49
159 152 49
155 149 49
162 154 57
154 148 48
163 156 58
155 148 44
156 150 45
161 155 57
157 151 49
157 151 48
163 155 61
159 153 61
163 156 57
159 152 51
164 157 60
165 157 65
158 151 47
156 150 49
159 153 53
156 149 56
159 153 57
165 158 65
158 152 51
162 155 62
161 154 59
155 148 56
160 154 53
157 150 54
157 150 54
157 151 48
159 152 61
154 146 49
161 153 59
164 157 62
161 155 60
159 153 59
162 154 62
153 147 53
153 148 51
154 148 58
160 153 73
151 144 57
152 146 52
148 143 47
158 152 64
154 148 56
156 150 54
154 149 52
151 145 58
159 153 62
154 147 57
154 148 61
147 141 53
153 175 0
155 176 0
154 175 0
155 175 0
153 174 0
155 176 0
153 174 0
154 174 0
155 176 0
154 175 0
152 174 0
154 175 0
151 172 0
152 173 0
153 175 0
153 173 0
155 176 0
152 173 0
153 174 0
154 175 0
153 173 0
151 172 0
150 171 0
152 173 0
152 173 0
152 173 0
153 173 0
153 173 0
148 168 0
154 174 0
153 173 0
151 172 0
152 173 0
152 172 0
152 174 0
151 172 0
148 169 0
154 174 0
151 172 0
150 172 0
150 170 0
150 170 0
147 168 0
150 171 0
149 169 0
151 171 0
152 173 0
147 168 0
148 170 0
148 169 0
148 170 0
151 171 0
150 171 0
152 172 0
149 170 0
148 168 0
150 170 0
149 169 0
147 167 0
149 169 0
150 171 0
147 168 0
146 166 0
147 167 0
147 167 0
145 165 0
148 168 0
143 164 0
150 170 0
146 167 0
148 168 0
149 169 0
140 161 0
146 166 0
143 162 0
145 165 0
144 165 0
146 166 0
148 167 0
146 167 0
143 163 0
142 163 0
140 158 0
141 160 0
144 165 0
143 163 0
140 160 0
142 161 0
140 161 0
138 158 0
139 158 0
134 154 0
139 159 0
141 161 0
138 157 0
136 155 0
131 150 0
139 159 0
140 159 0
136 156 0
132 151 0
132 151 0
131 149 0
128 147 0
127 145 0
118 137 0
130 150 0
127 146 0
127 145 0
124 142 0
123 142 0
118 137 0
119 137 0
107 123 0
118 136 0
121 139 0
111 127 0
111 128 0
114 130 0
112 129 0
99 114 0
89 103 0
108 122 0
86 100 0
92 106 0
92 105 0
98 112 0
91 106 0
93 106 0
93 108 0
93 107 0
96 111 0
105 120 0
109 125 0
117 133 0
111 128 0
119 137 0
133 151 0
127 146 0
135 154 0
133 152 0
167 191 0
170 193 0
171 194 0
170 193 0
170 194 0
170 194 0
171 194 0
172 195 0
171 194 0
169 192 0
165 188 0
170 194 0
169 193 0
169 191 0
129 151 56
51 81 89
49 78 66
53 84 103
51 81 84
51 81 93
53 84 99
53 84 90
55 86 101
54 85 101
53 84 97
55 86 107
54 85 104
53 84 97
55 87 103
53 84 103
54 85 90
55 88 110
56 88 116
53 84 92
56 88 115
56 88 113
56 88 108
55 87 106
54 85 100
57 90 115
56 88 107
55 86 107
56 88 109
56 88 120
57 90 120
57 90 118
54 86 110
58 91 114
55 87 107
57 90 115
56 89 117
56 88 117
58 91 117
57 90 122
56 88 105
54 86 95
56 89 111
57 89 113
56 89 110
56 89 104
56 89 108
58 92 120
55 88 113
56 88 108
57 90 100
55 87 110
58 91 118
58 92 121
56 89 110
57 90 120
56 89 111
56 88 110
56 88 111
57 90 113
56 89 113
56 88 110
58 90 123
57 89 110
56 87 107
55 86 110
55 86 101
57 88 117
55 87 96
55 87 108
56 88 106
56 87 106
55 87 107
57 89 105
52 82 104
53 83 106
52 82 87
54 84 109
53 83 101
54 85 102
53 82 113
54 83 107
52 81 97
52 81 86
50 78 79
51 79 95
49 76 71
47 73 80
46 71 77
122 144 45
167 189 0
168 190 0
169 192 0
167 191 0
171 194 0
170 191 0
171 192 0
171 194 0
169 190 0
165 188 0
171 193 0
170 194 0
172 194 0
165 186 0
105 104 32
98 96 30
98 95 35
87 84 27
81 78 14
95 91 20
91 87 20
81 80 18
82 81 11
94 90 11
75 74 12
89 86 0
79 80 18
87 87 8
84 84 8
88 87 18
84 85 14
103 101 0
102 100 11
103 100 20
106 104 14
92 92 12
107 106 16
96 96 14
107 107 8
113 112 27
105 103 18
106 105 21
116 114 26
120 118 14
127 125 30
117 115 25
130 127 28
122 119 26
127 122 25
124 120 25
127 124 16
118 116 24
130 126 26
137 132 30
132 130 20
139 133 37
139 135 33
137 133 25
137 133 32
131 127 37
143 139 39
147 142 34
138 134 34
141 136 41
141 135 34
141 137 32
139 134 37
142 137 32
150 145 34
153 148 36
144 140 22
143 138 32
149 143 44
142 136 39
147 140 44
151 145 45
149 143 37
151 146 41
149 143 42
151 145 42
155 149 41
150 144 44
151 147 34
150 145 34
150 145 44
155 149 49
155 150 42
154 148 45
155 150 44
152 147 39
159 153 44
154 149 44
156 150 42
157 151 49
155 149 47
160 153 56
153 147 39
156 150 51
159 153 51
160 153 47
154 149 42
154 148 45
157 151 47
152 148 41
151 146 41
149 144 39
161 154 51
158 152 49
159 153 47
160 153 48
159 153 51
163 157 59
154 148 37
156 150 53
156 150 47
161 153 52
163 156 58
152 147 41
160 153 49
159 154 53
155 148 53
153 147 45
162 155 58
164 156 59
158 150 49
156 149 54
159 152 60
161 155 58
152 146 45
156 150 54
157 150 57
153 147 45
159 152 56
163 155 62
155 149 47
156 149 58
161 154 62
161 155 62
160 153 62
158 151 61
159 151 61
158 150 60
156 150 58
156 149 60
156 150 59
154 148 56
152 146 58
154 147 60
160 153 66
154 147 63
155 149 60
152 144 59
154 145 65
149 143 54
153 147 60
156 177 0
155 176 0
153 174 0
154 175 0
152 173 0
154 175 0
154 173 0
154 175 0
152 174 0
152 173 0
154 175 0
155 175 0
155 176 0
153 174 0
153 174 0
152 173 0
156 177 0
154 175 0
152 173 0
153 175 0
153 174 0
153 173 0
151 172 0
153 174 0
153 173 0
151 172 0
153 173 0
153 174 0
153 173 0
151 173 0
154 175 0
151 172 0
151 171 0
152 173 0
150 171 0
152 173 0
151 171 0
153 173 0
152 173 0
151 171 0
151 171 0
154 175 0
148 169 0
152 173 0
152 173 0
149 170 0
146 166 0
150 171 0
152 173 0
150 171 0
146 167 0
149 170 0
148 169 0
150 171 0
145 166 0
148 169 0
146 166 0
147 168 0
149 170 0
147 167 0
145 165 0
145 166 0
146 167 0
148 168 0
146 167 0
146 166 0
146 165 0
147 168 0
147 167 0
147 168 0
146 166 0
144 164 0
144 163 0
149 169 0
147 167 0
146 166 0
141 161 0
142 162 0
143 163 0
139 159 0
144 164 0
141 162 0
139 160 0
141 160 0
143 163 0
144 163 0
143 162 0
139 160 0
141 160 0
140 160 0
133 153 0
141 161 0
142 162 0
130 150 0
135 154 0
136 156 0
135 154 0
136 155 0
140 159 0
132 151 0
129 148 0
129 148 0
128 146 0
130 149 0
133 152 0
129 149 0
125 144 0
130 148 0
120 139 0
122 140 0
126 145 0
126 144 0
115 133 0
115 132 0
117 134 0
111 128 0
111 128 0
111 127 0
112 128 0
107 123 0
112 128 0
106 122 0
105 120 0
101 116 0
101 117 0
93 107 0
100 115 0
99 114 0
92 106 0
94 109 0
97 112 0
104 119 0
114 129 0
115 131 0
104 121 0
112 130 0
120 138 0
127 146 0
132 151 0
121 139 0
166 188 0
170 193 0
172 195 0
170 193 0
168 191 0
168 191 0
166 189 0
170 193 0
170 193 0
166 191 0
169 193 0
165 189 0
168 192 0
167 191 0
168 191 0
166 189 0
66 89 68
48 77 74
50 79 89
49 78 78
53 85 98
52 83 93
53 84 99
56 88 112
56 88 118
54 86 99
55 87 101
55 87 101
53 84 104
55 87 102
56 88 110
53 84 90
57 90 115
54 86 110
55 86 105
54 86 108
55 87 108
53 85 94
53 85 86
56 89 118
55 87 105
57 90 105
55 87 103
56 88 103
57 89 109
56 89 117
57 90 111
56 88 108
57 89 111
57 89 117
56 88 109
56 89 114
56 88 110
54 86 95
55 88 107
57 90 126
59 92 120
56 89 108
55 88 105
55 87 114
57 90 115
57 89 124
54 86 97
56 89 105
56 88 108
57 89 107
57 90 110
54 86 102
56 88 110
55 87 105
56 89 115
55 87 100
56 88 111
56 87 107
56 88 107
58 91 117
57 90 107
55 87 107
56 88 107
57 90 120
53 83 99
55 87 110
53 83 89
55 88 105
55 86 106
55 87 110
54 85 98
56 87 100
55 86 114
54 85 100
52 83 94
53 83 96
51 80 94
54 84 91
51 80 79
52 81 85
52 82 95
53 82 94
51 79 94
49 77 83
50 77 88
50 76 85
46 71 72
77 99 71
163 184 19
165 186 0
169 191 0
166 188 0
168 190 0
168 190 0
166 188 0
167 188 0
172 196 0
169 191 0
168 189 0
167 190 0
165 187 0
169 191 0
170 193 0
155 173 0
103 100 30
98 95 29
86 84 25
99 95 26
95 90 24
84 82 14
79 79 16
95 91 22
89 88 3
87 87 14
79 79 18
95 93 16
90 89 17
91 89 8
92 90 16
87 87 19
102 99 3
104 101 8
101 102 18
92 91 14
108 105 12
109 108 14
90 89 18
112 110 14
113 112 14
110 108 19
116 112 25
116 114 18
127 122 19
120 116 14
118 116 21
116 113 22
126 121 25
119 116 25
131 126 29
126 122 28
131 126 16
130 125 35
127 124 25
124 121 18
129 125 24
142 136 37
134 130 22
139 134 26
140 135 30
139 133 36
135 131 25
142 136 39
142 138 28
134 130 32
138 135 16
147 140 36
144 139 25
141 137 25
146 142 34
144 139 30
147 142 32
150 144 37
144 138 30
153 147 34
147 142 37
149 145 34
149 144 39
153 146 41
151 145 39
152 147 42
147 141 36
154 149 39
151 146 47
149 144 32
150 145 37
153 147 39
153 147 41
150 145 41
157 152 42
158 152 49
153 147 37
157 151 49
155 148 42
157 151 42
156 150 51
153 148 37
158 152 44
154 149 44
151 146 49
156 150 37
156 150 44
160 152 52
155 148 48
156 150 41
157 151 47
150 144 37
155 149 47
160 153 52
158 152 41
161 155 58
161 155 53
159 152 52
154 147 42
159 153 45
159 152 53
158 151 56
152 147 47
161 153 60
158 152 51
157 151 44
156 150 57
154 149 45
155 149 47
160 152 53
159 151 57
154 148 53
158 151 61
162 155 60
157 151 48
151 145 49
165 156 63
158 152 52
159 152 58
157 149 62
152 145 47
153 146 52
156 150 56
160 151 67
155 149 51
156 148 58
153 147 52
156 150 54
147 142 49
161 154 59
152 146 56
155 150 54
150 143 48
156 151 64
145 139 57
157 150 60
149 142 60
158 150 57
157 150 53
152 146 58
154 175 0
152 173 0
154 175 0
154 175 0
152 173 0
154 175 0
151 172 0
155 176 0
154 175 0
153 174 0
154 175 0
150 171 0
154 175 0
153 173 0
153 174 0
154 175 0
153 173 0
155 175 0
152 173 0
155 175 0
154 174 0
153 173 0
153 174 0
150 171 0
151 173 0
150 171 0
151 171 0
151 171 0
151 172 0
152 172 0
154 174 0
151 172 0
151 172 0
150 171 0
150 170 0
152 174 0
149 171 0
151 171 0
151 171 0
151 173 0
153 174 0
151 172 0
149 170 0
150 170 0
151 172 0
152 173 0
149 168 0
151 171 0
149 169 0
152 172 0
150 170 0
150 171 0
152 173 0
148 168 0
147 168 0
148 169 0
146 167 0
145 166 0
149 169 0
151 171 0
150 170 0
147 167 0
147 167 0
147 167 0
149 170 0
147 166 0
148 167 0
148 168 0
144 164 0
145 166 0
150 170 0
146 167 0
146 167 0
145 166 0
144 164 0
144 164 0
143 163 0
145 166 0
142 163 0
144 164 0
143 162 0
142 162 0
147 167 0
140 160 0
141 161 0
143 163 0
145 164 0
143 162 0
139 160 0
140 159 0
138 158 0
140 160 0
132 151 0
136 155 0
132 152 0
129 149 0
133 153 0
131 152 0
140 160 0
133 152 0
134 153 0
125 144 0
128 147 0
125 143 0
131 151 0
125 144 0
129 147 0
134 152 0
126 144 0
127 145 0
123 142 0
116 133 0
119 137 0
114 131 0
119 137 0
115 132 0
122 139 0
110 127 0
106 122 0
106 122 0
100 115 0
103 120 0
98 115 0
98 112 0
99 115 0
102 117 0
99 113 0
102 118 0
103 118 0
102 117 0
96 111 0
99 114 0
107 123 0
107 122 0
117 134 0
114 131 0
121 138 0
129 148 0
130 149 0
150 172 0
172 195 0
170 194 0
168 192 0
167 190 0
170 193 0
167 190 0
167 190 0
162 185 0
166 189 0
167 191 0
171 194 0
166 189 0
167 190 0
165 189 0
166 189 0
166 190 0
140 161 47
46 74 74
50 79 89
51 81 86
50 81 80
50 79 85
54 85 104
53 84 94
52 82 99
52 83 104
54 86 103
52 83 91
56 88 115
55 87 101
55 87 105
52 83 95
55 87 103
56 88 95
55 86 108
55 88 94
54 85 100
55 87 102
57 90 107
55 86 105
58 91 112
55 88 112
54 86 98
57 89 115
56 89 107
58 90 115
54 85 97
58 92 125
56 88 113
56 89 108
57 89 113
56 89 102
56 88 108
57 89 118
55 88 110
57 90 108
57 90 117
55 87 107
56 88 100
57 90 115
56 88 105
57 90 110
56 88 111
54 85 102
55 88 102
55 87 107
56 89 114
54 86 105
55 87 107
54 86 107
57 90 113
55 87 104
58 90 115
56 88 111
59 92 122
56 88 113
54 86 94
54 86 107
56 89 102
55 87 103
53 83 99
55 87 107
55 87 114
55 87 105
54 85 89
55 87 107
54 85 99
52 81 87
55 86 100
53 83 99
53 84 97
54 84 101
53 83 87
52 81 94
53 83 98
52 80 91
55 85 102
51 78 89
48 76 89
50 78 86
50 76 84
51 78 73
48 74 74
139 160 40
167 190 0
164 186 0
170 191 0
169 191 0
165 187 0
167 190 0
169 189 0
168 190 0
167 187 0
162 184 0
166 188 0
167 189 0
166 188 0
172 194 0
169 191 0
169 191 0
142 154 22
103 98 41
96 92 29
83 81 28
103 99 21
98 95 28
79 79 11
97 93 19
81 81 20
80 78 0
79 78 3
85 83 0
95 92 8
84 83 8
87 84 14
99 98 14
85 86 12
90 90 0
92 90 8
102 99 0
96 95 14
99 96 16
108 106 8
111 108 11
113 111 22
110 107 8
117 115 14
118 115 18
118 115 14
112 110 16
122 117 16
119 117 21
126 121 16
124 120 0
118 116 26
128 124 16
135 131 18
126 122 14
129 125 26
128 126 21
136 130 31
130 128 11
134 129 22
134 131 19
130 126 26
135 131 22
136 132 30
141 135 22
147 144 30
149 144 37
146 141 30
144 139 28
138 134 25
145 139 34
149 143 37
145 140 28
146 141 32
147 141 39
148 143 34
146 143 32
150 143 39
149 143 34
144 138 19
149 142 45
147 143 25
148 143 30
148 142 32
153 149 30
153 147 36
156 151 36
150 145 39
152 146 34
152 145 41
152 145 37
156 150 37
156 150 39
151 145 37
152 146 42
152 147 39
153 148 44
154 148 41
155 149 42
154 148 36
150 144 45
155 148 45
151 145 42
157 150 51
157 151 42
152 147 45
152 147 41
157 150 47
153 146 47
156 151 48
157 151 52
158 152 45
159 153 44
158 150 47
157 150 44
156 149 45
162 155 54
153 146 42
159 152 53
157 150 48
158 151 54
153 147 47
158 152 48
157 150 54
155 149 51
159 152 58
157 151 51
156 148 51
162 155 61
157 151 49
158 152 53
159 152 59
156 149 53
156 150 56
162 155 64
155 148 53
159 153 59
156 148 54
151 145 49
161 153 65
157 149 61
152 145 54
151 146 49
160 153 63
156 149 60
156 150 54
156 150 54
156 149 57
158 151 65
155 148 56
160 152 68
149 144 54
153 147 59
153 145 63
155 148 59
149 144 56
162 155 66
153 174 0
152 173 0
154 174 0
154 175 0
156 176 0
154 175 0
152 174 0
153 174 0
151 172 0
153 174 0
151 172 0
152 173 0
153 173 0
155 175 0
151 171 0
153 174 0
154 174 0
152 172 0
150 171 0
154 174 0
151 172 0
152 173 0
150 171 0
150 171 0
152 172 0
152 172 0
152 172 0
150 171 0
149 170 0
148 168 0
151 172 0
148 169 0
153 175 0
151 171 0
149 170 0
148 169 0
150 171 0
149 169 0
151 171 0
148 168 0
149 169 0
150 170 0
147 167 0
150 171 0
151 173 0
150 171 0
150 171 0
146 166 0
149 169 0
151 171 0
150 170 0
144 165 0
149 169 0
147 168 0
148 168 0
143 162 0
148 168 0
148 168 0
145 165 0
149 171 0
147 168 0
142 162 0
150 170 0
149 169 0
149 169 0
147 167 0
145 165 0
144 164 0
146 166 0
146 167 0
146 167 0
143 164 0
146 166 0
143 162 0
144 163 0
143 164 0
140 159 0
146 165 0
144 164 0
143 163 0
143 163 0
139 160 0
141 160 0
137 157 0
137 156 0
138 158 0
141 161 0
143 162 0
139 158 0
138 157 0
137 157 0
137 156 0
133 153 0
133 152 0
136 155 0
142 160 0
133 153 0
132 150 0
132 151 0
133 152 0
131 148 0
135 154 0
130 148 0
132 151 0
121 138 0
131 150 0
121 139 0
125 144 0
124 141 0
127 145 0
122 141 0
120 138 0
113 132 0
118 135 0
117 134 0
112 130 0
110 127 0
120 137 0
110 127 0
108 124 0
98 114 0
104 119 0
102 118 0
102 118 0
103 118 0
92 107 0
102 117 0
96 111 0
98 113 0
107 123 0
102 118 0
103 118 0
116 132 0
110 127 0
114 131 0
125 143 0
127 145 0
140 159 0
139 158 0
170 193 0
165 188 0
170 192 0
166 189 0
165 189 0
167 190 0
166 189 0
169 193 0
165 188 0
168 192 0
165 188 0
167 190 0
168 191 0
163 186 0
167 190 0
168 192 0
164 187 0
164 187 0
108 131 53
49 78 77
48 77 86
49 77 78
47 75 77
50 80 84
55 87 102
52 83 95
52 83 93
54 85 98
52 83 97
54 85 101
53 84 106
53 83 97
54 85 89
56 88 109
54 86 95
56 89 111
54 86 93
55 86 108
55 87 112
55 87 108
56 88 110
56 88 102
54 86 100
57 90 113
55 88 110
54 87 100
56 89 108
55 88 97
55 87 102
53 84 97
55 88 113
57 89 115
57 91 113
56 89 113
57 90 113
57 90 122
57 90 113
56 88 102
56 88 105
55 87 103
56 88 111
57 89 115
55 87 105
55 87 99
54 86 102
54 85 99
56 87 108
57 90 115
56 88 115
55 87 92
57 89 113
54 86 108
54 85 103
54 86 103
56 87 113
57 89 105
53 84 95
55 87 105
55 87 101
56 89 114
56 87 105
54 86 104
57 90 110
55 86 99
53 83 87
55 87 103
55 87 96
55 86 112
54 85 97
55 86 100
54 84 99
54 84 103
55 86 102
53 82 98
53 83 94
50 77 88
51 80 87
49 76 89
49 76 73
51 78 91
51 78 75
48 73 73
50 77 82
111 132 68
161 184 0
164 185 0
160 183 0
166 188 0
168 190 0
163 185 0
167 188 0
163 186 0
164 186 0
168 191 0
167 188 0
167 188 0
164 184 0
166 188 0
165 188 0
171 192 0
170 192 0
164 184 0
120 122 30
97 92 30
78 73 11
106 101 28
86 84 25
83 79 18
91 88 11
74 72 14
98 94 22
87 84 8
80 78 12
89 86 14
92 88 14
100 96 14
88 85 8
93 92 8
100 95 14
95 94 20
97 96 18
108 104 11
108 106 11
107 104 14
109 106 12
103 101 14
115 113 11
108 106 14
115 113 11
113 110 19
115 112 8
115 110 3
121 119 11
127 122 16
125 121 16
127 123 18
130 124 11
128 126 11
115 111 14
134 130 25
130 127 22
130 127 8
137 133 22
134 129 23
130 127 25
135 130 22
144 140 25
133 129 25
141 137 25
141 135 25
140 134 28
136 132 11
142 138 22
135 132 16
143 138 25
141 136 22
145 139 28
139 134 25
145 140 30
146 142 32
143 138 28
148 143 25
143 137 28
143 139 22
145 141 32
141 137 36
150 145 30
148 142 30
150 145 39
151 146 41
148 143 37
155 150 32
151 146 36
154 148 36
151 145 36
150 145 34
146 142 32
153 148 39
150 145 36
152 146 42
148 143 25
150 145 30
151 146 36
156 151 37
154 148 36
150 144 32
149 144 36
160 154 53
151 146 44
149 142 41
153 147 41
154 148 41
153 147 39
159 152 52
161 152 52
158 151 49
156 149 51
156 150 42
152 148 28
154 148 41
154 148 39
156 151 41
161 154 54
155 148 45
157 150 52
154 148 48
161 154 54
152 146 42
153 146 51
156 150 51
159 152 56
155 147 51
159 153 61
158 151 58
157 150 54
156 149 51
153 147 48
162 156 61
160 154 60
152 145 51
157 149 58
153 146 54
149 144 45
161 154 67
148 143 39
155 148 56
152 146 54
157 150 51
158 151 64
151 145 49
146 139 58
151 144 61
152 146 54
150 143 58
150 143 53
156 149 62
147 141 53
158 151 61
152 145 56
153 146 60
152 144 56
154 175 0
154 175 0
153 174 0
152 173 0
153 174 0
154 175 0
154 174 0
153 173 0
153 174 0
154 174 0
153 174 0
152 172 0
153 173 0
151 170 0
155 176 0
152 172 0
153 174 0
154 175 0
155 175 0
151 172 0
149 170 0
153 174 0
154 174 0
152 173 0
151 171 0
152 172 0
149 171 0
150 170 0
149 169 0
153 174 0
153 174 0
153 174 0
151 172 0
153 174 0
149 169 0
150 171 0
150 171 0
149 169 0
149 169 0
149 170 0
151 172 0
146 167 0
151 171 0
148 169 0
151 172 0
148 169 0
146 165 0
143 162 0
150 171 0
150 170 0
144 165 0
148 169 0
145 166 0
149 170 0
148 169 0
147 167 0
145 166 0
147 168 0
145 165 0
146 167 0
144 164 0
145 165 0
146 166 0
145 164 0
143 163 0
145 166 0
145 165 0
145 166 0
146 166 0
140 160 0
145 164 0
146 167 0
137 156 0
146 166 0
143 163 0
142 162 0
142 162 0
141 161 0
137 156 0
143 163 0
141 161 0
139 159 0
142 162 0
139 159 0
140 159 0
141 162 0
146 165 0
137 156 0
133 153 0
137 156 0
138 157 0
136 155 0
137 157 0
139 159 0
133 152 0
134 153 0
137 156 0
133 153 0
137 155 0
133 152 0
133 153 0
130 149 0
134 153 0
123 142 0
128 146 0
126 144 0
120 138 0
127 146 0
119 136 0
121 138 0
122 139 0
124 142 0
122 140 0
113 129 0
116 134 0
113 130 0
106 123 0
116 133 0
108 124 0
112 128 0
119 135 0
107 122 0
105 121 0
109 125 0
108 124 0
105 121 0
111 127 0
111 127 0
103 119 0
106 122 0
105 120 0
110 126 0
110 125 0
111 127 0
122 140 0
123 141 0
131 149 0
129 147 0
161 183 0
164 188 0
162 184 0
162 185 0
167 190 0
168 192 0
166 189 0
170 193 0
165 188 0
162 185 0
163 186 0
166 190 0
165 188 0
164 187 0
163 187 0
165 188 0
168 191 0
163 186 0
167 190 0
150 173 16
80 103 69
48 76 73
49 79 75
53 85 89
52 83 98
51 81 82
52 82 93
56 88 114
52 83 93
53 84 89
54 85 106
55 87 111
54 84 95
53 85 96
55 87 104
54 85 94
57 89 105
57 91 113
56 88 105
54 86 106
53 85 95
54 85 103
57 90 113
57 90 111
55 87 100
55 87 99
53 84 100
55 86 103
55 88 105
56 89 108
56 88 111
57 90 118
54 86 102
54 85 103
54 85 106
56 88 103
57 89 111
54 86 108
54 85 94
56 89 107
57 89 103
56 89 113
52 83 80
57 89 117
55 87 113
55 87 108
56 88 111
54 85 102
57 89 121
56 88 94
56 88 108
56 88 116
54 85 94
55 87 102
54 86 99
52 83 82
56 88 108
54 85 99
56 87 107
53 84 100
55 86 100
56 87 109
55 86 97
56 87 106
53 84 95
55 87 102
53 83 94
53 84 99
53 83 98
55 87 104
53 84 104
54 84 103
52 82 101
53 83 93
55 85 100
53 84 87
54 84 100
50 79 93
51 79 89
49 76 93
52 79 89
49 75 78
46 70 58
73 94 56
157 179 0
162 183 0
162 184 0
160 179 0
160 181 0
161 182 0
165 186 0
164 186 0
167 189 0
164 186 0
161 182 0
166 187 0
163 183 0
165 186 0
163 184 0
164 186 0
162 183 0
163 184 0
164 187 0
162 180 11
116 114 39
98 93 29
111 109 29
84 81 24
95 92 28
93 89 12
100 95 14
76 75 12
91 88 11
89 87 14
84 81 8
91 89 0
94 91 14
103 100 12
98 94 14
105 101 0
96 94 8
96 94 14
100 98 11
105 102 8
106 103 8
110 107 11
101 99 3
106 105 0
121 118 0
113 110 11
105 103 8
118 114 8
115 112 3
124 120 3
119 115 14
119 116 21
120 117 3
117 114 11
121 119 0
133 129 11
124 119 0
124 121 22
133 128 16
123 121 0
129 128 0
130 127 0
130 127 11
138 133 19
135 130 22
137 133 11
138 134 19
138 133 22
141 136 16
137 131 28
136 129 16
141 136 32
142 137 25
141 137 0
143 138 28
146 142 25
143 140 22
149 143 30
148 142 25
146 139 28
145 139 36
145 140 22
150 145 34
149 144 25
147 143 22
148 142 22
148 144 30
152 146 39
145 139 37
149 143 36
148 142 37
147 141 28
154 147 41
153 148 37
150 143 37
154 148 41
143 138 28
153 148 32
151 147 36
151 146 30
158 151 56
155 150 41
147 142 32
149 143 39
155 150 44
153 148 41
152 146 39
153 146 37
156 149 45
155 149 48
158 151 44
149 143 41
158 153 44
156 150 47
153 146 49
162 155 51
150 144 42
157 149 47
157 150 54
155 148 44
158 152 48
158 153 48
155 148 47
151 145 45
152 145 48
152 145 49
152 145 48
157 149 58
152 145 51
161 154 56
158 150 58
156 150 54
155 149 51
152 146 45
148 142 49
158 153 54
154 149 51
154 148 56
157 151 52
156 150 54
154 147 49
153 147 42
157 150 58
157 151 58
150 144 53
154 147 54
156 150 54
156 148 57
156 149 56
155 148 60
160 153 58
150 143 56
152 146 56
150 142 58
155 149 62
152 146 54
146 139 53
151 144 58
156 176 0
154 174 0
154 175 0
154 175 0
150 172 0
152 172 0
152 174 0
156 176 0
154 174 0
152 173 0
153 173 0
153 174 0
152 172 0
155 175 0
150 171 0
154 175 0
152 172 0
154 175 0
151 171 0
153 174 0
150 172 0
150 170 0
151 171 0
153 173 0
152 173 0
153 173 0
152 173 0
155 175 0
151 171 0
149 169 0
152 172 0
154 174 0
149 171 0
152 172 0
154 175 0
151 172 0
149 169 0
150 170 0
149 169 0
146 166 0
148 168 0
150 171 0
151 172 0
148 168 0
146 167 0
148 168 0
148 168 0
150 171 0
147 167 0
151 172 0
148 169 0
151 171 0
147 167 0
148 169 0
146 167 0
150 169 0
145 165 0
148 168 0
145 166 0
146 165 0
145 166 0
146 166 0
145 165 0
150 171 0
139 159 0
145 165 0
144 164 0
147 168 0
145 166 0
146 166 0
139 158 0
145 166 0
141 161 0
140 160 0
143 163 0
145 165 0
143 162 0
140 159 0
135 154 0
138 157 0
144 164 0
138 158 0
141 161 0
137 156 0
131 150 0
132 151 0
137 157 0
142 160 0
141 161 0
138 159 0
132 151 0
133 152 0
139 158 0
134 153 0
132 150 0
136 156 0
134 153 0
133 151 0
141 160 0
128 147 0
131 149 0
132 151 0
129 148 0
131 149 0
129 148 0
115 132 0
133 152 0
127 144 0
125 144 0
129 148 0
116 134 0
128 147 0
111 129 0
121 139 0
108 125 0
121 138 0
116 134 0
117 135 0
106 122 0
112 127 0
110 126 0
114 130 0
105 121 0
105 121 0
112 128 0
105 121 0
108 124 0
103 117 0
101 116 0
103 118 0
104 121 0
113 129 0
116 132 0
125 141 0
124 141 0
123 141 0
135 154 0
152 175 0
165 189 0
167 189 0
165 189 0
166 189 0
169 192 0
166 188 0
164 186 0
163 186 0
164 187 0
165 187 0
163 187 0
161 185 0
164 187 0
159 182 0
160 183 0
160 182 0
162 184 0
161 185 0
161 185 0
165 188 0
135 157 36
51 79 73
49 77 81
49 77 77
53 83 93
50 79 81
49 78 90
54 85 91
54 86 98
53 85 96
53 85 99
50 80 79
55 86 100
54 86 98
51 82 86
55 88 111
53 84 84
55 88 96
53 84 95
54 87 99
55 86 97
54 86 95
54 86 103
54 85 91
57 89 115
56 89 109
53 84 95
55 87 78
54 86 94
53 84 95
55 87 102
55 87 102
55 87 114
55 87 95
55 86 105
54 85 105
55 88 111
55 87 103
57 89 105
55 86 110
56 89 103
56 88 105
54 86 84
57 89 107
55 87 99
56 89 111
56 89 108
55 87 110
54 86 102
54 86 98
53 85 100
57 89 108
55 87 108
55 87 115
56 88 103
54 85 107
54 85 97
57 89 113
54 85 104
55 86 104
56 88 110
53 83 90
52 82 94
56 88 103
55 86 102
57 89 107
55 87 103
54 84 96
55 87 111
53 83 89
53 84 94
53 84 105
53 83 104
55 85 103
53 82 96
55 85 104
51 79 91
50 77 90
49 77 84
47 73 75
47 73 66
47 72 73
48 72 62
143 164 18
157 179 0
161 183 0
158 180 0
161 182 0
160 181 0
160 181 0
160 180 0
167 188 0
160 181 0
162 181 0
166 188 0
168 191 0
164 183 0
164 184 0
156 176 0
161 183 0
164 183 0
161 181 0
170 191 0
163 182 0
150 166 16
95 92 37
100 95 30
111 104 28
92 88 23
103 98 25
89 87 14
80 77 16
93 88 8
92 88 0
100 98 11
88 86 11
81 81 18
92 88 14
89 86 8
91 87 0
82 80 8
101 98 8
92 90 14
109 105 8
108 103 0
108 104 11
109 107 8
100 99 16
109 106 12
117 111 8
113 109 11
112 109 11
121 118 0
114 112 0
120 117 0
121 118 8
118 116 8
116 110 8
124 120 0
121 118 11
131 127 8
125 121 8
121 118 8
129 125 8
131 126 0
128 124 19
136 130 19
131 126 11
137 131 19
137 131 0
130 126 11
135 130 19
135 130 0
137 132 25
141 135 16
134 130 22
143 137 19
137 132 0
143 138 28
144 140 19
150 143 25
144 139 30
142 137 19
136 131 19
148 143 28
145 141 28
149 144 32
144 139 28
144 139 19
150 144 32
150 144 34
148 141 32
138 134 19
148 143 25
141 137 19
146 141 30
149 142 36
148 144 19
155 148 37
149 144 30
151 146 28
151 144 34
153 147 41
151 146 36
154 148 32
148 142 28
157 150 39
149 144 36
157 152 47
158 152 45
148 143 28
152 147 34
149 143 32
155 149 41
151 146 37
151 145 34
158 152 48
151 146 34
155 148 51
157 151 45
150 144 41
156 148 45
152 147 42
156 150 48
153 148 36
157 150 45
154 148 41
158 151 51
155 149 51
154 148 44
155 148 48
156 151 45
150 144 48
148 141 42
158 149 57
156 149 49
156 149 48
154 147 54
159 151 56
152 145 59
153 147 52
155 149 52
157 150 53
150 144 45
160 151 61
149 142 54
155 148 57
158 150 60
147 142 52
153 146 54
158 151 63
156 150 54
152 145 57
163 155 60
152 146 53
151 144 53
154 147 58
148 141 54
145 139 58
150 144 57
147 139 57
149 143 51
153 174 0
154 175 0
152 173 0
152 173 0
153 174 0
153 173 0
152 173 0
152 174 0
152 173 0
154 174 0
153 173 0
150 170 0
152 173 0
153 173 0
151 171 0
155 175 0
155 174 0
151 172 0
153 173 0
153 174 0
152 172 0
155 176 0
150 171 0
151 171 0
153 174 0
152 173 0
151 172 0
149 170 0
149 170 0
154 173 0
153 173 0
153 173 0
151 171 0
151 171 0
149 169 0
150 170 0
149 169 0
151 173 0
150 170 0
150 169 0
150 170 0
147 168 0
150 171 0
150 170 0
147 168 0
150 171 0
145 165 0
145 164 0
149 169 0
144 164 0
150 170 0
142 161 0
146 166 0
147 167 0
147 168 0
143 163 0
145 165 0
146 166 0
146 166 0
146 165 0
145 165 0
144 164 0
145 164 0
148 168 0
147 167 0
144 164 0
143 164 0
141 160 0
143 163 0
142 161 0
146 165 0
139 158 0
148 169 0
149 169 0
142 162 0
144 164 0
138 158 0
145 164 0
142 161 0
143 164 0
139 159 0
137 156 0
135 154 0
140 159 0
140 158 0
134 153 0
134 154 0
134 153 0
136 156 0
134 153 0
138 157 0
139 157 0
136 154 0
135 155 0
128 147 0
132 151 0
138 157 0
133 152 0
133 152 0
136 155 0
131 149 0
130 149 0
136 156 0
128 146 0
127 146 0
129 146 0
122 139 0
123 141 0
119 137 0
124 143 0
117 136 0
118 135 0
120 137 0
106 123 0
124 142 0
116 133 0
128 145 0
124 142 0
102 118 0
104 120 0
108 125 0
112 128 0
105 121 0
103 118 0
108 124 0
108 124 0
117 134 0
101 116 0
107 122 0
106 123 0
107 122 0
117 134 0
115 133 0
115 133 0
128 145 0
113 130 0
149 170 0
159 182 0
164 187 0
160 183 0
166 189 0
166 189 0
163 186 0
156 179 0
163 187 0
159 181 0
159 181 0
161 184 0
165 188 0
159 181 0
156 178 0
160 183 0
160 184 0
160 183 0
161 183 0
149 172 0
156 179 0
161 182 0
162 184 0
119 141 49
48 76 62
48 77 68
49 79 83
50 80 87
53 83 98
50 80 88
54 86 102
51 81 92
54 85 104
54 86 96
53 84 91
52 82 86
52 83 97
52 84 95
55 87 100
55 87 90
54 85 106
54 86 108
54 86 103
52 83 86
53 84 88
55 88 95
56 88 105
56 88 110
52 83 90
55 87 100
54 85 105
56 88 115
54 86 103
55 87 105
55 86 99
54 86 100
55 87 99
54 87 99
55 87 104
56 89 110
53 84 90
57 89 111
54 86 90
58 90 117
56 88 110
56 89 102
55 87 97
52 83 102
55 86 105
56 89 113
54 85 102
56 88 111
54 85 102
56 89 100
54 86 99
55 88 97
57 89 107
56 88 107
53 85 92
55 87 107
53 84 97
54 85 100
54 86 110
55 87 105
56 87 107
54 84 109
55 86 100
53 83 95
53 84 95
54 84 85
56 88 102
53 83 97
56 88 113
52 81 83
51 80 86
53 83 81
51 80 89
50 77 75
53 82 103
50 79 89
51 79 89
46 70 74
49 76 73
45 69 63
124 143 19
159 182 0
149 168 0
158 181 0
164 186 0
157 178 0
154 172 0
164 185 0
157 179 0
159 180 0
163 182 0
161 181 0
160 181 0
160 180 0
164 183 0
164 183 0
162 184 0
159 178 0
160 181 0
164 182 0
164 184 0
163 184 0
163 182 0
152 166 11
104 99 34
115 109 39
88 83 25
97 93 21
87 84 16
88 84 22
83 80 2
96 93 16
89 85 16
88 85 16
98 95 16
90 87 14
88 85 16
102 97 11
111 107 8
100 97 8
107 102 0
98 95 0
103 101 0
107 103 8
98 95 3
106 103 0
113 109 0
111 108 14
108 106 0
111 108 11
111 109 8
109 107 0
115 113 8
123 120 0
115 111 11
113 111 8
126 122 3
119 115 0
131 126 0
124 121 0
124 120 0
127 123 0
128 123 0
129 126 0
128 124 0
130 125 0
126 122 0
134 129 0
135 132 0
134 131 0
133 129 16
131 126 0
143 138 19
141 137 11
140 136 16
139 135 0
139 135 22
138 135 11
142 137 11
137 132 28
143 138 30
143 139 16
143 139 0
146 141 22
141 136 16
143 138 19
145 141 22
148 143 22
146 140 25
145 141 16
152 146 32
147 141 30
144 138 22
143 138 22
144 139 25
145 141 19
146 142 11
151 144 37
149 144 32
152 146 41
148 141 32
149 143 32
149 143 30
155 149 47
153 147 30
152 146 36
154 147 41
155 149 42
149 142 32
151 145 37
154 147 41
153 148 34
147 141 39
154 148 37
153 147 36
155 149 45
155 148 44
152 146 36
153 146 39
154 149 45
158 152 45
152 145 42
155 148 48
154 148 48
150 145 37
150 144 41
149 143 42
150 145 42
157 151 48
152 146 37
152 145 47
146 140 44
157 150 51
158 150 61
154 147 54
150 144 47
152 145 60
150 144 56
157 151 58
162 154 62
146 141 48
146 141 42
151 145 44
156 149 51
151 145 51
154 147 52
153 147 56
148 143 45
147 141 47
149 142 47
156 149 61
147 140 57
156 149 57
156 149 62
150 142 47
147 142 45
145 139 45
155 148 56
153 146 51
140 134 51
153 174 0
154 175 0
155 175 0
151 172 0
152 173 0
153 175 0
153 174 0
152 172 0
150 171 0
151 172 0
155 175 0
149 170 0
152 173 0
153 174 0
154 174 0
151 172 0
155 176 0
151 171 0
150 171 0
151 173 0
151 171 0
152 173 0
152 171 0
149 170 0
151 172 0
152 173 0
152 173 0
153 174 0
152 172 0
152 172 0
150 171 0
151 171 0
150 171 0
148 168 0
151 172 0
145 165 0
148 168 0
146 166 0
150 170 0
148 168 0
150 170 0
152 173 0
149 169 0
149 168 0
148 168 0
149 169 0
145 165 0
149 170 0
148 168 0
148 168 0
145 166 0
147 166 0
148 167 0
150 170 0
144 164 0
148 168 0
149 170 0
150 170 0
145 165 0
147 168 0
146 165 0
144 164 0
142 162 0
140 160 0
145 165 0
144 163 0
147 167 0
146 167 0
144 164 0
145 165 0
140 160 0
138 158 0
146 165 0
139 159 0
136 156 0
142 162 0
137 156 0
143 164 0
140 160 0
146 165 0
142 161 0
142 160 0
137 156 0
139 158 0
136 155 0
142 161 0
139 158 0
140 159 0
140 160 0
132 152 0
136 156 0
138 157 0
135 154 0
131 149 0
131 150 0
136 156 0
129 146 0
132 150 0
132 152 0
129 146 0
128 147 0
132 149 0
130 147 0
121 139 0
124 141 0
115 132 0
124 142 0
122 141 0
128 146 0
126 144 0
119 137 0
131 149 0
117 134 0
116 132 0
122 139 0
122 139 0
112 128 0
112 128 0
97 112 0
120 136 0
110 126 0
114 130 0
109 124 0
114 129 0
109 124 0
101 117 0
113 129 0
111 128 0
105 121 0
97 114 0
106 122 0
116 133 0
121 137 0
122 139 0
122 139 0
150 171 0
162 185 0
161 182 0
163 185 0
164 186 0
158 180 0
163 186 0
163 186 0
159 181 0
164 185 0
160 183 0
161 183 0
160 182 0
162 185 0
163 186 0
163 185 0
158 181 0
165 187 0
158 181 0
160 182 0
159 182 0
157 179 0
157 179 0
162 184 0
154 176 0
114 136 42
48 77 85
50 79 94
52 82 87
50 80 86
47 75 80
53 84 95
51 81 84
52 82 91
52 82 95
52 82 87
54 86 96
52 82 91
54 86 94
50 80 91
52 83 90
55 87 102
52 83 88
56 88 108
54 85 105
54 86 90
54 86 98
57 90 114
55 88 106
54 86 108
54 86 100
53 85 90
53 84 108
54 86 90
55 88 102
53 84 97
54 86 94
55 87 102
54 86 94
55 87 103
55 87 105
54 85 97
54 85 107
54 86 92
54 85 100
54 85 90
53 84 99
54 86 99
57 89 110
56 89 102
54 85 100
53 85 97
56 88 108
55 87 107
53 84 107
55 87 110
55 87 114
56 87 110
53 84 95
56 88 105
55 87 105
53 84 88
56 88 102
53 83 90
55 87 102
51 81 96
52 81 98
53 82 96
55 86 102
54 84 93
56 87 104
54 84 98
50 79 99
54 83 107
51 80 96
53 82 94
53 83 92
51 80 90
53 81 95
52 81 92
51 80 85
49 77 85
45 69 68
49 75 82
107 126 43
157 179 0
157 177 0
153 174 0
159 179 0
158 175 0
160 181 0
156 176 0
157 176 0
161 181 0
158 178 0
163 182 0
157 177 0
157 177 0
157 175 0
158 177 0
155 175 0
156 176 0
160 181 0
162 182 0
165 186 0
157 177 0
168 188 0
155 172 0
166 187 0
133 143 19
97 92 32
97 92 25
100 93 25
89 85 19
92 86 28
87 85 18
93 91 18
86 82 11
90 85 11
83 81 0
88 84 16
93 91 8
99 96 8
99 96 8
82 80 11
105 103 11
106 101 0
100 96 0
95 93 11
108 102 0
107 103 11
107 103 3
113 109 12
105 103 3
110 106 8
114 109 8
119 114 8
115 111 8
115 110 0
118 114 0
119 112 0
125 120 0
119 115 0
129 124 0
122 117 0
130 126 8
125 120 0
129 125 0
128 124 0
132 127 0
129 125 0
132 129 0
133 129 0
132 126 0
134 129 0
134 130 0
133 129 0
132 128 0
132 127 0
142 137 0
143 139 11
142 137 11
134 131 0
138 134 0
137 132 0
139 136 11
141 138 0
140 136 16
140 135 16
144 140 22
139 135 11
148 142 22
144 138 16
139 134 19
141 136 16
144 138 32
145 141 19
145 139 25
146 142 16
146 141 25
148 143 22
146 142 28
147 142 28
151 146 25
150 142 28
146 141 25
152 146 32
149 143 30
148 143 32
154 148 39
151 146 36
147 142 25
148 142 30
150 145 34
155 150 42
158 150 48
149 145 30
155 149 48
151 144 37
142 136 34
152 145 39
149 143 37
154 149 32
155 147 39
156 149 39
151 145 44
152 145 44
152 145 45
152 146 42
154 149 41
153 146 41
155 149 47
155 148 56
151 145 41
149 145 36
150 143 47
155 148 52
157 151 44
150 143 49
159 151 54
158 151 53
150 144 49
149 143 45
154 147 45
147 141 51
153 146 56
153 146 47
155 148 58
151 145 52
150 143 45
150 143 52
150 143 48
149 143 52
148 142 49
150 143 49
149 142 54
147 141 49
155 148 57
142 136 42
147 140 51
151 144 52
150 143 57
148 141 56
144 138 53
162 154 66
155 175 0
153 173 0
155 174 0
154 174 0
150 170 0
152 173 0
150 172 0
152 172 0
152 173 0
153 173 0
152 172 0
152 173 0
150 171 0
152 173 0
151 173 0
149 171 0
152 173 0
152 172 0
154 173 0
152 172 0
151 171 0
151 172 0
153 173 0
149 169 0
151 172 0
152 172 0
151 171 0
152 172 0
151 171 0
151 171 0
146 166 0
151 171 0
150 170 0
149 169 0
145 164 0
151 169 0
150 170 0
151 171 0
150 170 0
148 169 0
148 168 0
148 168 0
146 166 0
146 167 0
149 169 0
148 168 0
150 170 0
147 168 0
147 168 0
150 171 0
144 164 0
143 163 0
142 163 0
146 166 0
142 162 0
146 166 0
145 165 0
147 166 0
146 165 0
143 164 0
141 162 0
146 166 0
143 163 0
144 165 0
142 162 0
144 163 0
145 165 0
143 163 0
140 160 0
145 164 0
144 165 0
144 164 0
140 159 0
144 164 0
137 157 0
143 163 0
134 155 0
137 156 0
145 164 0
138 157 0
138 158 0
144 164 0
142 161 0
139 159 0
135 154 0
137 156 0
135 153 0
142 161 0
139 159 0
133 152 0
137 156 0
139 158 0
130 148 0
132 151 0
130 149 0
134 153 0
127 145 0
126 145 0
129 147 0
134 153 0
126 145 0
120 139 0
133 151 0
129 148 0
128 145 0
132 150 0
118 135 0
132 150 0
111 128 0
121 138 0
116 134 0
120 137 0
119 136 0
124 141 0
112 128 0
125 143 0
108 124 0
114 130 0
117 134 0
111 127 0
109 125 0
112 127 0
108 122 0
98 113 0
110 125 0
113 129 0
109 124 0
113 128 0
114 131 0
119 135 0
113 128 0
117 133 0
115 132 0
122 138 0
140 159 0
164 187 0
164 186 0
164 186 0
158 180 0
155 178 0
163 185 0
159 180 0
161 184 0
159 181 0
158 180 0
159 181 0
158 181 0
159 180 0
160 182 0
161 184 0
160 182 0
152 175 0
155 177 0
161 183 0
157 180 0
150 172 0
158 181 0
159 180 0
157 179 0
153 175 0
150 171 0
87 109 70
48 76 64
48 77 73
50 79 87
48 77 85
52 83 92
49 77 85
53 84 90
52 82 95
52 83 91
53 83 100
54 85 106
51 81 88
52 83 91
54 85 90
53 84 102
52 83 99
54 85 97
52 83 92
53 85 97
52 82 93
54 86 102
56 89 107
53 84 92
53 84 100
54 86 90
56 88 99
53 85 98
54 85 100
53 84 100
57 90 109
57 90 107
55 86 100
55 87 106
55 86 94
54 86 97
55 87 99
54 86 95
56 88 100
55 88 112
55 87 95
54 85 101
54 85 95
55 87 103
58 91 105
52 82 92
58 91 113
54 85 92
54 85 95
54 85 94
56 88 108
53 84 88
54 85 97
56 88 108
53 83 90
55 87 92
51 81 88
52 82 90
54 86 102
54 85 94
53 85 92
55 86 105
54 85 101
54 86 99
51 80 89
52 83 89
51 81 86
51 80 77
52 82 87
49 77 75
51 81 86
48 75 87
51 79 89
52 80 90
51 78 77
50 78 75
49 76 75
85 105 63
151 172 0
159 180 0
146 164 0
157 177 0
152 168 0
155 175 0
157 178 0
154 173 0
153 171 0
154 175 0
153 172 0
156 175 0
161 180 0
156 175 0
152 171 0
151 170 0
163 181 0
157 177 0
158 178 0
156 174 0
157 177 0
157 175 0
164 184 0
159 177 0
154 173 0
162 181 0
139 150 25
112 105 37
93 88 28
109 103 30
96 90 22
98 93 18
87 83 11
80 77 19
82 76 0
83 78 11
106 101 8
101 97 8
100 96 8
86 83 0
101 98 8
95 91 3
101 95 8
97 93 0
105 100 8
105 101 0
115 110 0
105 102 8
109 103 8
116 112 3
115 111 8
119 113 0
109 105 8
111 108 0
119 114 0
123 120 8
120 116 8
124 120 0
124 119 0
127 120 0
128 123 0
127 123 0
131 125 0
124 120 0
121 117 0
133 128 0
132 128 0
143 137 0
139 134 0
134 128 0
137 132 0
133 130 0
129 126 0
132 129 0
122 117 0
133 128 0
133 128 0
132 128 0
137 133 0
140 135 0
137 131 0
140 135 11
142 136 0
141 137 0
132 127 0
135 130 11
140 135 0
142 137 19
144 136 16
140 134 19
146 140 19
144 138 11
145 140 16
147 141 22
147 141 25
147 140 30
145 140 16
147 141 28
148 142 28
144 138 22
143 137 22
145 140 19
146 140 25
148 142 22
149 144 30
151 146 37
148 141 36
145 140 28
150 143 32
150 145 41
145 140 25
152 145 42
149 144 32
152 145 41
154 147 47
150 144 37
147 141 39
148 139 44
148 142 37
156 150 48
149 143 44
152 144 51
151 146 37
149 145 36
159 151 52
149 143 34
146 139 42
149 142 39
144 139 42
154 148 48
152 146 41
153 147 36
144 139 39
149 142 42
152 145 41
150 143 47
145 140 42
146 140 32
150 145 48
152 145 48
160 152 53
150 144 52
150 144 49
150 145 47
144 139 41
149 142 52
146 140 51
148 141 47
145 140 41
152 145 48
149 142 49
151 144 53
153 145 52
145 138 51
147 141 48
148 142 52
137 131 30
142 135 37
144 139 48
143 137 45
152 145 58
152 172 0
152 173 0
153 174 0
153 173 0
153 173 0
151 172 0
154 174 0
150 171 0
151 172 0
154 174 0
152 173 0
151 172 0
153 174 0
151 172 0
153 174 0
153 172 0
150 170 0
155 175 0
151 172 0
152 172 0
150 170 0
148 168 0
151 172 0
147 168 0
150 171 0
151 172 0
147 167 0
151 171 0
152 171 0
149 169 0
148 168 0
147 166 0
150 170 0
149 170 0
151 171 0
148 169 0
149 170 0
148 169 0
151 171 0
147 167 0
147 167 0
151 172 0
148 168 0
148 168 0
145 166 0
150 170 0
151 171 0
149 169 0
150 170 0
150 170 0
148 168 0
143 163 0
143 163 0
148 168 0
147 166 0
144 165 0
147 166 0
147 168 0
146 165 0
145 165 0
148 167 0
143 162 0
144 163 0
140 159 0
143 163 0
146 166 0
141 161 0
144 164 0
141 161 0
147 166 0
144 164 0
141 162 0
146 166 0
138 157 0
139 158 0
140 160 0
138 157 0
141 160 0
140 159 0
138 157 0
142 161 0
135 154 0
139 158 0
138 158 0
134 153 0
137 157 0
137 157 0
136 155 0
131 149 0
132 151 0
138 158 0
137 155 0
135 154 0
130 149 0
133 150 0
127 145 0
137 154 0
128 147 0
131 149 0
129 147 0
126 144 0
130 148 0
124 142 0
128 147 0
124 142 0
135 154 0
127 145 0
128 145 0
124 141 0
127 145 0
121 138 0
121 138 0
121 137 0
125 142 0
120 137 0
118 135 0
118 133 0
111 127 0
110 126 0
112 127 0
114 130 0
111 126 0
117 133 0
104 120 0
108 123 0
107 121 0
110 126 0
114 130 0
110 126 0
118 134 0
122 138 0
121 137 0
119 136 0
137 156 0
153 175 0
157 179 0
157 179 0
160 182 0
158 180 0
156 177 0
159 182 0
160 182 0
158 179 0
158 179 0
159 181 0
157 180 0
161 182 0
160 182 0
151 172 0
161 183 0
156 178 0
158 180 0
156 178 0
156 179 0
153 175 0
157 179 0
147 169 0
155 178 0
152 175 0
157 179 0
155 176 0
141 162 18
83 106 59
47 75 82
47 75 76
49 78 78
51 80 87
53 83 105
52 83 94
51 82 88
52 83 96
53 84 107
54 85 91
51 82 84
52 83 80
51 81 86
55 87 109
55 88 97
53 83 97
53 84 87
52 82 100
53 84 95
55 86 102
54 85 95
53 84 110
55 86 103
55 87 103
52 83 94
53 84 103
53 83 99
53 84 97
53 83 97
54 85 111
57 90 110
54 85 100
52 83 82
54 85 90
53 83 92
53 85 95
57 90 108
55 86 100
53 84 92
56 88 107
55 86 108
54 85 92
55 86 99
54 85 102
56 89 108
52 82 97
55 86 100
55 87 107
51 82 90
54 85 99
54 86 102
54 85 105
52 83 94
53 84 78
54 84 96
52 83 86
54 84 99
54 85 100
52 83 90
53 81 96
53 83 104
52 83 85
52 83 93
52 80 83
48 74 70
52 81 95
51 80 94
47 74 94
51 80 89
51 79 85
54 84 95
46 72 57
46 72 74
44 68 61
79 97 60
153 173 18
147 164 0
139 157 0
146 167 0
147 167 0
149 168 0
154 172 0
156 176 0
145 163 0
148 167 0
154 173 0
158 178 0
152 169 0
157 177 0
148 166 0
158 175 0
152 170 0
151 169 0
157 175 0
157 175 0
159 179 0
156 173 0
161 179 0
153 170 0
155 172 0
161 177 0
154 174 0
158 176 0
123 129 19
100 96 28
103 98 26
96 90 19
102 98 25
97 92 18
103 96 26
97 92 0
92 86 11
89 85 0
94 89 14
96 92 14
91 88 11
95 92 11
93 89 0
103 99 8
97 93 0
107 103 0
104 101 0
105 100 0
108 103 3
110 103 14
103 99 0
106 103 0
107 104 0
104 101 8
108 106 0
117 113 0
111 108 8
119 115 0
116 111 0
128 123 0
118 112 0
123 118 0
127 121 0
133 127 0
122 117 0
134 130 0
126 121 0
130 126 0
131 126 0
138 133 0
131 127 0
133 129 0
125 122 0
130 125 0
136 132 0
142 137 0
138 134 0
135 131 0
142 137 0
136 130 0
138 134 0
132 128 0
138 133 0
142 138 0
132 128 0
143 139 0
137 133 0
141 136 0
143 139 0
142 137 0
137 133 11
141 136 0
143 139 11
146 141 19
140 134 19
144 139 16
145 140 11
143 139 19
147 143 19
147 142 25
145 138 19
141 137 19
140 135 19
149 144 22
142 136 28
149 141 30
146 142 25
148 143 25
151 144 30
149 144 30
148 142 34
153 146 42
145 139 28
143 138 28
148 142 36
149 142 39
152 147 39
145 140 28
147 141 39
153 147 36
148 143 36
152 146 39
152 146 39
146 139 42
150 145 36
151 145 32
149 142 39
146 139 48
150 143 42
144 139 36
149 142 42
152 146 37
142 136 37
148 142 39
151 143 39
153 146 44
149 142 49
152 145 45
153 145 57
154 147 59
150 144 42
159 152 60
149 143 49
149 142 49
152 145 44
143 138 36
148 143 41
152 145 51
143 138 41
143 137 41
151 144 53
150 143 53
140 134 37
149 142 47
153 146 57
152 146 61
158 151 52
151 145 51
146 139 51
152 145 59
147 141 47
150 144 49
154 174 0
152 172 0
149 170 0
151 172 0
154 174 0
152 173 0
151 171 0
153 172 0
152 172 0
153 173 0
148 169 0
152 173 0
152 172 0
153 173 0
152 173 0
150 170 0
150 171 0
151 171 0
147 169 0
152 172 0
150 171 0
150 170 0
153 173 0
151 171 0
154 174 0
150 171 0
153 173 0
150 170 0
149 168 0
152 171 0
151 171 0
152 172 0
151 171 0
148 169 0
150 169 0
147 167 0
152 172 0
149 168 0
150 170 0
150 170 0
147 167 0
146 167 0
150 171 0
147 167 0
150 170 0
150 169 0
148 168 0
150 170 0
147 168 0
146 165 0
151 170 0
143 164 0
148 168 0
146 165 0
149 168 0
148 168 0
144 164 0
147 167 0
143 162 0
146 166 0
143 164 0
145 165 0
141 160 0
146 166 0
144 164 0
143 163 0
145 165 0
141 162 0
142 162 0
141 161 0
144 163 0
146 164 0
141 161 0
142 161 0
145 165 0
136 156 0
142 161 0
142 161 0
141 158 0
141 159 0
133 152 0
132 151 0
132 151 0
134 153 0
136 156 0
134 153 0
136 154 0
138 157 0
132 151 0
137 155 0
137 157 0
135 153 0
134 152 0
128 145 0
133 151 0
127 144 0
126 144 0
130 148 0
128 146 0
130 148 0
129 147 0
131 150 0
119 137 0
131 148 0
128 145 0
125 143 0
125 144 0
122 139 0
127 145 0
123 139 0
114 130 0
114 132 0
115 131 0
124 140 0
119 136 0
128 145 0
114 131 0
122 138 0
117 133 0
110 127 0
119 135 0
104 120 0
111 127 0
106 121 0
110 126 0
113 128 0
104 120 0
112 128 0
111 127 0
118 134 0
118 135 0
115 131 0
130 147 0
156 178 0
154 175 0
158 180 0
163 185 0
155 177 0
159 180 0
155 176 0
152 174 0
154 174 0
154 176 0
151 174 0
152 173 0
152 173 0
156 177 0
153 174 0
146 166 0
158 178 0
154 176 0
151 174 0
152 173 0
152 174 0
152 173 0
146 167 0
155 177 0
146 166 0
155 177 0
151 172 0
144 166 0
142 163 0
137 159 0
67 90 47
49 78 70
45 72 64
46 74 77
50 79 78
47 75 78
51 81 82
51 81 88
53 83 97
49 78 80
54 85 108
51 81 92
53 84 99
54 85 95
55 87 110
52 83 105
53 84 93
52 83 93
53 84 103
52 83 82
50 80 95
54 86 100
54 85 107
55 88 98
52 83 86
55 88 95
53 84 95
53 84 90
54 86 94
55 86 99
54 85 99
55 88 100
51 81 88
54 86 95
55 87 108
52 82 97
56 88 99
54 86 90
56 88 100
54 85 88
53 84 97
55 86 108
52 82 91
51 81 80
52 83 95
55 86 108
52 82 92
55 87 97
51 80 80
55 87 102
52 82 95
53 84 90
53 84 88
55 86 107
51 80 82
53 84 93
55 86 100
53 84 87
54 86 99
53 83 102
53 84 94
52 82 90
52 82 92
51 80 99
51 80 96
49 78 75
53 84 83
51 80 87
50 77 80
48 74 82
48 75 68
50 77 75
48 74 75
72 91 55
136 155 18
149 169 0
148 166 0
147 166 0
149 168 0
159 178 0
147 163 0
149 167 0
148 165 0
145 164 0
154 171 0
147 164 0
140 157 0
157 176 0
149 166 0
150 167 0
149 167 0
151 169 0
154 170 0
148 166 0
155 171 0
151 168 0
150 168 0
155 174 0
158 176 0
156 175 0
158 174 0
155 170 0
158 173 0
160 176 0
131 139 11
98 94 22
90 85 28
104 98 19
92 89 16
92 88 11
100 95 25
93 87 16
94 89 19
100 94 16
91 86 0
100 95 0
93 89 0
106 100 0
95 91 11
101 98 0
101 97 0
100 93 0
98 94 0
104 100 8
106 101 0
115 110 0
115 111 0
110 106 0
109 105 0
109 105 0
112 107 0
113 107 8
119 114 0
128 122 0
114 109 0
123 119 0
119 116 0
130 126 0
127 122 0
121 116 0
126 122 0
122 118 0
124 118 0
129 124 0
132 125 0
131 126 0
124 120 0
132 126 0
131 126 0
130 124 0
135 130 0
126 121 0
135 129 0
132 127 0
136 131 0
139 134 0
139 135 0
135 131 0
137 132 0
138 133 0
137 132 0
136 130 0
137 133 0
138 133 0
142 138 0
142 139 0
145 140 0
140 135 11
143 136 11
136 130 0
143 137 11
144 140 11
147 142 25
145 140 16
144 141 0
143 137 16
142 137 16
147 140 28
143 137 22
145 138 25
144 138 19
151 145 32
150 143 36
147 141 32
148 143 19
149 144 19
148 143 22
148 142 34
151 145 25
148 141 30
149 143 39
147 141 32
142 137 19
145 140 28
148 143 34
150 143 36
150 144 44
145 140 32
147 142 30
143 137 34
146 141 25
149 143 41
147 140 39
147 140 42
155 150 39
145 138 42
146 140 37
149 142 42
146 139 41
148 140 45
145 139 41
149 143 37
150 144 45
148 141 47
147 140 47
148 142 44
151 144 44
151 144 48
143 137 41
150 143 49
150 144 44
153 146 54
145 139 51
151 144 45
146 140 45
147 141 48
147 139 53
138 132 36
149 142 54
147 140 47
143 137 48
148 142 49
144 138 53
140 134 47
145 139 45
144 137 48
147 139 56
152 173 0
154 174 0
151 172 0
152 173 0
152 172 0
152 173 0
152 171 0
154 173 0
152 173 0
152 172 0
153 173 0
153 173 0
148 169 0
151 171 0
153 173 0
153 173 0
147 167 0
153 173 0
153 172 0
149 169 0
152 172 0
150 171 0
150 170 0
152 173 0
150 170 0
151 171 0
150 169 0
150 170 0
147 168 0
148 168 0
150 169 0
150 171 0
151 171 0
148 168 0
150 170 0
151 170 0
149 169 0
144 165 0
148 168 0
147 168 0
151 171 0
148 168 0
148 168 0
147 168 0
146 166 0
149 169 0
147 166 0
148 168 0
147 166 0
148 168 0
146 166 0
147 167 0
147 167 0
146 166 0
143 162 0
145 165 0
146 165 0
141 161 0
146 165 0
141 161 0
143 163 0
148 167 0
146 165 0
142 160 0
139 159 0
147 167 0
140 159 0
140 160 0
141 159 0
139 158 0
141 161 0
137 157 0
145 164 0
142 162 0
135 154 0
139 158 0
143 163 0
140 159 0
137 156 0
147 166 0
136 154 0
135 155 0
136 155 0
137 156 0
133 152 0
137 157 0
134 152 0
141 161 0
136 154 0
137 155 0
134 154 0
125 143 0
124 142 0
133 151 0
133 151 0
133 152 0
128 145 0
130 147 0
132 149 0
123 140 0
129 146 0
129 146 0
128 146 0
127 144 0
129 146 0
122 139 0
120 138 0
122 140 0
121 137 0
116 132 0
124 139 0
115 130 0
118 134 0
118 134 0
117 134 0
114 130 0
116 132 0
116 132 0
111 126 0
107 123 0
98 111 0
116 132 0
107 122 0
104 119 0
112 127 0
102 116 0
105 120 0
110 124 0
108 123 0
120 136 0
120 135 0
123 141 0
155 176 0
151 172 0
154 175 0
153 174 0
151 172 0
155 176 0
151 172 0
152 173 0
151 172 0
158 179 0
155 176 0
153 175 0
150 171 0
145 166 0
153 175 0
150 170 0
149 171 0
148 169 0
144 164 0
146 167 0
139 161 0
153 175 0
143 165 0
152 174 0
139 160 0
138 160 0
141 163 0
150 171 0
149 171 0
147 168 0
145 167 0
142 163 0
76 98 53
47 74 78
48 77 78
51 81 85
49 79 76
52 82 91
51 80 84
48 76 69
50 80 86
51 81 76
52 82 97
54 85 92
52 83 90
51 82 94
53 84 84
51 80 90
53 84 90
52 82 84
53 85 88
52 81 103
54 86 97
52 82 90
52 83 84
53 83 99
53 85 103
53 85 92
54 86 88
52 83 80
52 83 87
55 87 94
52 83 97
55 87 97
51 82 92
54 85 103
53 84 97
53 84 90
54 86 99
55 86 97
53 84 95
54 86 97
53 84 76
54 86 93
55 87 99
51 81 94
51 81 82
55 87 97
56 89 108
55 87 108
52 83 102
54 85 102
53 84 94
50 79 86
53 83 94
53 83 92
51 80 82
53 84 90
52 82 92
54 84 94
51 80 90
51 81 81
52 81 83
52 81 82
51 80 79
51 80 77
49 76 78
50 78 68
50 78 74
49 76 56
48 74 77
47 73 70
47 72 63
72 93 63
141 160 0
140 158 0
147 163 0
142 162 0
140 160 0
141 160 0
140 158 0
149 166 0
143 161 0
146 164 0
145 162 0
142 161 0
150 168 0
143 160 0
155 171 0
149 166 0
146 164 0
146 162 0
153 168 0
150 167 0
152 168 0
150 167 0
152 168 0
154 167 0
155 170 0
150 167 0
150 166 0
139 152 0
155 170 0
148 165 0
152 169 0
156 173 0
118 125 19
101 96 37
107 102 28
98 92 25
101 96 25
96 90 11
100 95 18
90 87 8
91 84 11
97 92 14
99 94 11
99 93 11
98 94 0
105 100 0
108 101 8
102 96 8
112 107 0
103 97 8
107 102 0
105 100 0
113 107 8
115 110 0
110 105 0
115 110 0
111 106 8
111 108 8
106 103 0
121 117 8
121 114 0
115 110 0
125 120 0
122 117 0
127 122 0
120 116 0
127 121 0
132 125 0
121 114 0
119 115 0
124 120 0
126 122 0
134 128 0
135 130 0
133 127 0
134 129 0
133 126 0
134 130 0
130 125 0
135 129 0
129 124 0
134 131 0
138 133 0
140 135 0
138 133 0
139 132 0
139 133 0
140 135 0
140 135 0
139 134 0
135 130 0
137 131 0
144 139 0
134 128 0
137 134 0
141 136 0
139 133 0
140 135 0
143 138 0
145 139 16
143 138 11
140 133 11
139 135 16
144 139 11
144 138 11
137 132 19
136 131 25
148 142 25
149 144 19
146 140 22
140 135 19
148 141 30
142 138 19
147 141 19
144 140 32
146 141 30
152 145 36
146 139 30
148 142 32
136 132 16
149 141 37
151 145 32
150 142 42
150 144 34
140 134 28
143 137 28
146 139 36
145 139 28
148 142 36
155 149 42
143 137 45
148 141 32
148 141 41
144 137 41
151 144 49
146 140 42
151 145 41
147 143 34
147 140 44
149 142 44
149 143 42
146 140 45
144 138 41
144 138 39
143 137 41
141 135 36
147 141 42
141 135 45
143 137 47
148 140 54
143 136 39
150 143 56
147 141 47
141 135 47
148 141 48
146 139 45
146 139 52
147 142 42
139 133 51
144 137 54
147 141 48
141 134 44
146 140 54
149 141 58
152 173 0
151 172 0
152 172 0
152 172 0
152 172 0
150 170 0
151 172 0
152 172 0
152 173 0
152 173 0
152 172 0
151 172 0
153 173 0
152 173 0
149 168 0
152 172 0
153 173 0
148 169 0
151 171 0
149 169 0
150 170 0
152 172 0
150 170 0
153 173 0
149 170 0
152 172 0
150 170 0
148 168 0
150 170 0
148 169 0
149 168 0
152 172 0
146 166 0
146 166 0
150 170 0
150 170 0
149 170 0
149 169 0
146 166 0
149 168 0
145 165 0
149 169 0
152 172 0
149 169 0
149 168 0
146 165 0
146 165 0
145 165 0
149 169 0
143 163 0
144 163 0
147 166 0
144 163 0
146 165 0
146 166 0
147 167 0
147 167 0
147 166 0
143 162 0
143 163 0
142 161 0
143 163 0
141 160 0
139 159 0
147 167 0
141 160 0
144 164 0
141 160 0
142 161 0
144 163 0
140 158 0
141 160 0
143 163 0
138 157 0
137 154 0
144 163 0
143 162 0
136 154 0
140 159 0
136 155 0
133 151 0
133 152 0
140 159 0
139 159 0
140 159 0
135 154 0
133 152 0
135 153 0
133 151 0
136 155 0
133 152 0
136 154 0
137 155 0
127 145 0
135 153 0
130 147 0
137 156 0
127 146 0
124 142 0
125 143 0
127 144 0
127 145 0
124 141 0
134 151 0
123 139 0
120 136 0
133 150 0
122 140 0
126 143 0
117 134 0
124 141 0
118 134 0
120 137 0
116 133 0
117 134 0
119 136 0
116 131 0
115 130 0
107 122 0
114 129 0
111 126 0
113 129 0
109 123 0
111 126 0
105 119 0
109 124 0
106 121 0
116 130 0
111 126 0
117 133 0
144 162 0
151 171 0
158 178 0
152 172 0
155 176 0
154 175 0
149 170 0
148 168 0
154 175 0
150 171 0
154 175 0
152 172 0
147 169 0
144 164 0
147 166 0
155 175 0
143 165 0
147 168 0
145 167 0
143 164 0
137 158 0
145 165 0
150 170 0
148 168 0
149 170 0
150 170 0
146 167 0
139 159 0
143 164 0
141 162 0
141 161 0
144 165 0
140 160 0
138 158 0
136 156 0
73 98 76
46 74 84
47 74 65
49 78 80
49 78 74
50 80 86
49 78 74
48 77 80
49 78 71
48 78 81
50 79 79
51 82 90
51 80 88
52 82 84
50 79 74
54 85 93
51 82 80
53 83 84
56 88 106
53 83 95
50 80 74
53 84 90
52 83 97
54 85 102
54 85 97
53 84 97
55 86 105
53 84 99
52 82 92
52 82 80
53 84 93
54 87 102
55 87 105
54 85 105
54 86 92
56 87 110
55 86 105
51 81 92
52 83 82
53 83 103
53 85 92
54 85 95
54 86 103
54 85 100
52 83 84
53 84 99
54 86 102
53 83 93
53 84 90
52 83 94
52 84 88
54 84 88
52 82 94
54 85 108
52 82 94
52 81 90
52 81 90
51 80 76
51 80 83
53 84 88
51 80 91
51 81 93
51 79 84
48 76 65
49 76 79
52 81 83
49 77 61
47 75 81
45 71 68
67 86 52
132 151 19
137 154 0
144 162 0
139 155 0
130 148 0
137 155 0
145 163 0
140 155 0
140 158 0
148 164 0
149 165 0
141 157 0
149 164 0
148 163 0
146 164 0
147 164 0
137 150 0
146 162 0
143 160 0
142 158 0
148 164 0
150 165 0
151 168 0
143 158 0
148 167 0
153 171 0
152 167 0
148 162 0
155 168 0
154 170 0
145 160 0
154 170 0
150 161 0
152 167 0
127 133 22
96 89 28
85 78 19
89 86 11
96 90 22
89 83 11
103 98 18
88 85 8
92 87 16
99 92 11
103 98 0
102 99 0
93 89 0
96 91 0
93 88 3
105 101 0
104 98 0
111 105 0
100 95 0
104 100 0
110 105 0
110 104 0
119 114 0
110 106 0
114 110 0
114 109 0
113 109 0
115 109 0
120 113 0
121 115 0
117 113 0
122 118 0
127 121 0
126 118 0
118 114 0
121 116 0
113 108 0
124 119 0
126 121 0
126 121 0
123 119 0
136 130 0
128 122 0
134 128 0
132 126 0
135 130 0
130 125 0
133 128 0
135 130 0
130 125 0
136 132 0
132 126 0
136 129 0
132 127 0
140 135 0
141 135 0
140 135 0
138 133 0
136 131 0
137 130 0
138 133 0
134 131 0
141 137 0
142 137 0
138 133 0
141 136 0
144 138 11
139 134 0
142 136 16
142 135 0
146 141 11
141 136 0
144 137 16
142 137 22
144 139 22
142 137 19
135 131 11
149 145 30
145 140 25
146 140 28
145 140 16
146 139 34
146 138 22
149 142 34
147 140 30
147 141 22
151 146 30
147 141 32
150 144 28
141 136 28
146 140 32
146 140 36
148 141 36
149 144 34
139 133 30
142 135 36
142 136 32
151 144 39
146 140 30
146 138 37
145 139 34
151 144 44
143 136 41
140 134 37
150 144 41
148 142 41
140 134 36
142 136 36
143 137 42
145 140 41
152 145 45
145 139 37
149 142 49
152 144 52
149 142 51
152 146 48
148 141 45
142 135 36
148 141 53
139 133 41
148 142 39
143 137 48
151 145 45
148 141 51
144 139 47
134 128 39
138 132 39
132 126 45
146 139 47
142 135 47
149 142 48
150 172 0
150 170 0
154 174 0
152 172 0
152 172 0
153 173 0
153 173 0
151 171 0
151 172 0
152 172 0
151 172 0
153 173 0
151 171 0
152 172 0
150 170 0
151 171 0
153 172 0
152 173 0
151 171 0
151 170 0
151 171 0
147 168 0
148 168 0
147 167 0
149 169 0
152 171 0
152 172 0
153 173 0
149 170 0
150 170 0
150 170 0
148 169 0
150 169 0
150 170 0
148 167 0
146 166 0
150 170 0
149 168 0
147 167 0
150 170 0
145 164 0
144 164 0
151 171 0
148 168 0
148 167 0
148 167 0
149 169 0
146 166 0
139 159 0
141 160 0
149 168 0
145 164 0
143 163 0
143 163 0
149 167 0
146 165 0
141 160 0
140 159 0
144 162 0
146 166 0
145 164 0
142 162 0
142 161 0
143 162 0
142 162 0
145 165 0
145 165 0
145 163 0
144 163 0
144 163 0
141 161 0
139 156 0
139 158 0
139 158 0
142 161 0
143 163 0
141 159 0
138 158 0
136 155 0
138 157 0
136 156 0
142 160 0
139 158 0
135 153 0
141 160 0
139 157 0
132 150 0
129 147 0
136 155 0
130 147 0
133 151 0
139 158 0
128 145 0
134 152 0
129 147 0
125 142 0
130 148 0
128 145 0
131 149 0
128 146 0
122 140 0
121 138 0
122 139 0
118 135 0
126 143 0
122 140 0
125 142 0
124 141 0
124 141 0
115 132 0
117 133 0
120 137 0
122 138 0
116 132 0
115 131 0
108 123 0
115 131 0
112 127 0
111 126 0
106 122 0
102 117 0
110 124 0
103 118 0
105 120 0
113 128 0
115 130 0
116 131 0
116 132 0
111 126 0
138 156 0
154 175 0
153 173 0
151 171 0
151 171 0
147 167 0
153 173 0
153 173 0
146 165 0
142 161 0
147 168 0
146 168 0
144 163 0
146 166 0
144 164 0
145 166 0
148 169 0
150 171 0
145 166 0
145 166 0
148 169 0
145 165 0
151 172 0
145 165 0
140 160 0
138 159 0
140 160 0
143 163 0
137 157 0
144 166 0
141 160 0
134 155 0
134 154 0
138 159 0
138 158 0
135 154 0
132 153 0
86 107 54
47 74 62
47 75 64
50 80 72
50 80 74
50 79 76
49 78 72
52 82 93
48 77 79
52 83 92
52 82 100
51 81 91
50 80 82
51 81 89
51 81 88
51 81 86
52 82 92
53 84 107
51 81 84
53 84 86
52 82 97
53 84 88
55 87 100
52 83 92
50 80 94
50 81 78
54 86 109
50 80 86
52 82 92
52 82 88
51 82 84
51 81 92
54 86 100
54 86 102
53 84 88
55 86 92
52 82 97
55 86 102
50 80 84
52 83 92
52 83 100
49 79 78
51 81 88
53 84 92
49 78 76
51 82 79
51 81 78
53 84 92
52 83 86
51 82 72
54 85 107
50 78 70
49 78 88
51 80 96
51 81 89
49 79 70
50 79 74
50 79 77
52 82 77
50 78 83
51 80 85
46 73 68
47 74 64
51 80 89
48 75 78
48 75 84
46 70 60
83 103 54
133 149 0
126 141 0
130 146 0
131 147 0
133 150 0
135 152 0
132 149 0
133 151 0
135 149 0
140 157 0
137 153 0
141 159 0
139 156 0
140 157 0
141 156 0
139 154 0
139 155 0
135 149 0
142 158 0
142 157 0
150 168 0
148 163 0
148 161 0
145 160 0
147 163 0
149 164 0
144 158 0
146 162 0
148 163 0
147 162 0
144 156 0
140 154 0
142 156 0
150 163 0
153 167 0
154 170 0
125 134 11
89 85 30
86 81 28
96 91 0
90 83 16
91 86 16
85 81 0
97 93 11
101 97 0
93 88 0
92 89 0
101 95 8
94 90 0
96 92 0
98 91 8
102 98 8
100 95 0
107 100 0
107 102 0
103 96 0
111 105 0
101 98 0
99 94 0
104 101 0
115 109 0
114 108 0
115 110 0
118 112 0
117 111 0
123 119 0
114 109 0
112 107 0
122 114 0
124 118 0
128 124 0
128 123 0
130 125 0
124 119 0
126 121 0
127 121 0
128 122 0
127 121 0
128 124 0
128 122 0
135 129 0
139 133 0
128 123 0
132 126 0
127 121 0
129 123 0
136 128 0
136 131 0
134 130 0
133 128 0
132 127 0
135 128 0
138 133 0
140 134 0
132 128 0
136 130 0
130 126 0
137 131 0
136 131 0
140 135 0
144 140 0
140 131 0
139 135 0
146 140 0
143 137 0
143 137 0
141 134 11
141 135 16
144 139 16
144 141 16
138 132 11
145 139 25
139 134 11
140 136 11
148 141 16
143 139 11
140 135 19
150 145 19
145 139 11
149 143 28
153 147 32
136 128 28
144 139 22
145 139 22
148 143 25
143 137 30
148 143 32
138 132 19
141 135 30
147 140 25
146 141 37
143 136 25
142 136 30
145 139 36
149 143 41
144 138 30
146 140 41
145 139 42
151 146 36
144 137 42
145 139 45
154 148 47
148 142 32
141 135 36
132 127 19
149 142 52
144 138 36
150 143 42
146 139 47
145 139 45
151 145 45
142 136 39
144 136 45
152 146 53
148 141 47
141 135 32
148 142 52
139 133 34
150 144 47
145 140 42
143 137 42
140 132 49
142 136 42
150 143 56
142 135 47
138 131 47
153 172 0
151 170 0
151 171 0
150 170 0
152 172 0
151 172 0
150 171 0
151 172 0
151 172 0
149 170 0
151 171 0
153 173 0
153 174 0
153 172 0
151 171 0
150 170 0
151 172 0
151 172 0
154 174 0
150 171 0
148 168 0
148 168 0
151 170 0
151 171 0
150 171 0
150 170 0
149 169 0
146 166 0
150 170 0
148 169 0
148 167 0
148 167 0
148 168 0
148 168 0
149 169 0
150 169 0
151 170 0
148 167 0
145 165 0
147 167 0
151 170 0
143 163 0
147 167 0
145 164 0
147 166 0
148 167 0
149 168 0
143 163 0
145 166 0
145 165 0
147 167 0
145 165 0
149 170 0
143 163 0
141 160 0
148 167 0
146 165 0
138 157 0
145 164 0
145 164 0
146 166 0
135 153 0
141 161 0
139 158 0
140 160 0
142 161 0
142 161 0
141 158 0
141 160 0
141 160 0
138 156 0
143 162 0
140 159 0
147 165 0
140 158 0
141 160 0
134 154 0
139 157 0
139 157 0
138 158 0
138 157 0
133 151 0
140 157 0
132 149 0
133 151 0
134 152 0
138 156 0
137 155 0
137 156 0
130 147 0
133 150 0
135 153 0
131 149 0
128 145 0
135 152 0
122 140 0
135 153 0
129 147 0
133 150 0
123 140 0
122 139 0
124 141 0
128 144 0
122 139 0
118 134 0
125 141 0
126 143 0
127 144 0
120 137 0
114 131 0
116 133 0
113 128 0
118 134 0
114 131 0
100 114 0
116 132 0
102 117 0
111 126 0
112 128 0
107 121 0
107 122 0
109 124 0
110 124 0
110 124 0
108 122 0
113 128 0
118 133 0
112 127 0
134 152 0
152 172 0
157 176 0
149 169 0
153 174 0
146 165 0
148 168 0
150 169 0
142 161 0
148 168 0
150 170 0
143 164 0
148 168 0
149 169 0
142 162 0
142 162 0
149 169 0
139 158 0
140 158 0
140 159 0
139 159 0
142 163 0
137 157 0
142 163 0
145 165 0
146 166 0
138 158 0
137 156 0
130 150 0
140 159 0
134 154 0
128 148 0
132 153 0
132 152 0
130 150 0
134 154 0
133 153 0
130 149 0
122 141 0
86 106 51
46 73 71
45 72 60
51 81 88
46 73 78
46 74 71
52 82 91
49 77 78
53 85 86
47 75 78
50 80 94
49 79 69
50 79 80
51 81 90
51 81 84
53 84 94
51 82 93
50 80 76
50 80 78
53 84 95
49 78 74
53 83 92
51 81 80
54 85 86
54 85 92
53 84 92
52 83 90
52 82 82
53 84 88
53 84 97
50 80 90
52 83 90
51 81 88
51 82 80
54 85 90
54 85 102
50 80 80
53 84 92
55 87 99
52 83 96
55 87 102
51 81 90
52 83 86
52 83 80
53 84 102
53 84 90
49 78 90
52 83 90
53 84 97
50 79 76
52 82 80
49 78 75
52 83 79
48 76 76
53 84 94
51 81 86
50 78 87
47 74 74
51 80 84
47 73 70
47 73 64
49 75 81
45 71 66
48 75 79
44 69 60
87 105 36
131 146 0
119 136 0
134 150 0
142 159 0
130 147 0
127 143 0
132 148 0
128 144 0
137 155 0
139 156 0
134 150 0
127 141 0
130 145 0
144 162 0
135 151 0
138 151 0
137 150 0
138 152 0
135 149 0
131 143 0
140 156 0
141 154 0
130 144 0
139 152 0
144 159 0
137 152 0
142 155 0
143 157 0
142 158 0
147 162 0
147 161 0
139 152 0
143 155 0
150 164 0
151 164 0
144 157 0
140 154 0
139 151 0
142 153 16
104 100 22
92 87 28
97 91 19
95 90 16
93 87 19
100 95 11
89 83 11
90 84 11
92 84 0
97 90 0
104 99 0
102 96 0
101 96 0
109 101 0
105 99 0
107 102 0
108 103 8
98 94 0
100 93 0
107 101 0
104 99 0
111 105 0
108 103 0
111 106 0
117 111 0
102 96 0
108 104 0
116 112 0
119 114 0
118 111 0
119 113 0
118 112 0
114 110 0
125 120 0
111 107 0
126 119 0
132 124 0
127 121 0
124 120 0
129 124 0
124 120 0
129 126 0
130 123 0
131 127 0
134 128 0
128 121 0
140 133 0
130 125 0
138 134 0
131 126 0
132 127 0
129 123 0
134 129 0
131 127 0
140 134 0
136 131 0
139 134 0
138 132 0
139 132 0
140 134 0
137 131 0
139 131 0
144 139 0
141 137 0
136 130 0
132 128 0
135 131 0
135 129 0
142 137 0
136 129 0
137 132 0
137 132 11
138 131 11
136 130 11
140 134 11
145 138 25
141 135 22
139 135 0
146 140 28
147 140 28
141 135 19
139 134 22
147 141 28
148 142 30
138 133 25
140 136 25
143 135 28
141 134 19
144 137 30
147 140 34
143 136 30
145 140 32
146 140 36
144 138 32
147 141 44
139 133 36
141 136 28
143 136 37
143 138 30
146 141 32
143 136 32
146 139 39
141 135 44
147 140 42
144 137 45
151 144 42
148 140 42
140 135 32
147 140 45
148 142 36
140 133 39
145 139 36
151 145 45
142 136 36
144 138 41
147 140 48
132 126 41
137 130 39
140 134 41
140 133 41
145 137 48
140 133 47
141 136 41
143 137 49
135 129 41
142 136 39
139 134 49
138 133 44
152 172 0
151 171 0
150 170 0
151 170 0
150 171 0
150 171 0
151 170 0
152 172 0
151 171 0
154 174 0
152 172 0
150 171 0
152 171 0
154 174 0
149 169 0
148 168 0
149 170 0
152 171 0
150 170 0
148 169 0
147 166 0
150 171 0
152 171 0
147 167 0
151 172 0
150 169 0
148 167 0
150 169 0
145 166 0
148 168 0
149 169 0
142 162 0
146 166 0
149 169 0
151 170 0
151 171 0
149 169 0
149 169 0
149 168 0
142 162 0
149 168 0
147 168 0
146 165 0
148 167 0
147 167 0
149 168 0
147 167 0
146 165 0
145 164 0
144 163 0
147 166 0
147 166 0
145 164 0
143 162 0
139 158 0
148 167 0
141 159 0
143 162 0
138 157 0
140 159 0
145 163 0
145 164 0
136 154 0
138 157 0
139 158 0
144 163 0
144 163 0
143 162 0
143 162 0
143 162 0
139 157 0
142 161 0
140 158 0
142 161 0
136 155 0
139 157 0
137 154 0
130 149 0
136 155 0
139 157 0
137 156 0
135 154 0
137 155 0
135 153 0
132 150 0
133 150 0
130 149 0
132 150 0
126 143 0
134 152 0
130 147 0
124 141 0
134 151 0
125 143 0
132 150 0
132 150 0
124 142 0
128 145 0
129 146 0
120 137 0
128 145 0
120 138 0
119 135 0
129 146 0
131 149 0
125 141 0
121 138 0
126 142 0
119 135 0
111 127 0
116 132 0
108 124 0
114 130 0
110 126 0
108 123 0
112 127 0
109 123 0
107 122 0
110 124 0
102 117 0
108 123 0
108 122 0
105 119 0
107 122 0
107 121 0
106 120 0
119 134 0
138 156 0
146 165 0
144 163 0
144 161 0
145 164 0
145 164 0
144 162 0
146 165 0
144 164 0
136 154 0
144 162 0
148 167 0
147 166 0
136 156 0
148 167 0
140 160 0
147 166 0
137 157 0
146 165 0
142 161 0
138 158 0
148 167 0
133 152 0
135 156 0
139 158 0
141 160 0
132 150 0
142 161 0
130 150 0
134 154 0
137 157 0
137 156 0
135 154 0
125 145 0
132 152 0
130 149 0
126 145 0
125 143 0
122 142 0
133 152 0
127 147 0
107 126 0
50 77 65
46 73 73
48 76 78
45 72 58
49 78 67
48 76 71
49 79 70
53 84 91
50 80 88
48 78 77
50 80 86
53 83 97
50 80 84
50 79 80
52 83 94
51 81 80
50 80 82
52 83 84
50 80 80
53 83 92
53 85 95
52 83 90
52 82 84
51 81 82
50 80 86
50 81 78
51 81 76
53 84 92
50 80 97
50 79 86
50 80 82
49 78 80
55 87 103
50 79 90
53 84 86
52 83 82
52 82 84
53 84 80
49 78 90
51 80 72
52 82 95
50 80 82
51 81 78
52 82 86
53 84 84
49 78 80
54 84 92
50 80 95
51 80 94
51 80 88
48 75 88
48 77 68
48 75 89
50 79 76
51 79 70
44 70 55
49 77 79
49 77 80
47 74 81
48 76 76
45 72 80
57 80 70
95 113 32
124 142 0
123 138 0
121 136 0
123 140 0
119 136 0
131 147 0
130 147 0
130 144 0
130 147 0
134 150 0
136 152 0
124 138 0
134 148 0
138 154 0
137 154 0
126 140 0
142 160 0
131 146 0
130 143 0
134 147 0
132 147 0
139 154 0
134 147 0
138 153 0
138 152 0
140 152 0
138 152 0
142 154 0
137 152 0
139 150 0
141 155 0
133 143 0
140 154 0
140 151 0
142 154 0
148 160 0
146 156 0
138 151 0
143 152 0
146 160 0
142 150 0
103 103 19
99 92 22
85 80 11
95 91 16
81 75 19
83 79 11
93 87 0
103 97 0
107 100 0
90 86 0
93 86 0
103 97 0
99 94 0
101 96 0
99 94 0
103 100 0
102 97 0
113 107 0
99 93 0
105 99 0
110 105 0
105 101 0
119 112 0
119 112 0
117 111 0
115 110 0
120 112 0
125 119 0
118 110 0
115 109 0
121 115 0
123 115 0
112 107 0
110 105 0
126 119 0
119 112 0
124 119 0
122 116 0
129 122 0
120 115 0
128 123 0
124 119 0
125 121 0
134 128 0
131 127 0
132 123 0
129 124 0
127 122 0
136 129 0
129 125 0
132 126 0
137 131 0
133 129 0
132 127 0
129 124 0
129 124 0
141 136 0
132 128 0
130 126 0
131 124 0
142 136 0
134 128 0
136 130 0
138 133 0
138 134 0
139 133 0
138 133 0
136 129 0
136 131 0
135 132 0
138 133 0
141 135 0
137 132 0
138 132 16
139 133 11
141 136 16
142 137 16
141 136 16
135 130 16
137 131 22
142 137 19
144 139 30
141 135 19
143 136 22
142 137 19
142 137 19
141 136 28
144 137 25
142 136 32
142 135 22
146 139 28
138 131 32
144 138 28
148 140 41
144 137 36
139 133 36
137 130 30
141 136 36
141 134 28
139 132 32
145 139 39
145 138 37
146 141 42
143 137 37
145 138 41
139 133 30
146 140 41
147 140 37
142 135 39
142 135 34
145 137 37
145 138 48
140 134 39
144 137 42
141 134 44
139 133 37
139 133 39
150 143 49
140 134 39
136 131 44
145 137 51
142 135 41
145 140 45
130 124 32
146 140 54
133 126 39
140 133 45
152 172 0
153 173 0
154 174 0
152 173 0
149 169 0
150 170 0
150 171 0
151 172 0
151 171 0
150 170 0
152 172 0
150 170 0
153 172 0
149 170 0
148 169 0
150 170 0
148 168 0
150 169 0
150 170 0
148 167 0
147 167 0
151 171 0
146 165 0
148 168 0
148 169 0
150 170 0
150 169 0
152 171 0
146 166 0
148 168 0
147 167 0
150 169 0
147 167 0
148 167 0
151 170 0
146 166 0
145 164 0
146 166 0
145 165 0
145 165 0
145 165 0
145 165 0
147 166 0
147 166 0
147 166 0
144 163 0
145 164 0
146 163 0
136 155 0
143 162 0
144 163 0
141 159 0
147 166 0
145 164 0
142 162 0
146 166 0
143 162 0
144 163 0
139 158 0
137 155 0
139 157 0
141 161 0
140 158 0
146 166 0
142 161 0
144 161 0
135 153 0
140 159 0
138 157 0
137 155 0
141 158 0
136 154 0
141 160 0
134 152 0
131 149 0
139 157 0
139 157 0
133 151 0
136 155 0
139 156 0
134 153 0
137 154 0
134 153 0
135 153 0
134 151 0
135 153 0
132 149 0
139 157 0
132 150 0
130 148 0
132 150 0
128 145 0
128 145 0
127 144 0
132 149 0
127 144 0
133 148 0
131 148 0
119 136 0
129 147 0
131 148 0
123 140 0
116 131 0
117 134 0
123 139 0
128 144 0
122 137 0
116 132 0
118 134 0
120 135 0
121 136 0
124 140 0
117 132 0
120 136 0
104 119 0
107 122 0
107 121 0
114 129 0
104 119 0
114 128 0
104 118 0
118 132 0
113 127 0
114 129 0
107 120 0
114 129 0
154 173 0
156 175 0
145 162 0
147 166 0
144 162 0
145 164 0
144 163 0
141 160 0
132 151 0
141 160 0
134 152 0
145 165 0
145 164 0
142 161 0
137 155 0
138 156 0
137 157 0
136 155 0
143 162 0
136 157 0
135 154 0
129 149 0
132 152 0
137 156 0
133 152 0
128 148 0
140 159 0
144 163 0
131 150 0
128 148 0
125 145 0
125 144 0
133 152 0
128 146 0
134 154 0
126 145 0
129 148 0
126 146 0
118 136 0
119 138 0
111 129 0
123 141 0
128 147 0
103 122 24
59 80 51
46 73 68
44 70 65
49 78 74
47 75 82
48 77 84
50 80 80
50 79 82
47 75 74
52 81 90
48 76 71
48 77 78
52 83 88
49 78 84
51 80 84
51 82 82
51 81 86
53 84 92
51 81 90
53 84 100
49 78 80
51 81 97
54 84 97
54 85 95
49 79 80
53 84 80
48 77 78
52 82 94
51 81 90
50 80 92
49 78 86
50 79 81
52 82 90
49 78 79
51 80 86
48 76 76
51 81 88
49 78 88
50 79 78
51 81 88
50 79 76
50 80 78
50 79 86
50 79 79
50 78 77
50 78 86
51 80 81
51 82 74
46 73 51
47 74 70
49 77 70
49 77 79
49 77 78
48 75 70
48 76 75
51 79 92
46 72 57
45 71 58
43 69 60
70 88 47
123 138 25
125 141 0
111 124 0
117 133 0
121 135 0
122 138 0
122 136 0
126 140 0
131 147 0
118 132 0
125 136 0
132 147 0
131 148 0
127 143 0
128 141 0
129 144 0
127 140 0
127 140 0
132 147 0
140 156 0
128 144 0
136 151 0
139 154 0
137 152 0
137 150 0
140 153 0
141 150 0
136 148 0
139 153 0
130 144 0
134 147 0
132 140 0
135 144 0
126 138 0
127 140 0
140 150 0
141 153 0
140 146 0
142 153 0
140 147 0
140 150 0
140 152 0
129 138 0
135 144 0
115 117 16
89 83 11
100 93 19
97 91 11
87 80 16
93 88 16
95 91 11
94 89 0
91 86 0
93 86 0
92 85 0
91 86 0
103 96 0
109 104 0
98 92 0
106 99 0
111 103 0
106 99 0
116 110 0
105 99 0
116 110 0
107 101 0
118 112 0
119 113 0
108 105 0
115 109 0
111 106 0
122 115 0
112 107 0
119 112 0
121 116 0
116 110 0
130 123 0
115 109 0
118 111 0
129 122 0
122 115 0
128 121 0
134 128 0
131 125 0
127 121 0
127 120 0
124 117 0
130 126 0
129 125 0
135 130 0
130 124 0
126 121 0
125 120 0
133 125 0
139 132 0
131 126 0
129 124 0
135 131 0
138 131 0
134 126 0
133 128 0
132 126 0
136 130 0
131 125 0
138 133 0
136 130 0
137 130 0
138 130 0
136 129 0
140 136 0
141 135 0
137 132 0
141 134 0
140 135 0
136 130 0
143 136 0
142 135 0
142 135 0
135 129 11
141 136 11
141 135 19
140 134 11
137 133 19
144 137 16
143 139 22
140 133 19
144 139 28
137 131 22
136 129 22
142 136 19
136 131 22
140 133 25
143 137 16
146 140 37
140 134 25
134 127 30
138 132 30
144 136 37
148 139 37
141 135 30
148 140 42
143 135 37
142 136 36
140 134 32
148 142 36
147 139 36
141 134 25
144 136 34
141 135 32
149 143 41
140 133 42
138 132 39
146 141 41
137 129 37
139 132 39
148 140 42
136 130 37
140 133 39
141 134 36
145 139 39
136 130 42
142 136 39
143 138 42
126 121 32
138 130 34
145 139 44
143 136 49
136 130 41
145 139 44
133 127 39
152 172 0
153 172 0
151 171 0
152 171 0
151 172 0
153 174 0
150 170 0
150 169 0
150 170 0
147 169 0
153 173 0
152 172 0
150 170 0
152 172 0
150 170 0
150 171 0
152 172 0
150 170 0
146 165 0
150 170 0
148 167 0
148 168 0
149 168 0
149 168 0
149 169 0
149 170 0
149 168 0
146 165 0
150 170 0
146 165 0
148 168 0
149 169 0
144 163 0
146 166 0
147 167 0
146 166 0
145 165 0
146 165 0
148 167 0
150 169 0
144 164 0
146 165 0
149 168 0
146 165 0
146 165 0
148 167 0
146 164 0
143 161 0
146 165 0
143 162 0
143 162 0
145 164 0
142 161 0
142 161 0
144 164 0
144 164 0
139 157 0
146 165 0
148 167 0
139 158 0
138 157 0
144 163 0
143 160 0
141 159 0
138 156 0
140 159 0
140 158 0
135 154 0
145 164 0
139 158 0
143 161 0
141 160 0
136 155 0
140 159 0
135 153 0
139 158 0
138 156 0
136 153 0
129 147 0
138 157 0
140 157 0
134 151 0
134 152 0
132 150 0
128 146 0
135 152 0
131 148 0
131 149 0
134 152 0
127 144 0
125 142 0
121 137 0
122 139 0
134 151 0
128 145 0
124 141 0
125 141 0
129 146 0
129 145 0
121 138 0
136 153 0
123 138 0
123 139 0
116 131 0
124 140 0
115 131 0
123 139 0
117 132 0
121 136 0
120 135 0
113 128 0
115 130 0
115 130 0
118 132 0
113 127 0
108 122 0
116 131 0
107 121 0
111 126 0
101 115 0
99 112 0
104 119 0
104 117 0
94 106 0
125 140 0
150 168 0
137 154 0
132 149 0
143 161 0
142 159 0
139 157 0
137 154 0
141 160 0
144 162 0
139 157 0
132 150 0
132 149 0
146 163 0
133 151 0
140 159 0
139 157 0
138 156 0
134 152 0
129 146 0
132 151 0
130 149 0
143 162 0
132 150 0
140 160 0
135 154 0
133 152 0
137 156 0
130 148 0
135 154 0
133 153 0
129 148 0
126 145 0
131 151 0
128 147 0
123 141 0
119 138 0
122 141 0
120 138 0
116 134 0
119 138 0
125 143 0
110 128 0
121 139 0
114 131 0
131 149 0
106 123 0
74 95 44
55 80 71
44 70 69
47 76 70
47 75 75
47 76 84
50 79 89
47 76 76
49 78 82
50 79 82
47 75 62
46 73 78
47 76 71
50 79 86
49 78 84
52 81 94
47 76 80
52 83 88
48 77 62
51 80 95
51 80 95
50 80 74
52 82 94
50 80 82
51 81 86
50 79 80
53 84 90
51 81 88
49 78 84
53 83 92
51 81 82
50 80 74
51 81 84
50 79 76
51 81 80
50 80 76
49 78 80
51 80 85
53 83 92
54 84 99
54 85 105
49 78 67
49 78 90
52 81 85
50 79 77
48 76 65
52 82 94
50 79 80
47 74 70
47 75 57
47 74 75
49 77 77
48 75 76
47 74 77
44 69 67
47 74 72
44 69 65
83 98 40
113 127 0
109 122 0
108 121 0
104 117 0
119 134 0
115 128 0
123 138 0
118 131 0
120 133 0
122 136 0
125 140 0
122 134 0
123 138 0
121 136 0
127 142 0
125 139 0
129 144 0
131 146 0
119 132 0
134 148 0
131 142 0
131 144 0
138 150 0
123 137 0
125 138 0
140 155 0
136 149 0
132 144 0
134 146 0
117 126 0
134 147 0
134 145 0
127 138 0
126 135 0
138 150 0
140 150 0
135 144 0
139 149 0
139 146 0
137 148 0
138 147 0
137 146 0
134 143 0
139 147 0
137 145 0
135 142 0
130 138 16
84 80 0
87 80 11
96 87 16
89 81 11
89 81 0
86 79 0
86 81 0
90 84 0
94 86 0
105 97 0
100 95 0
85 80 0
97 92 0
102 93 0
101 95 0
99 93 0
103 96 0
115 109 0
103 98 0
99 95 0
112 107 0
113 107 0
124 115 0
111 106 0
123 115 0
115 109 0
121 114 0
115 106 0
125 119 0
113 106 0
119 113 0
114 107 0
125 120 0
118 112 0
126 121 0
128 123 0
127 120 0
124 117 0
127 121 0
122 116 0
121 118 0
131 125 0
124 118 0
127 119 0
136 130 0
131 126 0
132 124 0
136 128 0
129 123 0
135 128 0
127 120 0
130 123 0
134 130 0
137 129 0
133 128 0
131 126 0
140 135 0
131 126 0
131 125 0
136 129 0
130 125 0
137 131 0
134 128 0
142 135 0
134 129 0
133 128 0
139 133 0
137 132 0
133 129 0
137 131 0
138 132 0
138 133 0
137 132 0
140 135 0
143 136 0
141 136 11
133 127 11
139 133 19
140 133 22
138 131 25
140 136 19
144 138 22
145 139 11
142 136 19
140 136 41
131 126 19
142 136 28
136 130 30
138 131 32
146 140 42
138 132 28
144 137 25
142 135 28
139 132 32
147 140 37
140 134 32
147 141 30
147 140 36
139 132 39
148 139 42
146 139 42
138 134 32
142 135 36
143 137 36
138 133 28
142 135 36
148 141 47
146 140 49
141 134 34
144 137 36
137 129 36
138 132 42
141 134 42
139 132 41
139 133 37
138 131 47
138 133 41
141 135 34
144 136 53
135 128 48
144 136 48
133 128 39
128 123 34
136 130 42
154 173 0
153 173 0
149 169 0
151 171 0
149 170 0
152 171 0
149 170 0
153 172 0
150 169 0
150 170 0
153 174 0
149 169 0
152 172 0
152 171 0
149 169 0
151 170 0
150 170 0
150 171 0
150 170 0
150 169 0
148 168 0
148 168 0
148 168 0
149 168 0
146 166 0
146 166 0
149 169 0
149 169 0
148 168 0
147 166 0
146 166 0
149 169 0
152 170 0
151 170 0
151 170 0
148 167 0
142 161 0
149 168 0
144 164 0
149 169 0
144 164 0
147 165 0
146 166 0
145 164 0
145 164 0
144 164 0
146 165 0
145 164 0
143 162 0
140 159 0
144 162 0
143 163 0
142 161 0
141 159 0
144 162 0
139 157 0
141 160 0
143 161 0
147 165 0
141 160 0
143 162 0
138 155 0
141 161 0
139 157 0
142 159 0
142 161 0
146 164 0
135 154 0
138 156 0
143 161 0
142 161 0
137 155 0
141 159 0
136 154 0
134 152 0
139 158 0
141 160 0
133 150 0
128 145 0
137 155 0
130 147 0
132 150 0
133 152 0
135 153 0
132 150 0
134 152 0
135 153 0
129 146 0
124 142 0
129 147 0
133 148 0
127 143 0
133 149 0
131 147 0
123 140 0
127 145 0
119 135 0
126 142 0
132 148 0
121 137 0
120 136 0
123 140 0
119 135 0
122 138 0
117 133 0
117 131 0
121 136 0
122 138 0
115 130 0
116 132 0
93 106 0
118 133 0
119 134 0
118 132 0
113 128 0
113 127 0
108 122 0
107 121 0
109 123 0
111 125 0
109 121 0
109 122 0
108 122 0
138 154 0
146 163 0
134 150 0
137 155 0
130 148 0
139 155 0
141 159 0
137 155 0
137 154 0
142 160 0
136 153 0
134 152 0
133 151 0
132 150 0
134 152 0
144 161 0
126 143 0
128 145 0
137 156 0
141 159 0
137 155 0
124 142 0
132 150 0
128 146 0
125 143 0
131 148 0
131 150 0
134 153 0
137 155 0
136 156 0
123 140 0
130 148 0
124 144 0
131 150 0
131 151 0
117 136 0
117 135 0
119 136 0
121 139 0
114 132 0
109 126 0
113 130 0
130 148 0
103 119 0
116 132 0
111 129 0
122 140 0
106 123 0
110 127 0
104 122 36
54 76 44
46 74 71
46 74 74
47 75 67
50 79 84
47 74 82
48 77 73
46 74 72
46 73 70
48 77 60
49 79 84
49 79 84
51 80 86
50 79 74
50 80 86
52 82 82
49 79 82
49 79 74
52 82 86
51 81 86
51 81 86
52 84 92
51 81 74
47 76 65
52 82 94
52 82 80
48 76 72
54 85 97
52 82 92
50 79 82
50 79 85
51 80 90
50 80 84
50 80 78
50 80 77
49 78 72
48 76 57
49 78 84
52 81 88
50 78 78
47 75 82
50 79 79
47 75 86
45 72 72
49 77 77
46 73 74
45 72 51
45 71 60
45 71 63
45 71 66
45 70 57
41 65 62
42 67 65
67 84 44
89 99 18
105 118 0
93 106 0
109 123 0
112 125 0
107 122 0
112 125 0
115 129 0
108 120 0
124 139 0
117 133 0
116 130 0
120 133 0
128 141 0
125 137 0
116 130 0
125 138 0
131 146 0
129 145 0
133 148 0
132 147 0
132 143 0
124 136 0
133 146 0
123 135 0
128 139 0
129 141 0
128 137 0
129 140 0
134 143 0
124 135 0
125 138 0
138 152 0
138 151 0
133 144 0
128 137 0
131 142 0
121 131 0
137 149 0
123 131 0
133 142 0
132 139 0
134 142 0
131 136 0
126 133 0
133 141 0
134 140 0
133 141 0
140 147 0
123 127 0
98 93 19
68 62 0
85 79 0
87 80 0
86 79 0
77 71 0
99 93 0
81 76 0
102 95 0
91 84 0
102 97 0
100 91 0
95 87 0
97 90 0
107 99 0
97 91 0
102 96 0
109 102 0
114 107 0
110 102 0
106 101 0
114 108 0
114 107 0
118 112 0
115 106 0
117 111 0
121 114 0
106 99 0
123 115 0
116 109 0
118 110 0
124 116 0
121 114 0
122 116 0
120 113 0
118 112 0
126 120 0
124 117 0
121 116 0
127 121 0
132 127 0
131 123 0
127 121 0
123 116 0
129 123 0
132 126 0
129 122 0
133 127 0
130 124 0
137 130 0
128 122 0
126 120 0
136 130 0
135 128 0
134 126 0
128 123 0
131 126 0
128 123 0
133 126 0
138 131 0
131 125 0
137 131 0
134 129 0
135 129 0
136 130 0
137 132 0
138 132 0
137 133 0
140 134 0
136 131 0
136 130 0
132 128 0
137 132 0
139 133 0
134 127 11
133 127 11
140 134 16
137 132 19
142 137 19
138 132 19
133 128 19
143 138 16
143 137 11
138 134 19
142 135 22
136 131 19
145 138 30
138 131 30
139 130 34
139 133 28
137 131 30
143 138 32
142 136 34
142 136 32
147 140 34
140 134 32
132 128 25
137 130 36
145 138 37
139 133 32
136 131 30
146 139 41
133 128 22
137 132 36
146 139 32
140 132 37
138 132 28
134 129 36
138 131 30
142 136 39
133 127 37
139 133 37
137 131 42
138 131 37
137 130 41
138 134 39
130 124 32
137 130 41
135 128 39
137 130 48
135 128 45
136 130 41
134 129 37
152 171 0
149 170 0
152 172 0
150 170 0
152 172 0
148 168 0
151 171 0
152 172 0
150 170 0
148 168 0
150 171 0
149 169 0
147 167 0
149 169 0
148 167 0
152 172 0
151 170 0
150 169 0
147 166 0
152 171 0
150 169 0
151 171 0
149 169 0
148 169 0
150 170 0
148 168 0
149 169 0
147 166 0
152 172 0
144 164 0
145 164 0
151 170 0
149 168 0
148 167 0
146 164 0
147 167 0
149 168 0
148 167 0
148 167 0
143 161 0
145 165 0
144 162 0
145 164 0
143 162 0
143 162 0
145 164 0
145 164 0
146 165 0
144 162 0
145 165 0
145 163 0
140 158 0
145 164 0
140 158 0
148 166 0
142 160 0
140 158 0
142 160 0
141 159 0
141 159 0
141 159 0
142 161 0
140 158 0
137 155 0
142 159 0
141 159 0
137 154 0
141 160 0
138 156 0
135 154 0
141 159 0
134 152 0
129 148 0
137 155 0
143 162 0
136 152 0
135 152 0
135 153 0
138 155 0
139 156 0
136 155 0
133 151 0
127 144 0
131 147 0
138 156 0
133 150 0
134 151 0
137 155 0
125 141 0
127 144 0
122 138 0
132 148 0
129 145 0
136 153 0
125 141 0
127 143 0
120 136 0
132 147 0
121 136 0
134 150 0
115 132 0
120 135 0
120 136 0
125 140 0
114 130 0
119 135 0
122 137 0
117 132 0
122 137 0
118 132 0
118 132 0
109 125 0
112 125 0
113 127 0
113 128 0
112 125 0
113 126 0
106 120 0
104 117 0
115 129 0
102 115 0
110 123 0
134 150 0
138 154 0
134 151 0
139 156 0
134 150 0
135 152 0
133 150 0
129 145 0
138 155 0
130 146 0
132 149 0
133 151 0
133 151 0
142 158 0
124 140 0
127 145 0
132 149 0
130 147 0
132 150 0
129 147 0
129 147 0
123 141 0
125 143 0
137 156 0
132 150 0
136 155 0
126 144 0
121 137 0
121 139 0
116 135 0
142 161 0
126 145 0
128 147 0
124 141 0
122 141 0
123 142 0
124 142 0
116 135 0
129 147 0
117 135 0
120 136 0
116 132 0
109 126 0
105 124 0
123 141 0
101 120 0
103 120 0
111 127 0
106 122 0
101 117 0
95 111 0
101 116 0
78 95 18
51 74 50
44 70 58
45 72 64
45 72 67
43 69 70
43 69 51
50 79 76
46 73 66
49 78 74
47 75 80
50 80 80
49 78 80
52 82 80
49 77 80
51 81 80
50 80 88
47 76 65
49 79 70
49 78 80
50 79 74
51 82 80
47 74 78
49 77 78
49 78 76
48 77 76
50 79 90
48 77 72
50 79 79
52 82 86
49 77 72
50 80 90
47 75 72
48 77 80
50 79 81
46 74 67
50 78 89
47 74 74
52 81 80
51 80 96
48 76 80
47 75 74
47 74 54
49 77 65
43 69 75
48 75 65
49 77 67
46 72 61
45 71 67
43 68 47
61 81 57
83 96 36
94 107 0
95 107 0
117 131 0
109 122 0
99 112 0
100 112 0
111 123 0
98 111 0
122 135 0
117 131 0
117 130 0
116 128 0
114 127 0
119 133 0
128 144 0
126 138 0
123 137 0
130 143 0
127 140 0
111 121 0
127 138 0
123 138 0
115 125 0
117 129 0
126 140 0
119 132 0
116 128 0
132 146 0
130 141 0
121 133 0
138 150 0
131 145 0
125 136 0
122 132 0
120 129 0
124 133 0
122 130 0
130 138 0
124 134 0
128 135 0
120 126 0
130 138 0
117 125 0
124 131 0
129 136 0
131 138 0
127 132 0
130 134 0
126 127 0
140 147 0
128 130 0
122 124 0
115 113 16
97 91 11
83 73 0
84 77 0
88 81 11
88 79 0
97 89 0
96 88 0
86 82 0
93 87 0
84 78 0
98 93 0
107 99 0
107 99 0
109 102 0
110 103 0
104 97 0
108 99 0
110 102 0
109 103 0
117 110 0
113 107 0
107 99 0
113 105 0
117 109 0
118 110 0
114 109 0
120 112 0
117 111 0
122 114 0
116 109 0
120 111 0
122 119 0
125 117 0
116 109 0
124 117 0
124 118 0
122 116 0
127 120 0
120 112 0
125 118 0
126 120 0
120 113 0
125 117 0
130 122 0
130 124 0
126 121 0
128 121 0
133 126 0
137 130 0
130 123 0
126 120 0
119 114 0
133 126 0
133 126 0
131 126 0
134 127 0
129 123 0
137 129 0
127 120 0
136 130 0
133 127 0
140 134 0
136 130 0
133 126 0
135 130 0
131 124 0
138 129 0
136 129 0
131 126 0
138 132 0
128 124 0
129 123 0
135 129 0
133 126 0
135 129 0
134 128 0
140 134 11
139 131 16
135 128 25
131 127 11
136 132 22
135 130 22
139 133 28
137 133 22
133 128 16
138 133 19
132 126 16
137 132 25
142 135 30
133 128 11
139 131 41
136 130 34
130 124 22
140 135 28
137 131 28
141 134 32
143 139 34
142 135 36
143 137 41
135 127 41
147 139 42
147 142 30
137 131 32
144 136 39
136 128 34
129 122 28
135 128 34
133 128 34
137 130 37
137 130 41
136 129 34
137 130 47
139 132 39
130 124 41
132 126 36
135 128 32
131 126 30
142 135 48
136 129 37
139 133 47
139 134 44
151 171 0
148 168 0
154 174 0
150 170 0
151 171 0
150 169 0
149 169 0
149 169 0
149 169 0
150 169 0
149 168 0
150 169 0
152 171 0
151 170 0
149 168 0
152 171 0
150 169 0
149 169 0
149 168 0
149 169 0
149 168 0
147 167 0
147 166 0
151 171 0
145 164 0
147 166 0
149 168 0
146 165 0
148 167 0
151 169 0
148 167 0
147 168 0
148 167 0
147 167 0
148 167 0
147 166 0
147 166 0
149 168 0
145 164 0
145 163 0
146 166 0
148 167 0
146 164 0
145 165 0
139 157 0
145 164 0
147 166 0
145 165 0
145 163 0
143 161 0
145 163 0
145 164 0
146 164 0
145 164 0
143 161 0
144 163 0
142 160 0
142 160 0
143 161 0
145 162 0
139 157 0
144 163 0
141 159 0
140 158 0
140 157 0
138 156 0
134 152 0
140 157 0
139 158 0
138 156 0
136 154 0
141 159 0
137 155 0
138 156 0
134 151 0
129 147 0
136 153 0
139 157 0
136 153 0
131 148 0
129 147 0
129 146 0
133 150 0
133 149 0
129 146 0
132 149 0
128 145 0
129 145 0
127 144 0
126 142 0
130 147 0
121 137 0
132 147 0
131 147 0
122 137 0
124 141 0
127 142 0
124 141 0
120 136 0
119 135 0
119 135 0
122 136 0
113 128 0
118 133 0
128 144 0
106 121 0
116 130 0
117 132 0
106 120 0
116 131 0
124 138 0
124 139 0
115 129 0
110 123 0
111 124 0
105 118 0
110 123 0
111 124 0
105 118 0
100 112 0
131 147 0
129 144 0
120 134 0
132 146 0
136 152 0
129 144 0
135 152 0
130 147 0
135 152 0
127 144 0
131 148 0
129 146 0
123 140 0
134 151 0
117 135 0
134 151 0
136 153 0
125 142 0
134 151 0
133 151 0
125 143 0
131 149 0
125 144 0
127 144 0
129 147 0
125 143 0
130 148 0
129 146 0
118 136 0
119 137 0
136 154 0
116 133 0
127 145 0
125 143 0
126 144 0
117 136 0
116 134 0
133 151 0
119 136 0
98 115 0
121 139 0
110 127 0
104 119 0
115 132 0
101 117 0
115 131 0
100 117 0
108 125 0
108 124 0
113 130 0
100 116 0
96 111 0
95 111 0
93 107 0
101 118 0
79 94 0
84 102 35
46 71 56
43 69 67
42 68 53
47 75 67
45 72 47
46 74 62
47 75 70
45 71 80
47 75 76
48 76 74
47 75 70
46 74 69
48 77 74
49 78 72
46 75 57
48 77 76
49 78 72
47 74 72
47 75 72
47 75 65
49 78 76
48 77 76
50 79 74
47 75 70
51 82 78
46 74 72
46 74 67
45 72 74
47 76 72
49 78 86
49 78 82
48 76 65
49 78 65
48 76 72
46 73 80
50 78 67
45 71 80
47 73 72
46 73 67
44 70 62
48 75 77
47 74 74
46 73 80
44 70 54
38 60 44
52 73 54
68 83 40
89 101 0
91 104 0
98 109 0
109 121 0
96 108 0
98 111 0
102 116 0
106 119 0
105 119 0
107 123 0
106 119 0
108 122 0
122 137 0
118 132 0
98 108 0
114 128 0
118 132 0
116 128 0
109 121 0
127 140 0
114 125 0
119 134 0
124 136 0
123 136 0
111 123 0
124 139 0
127 141 0
116 127 0
115 126 0
122 134 0
129 141 0
122 133 0
127 137 0
123 134 0
132 143 0
127 137 0
129 140 0
127 136 0
119 129 0
133 145 0
120 127 0
121 128 0
124 132 0
137 144 0
123 129 0
127 134 0
124 131 0
130 137 0
122 130 0
124 130 0
130 135 0
124 130 0
129 132 0
116 117 0
130 133 0
106 107 11
92 90 11
69 62 0
81 75 0
78 71 0
90 82 0
84 78 0
93 84 0
93 86 0
91 84 0
101 91 0
107 99 0
99 90 0
95 89 0
111 104 0
103 96 0
105 97 0
102 93 0
111 103 0
118 111 0
108 99 0
108 100 0
103 95 0
114 108 0
117 110 0
116 109 0
107 101 0
119 111 0
117 110 0
110 105 0
114 108 0
117 111 0
115 109 0
120 113 0
121 114 0
130 123 0
114 104 0
131 124 0
123 114 0
124 117 0
124 120 0
123 118 0
126 118 0
118 113 0
131 124 0
133 126 0
121 112 0
123 116 0
128 121 0
125 118 0
127 121 0
130 123 0
133 127 0
129 121 0
137 131 0
131 124 0
138 131 0
134 127 0
134 128 0
127 123 0
127 121 0
132 126 0
137 131 0
125 118 0
129 124 0
137 130 0
138 133 0
134 126 0
134 130 0
134 126 0
133 128 0
136 131 0
130 126 0
136 131 0
135 127 0
133 127 0
134 128 0
142 136 16
137 129 16
134 127 16
134 127 19
146 140 25
137 130 16
139 132 25
140 133 19
140 133 25
134 128 11
137 131 25
132 126 28
138 132 30
129 124 19
147 141 25
138 133 36
141 134 28
141 134 34
137 131 34
137 132 28
142 135 30
137 130 30
142 136 36
127 121 25
146 141 41
136 129 34
144 136 44
143 137 39
142 136 37
138 130 44
132 127 30
142 135 42
137 131 32
131 125 32
140 134 47
135 129 37
138 129 39
139 132 36
132 126 32
143 135 48
139 131 44
124 117 37
127 120 34
130 123 41
151 171 0
150 170 0
152 172 0
149 168 0
150 171 0
150 171 0
153 172 0
153 173 0
151 171 0
147 167 0
150 169 0
150 169 0
149 168 0
151 171 0
150 170 0
150 168 0
149 168 0
149 168 0
149 169 0
150 170 0
147 166 0
149 169 0
149 168 0
148 167 0
148 167 0
148 168 0
145 164 0
145 164 0
149 169 0
149 168 0
146 164 0
147 166 0
146 165 0
144 164 0
144 163 0
147 166 0
150 169 0
147 166 0
143 162 0
146 165 0
145 163 0
144 163 0
147 166 0
143 162 0
145 164 0
145 164 0
143 163 0
139 158 0
142 159 0
145 164 0
144 162 0
147 166 0
143 162 0
141 160 0
144 162 0
138 156 0
138 157 0
144 163 0
144 162 0
142 160 0
142 160 0
137 154 0
140 159 0
140 158 0
138 157 0
133 149 0
135 153 0
140 158 0
132 150 0
136 155 0
136 153 0
135 152 0
142 160 0
131 149 0
135 153 0
136 153 0
131 148 0
134 152 0
132 149 0
135 152 0
136 152 0
128 145 0
129 146 0
132 149 0
122 138 0
136 153 0
125 140 0
126 141 0
127 143 0
127 144 0
127 143 0
126 143 0
116 131 0
122 138 0
119 135 0
123 139 0
133 148 0
124 140 0
123 139 0
114 128 0
127 142 0
126 142 0
125 141 0
112 127 0
115 130 0
120 136 0
106 120 0
105 120 0
113 127 0
112 127 0
109 123 0
105 119 0
109 123 0
103 117 0
104 117 0
107 121 0
108 121 0
86 97 0
117 131 0
126 140 0
126 141 0
138 154 0
131 147 0
134 150 0
128 145 0
113 128 0
129 144 0
129 145 0
127 143 0
126 142 0
126 141 0
125 142 0
126 143 0
124 141 0
121 137 0
124 139 0
127 144 0
125 141 0
133 150 0
127 144 0
123 140 0
127 144 0
126 143 0
127 144 0
129 148 0
128 145 0
124 142 0
121 137 0
122 140 0
127 145 0
128 147 0
123 141 0
128 146 0
130 148 0
110 127 0
112 130 0
115 133 0
118 135 0
115 133 0
113 131 0
127 144 0
115 132 0
108 125 0
112 130 0
106 123 0
99 116 0
98 114 0
101 117 0
114 129 0
90 106 0
106 122 0
105 121 0
98 113 0
85 100 0
91 106 0
87 102 0
87 100 0
90 105 0
70 88 31
54 75 47
41 66 53
44 70 70
44 71 51
44 71 57
44 71 59
48 76 78
45 74 62
47 76 57
48 76 70
48 77 74
47 76 82
44 72 60
47 76 74
49 78 82
46 74 74
48 77 72
46 73 57
45 72 65
46 74 69
49 78 70
48 77 76
45 72 76
49 78 80
48 75 82
48 77 80
47 75 60
46 72 67
46 74 80
47 75 60
45 71 72
46 73 65
49 78 76
47 75 80
47 74 80
45 70 60
46 74 67
44 70 57
43 69 65
44 69 65
43 68 68
48 67 51
70 83 25
93 104 0
99 111 0
90 102 0
90 103 0
102 115 0
99 110 0
100 113 0
112 125 0
86 97 0
100 113 0
101 115 0
97 110 0
115 129 0
106 117 0
101 112 0
110 123 0
115 128 0
123 135 0
123 136 0
118 130 0
116 128 0
116 127 0
104 115 0
114 127 0
114 125 0
115 124 0
114 128 0
123 134 0
123 136 0
123 133 0
127 138 0
126 137 0
132 144 0
120 131 0
120 129 0
120 133 0
130 140 0
119 129 0
116 127 0
131 141 0
126 137 0
113 121 0
119 127 0
117 126 0
125 134 0
122 128 0
130 137 0
122 129 0
109 115 0
123 128 0
126 133 0
123 128 0
121 127 0
130 133 0
129 134 0
124 126 0
127 129 0
129 132 0
127 132 0
95 94 0
90 85 11
86 79 0
81 73 11
91 84 0
88 78 0
82 76 0
82 76 0
95 88 0
90 82 0
98 90 0
92 82 0
100 91 0
106 98 0
106 99 0
101 93 0
100 92 0
111 103 0
111 103 0
102 97 0
109 101 0
98 92 0
112 107 0
108 100 0
121 111 0
110 102 0
115 108 0
109 102 0
114 105 0
114 107 0
119 112 0
112 106 0
125 118 0
126 117 0
120 113 0
131 123 0
113 106 0
127 118 0
121 113 0
123 115 0
130 121 0
135 127 0
122 116 0
129 122 0
131 123 0
123 116 0
132 125 0
125 118 0
129 122 0
131 124 0
131 123 0
137 130 0
129 122 0
134 129 0
127 121 0
136 130 0
131 125 0
135 129 0
139 133 0
134 127 0
132 125 0
138 131 0
135 129 0
132 127 0
129 123 0
133 126 0
137 133 0
132 125 0
132 126 0
138 132 0
134 128 0
131 124 0
134 128 0
138 130 11
127 123 0
135 128 0
137 132 19
134 128 25
135 130 16
144 137 19
133 126 16
128 122 11
141 134 25
136 131 25
131 124 19
139 133 30
141 134 28
134 127 30
133 126 22
136 128 32
140 134 25
142 136 28
140 133 32
133 127 25
134 128 32
132 127 28
141 133 30
136 129 34
133 126 39
136 129 28
139 133 32
138 131 34
136 128 37
132 126 32
142 136 37
137 131 41
133 127 28
139 133 37
131 124 36
133 126 32
129 124 30
133 126 37
135 129 36
133 128 32
132 126 30
126 120 34
132 127 34
131 125 36
137 131 47
150 170 0
149 168 0
152 172 0
150 170 0
151 171 0
152 172 0
150 171 0
148 168 0
151 170 0
147 166 0
150 170 0
148 168 0
152 172 0
149 168 0
151 171 0
149 168 0
151 170 0
142 162 0
149 169 0
150 169 0
147 166 0
148 167 0
147 166 0
144 163 0
146 165 0
148 167 0
145 164 0
147 166 0
146 165 0
148 167 0
149 168 0
147 166 0
147 167 0
150 168 0
145 164 0
145 164 0
144 162 0
146 165 0
145 164 0
145 163 0
148 167 0
146 165 0
144 162 0
142 159 0
144 163 0
141 160 0
144 162 0
144 163 0
143 162 0
143 161 0
143 161 0
143 161 0
143 162 0
136 155 0
140 158 0
141 157 0
140 158 0
142 161 0
147 165 0
139 157 0
140 158 0
135 153 0
139 157 0
140 159 0
140 158 0
139 156 0
139 156 0
132 149 0
140 158 0
141 158 0
135 152 0
139 157 0
137 155 0
140 157 0
133 150 0
136 154 0
129 146 0
129 146 0
133 150 0
128 145 0
130 146 0
137 153 0
137 154 0
132 149 0
125 142 0
127 144 0
127 144 0
129 145 0
128 144 0
132 147 0
123 140 0
131 148 0
131 147 0
122 137 0
121 136 0
124 140 0
127 142 0
121 136 0
122 137 0
119 134 0
121 135 0
127 143 0
117 131 0
126 140 0
118 132 0
105 119 0
113 128 0
108 121 0
115 128 0
109 123 0
105 118 0
101 113 0
98 111 0
101 114 0
97 108 0
96 107 0
99 111 0
125 139 0
127 141 0
127 143 0
120 134 0
126 140 0
120 135 0
114 129 0
125 141 0
129 145 0
130 146 0
120 136 0
136 153 0
127 142 0
123 139 0
117 133 0
131 148 0
126 143 0
121 135 0
132 148 0
135 151 0
130 148 0
132 149 0
126 142 0
117 134 0
117 134 0
137 154 0
125 142 0
126 143 0
121 139 0
116 134 0
120 136 0
127 145 0
129 147 0
118 135 0
112 130 0
119 137 0
123 141 0
119 137 0
115 133 0
118 136 0
108 126 0
117 135 0
109 126 0
109 126 0
117 134 0
113 131 0
105 121 0
105 121 0
110 128 0
116 132 0
104 121 0
102 118 0
112 128 0
103 119 0
108 123 0
105 119 0
85 98 0
98 113 0
78 92 0
78 93 0
97 112 0
90 104 0
92 103 0
62 74 18
56 73 40
42 64 54
43 69 53
45 71 62
44 70 62
47 74 80
46 73 65
45 72 67
47 75 76
49 77 86
49 78 78
48 77 74
46 74 65
45 72 72
42 67 60
48 76 76
48 76 67
47 74 62
47 74 70
47 75 70
47 74 74
49 77 72
48 77 80
47 75 70
47 75 76
45 72 70
46 73 70
45 73 74
47 74 89
48 75 82
45 71 74
41 66 51
47 74 57
42 66 60
44 69 62
44 69 72
43 68 45
55 72 44
65 77 31
77 88 0
86 94 0
98 109 0
89 100 0
90 98 0
85 98 0
96 106 0
92 102 0
98 110 0
89 102 0
106 116 0
108 121 0
83 95 0
102 114 0
91 103 0
109 122 0
100 111 0
109 122 0
104 114 0
114 126 0
114 126 0
119 132 0
126 138 0
113 125 0
124 136 0
121 133 0
119 130 0
116 128 0
124 137 0
125 138 0
122 135 0
125 137 0
115 125 0
124 134 0
118 128 0
121 132 0
114 124 0
121 132 0
119 128 0
124 132 0
111 119 0
119 128 0
121 128 0
129 138 0
117 125 0
125 132 0
114 122 0
121 125 0
125 132 0
133 143 0
104 109 0
115 119 0
117 124 0
120 122 0
118 122 0
118 121 0
120 127 0
119 121 0
112 115 0
106 107 0
113 114 0
118 120 0
122 121 0
101 97 0
76 66 0
82 73 0
77 70 0
82 73 0
82 77 0
93 86 0
98 91 0
88 79 0
96 87 0
96 87 0
95 87 0
99 93 0
97 91 0
101 93 0
104 96 0
107 99 0
106 98 0
95 89 0
113 107 0
118 109 0
115 108 0
105 97 0
112 104 0
110 101 0
108 99 0
108 99 0
112 105 0
109 103 0
115 109 0
118 110 0
124 116 0
118 112 0
121 112 0
120 112 0
124 116 0
118 110 0
110 106 0
119 112 0
126 117 0
125 115 0
128 124 0
126 119 0
124 118 0
125 117 0
125 116 0
128 120 0
123 116 0
134 126 0
134 127 0
135 128 0
124 115 0
125 117 0
117 110 0
123 116 0
129 121 0
130 125 0
130 124 0
124 116 0
131 125 0
134 127 0
132 127 0
137 128 0
138 130 0
135 128 0
142 136 0
131 125 0
136 129 0
133 128 0
132 125 0
135 127 0
127 121 0
139 133 0
134 127 0
128 121 11
130 124 16
139 132 19
133 125 16
135 129 25
134 127 0
137 131 25
137 132 22
132 126 22
132 126 16
135 128 19
143 134 30
130 123 19
144 137 32
134 127 28
135 129 28
124 119 19
128 121 32
142 136 25
133 126 32
141 134 30
141 135 37
137 130 34
128 121 32
134 127 34
125 120 25
131 125 30
133 125 34
128 121 34
134 126 32
135 126 34
141 134 28
139 132 34
132 124 30
135 131 36
134 128 34
130 124 34
139 130 48
141 134 44
134 129 39
134 126 34
140 133 41
121 115 28
154 174 0
151 171 0
150 170 0
151 171 0
150 169 0
149 169 0
150 169 0
152 172 0
152 172 0
144 163 0
153 172 0
150 168 0
152 171 0
147 166 0
145 164 0
147 166 0
148 167 0
148 167 0
145 164 0
151 170 0
150 169 0
150 168 0
151 171 0
146 164 0
145 162 0
148 167 0
145 164 0
151 170 0
149 167 0
148 167 0
146 165 0
151 170 0
151 170 0
144 163 0
145 163 0
143 161 0
145 165 0
144 163 0
145 163 0
146 165 0
147 165 0
138 157 0
143 161 0
146 165 0
141 159 0
143 161 0
141 159 0
143 161 0
142 161 0
143 162 0
140 158 0
139 156 0
146 164 0
137 155 0
140 158 0
140 158 0
142 160 0
139 157 0
138 155 0
142 161 0
137 155 0
145 163 0
137 153 0
136 154 0
139 156 0
141 158 0
136 154 0
135 153 0
137 154 0
133 150 0
134 152 0
136 153 0
132 148 0
135 153 0
139 157 0
136 153 0
133 150 0
131 148 0
133 150 0
138 156 0
124 140 0
126 141 0
128 144 0
134 151 0
126 142 0
130 146 0
125 142 0
125 139 0
122 138 0
128 144 0
131 147 0
116 131 0
120 136 0
131 146 0
113 129 0
118 134 0
115 130 0
114 129 0
114 129 0
129 143 0
119 134 0
109 124 0
103 117 0
112 126 0
120 135 0
113 127 0
108 121 0
118 132 0
105 118 0
114 128 0
103 116 0
108 121 0
108 121 0
97 109 0
93 105 0
124 137 0
116 129 0
111 124 0
128 142 0
118 131 0
126 141 0
117 131 0
124 138 0
115 130 0
120 135 0
121 137 0
124 140 0
124 139 0
120 135 0
122 137 0
123 139 0
123 139 0
112 128 0
132 148 0
127 143 0
122 137 0
129 146 0
127 143 0
121 137 0
134 151 0
115 131 0
116 133 0
127 145 0
117 134 0
109 126 0
107 124 0
131 149 0
112 129 0
117 135 0
120 137 0
115 132 0
122 140 0
115 131 0
126 143 0
126 144 0
120 138 0
122 139 0
109 126 0
104 120 0
111 129 0
109 126 0
104 120 0
114 131 0
111 128 0
109 126 0
99 114 0
117 134 0
118 134 0
98 113 0
94 111 0
99 115 0
97 112 0
88 103 0
92 107 0
89 103 0
88 103 0
91 105 0
88 101 0
87 100 0
83 95 0
70 82 0
64 77 0
77 89 18
68 82 25
45 66 47
42 66 60
43 68 67
41 67 51
42 68 62
43 69 62
41 66 51
45 72 72
45 72 62
45 71 70
47 75 65
46 73 64
46 73 72
47 75 65
44 71 54
48 76 74
46 74 62
47 74 62
44 71 62
48 76 78
44 70 74
47 75 70
47 74 65
41 65 57
41 66 57
46 73 65
47 75 78
44 70 54
38 61 44
45 72 70
40 63 57
54 71 44
59 72 47
66 76 0
62 70 0
75 84 0
81 90 0
89 100 0
68 78 0
91 102 0
90 102 0
77 88 0
79 92 0
80 92 0
100 112 0
99 110 0
96 109 0
89 99 0
90 101 0
105 116 0
97 108 0
109 119 0
94 107 0
114 124 0
109 121 0
103 118 0
113 127 0
120 133 0
111 123 0
119 131 0
116 128 0
111 122 0
117 131 0
122 135 0
114 124 0
108 120 0
121 134 0
113 126 0
119 131 0
129 139 0
122 133 0
132 143 0
121 129 0
117 128 0
111 120 0
121 131 0
125 136 0
120 127 0
112 120 0
124 133 0
113 120 0
113 121 0
123 131 0
119 124 0
129 134 0
121 129 0
120 127 0
117 123 0
122 125 0
121 124 0
113 116 0
119 122 0
110 111 0
114 118 0
119 120 0
114 119 0
116 114 0
119 120 0
116 114 0
115 117 0
107 105 0
84 77 0
81 74 11
81 71 0
97 89 0
92 85 0
86 79 0
93 85 0
81 73 0
96 88 0
86 79 0
95 89 0
102 92 0
102 94 0
105 99 0
100 91 0
101 94 0
112 108 0
102 95 0
100 93 0
111 102 0
111 106 0
112 105 0
117 109 0
108 100 0
116 108 0
122 113 0
114 108 0
110 100 0
121 114 0
110 103 0
120 111 0
118 111 0
125 117 0
123 114 0
118 109 0
123 116 0
124 116 0
120 113 0
123 118 0
120 113 0
126 120 0
118 110 0
114 106 0
128 119 0
121 114 0
121 115 0
129 124 0
121 115 0
126 120 0
127 118 0
128 121 0
119 112 0
125 120 0
134 125 0
131 124 0
134 126 0
128 120 0
128 122 0
125 117 0
137 130 0
128 121 0
127 120 0
133 125 0
132 127 0
128 122 0
130 121 0
132 125 0
127 121 0
135 130 0
135 130 0
131 125 0
133 127 0
130 123 19
134 126 11
136 127 25
131 124 19
133 127 11
128 124 16
127 121 0
133 127 25
128 122 25
135 128 19
136 129 36
136 128 36
128 122 19
132 125 28
133 126 16
141 133 32
132 125 28
141 134 22
133 125 32
139 134 30
137 131 25
129 123 19
137 129 32
127 122 25
130 124 30
138 131 41
147 139 39
128 122 30
141 133 39
132 126 28
132 126 39
132 125 25
128 121 34
129 123 34
124 118 32
132 126 36
130 124 30
136 130 45
132 126 37
134 126 42
139 131 47
140 134 36
131 124 41
153 173 0
149 168 0
151 170 0
151 170 0
149 169 0
146 166 0
152 170 0
150 169 0
149 170 0
149 169 0
149 168 0
149 169 0
143 162 0
151 171 0
150 170 0
150 169 0
149 168 0
150 169 0
146 165 0
151 170 0
145 164 0
148 167 0
149 167 0
149 167 0
144 163 0
142 161 0
148 167 0
143 162 0
148 168 0
145 164 0
148 167 0
144 162 0
148 167 0
147 165 0
147 166 0
142 161 0
145 163 0
147 166 0
146 165 0
145 163 0
144 161 0
148 167 0
145 163 0
143 162 0
138 156 0
143 160 0
143 160 0
144 162 0
144 161 0
140 157 0
142 161 0
145 163 0
142 159 0
142 160 0
141 158 0
136 155 0
141 158 0
139 156 0
142 159 0
140 157 0
144 162 0
140 157 0
136 153 0
136 154 0
140 158 0
143 161 0
143 160 0
133 151 0
134 151 0
137 155 0
135 151 0
135 152 0
134 151 0
136 153 0
131 147 0
135 153 0
131 148 0
137 153 0
135 152 0
127 144 0
132 149 0
124 141 0
123 139 0
128 144 0
126 141 0
127 142 0
123 139 0
124 140 0
131 147 0
128 144 0
129 144 0
129 145 0
117 132 0
116 129 0
120 137 0
117 131 0
122 137 0
120 134 0
117 131 0
118 133 0
116 131 0
110 124 0
114 127 0
107 121 0
106 121 0
119 132 0
110 123 0
100 113 0
104 115 0
99 111 0
106 117 0
97 108 0
94 105 0
94 105 0
116 129 0
112 125 0
120 133 0
117 130 0
129 142 0
118 133 0
117 131 0
125 139 0
116 131 0
114 129 0
121 136 0
110 125 0
127 143 0
127 143 0
122 138 0
118 134 0
115 132 0
119 135 0
123 139 0
126 141 0
113 129 0
122 139 0
120 136 0
129 145 0
125 142 0
121 138 0
116 132 0
121 138 0
117 135 0
118 135 0
134 151 0
116 134 0
108 124 0
123 140 0
117 134 0
135 154 0
119 137 0
124 141 0
111 127 0
116 132 0
111 128 0
113 132 0
118 137 0
122 138 0
116 134 0
103 120 0
116 132 0
113 130 0
111 129 0
102 119 0
120 138 0
107 123 0
105 120 0
104 119 0
104 119 0
98 114 0
100 116 0
108 123 0
98 114 0
87 100 0
87 101 0
96 112 0
105 118 0
82 96 0
88 101 0
100 114 0
79 92 0
68 80 0
75 86 0
71 83 0
56 66 0
68 78 0
51 63 18
56 70 47
46 66 57
41 66 54
45 72 71
42 68 54
43 69 62
44 71 76
42 67 57
41 66 47
43 70 62
45 72 65
42 67 51
41 66 47
44 70 60
44 70 74
44 70 67
41 65 57
42 67 60
45 72 65
44 70 74
43 68 60
42 67 65
40 64 51
40 64 36
44 62 36
67 82 47
49 61 25
64 72 0
64 73 0
59 70 0
67 77 0
65 75 0
77 87 0
73 82 0
83 93 0
60 67 0
90 100 0
86 98 0
98 110 0
84 95 0
103 112 0
106 117 0
92 103 0
88 99 0
91 103 0
110 121 0
97 108 0
113 126 0
104 118 0
100 114 0
115 128 0
108 120 0
107 119 0
114 126 0
106 119 0
113 125 0
96 104 0
111 122 0
110 120 0
118 129 0
112 123 0
119 133 0
120 134 0
110 121 0
120 130 0
116 125 0
110 117 0
118 128 0
116 126 0
122 134 0
116 127 0
117 126 0
121 132 0
114 124 0
113 120 0
118 126 0
130 139 0
116 122 0
110 119 0
125 132 0
127 134 0
110 116 0
124 131 0
123 129 0
117 123 0
109 112 0
118 122 0
113 116 0
115 117 0
118 122 0
110 115 0
114 117 0
114 118 0
108 107 0
112 108 0
112 112 0
110 107 0
111 110 0
93 90 0
92 88 0
74 66 0
85 77 0
74 67 0
87 77 0
77 68 0
81 74 0
92 84 0
94 86 0
91 83 0
102 94 0
99 91 0
98 89 0
99 90 0
99 91 0
109 99 0
109 99 0
105 97 0
102 96 0
107 101 0
116 108 0
102 95 0
111 101 0
108 98 0
115 108 0
114 105 0
106 97 0
107 103 0
108 101 0
116 108 0
111 103 0
118 109 0
118 108 0
120 112 0
118 109 0
117 108 0
123 114 0
123 114 0
120 113 0
123 116 0
126 118 0
126 119 0
119 110 0
126 118 0
127 119 0
129 123 0
128 119 0
128 119 0
124 116 0
124 116 0
128 120 0
126 118 0
130 123 0
122 115 0
127 121 0
129 123 0
135 130 0
130 123 0
131 124 0
129 123 0
129 121 0
125 118 0
130 122 0
129 121 0
128 121 0
130 123 0
130 122 0
136 130 0
131 124 0
134 127 0
130 125 0
135 129 11
129 121 11
126 117 11
129 123 16
133 127 19
126 121 16
132 127 16
130 122 22
134 127 25
130 123 22
138 130 25
138 131 28
134 127 25
123 116 22
128 120 22
137 130 28
135 129 28
135 130 22
133 128 32
141 134 28
130 124 22
128 120 30
141 134 32
133 126 37
129 123 30
134 127 28
131 124 28
138 131 30
123 118 16
127 121 36
133 126 28
129 124 25
137 130 37
131 126 30
131 124 30
127 122 25
131 123 42
135 129 34
132 125 41
127 122 37
130 123 37
121 114 34
128 123 36
153 172 0
150 170 0
151 171 0
152 171 0
148 168 0
152 172 0
146 165 0
150 170 0
151 170 0
150 169 0
145 164 0
149 168 0
149 167 0
151 170 0
149 168 0
152 170 0
148 168 0
147 166 0
151 170 0
145 164 0
146 165 0
151 169 0
150 169 0
149 168 0
145 163 0
149 167 0
147 166 0
146 165 0
148 166 0
151 170 0
146 165 0
141 159 0
143 162 0
145 163 0
144 162 0
147 165 0
147 165 0
143 161 0
142 160 0
146 164 0
143 162 0
143 161 0
138 156 0
141 160 0
143 160 0
143 161 0
143 160 0
141 159 0
138 155 0
143 160 0
142 160 0
141 159 0
138 156 0
144 162 0
140 157 0
138 156 0
139 157 0
141 159 0
136 153 0
140 158 0
136 153 0
139 157 0
134 152 0
140 158 0
136 153 0
137 154 0
140 158 0
140 157 0
139 157 0
139 157 0
134 152 0
132 148 0
135 151 0
133 149 0
129 145 0
127 143 0
128 142 0
130 146 0
134 150 0
130 145 0
137 152 0
123 139 0
124 139 0
126 141 0
128 144 0
131 147 0
125 141 0
126 141 0
123 138 0
127 142 0
128 143 0
124 139 0
124 138 0
122 138 0
118 134 0
105 118 0
118 132 0
123 138 0
116 130 0
109 123 0
113 127 0
116 131 0
119 133 0
103 116 0
102 114 0
109 121 0
108 120 0
99 111 0
104 117 0
91 102 0
95 106 0
95 105 0
103 115 0
112 124 0
105 118 0
112 125 0
115 128 0
120 134 0
104 117 0
121 136 0
115 129 0
119 133 0
116 131 0
130 145 0
114 128 0
121 136 0
116 131 0
130 146 0
122 137 0
116 132 0
113 128 0
110 126 0
118 136 0
120 137 0
119 135 0
115 131 0
116 132 0
121 138 0
123 140 0
121 138 0
118 135 0
118 134 0
117 134 0
122 139 0
120 136 0
118 136 0
121 139 0
115 132 0
121 138 0
123 141 0
125 142 0
121 140 0
127 145 0
127 143 0
112 128 0
104 119 0
113 130 0
107 124 0
116 133 0
110 127 0
118 135 0
118 136 0
119 136 0
105 122 0
92 108 0
99 116 0
109 125 0
117 134 0
110 125 0
88 103 0
91 107 0
101 115 0
92 108 0
97 111 0
88 101 0
84 99 0
81 95 0
80 94 0
79 93 0
74 87 0
86 98 0
76 89 0
68 82 0
74 87 0
78 89 0
66 76 0
68 79 0
73 83 0
46 57 0
63 73 0
64 73 0
48 62 25
62 77 44
47 64 44
41 59 47
39 60 47
47 70 54
40 63 36
39 62 60
39 63 60
41 66 54
36 58 47
41 65 70
40 63 44
49 69 40
41 60 47
42 59 36
59 72 44
63 74 25
60 69 31
69 78 0
67 76 0
61 69 0
72 79 0
69 78 0
72 82 0
69 77 0
86 96 0
75 86 0
77 87 0
79 90 0
79 88 0
79 91 0
80 90 0
95 107 0
73 82 0
94 104 0
107 120 0
105 116 0
99 110 0
102 113 0
97 109 0
104 117 0
108 120 0
96 109 0
94 106 0
106 119 0
100 112 0
122 135 0
107 121 0
103 112 0
116 130 0
117 132 0
105 117 0
119 131 0
120 133 0
112 123 0
109 122 0
117 128 0
118 129 0
127 141 0
118 130 0
122 133 0
122 134 0
119 129 0
123 135 0
118 127 0
123 135 0
118 129 0
129 140 0
110 118 0
112 121 0
115 124 0
112 120 0
125 132 0
116 123 0
119 121 0
119 127 0
117 125 0
120 129 0
110 113 0
117 123 0
119 123 0
114 119 0
111 116 0
101 104 0
118 120 0
109 111 0
104 106 0
124 126 0
116 115 0
119 118 0
118 119 0
105 104 0
104 104 0
111 109 0
113 112 0
106 105 0
85 79 0
73 67 0
73 66 0
83 73 0
83 73 0
101 91 0
96 86 0
90 81 0
90 83 0
91 81 0
99 89 0
94 87 0
89 79 0
89 81 0
101 93 0
109 101 0
106 97 0
107 99 0
106 97 0
107 99 0
110 100 0
107 98 0
107 96 0
111 103 0
110 102 0
111 104 0
115 106 0
124 115 0
118 109 0
110 102 0
110 103 0
110 103 0
111 104 0
122 112 0
108 99 0
115 107 0
110 100 0
123 113 0
122 114 0
118 110 0
133 125 0
123 116 0
119 110 0
123 115 0
120 113 0
127 119 0
125 118 0
119 111 0
128 119 0
123 115 0
124 116 0
127 119 0
129 120 0
124 117 0
129 120 0
134 126 0
128 120 0
133 126 0
137 130 0
128 121 0
134 128 0
126 117 0
130 123 0
131 124 0
135 127 0
121 116 0
130 123 0
133 127 0
128 123 0
134 127 0
128 123 0
135 129 16
130 122 0
130 122 0
132 126 16
134 127 11
131 124 0
130 123 22
129 123 16
134 128 19
131 125 19
127 119 19
127 121 19
131 125 19
127 118 28
134 127 30
132 125 25
131 123 28
137 129 34
126 120 25
126 119 28
132 126 28
130 124 30
140 134 37
127 120 34
136 129 28
137 130 36
130 121 37
127 118 16
125 117 25
127 122 28
132 127 37
129 122 32
135 127 41
131 123 44
116 110 32
116 110 25
126 119 34
118 112 34
135 127 45
120 115 22
126 120 32
151 170 0
152 172 0
151 171 0
151 171 0
149 168 0
147 166 0
149 169 0
150 169 0
153 172 0
148 168 0
149 168 0
149 168 0
149 168 0
149 167 0
148 167 0
150 169 0
149 168 0
150 170 0
148 166 0
149 167 0
145 163 0
145 164 0
144 164 0
146 164 0
145 163 0
147 167 0
149 168 0
143 162 0
145 163 0
141 159 0
144 163 0
149 167 0
145 162 0
150 169 0
144 162 0
141 160 0
144 162 0
146 165 0
144 161 0
144 162 0
144 162 0
142 159 0
143 162 0
141 158 0
148 165 0
139 157 0
142 160 0
139 156 0
143 161 0
140 158 0
142 159 0
139 157 0
140 157 0
140 157 0
138 156 0
143 160 0
144 161 0
137 153 0
141 159 0
139 156 0
140 157 0
138 155 0
138 155 0
139 156 0
132 149 0
138 155 0
136 153 0
137 154 0
134 150 0
139 155 0
131 148 0
134 151 0
131 146 0
133 149 0
131 148 0
131 147 0
123 138 0
130 146 0
130 146 0
132 148 0
133 149 0
128 144 0
125 140 0
128 143 0
125 140 0
131 147 0
123 138 0
124 138 0
119 134 0
121 137 0
123 137 0
125 140 0
127 142 0
122 136 0
117 132 0
122 136 0
114 129 0
117 132 0
111 125 0
117 131 0
112 127 0
108 121 0
105 117 0
107 120 0
107 119 0
103 115 0
99 111 0
98 109 0
84 93 0
97 107 0
103 115 0
120 133 0
104 116 0
106 119 0
102 114 0
109 122 0
110 123 0
110 124 0
114 128 0
114 128 0
113 127 0
114 128 0
102 116 0
125 140 0
112 127 0
107 120 0
120 134 0
127 143 0
123 138 0
120 134 0
117 133 0
116 131 0
118 133 0
119 133 0
124 140 0
126 143 0
124 141 0
125 141 0
119 135 0
125 141 0
114 131 0
128 144 0
121 136 0
129 145 0
116 134 0
126 144 0
123 141 0
115 133 0
122 139 0
120 137 0
119 137 0
131 150 0
112 130 0
111 129 0
108 125 0
110 126 0
114 131 0
111 129 0
94 111 0
114 131 0
121 138 0
116 132 0
111 127 0
111 128 0
97 113 0
114 131 0
103 121 0
116 132 0
115 131 0
93 109 0
100 117 0
99 114 0
100 115 0
105 120 0
107 122 0
82 97 0
81 95 0
89 103 0
91 106 0
76 91 0
92 105 0
82 95 0
94 108 0
82 94 0
68 80 0
67 79 0
66 77 0
72 83 0
61 72 0
58 68 0
78 90 0
61 72 0
51 60 0
61 71 0
46 55 0
64 73 0
36 46 0
61 70 0
53 61 0
61 68 0
59 70 25
55 64 18
45 54 0
60 67 0
56 65 0
68 76 0
54 62 0
42 50 0
60 68 0
73 82 0
48 57 0
53 62 0
65 76 0
70 79 0
84 95 0
77 87 0
60 71 0
80 91 0
82 91 0
88 97 0
83 95 0
94 106 0
84 94 0
85 97 0
85 97 0
89 101 0
95 104 0
110 122 0
95 106 0
94 105 0
90 100 0
99 113 0
103 114 0
116 127 0
107 120 0
100 111 0
103 115 0
102 114 0
114 126 0
108 119 0
117 130 0
129 144 0
107 122 0
120 133 0
116 129 0
99 110 0
116 130 0
125 136 0
121 133 0
113 126 0
120 133 0
118 130 0
123 136 0
109 119 0
123 136 0
118 130 0
130 142 0
119 129 0
111 121 0
114 126 0
118 129 0
116 129 0
126 135 0
115 122 0
119 128 0
110 119 0
128 137 0
114 122 0
118 127 0
109 114 0
112 117 0
124 130 0
108 110 0
113 116 0
110 114 0
117 122 0
115 117 0
116 120 0
114 117 0
111 112 0
112 113 0
101 102 0
115 115 0
116 118 0
108 107 0
99 96 0
100 98 0
100 98 0
96 88 0
95 91 0
97 92 0
74 66 0
80 71 0
86 76 0
92 83 0
90 82 0
84 77 0
96 88 0
100 90 0
86 78 0
91 81 0
103 93 0
89 79 0
105 95 0
104 97 0
111 101 0
107 98 0
103 96 0
114 104 0
108 97 0
111 100 0
109 100 0
99 91 0
114 108 0
111 101 0
120 110 0
114 107 0
117 106 0
119 109 0
117 109 0
119 109 0
109 99 0
111 104 0
119 112 0
128 119 0
122 112 0
114 106 0
122 111 0
110 103 0
124 116 0
125 115 0
121 111 0
122 114 0
120 111 0
119 111 0
125 118 0
124 116 0
128 120 0
122 115 0
128 119 0
122 113 0
124 117 0
120 112 0
118 110 0
126 119 0
117 111 0
122 115 0
131 126 0
124 117 0
124 117 0
125 117 0
121 113 0
125 119 0
128 123 0
128 121 0
128 120 0
130 123 0
135 127 0
132 126 0
118 113 11
135 127 16
134 128 16
126 119 0
131 125 16
126 119 19
132 125 19
118 110 11
128 121 19
130 122 22
129 123 16
131 125 30
132 124 22
127 118 22
127 122 11
128 122 16
129 123 25
133 126 28
128 121 25
135 128 22
136 129 30
114 109 22
128 121 16
129 123 28
130 123 34
136 127 34
125 117 36
133 126 25
132 125 30
130 121 34
128 122 39
122 115 19
124 118 30
122 116 22
125 118 30
126 119 30
121 115 28
135 128 37
126 120 34
129 122 39
124 118 34
150 170 0
150 170 0
151 171 0
150 170 0
152 171 0
150 169 0
148 167 0
152 172 0
150 169 0
147 166 0
147 166 0
149 167 0
152 170 0
148 167 0
147 167 0
149 168 0
147 167 0
145 163 0
149 167 0
148 167 0
149 169 0
148 166 0
147 165 0
147 165 0
147 165 0
146 164 0
143 161 0
146 164 0
144 162 0
146 164 0
148 167 0
142 160 0
141 159 0
148 166 0
147 165 0
148 166 0
145 162 0
146 164 0
146 164 0
144 162 0
138 156 0
146 164 0
142 160 0
142 159 0
138 155 0
138 155 0
144 162 0
139 155 0
141 158 0
141 159 0
138 155 0
141 159 0
142 160 0
140 157 0
142 160 0
142 159 0
139 155 0
141 158 0
137 154 0
138 156 0
131 148 0
136 153 0
137 154 0
136 153 0
139 156 0
136 152 0
136 153 0
130 147 0
132 148 0
132 148 0
135 152 0
133 149 0
138 154 0
127 144 0
130 146 0
130 145 0
130 145 0
127 143 0
131 145 0
130 145 0
131 146 0
125 140 0
127 142 0
126 142 0
128 143 0
124 139 0
126 141 0
129 144 0
122 136 0
109 124 0
124 140 0
122 136 0
124 139 0
121 135 0
117 131 0
115 128 0
111 124 0
112 125 0
121 135 0
118 132 0
110 123 0
111 124 0
107 120 0
105 117 0
101 112 0
95 106 0
85 95 0
98 108 0
105 116 0
105 116 0
105 116 0
102 114 0
104 116 0
102 114 0
112 126 0
119 133 0
120 134 0
113 127 0
120 133 0
116 130 0
113 127 0
118 133 0
129 145 0
119 133 0
122 137 0
127 143 0
112 127 0
128 143 0
124 140 0
110 125 0
117 132 0
116 132 0
128 145 0
118 134 0
126 143 0
124 141 0
124 141 0
109 126 0
116 133 0
129 147 0
125 142 0
124 142 0
121 137 0
124 141 0
123 139 0
118 135 0
126 143 0
119 137 0
119 137 0
134 151 0
119 137 0
118 136 0
111 128 0
120 138 0
109 126 0
98 116 0
118 137 0
113 130 0
120 138 0
120 138 0
114 130 0
111 128 0
110 127 0
109 125 0
108 124 0
106 123 0
92 108 0
103 120 0
103 118 0
94 109 0
98 115 0
99 114 0
93 107 0
98 113 0
96 112 0
93 108 0
92 107 0
101 115 0
90 106 0
83 96 0
87 100 0
81 95 0
81 93 0
68 79 0
74 86 0
87 98 0
71 84 0
76 89 0
70 81 0
62 74 0
71 82 0
70 80 0
63 72 0
64 74 0
55 66 0
63 74 0
49 58 0
59 67 0
69 78 0
41 50 0
59 69 0
61 70 0
59 69 0
60 70 0
58 66 0
54 62 0
55 63 0
76 86 0
71 80 0
68 75 0
75 84 0
69 81 0
70 79 0
77 88 0
74 85 0
70 82 0
78 90 0
70 80 0
77 88 0
88 99 0
83 94 0
83 95 0
86 98 0
103 113 0
94 106 0
102 114 0
90 103 0
99 110 0
99 114 0
96 112 0
105 117 0
111 123 0
106 119 0
96 108 0
103 115 0
109 123 0
114 127 0
101 114 0
114 128 0
107 119 0
130 143 0
111 122 0
110 120 0
113 126 0
118 131 0
117 131 0
121 134 0
115 129 0
121 132 0
113 124 0
132 147 0
106 115 0
117 127 0
121 135 0
117 126 0
110 121 0
129 141 0
120 132 0
113 122 0
118 127 0
113 122 0
117 129 0
122 128 0
109 118 0
114 120 0
122 129 0
120 129 0
107 115 0
118 126 0
122 127 0
124 132 0
114 119 0
116 123 0
105 111 0
117 126 0
112 116 0
120 128 0
111 114 0
111 113 0
118 121 0
113 116 0
108 110 0
111 109 0
114 113 0
110 108 0
96 94 0
105 103 0
101 100 0
93 89 0
108 106 0
94 88 0
104 100 0
96 87 0
71 62 0
78 68 0
91 80 0
83 72 0
79 70 0
86 76 0
95 84 0
94 86 0
100 91 0
100 91 0
105 94 0
97 87 0
107 96 0
100 91 0
106 95 0
109 99 0
105 96 0
107 98 0
105 98 0
110 100 0
110 100 0
113 105 0
104 96 0
112 102 0
107 100 0
113 103 0
119 108 0
114 106 0
118 108 0
110 102 0
121 114 0
110 100 0
121 113 0
110 102 0
122 113 0
128 120 0
111 105 0
119 112 0
118 111 0
113 105 0
119 110 0
122 112 0
126 118 0
121 113 0
123 114 0
127 117 0
121 114 0
123 115 0
122 113 0
125 117 0
116 111 0
122 113 0
131 123 0
127 120 0
136 127 0
124 116 0
120 112 0
131 123 0
127 120 0
125 117 0
131 124 0
133 127 0
133 126 0
129 123 0
128 121 0
125 119 16
128 123 0
129 123 11
123 115 0
124 118 11
127 121 16
131 122 11
121 114 11
126 119 11
134 126 28
130 121 19
134 128 25
133 126 16
134 126 34
132 125 22
134 127 25
121 116 16
134 127 30
124 116 19
122 115 19
136 129 41
129 122 30
138 132 25
128 120 34
137 128 34
133 125 30
127 119 25
127 120 30
120 112 37
130 124 22
121 115 28
125 118 28
122 116 36
127 120 25
119 113 32
118 112 25
127 122 30
127 120 36
123 115 30
125 117 32
129 124 34
118 113 30
150 169 0
150 169 0
151 171 0
148 167 0
148 168 0
149 168 0
149 168 0
151 169 0
150 170 0
145 165 0
150 169 0
146 164 0
150 170 0
147 165 0
152 171 0
148 167 0
148 168 0
147 166 0
145 163 0
144 162 0
146 164 0
146 165 0
147 166 0
145 164 0
149 167 0
147 166 0
148 166 0
144 161 0
144 161 0
146 163 0
144 161 0
148 166 0
143 161 0
146 164 0
145 163 0
143 161 0
147 165 0
144 161 0
140 157 0
144 163 0
149 166 0
144 162 0
139 156 0
144 161 0
142 159 0
146 164 0
142 159 0
137 154 0
139 155 0
141 158 0
140 157 0
139 156 0
140 157 0
138 155 0
140 157 0
138 154 0
138 155 0
134 150 0
138 154 0
138 155 0
135 152 0
135 152 0
136 153 0
137 154 0
133 150 0
139 156 0
134 151 0
131 146 0
134 150 0
128 144 0
132 148 0
131 146 0
131 147 0
129 145 0
131 147 0
131 146 0
133 148 0
124 139 0
129 143 0
129 144 0
124 140 0
130 145 0
121 135 0
126 141 0
118 133 0
123 138 0
116 131 0
123 138 0
120 135 0
115 128 0
118 132 0
119 133 0
119 133 0
120 133 0
121 136 0
109 122 0
121 135 0
112 123 0
111 123 0
101 113 0
104 115 0
107 119 0
102 113 0
88 98 0
87 96 0
108 118 0
96 106 0
102 113 0
100 112 0
111 123 0
114 125 0
106 119 0
101 114 0
108 121 0
118 132 0
118 132 0
113 127 0
107 121 0
108 123 0
112 125 0
122 137 0
127 142 0
119 134 0
122 136 0
108 124 0
125 142 0
119 134 0
114 130 0
122 138 0
117 132 0
121 137 0
124 141 0
103 119 0
126 143 0
130 146 0
125 142 0
124 141 0
117 134 0
124 141 0
122 139 0
128 146 0
126 142 0
132 150 0
121 137 0
111 128 0
108 125 0
116 134 0
109 127 0
115 133 0
116 133 0
108 126 0
120 137 0
115 132 0
123 140 0
121 137 0
111 127 0
110 127 0
117 134 0
115 132 0
108 127 0
109 126 0
116 132 0
120 136 0
114 132 0
119 136 0
111 129 0
97 113 0
118 135 0
100 115 0
102 117 0
107 123 0
101 117 0
91 108 0
93 108 0
96 113 0
96 112 0
97 112 0
92 106 0
84 99 0
90 104 0
82 95 0
97 111 0
97 111 0
84 98 0
81 96 0
81 95 0
74 88 0
76 90 0
68 80 0
71 83 0
68 80 0
75 87 0
73 86 0
66 77 0
77 88 0
61 74 0
68 79 0
69 81 0
48 58 0
64 74 0
56 64 0
62 72 0
70 81 0
74 86 0
61 72 0
64 74 0
67 77 0
74 86 0
75 86 0
86 95 0
63 73 0
66 78 0
93 102 0
81 91 0
84 94 0
90 102 0
77 88 0
84 95 0
82 93 0
80 91 0
92 104 0
89 99 0
87 100 0
101 114 0
86 99 0
95 107 0
101 112 0
96 109 0
98 111 0
105 118 0
104 118 0
100 112 0
96 108 0
88 100 0
106 121 0
117 130 0
105 118 0
102 114 0
105 118 0
99 113 0
111 125 0
105 117 0
114 127 0
119 132 0
119 132 0
112 125 0
103 116 0
112 123 0
128 139 0
114 128 0
120 131 0
118 129 0
125 138 0
111 123 0
121 132 0
121 136 0
112 124 0
116 127 0
120 130 0
115 128 0
126 138 0
117 126 0
118 127 0
120 130 0
113 122 0
120 132 0
124 134 0
109 114 0
120 130 0
111 116 0
116 124 0
127 135 0
118 122 0
117 123 0
123 128 0
114 121 0
110 113 0
117 120 0
107 108 0
121 123 0
114 116 0
103 101 0
104 103 0
117 117 0
104 105 0
103 106 0
106 105 0
99 96 0
104 101 0
97 96 0
97 91 0
89 85 0
91 88 0
89 86 0
81 73 0
78 68 0
71 60 0
77 68 0
77 68 0
86 78 0
87 79 0
92 82 0
86 77 0
89 80 0
99 87 0
87 80 0
102 90 0
102 91 0
92 81 0
113 103 0
103 94 0
103 93 0
93 84 0
96 86 0
103 93 0
109 100 0
109 102 0
113 105 0
118 107 0
107 99 0
107 97 0
113 103 0
117 107 0
110 102 0
113 104 0
116 105 0
112 101 0
117 109 0
122 114 0
118 110 0
121 111 0
120 112 0
119 111 0
127 119 0
120 111 0
117 107 0
118 111 0
120 109 0
124 117 0
119 111 0
125 117 0
129 121 0
118 110 0
121 114 0
124 117 0
117 110 0
126 118 0
126 117 0
125 117 0
121 112 0
130 121 0
117 108 0
118 111 0
125 118 0
123 116 0
132 126 0
124 116 0
125 119 0
126 120 0
126 115 0
128 120 11
134 127 22
123 117 16
132 126 11
128 120 19
134 123 22
134 126 16
131 123 25
129 124 22
130 123 28
124 118 16
125 118 16
126 120 19
123 115 11
123 118 25
126 119 16
129 121 30
120 116 19
127 120 28
124 116 28
114 107 22
123 116 22
131 124 36
125 118 32
130 121 30
123 115 25
127 121 28
124 118 28
123 117 19
131 123 25
124 117 28
128 122 30
127 120 28
125 119 25
130 124 34
125 118 25
123 116 32
123 117 25
124 118 39
122 115 47
145 163 0
141 159 0
146 164 0
149 167 0
147 166 0
149 168 0
151 170 0
148 168 0
151 170 0
147 166 0
150 168 0
147 166 0
148 166 0
150 168 0
148 167 0
148 167 0
145 164 0
144 162 0
149 168 0
144 163 0
148 166 0
147 166 0
144 161 0
148 166 0
148 167 0
148 166 0
145 162 0
144 162 0
150 167 0
145 163 0
148 165 0
145 163 0
146 164 0
143 160 0
143 160 0
142 160 0
143 161 0
142 160 0
143 161 0
142 159 0
142 160 0
141 159 0
140 158 0
134 152 0
139 156 0
140 158 0
141 159 0
142 158 0
140 157 0
141 158 0
141 158 0
142 159 0
140 158 0
140 157 0
141 158 0
141 158 0
139 156 0
139 156 0
135 152 0
139 155 0
139 155 0
138 155 0
135 151 0
135 150 0
138 154 0
136 152 0
133 149 0
135 150 0
134 150 0
137 153 0
139 156 0
125 140 0
133 149 0
133 150 0
127 143 0
136 151 0
132 148 0
126 141 0
128 144 0
124 138 0
125 140 0
122 136 0
122 137 0
124 139 0
131 146 0
120 134 0
120 134 0
116 130 0
119 133 0
109 123 0
121 134 0
111 124 0
114 128 0
120 133 0
107 120 0
113 126 0
110 122 0
104 115 0
101 112 0
105 116 0
91 101 0
87 97 0
92 102 0
93 102 0
97 108 0
98 108 0
103 113 0
105 115 0
106 117 0
104 115 0
105 117 0
114 126 0
106 118 0
110 123 0
111 124 0
108 122 0
106 120 0
111 126 0
112 125 0
115 129 0
114 129 0
120 134 0
121 136 0
121 135 0
117 132 0
122 138 0
123 139 0
122 138 0
124 140 0
123 139 0
108 124 0
123 139 0
129 146 0
116 132 0
116 131 0
115 132 0
117 133 0
126 143 0
121 138 0
130 148 0
116 134 0
119 137 0
137 155 0
120 137 0
119 135 0
125 143 0
121 140 0
124 141 0
126 145 0
121 139 0
124 140 0
118 135 0
116 133 0
107 124 0
130 147 0
117 134 0
127 146 0
109 126 0
122 140 0
115 131 0
108 126 0
115 133 0
112 129 0
92 108 0
111 128 0
109 126 0
118 135 0
119 136 0
106 124 0
110 127 0
94 110 0
91 108 0
110 127 0
97 112 0
96 111 0
99 114 0
82 98 0
102 116 0
92 108 0
90 105 0
97 113 0
87 101 0
87 101 0
75 88 0
82 95 0
94 108 0
89 103 0
77 90 0
77 91 0
79 91 0
75 88 0
83 96 0
80 94 0
83 97 0
77 90 0
73 85 0
84 95 0
78 91 0
81 92 0
69 80 0
76 91 0
68 80 0
68 78 0
73 83 0
73 85 0
82 95 0
76 87 0
72 83 0
66 78 0
78 89 0
73 87 0
98 109 0
78 87 0
78 91 0
74 85 0
86 96 0
82 94 0
92 104 0
82 95 0
92 104 0
91 104 0
91 103 0
99 112 0
85 99 0
98 109 0
111 125 0
96 108 0
100 115 0
83 96 0
100 112 0
97 108 0
108 121 0
110 122 0
99 113 0
105 118 0
98 110 0
113 126 0
102 116 0
114 125 0
121 133 0
117 130 0
121 134 0
110 123 0
110 123 0
113 125 0
118 133 0
119 131 0
125 139 0
121 136 0
122 134 0
118 131 0
121 133 0
111 123 0
120 133 0
126 139 0
112 122 0
112 122 0
125 141 0
111 120 0
123 135 0
120 131 0
125 136 0
111 122 0
122 129 0
110 120 0
106 114 0
121 129 0
109 115 0
120 127 0
119 126 0
107 112 0
113 119 0
119 126 0
110 114 0
110 116 0
114 120 0
109 115 0
116 122 0
117 120 0
120 126 0
111 112 0
120 124 0
106 106 0
111 113 0
106 103 0
106 106 0
102 101 0
98 95 0
111 113 0
100 95 0
104 102 0
81 78 0
88 80 0
83 76 0
94 88 0
93 88 0
89 82 0
78 69 0
79 69 0
77 67 0
96 86 0
89 80 0
73 63 0
86 74 0
89 78 0
88 77 0
91 81 0
102 90 0
102 92 0
94 86 0
103 93 0
104 93 0
103 93 0
106 95 0
110 97 0
104 93 0
99 90 0
111 101 0
110 101 0
105 95 0
115 104 0
111 102 0
114 104 0
109 101 0
111 104 0
109 99 0
114 105 0
117 108 0
113 104 0
112 101 0
109 100 0
121 111 0
115 106 0
125 115 0
122 112 0
110 101 0
119 109 0
120 112 0
121 111 0
120 112 0
124 114 0
119 112 0
124 116 0
116 107 0
120 112 0
126 116 0
120 112 0
120 113 0
124 118 0
123 116 0
125 117 0
124 118 0
132 123 0
129 123 0
126 119 0
132 125 0
122 114 11
124 117 11
125 118 0
128 122 16
129 121 16
128 121 11
125 118 11
124 117 0
125 118 16
127 120 16
125 117 19
132 125 0
115 108 19
123 116 19
125 117 11
138 132 16
128 120 30
119 112 25
128 121 25
124 115 22
123 116 25
119 114 11
128 122 28
124 118 19
119 113 19
122 116 11
122 115 25
119 113 16
130 124 36
125 118 30
128 120 36
126 119 36
119 112 25
131 124 37
126 119 34
116 110 30
126 119 34
121 114 34
114 109 16
119 113 25
125 118 32
121 114 36
116 109 34
113 107 36
130 147 0
126 143 0
135 152 0
135 153 0
145 163 0
143 162 0
146 165 0
149 167 0
150 169 0
151 170 0
150 169 0
149 167 0
151 170 0
147 165 0
147 166 0
147 164 0
146 164 0
147 165 0
149 168 0
146 165 0
149 166 0
147 165 0
147 165 0
143 162 0
145 163 0
145 163 0
145 163 0
145 163 0
146 165 0
144 161 0
141 158 0
147 164 0
146 163 0
144 162 0
145 163 0
145 163 0
146 164 0
139 156 0
140 157 0
145 163 0
145 162 0
147 164 0
144 161 0
137 154 0
145 163 0
138 155 0
139 156 0
135 152 0
146 162 0
140 157 0
142 160 0
142 159 0
137 153 0
134 150 0
141 157 0
138 155 0
135 152 0
137 154 0
138 155 0
133 150 0
133 149 0
134 150 0
133 149 0
135 151 0
134 150 0
131 147 0
137 153 0
138 154 0
135 150 0
130 145 0
131 146 0
128 144 0
129 144 0
125 140 0
129 144 0
126 141 0
123 138 0
125 140 0
126 141 0
129 144 0
123 137 0
128 144 0
126 141 0
123 137 0
121 135 0
121 135 0
123 138 0
112 125 0
107 120 0
113 127 0
119 132 0
113 126 0
112 125 0
106 118 0
102 114 0
103 114 0
107 118 0
99 109 0
94 104 0
88 98 0
83 91 0
101 112 0
98 108 0
101 111 0
93 103 0
103 113 0
108 120 0
107 118 0
104 116 0
107 120 0
110 122 0
106 119 0
112 126 0
115 128 0
107 119 0
116 129 0
103 117 0
127 142 0
114 129 0
111 126 0
127 144 0
121 137 0
118 132 0
131 147 0
124 140 0
106 122 0
119 134 0
122 137 0
113 129 0
116 133 0
130 146 0
114 131 0
117 134 0
118 134 0
125 141 0
122 139 0
119 136 0
130 147 0
115 132 0
117 134 0
131 148 0
132 151 0
127 144 0
125 141 0
116 135 0
120 137 0
128 146 0
119 138 0
117 134 0
118 136 0
121 139 0
126 144 0
124 141 0
125 143 0
116 134 0
119 137 0
127 145 0
123 141 0
101 118 0
126 145 0
116 134 0
122 140 0
119 136 0
104 121 0
116 132 0
112 130 0
109 125 0
97 113 0
120 137 0
105 122 0
113 129 0
102 118 0
100 115 0
101 118 0
95 111 0
104 120 0
98 114 0
74 90 0
104 119 0
93 109 0
94 110 0
97 111 0
88 102 0
82 96 0
86 100 0
91 105 0
90 105 0
95 108 0
74 90 0
67 81 0
96 109 0
90 103 0
89 104 0
101 116 0
87 101 0
72 85 0
82 94 0
70 82 0
67 79 0
67 79 0
57 72 0
71 83 0
67 80 0
70 83 0
93 107 0
82 93 0
88 101 0
84 97 0
94 109 0
77 90 0
90 103 0
89 102 0
80 95 0
94 107 0
89 103 0
92 102 0
78 90 0
100 112 0
96 107 0
106 119 0
79 94 0
95 109 0
94 107 0
98 111 0
102 113 0
102 114 0
84 96 0
97 112 0
99 114 0
117 132 0
104 118 0
108 119 0
111 124 0
111 123 0
118 132 0
110 124 0
112 126 0
109 122 0
115 126 0
106 118 0
124 138 0
108 120 0
115 125 0
116 126 0
110 122 0
112 126 0
116 129 0
123 135 0
117 130 0
111 125 0
129 143 0
110 123 0
118 131 0
129 142 0
123 136 0
123 135 0
115 126 0
115 126 0
126 137 0
113 122 0
121 134 0
123 137 0
118 130 0
111 120 0
124 133 0
107 115 0
112 119 0
115 125 0
123 130 0
112 120 0
123 131 0
105 112 0
117 126 0
119 127 0
117 124 0
114 120 0
121 127 0
120 124 0
124 129 0
112 118 0
112 116 0
109 112 0
116 118 0
85 83 0
110 111 0
112 115 0
112 115 0
114 116 0
105 104 0
106 105 0
89 88 0
105 103 0
107 106 0
96 90 0
91 90 0
94 89 0
104 99 0
81 74 0
72 67 0
82 74 0
74 65 0
81 68 0
83 71 0
89 74 0
85 73 0
82 72 0
83 73 0
89 77 0
99 87 0
103 94 0
90 80 0
95 87 0
101 90 0
99 90 0
88 77 0
101 89 0
98 87 0
97 87 0
102 92 0
107 98 0
114 102 0
116 105 0
109 98 0
113 102 0
99 92 0
104 94 0
112 101 0
123 117 0
113 102 0
113 102 0
109 100 0
119 108 0
114 103 0
120 111 0
108 101 0
118 111 0
119 112 0
117 109 0
112 105 0
114 106 0
113 106 0
125 118 0
117 110 0
112 105 0
125 116 0
121 113 0
127 118 0
120 110 0
127 119 0
113 106 0
131 123 0
121 112 0
121 113 0
122 113 0
124 115 0
116 108 0
117 111 0
122 111 16
127 117 11
128 119 16
122 116 0
125 118 0
125 119 11
121 115 11
130 123 25
122 115 11
125 115 16
124 114 22
130 122 22
122 114 11
121 112 19
133 125 28
125 118 32
129 122 16
125 119 25
123 114 25
126 119 19
119 113 16
120 112 22
132 125 34
122 116 32
118 112 19
118 114 16
122 114 25
126 120 30
114 109 28
122 115 25
120 113 30
123 117 30
112 107 28
130 124 37
127 120 28
117 109 34
103 97 25
114 108 25
111 105 30
114 109 30
117 111 32
119 113 41
121 123 34
171 193 0
166 188 0
151 171 0
134 152 0
132 149 0
141 159 0
135 153 0
138 155 0
144 163 0
147 165 0
147 165 0
151 170 0
149 168 0
148 167 0
144 163 0
149 167 0
144 162 0
143 161 0
147 165 0
146 164 0
144 161 0
145 164 0
145 163 0
151 169 0
144 161 0
146 164 0
141 159 0
145 163 0
147 165 0
146 163 0
144 160 0
141 158 0
143 160 0
140 157 0
146 164 0
143 161 0
141 158 0
140 157 0
143 160 0
144 161 0
144 160 0
143 160 0
143 160 0
135 151 0
141 157 0
138 154 0
134 151 0
142 159 0
139 156 0
143 159 0
139 155 0
136 151 0
137 154 0
129 144 0
138 155 0
139 156 0
138 154 0
142 158 0
138 155 0
139 154 0
134 150 0
136 152 0
133 149 0
125 140 0
134 150 0
135 151 0
135 150 0
133 148 0
134 150 0
130 144 0
126 140 0
126 141 0
130 144 0
126 140 0
126 140 0
126 140 0
127 142 0
125 140 0
117 130 0
123 137 0
120 133 0
125 139 0
121 135 0
119 133 0
113 126 0
114 127 0
117 131 0
108 121 0
116 129 0
116 129 0
113 125 0
112 124 0
110 122 0
105 115 0
94 105 0
96 106 0
82 91 0
85 94 0
81 90 0
90 99 0
94 103 0
103 113 0
106 117 0
107 118 0
95 106 0
113 125 0
102 114 0
110 123 0
110 123 0
107 119 0
106 120 0
107 120 0
123 138 0
120 134 0
115 129 0
127 141 0
120 137 0
120 135 0
122 136 0
112 128 0
122 136 0
117 132 0
132 148 0
125 140 0
127 143 0
119 135 0
135 151 0
126 143 0
124 141 0
135 153 0
126 143 0
118 135 0
124 141 0
125 143 0
121 138 0
115 133 0
115 132 0
122 141 0
121 139 0
114 131 0
119 136 0
123 141 0
139 158 0
130 147 0
111 128 0
118 135 0
117 136 0
131 151 0
124 142 0
113 132 0
128 146 0
121 139 0
118 135 0
117 134 0
111 129 0
122 139 0
103 121 0
108 126 0
115 133 0
122 139 0
117 134 0
124 142 0
123 140 0
113 130 0
111 128 0
112 129 0
115 133 0
119 136 0
102 119 0
99 117 0
99 116 0
105 121 0
111 128 0
105 121 0
104 120 0
101 117 0
89 105 0
110 126 0
104 119 0
96 111 0
93 109 0
95 110 0
84 99 0
95 110 0
94 108 0
82 97 0
96 110 0
90 104 0
81 97 0
78 91 0
78 90 0
77 90 0
82 96 0
90 104 0
91 104 0
80 94 0
79 93 0
94 110 0
92 106 0
86 100 0
85 98 0
95 108 0
79 90 0
80 94 0
81 92 0
83 97 0
82 93 0
87 101 0
80 95 0
87 99 0
75 87 0
88 101 0
73 87 0
93 108 0
92 104 0
100 115 0
90 103 0
93 105 0
93 107 0
99 111 0
94 107 0
95 107 0
100 112 0
81 93 0
97 112 0
82 96 0
99 114 0
103 116 0
100 112 0
114 127 0
104 117 0
111 123 0
120 135 0
110 124 0
114 123 0
110 124 0
110 123 0
114 128 0
117 129 0
116 129 0
113 129 0
119 134 0
121 134 0
103 116 0
109 124 0
122 137 0
119 132 0
114 126 0
116 127 0
107 118 0
121 134 0
121 135 0
109 120 0
114 128 0
133 144 0
125 137 0
125 136 0
113 125 0
111 122 0
117 129 0
122 131 0
129 141 0
119 132 0
122 133 0
124 135 0
121 130 0
120 129 0
118 127 0
115 125 0
123 131 0
109 118 0
124 133 0
112 120 0
126 135 0
130 136 0
120 125 0
120 126 0
116 120 0
117 124 0
121 125 0
114 118 0
109 114 0
116 120 0
106 109 0
114 115 0
118 122 0
110 114 0
96 93 0
99 97 0
112 113 0
106 107 0
104 99 0
95 93 0
109 105 0
104 100 0
92 86 0
96 91 0
98 95 0
93 90 0
71 68 0
80 73 0
71 62 0
87 79 0
74 64 0
85 73 0
86 75 0
87 76 0
87 75 0
89 79 0
91 81 0
101 90 0
92 82 0
96 85 0
95 87 0
97 87 0
86 76 0
105 94 0
98 90 0
110 100 0
96 86 0
106 96 0
110 100 0
106 95 0
100 90 0
110 99 0
114 104 0
114 104 0
116 107 0
116 105 0
114 104 0
120 108 0
111 104 0
112 104 0
116 108 0
116 106 0
108 99 0
120 110 0
113 106 0
109 101 0
114 105 0
124 115 0
116 107 0
120 113 0
106 97 0
124 115 0
111 104 0
111 104 0
115 107 0
115 108 0
122 115 0
119 112 0
119 110 0
118 110 0
119 110 0
111 104 0
116 108 0
116 108 0
121 113 0
121 115 11
122 114 11
125 117 11
125 116 11
120 113 0
120 112 11
113 105 0
127 118 19
127 119 16
130 122 19
120 110 22
125 116 28
130 122 22
125 119 16
118 111 11
120 112 16
122 115 25
120 113 19
122 113 28
114 109 25
127 119 22
125 115 16
121 116 25
117 109 32
116 110 22
128 120 32
114 107 28
124 118 11
118 112 16
114 105 28
126 119 19
118 112 34
122 115 30
117 111 19
116 110 22
123 116 36
112 105 34
118 111 36
122 120 28
143 154 22
157 173 16
170 191 0
171 194 0
172 195 0
171 193 0
170 192 0
161 183 0
148 168 0
128 145 0
134 151 0
132 148 0
135 152 0
147 164 0
147 165 0
144 161 0
146 165 0
147 165 0
147 165 0
147 164 0
147 164 0
141 159 0
151 169 0
144 162 0
147 164 0
144 162 0
145 162 0
144 161 0
145 162 0
146 164 0
139 156 0
141 158 0
145 162 0
141 158 0
145 162 0
148 166 0
140 156 0
145 162 0
142 159 0
145 163 0
141 158 0
143 161 0
139 155 0
142 159 0
148 165 0
140 156 0
140 156 0
137 154 0
135 151 0
141 158 0
141 157 0
141 157 0
138 155 0
143 159 0
138 154 0
136 152 0
135 151 0
138 153 0
135 151 0
136 151 0
134 148 0
135 151 0
130 144 0
130 145 0
129 144 0
132 148 0
137 153 0
133 147 0
130 145 0
132 147 0
133 148 0
127 142 0
128 142 0
126 141 0
129 144 0
128 143 0
130 145 0
120 132 0
123 137 0
124 138 0
120 133 0
121 135 0
126 140 0
122 136 0
116 129 0
115 128 0
116 129 0
116 128 0
114 127 0
107 119 0
113 124 0
111 123 0
104 115 0
102 113 0
100 110 0
91 100 0
86 95 0
88 97 0
90 99 0
88 98 0
85 94 0
100 109 0
102 112 0
103 114 0
102 114 0
99 110 0
100 111 0
97 108 0
106 118 0
104 117 0
117 129 0
105 117 0
121 134 0
114 128 0
119 133 0
123 138 0
122 136 0
120 135 0
125 140 0
129 145 0
123 138 0
125 140 0
125 141 0
121 136 0
123 138 0
125 141 0
120 135 0
118 134 0
127 144 0
125 140 0
120 138 0
130 147 0
131 148 0
117 134 0
134 151 0
121 138 0
129 147 0
126 146 0
132 150 0
118 135 0
117 134 0
126 143 0
136 155 0
121 138 0
118 135 0
136 153 0
118 136 0
130 148 0
125 144 0
124 142 0
130 148 0
116 134 0
125 142 0
108 125 0
115 133 0
114 131 0
121 140 0
129 148 0
111 129 0
115 133 0
115 134 0
119 136 0
112 129 0
115 133 0
118 136 0
123 140 0
108 125 0
114 132 0
112 130 0
113 131 0
111 128 0
112 129 0
119 137 0
102 119 0
101 119 0
111 130 0
108 125 0
120 137 0
92 108 0
106 123 0
98 115 0
103 118 0
92 109 0
105 122 0
98 114 0
99 115 0
97 114 0
102 118 0
101 116 0
95 110 0
90 106 0
91 106 0
91 106 0
109 124 0
79 94 0
100 114 0
77 93 0
86 101 0
93 107 0
94 109 0
94 111 0
91 107 0
83 98 0
97 112 0
89 104 0
81 94 0
91 105 0
94 108 0
94 107 0
88 103 0
95 108 0
83 96 0
86 101 0
84 98 0
82 97 0
108 121 0
91 104 0
109 122 0
91 103 0
100 114 0
106 119 0
102 115 0
107 121 0
91 104 0
109 122 0
103 117 0
95 108 0
109 122 0
95 109 0
120 133 0
110 124 0
116 130 0
98 110 0
106 120 0
112 128 0
112 127 0
119 131 0
105 120 0
116 131 0
107 122 0
116 129 0
108 122 0
116 130 0
118 133 0
109 122 0
116 129 0
112 125 0
111 122 0
119 133 0
115 130 0
113 125 0
132 146 0
115 128 0
117 128 0
119 131 0
120 133 0
112 126 0
122 137 0
129 144 0
117 129 0
124 137 0
125 137 0
126 141 0
119 131 0
127 139 0
124 137 0
126 136 0
122 133 0
128 142 0
128 139 0
124 134 0
126 136 0
106 115 0
119 126 0
127 135 0
126 133 0
116 125 0
122 130 0
108 116 0
119 127 0
117 122 0
117 123 0
119 127 0
127 132 0
119 125 0
118 123 0
128 131 0
103 105 0
121 123 0
106 110 0
108 110 0
119 122 0
112 108 0
104 101 0
110 110 0
114 114 0
108 106 0
103 100 0
109 108 0
95 93 0
95 94 0
94 89 0
92 89 0
84 81 0
89 85 0
83 77 0
78 71 0
71 61 0
78 70 0
69 62 0
79 68 0
86 72 0
75 66 0
80 70 0
84 75 0
88 79 0
103 91 0
98 87 0
104 93 0
91 79 0
103 92 0
91 81 0
96 85 0
100 88 0
106 96 0
106 94 0
105 95 0
101 90 0
99 89 0
106 96 0
105 94 0
107 97 0
110 99 0
110 101 0
104 94 0
113 103 0
114 105 0
116 107 0
107 100 0
114 104 0
111 102 0
117 108 0
115 106 0
111 100 0
119 110 0
116 106 0
117 111 0
121 111 0
128 118 0
115 107 0
113 102 0
116 107 0
112 104 0
113 103 0
120 109 0
106 98 0
116 109 0
117 112 11
116 107 0
117 108 0
117 109 0
119 112 11
120 112 16
120 113 0
120 112 0
125 115 16
127 120 16
123 116 0
122 113 22
124 116 19
117 109 16
119 111 19
119 113 0
128 120 22
116 110 19
134 126 30
114 108 16
118 110 34
125 119 25
115 108 19
119 111 16
122 114 11
122 114 19
119 112 30
118 110 25
114 107 28
116 109 30
126 118 30
122 114 22
121 113 28
117 109 32
116 109 19
121 113 32
113 106 22
108 102 25
98 92 16
117 115 30
133 143 19
152 164 19
170 190 0
170 191 0
169 188 0
169 188 0
171 194 0
171 193 0
170 193 0
171 193 0
167 191 0
168 190 0
168 191 0
165 187 0
140 158 0
136 153 0
129 145 0
126 143 0
135 151 0
143 160 0
140 157 0
142 160 0
146 164 0
146 164 0
142 158 0
147 166 0
145 164 0
146 164 0
142 160 0
141 158 0
143 161 0
145 162 0
141 158 0
145 161 0
143 160 0
143 160 0
142 159 0
147 164 0
146 162 0
143 160 0
140 156 0
142 159 0
139 154 0
143 160 0
143 160 0
137 153 0
139 155 0
140 157 0
144 160 0
142 159 0
138 155 0
135 150 0
138 154 0
145 163 0
142 157 0
131 147 0
138 153 0
133 148 0
142 158 0
137 152 0
142 159 0
133 148 0
133 149 0
135 150 0
131 146 0
135 150 0
133 149 0
125 140 0
129 143 0
126 141 0
127 142 0
133 148 0
129 144 0
128 143 0
128 142 0
131 145 0
127 142 0
130 145 0
123 136 0
130 145 0
124 138 0
120 134 0
122 136 0
119 133 0
115 128 0
120 133 0
118 131 0
112 124 0
112 124 0
114 127 0
108 120 0
110 122 0
97 108 0
95 105 0
92 102 0
93 102 0
90 99 0
75 84 0
87 96 0
77 85 0
94 103 0
97 106 0
95 105 0
96 106 0
95 105 0
98 108 0
98 109 0
108 120 0
111 123 0
109 121 0
119 132 0
105 118 0
117 130 0
107 120 0
111 124 0
110 124 0
123 137 0
118 132 0
119 134 0
121 136 0
128 142 0
132 148 0
119 134 0
116 131 0
127 142 0
130 145 0
127 142 0
124 140 0
124 139 0
121 137 0
127 143 0
129 146 0
121 137 0
128 144 0
120 137 0
126 144 0
125 144 0
119 137 0
124 142 0
128 146 0
132 149 0
124 141 0
126 142 0
122 138 0
130 148 0
130 148 0
118 136 0
119 136 0
110 128 0
130 149 0
119 136 0
121 139 0
120 139 0
113 129 0
117 135 0
126 144 0
126 144 0
125 144 0
125 144 0
118 135 0
117 135 0
118 136 0
121 140 0
118 137 0
119 136 0
125 143 0
117 135 0
120 139 0
115 133 0
113 130 0
122 140 0
106 124 0
119 137 0
112 131 0
113 131 0
121 138 0
112 130 0
107 125 0
118 135 0
96 113 0
110 126 0
101 117 0
111 129 0
101 118 0
110 127 0
91 108 0
102 118 0
92 108 0
109 125 0
100 116 0
106 123 0
101 118 0
98 115 0
103 119 0
79 94 0
96 113 0
92 107 0
106 123 0
97 112 0
88 102 0
96 112 0
107 123 0
110 126 0
101 115 0
93 106 0
100 116 0
106 119 0
100 116 0
88 101 0
108 124 0
100 115 0
94 108 0
95 109 0
97 109 0
91 105 0
89 102 0
89 103 0
95 110 0
95 109 0
103 116 0
85 101 0
112 125 0
107 122 0
97 111 0
103 117 0
99 114 0
105 119 0
115 128 0
99 115 0
103 117 0
108 122 0
117 132 0
106 120 0
104 117 0
108 122 0
107 121 0
100 111 0
104 119 0
118 132 0
122 138 0
127 143 0
109 122 0
109 121 0
119 134 0
115 128 0
118 133 0
120 135 0
119 133 0
115 128 0
112 127 0
123 139 0
119 134 0
112 126 0
109 124 0
125 141 0
113 126 0
126 141 0
119 134 0
121 133 0
125 141 0
118 129 0
119 131 0
126 141 0
129 140 0
130 143 0
131 142 0
117 128 0
115 126 0
118 127 0
112 123 0
116 128 0
123 133 0
121 132 0
124 135 0
125 135 0
126 136 0
125 136 0
125 135 0
120 127 0
114 122 0
125 134 0
126 134 0
121 129 0
124 133 0
111 116 0
124 129 0
118 119 0
113 116 0
123 131 0
112 115 0
129 134 0
119 123 0
115 118 0
112 114 0
115 119 0
113 116 0
113 116 0
118 117 0
113 114 0
108 108 0
115 114 0
107 104 0
99 93 0
110 107 0
99 94 0
83 80 0
92 89 0
91 86 0
94 89 0
97 90 0
93 87 0
81 70 0
73 63 0
64 56 0
91 84 0
73 64 0
70 59 0
83 70 0
82 71 0
80 71 0
81 67 0
95 83 0
89 79 0
97 86 0
97 85 0
84 72 0
91 81 0
91 83 0
100 90 0
103 92 0
108 96 0
99 89 0
107 98 0
101 89 0
114 102 0
107 98 0
111 103 0
110 100 0
100 90 0
101 91 0
108 99 0
110 100 0
104 94 0
108 99 0
103 94 0
108 98 0
120 110 0
109 101 0
113 104 0
118 109 0
122 112 0
116 105 0
120 113 0
119 111 0
125 115 0
124 115 0
108 102 0
119 108 0
115 107 0
123 114 0
117 110 0
112 103 0
119 110 11
115 107 0
115 108 0
118 110 16
115 106 11
122 115 0
113 105 16
121 110 11
120 112 19
128 120 28
121 114 16
121 112 11
112 104 11
113 106 16
119 110 19
111 102 16
119 109 22
124 116 32
111 103 22
119 112 22
116 108 19
105 98 11
112 106 19
114 107 28
115 107 36
121 114 22
111 105 19
116 110 28
121 114 32
118 110 25
125 118 30
109 103 28
103 96 22
122 114 30
130 130 30
141 149 22
152 166 0
171 190 0
164 180 0
168 186 0
168 186 0
171 191 0
168 188 0
171 191 0
169 191 0
171 194 0
169 191 0
172 194 0
169 192 0
169 190 0
168 191 0
169 192 0
171 193 0
171 193 0
163 185 0
151 170 0
136 153 0
130 147 0
130 146 0
128 144 0
132 147 0
134 150 0
139 156 0
140 158 0
143 159 0
149 166 0
146 164 0
142 159 0
141 157 0
142 158 0
142 159 0
143 160 0
144 161 0
144 161 0
139 155 0
145 161 0
137 153 0
141 157 0
143 159 0
144 162 0
145 162 0
142 159 0
141 157 0
140 155 0
135 151 0
140 157 0
139 155 0
139 155 0
139 155 0
137 153 0
135 150 0
139 156 0
134 149 0
136 152 0
138 153 0
137 152 0
135 149 0
129 145 0
132 148 0
133 148 0
132 147 0
130 145 0
138 153 0
123 137 0
132 147 0
139 154 0
135 151 0
126 140 0
125 139 0
129 144 0
132 146 0
124 138 0
124 138 0
121 135 0
122 136 0
121 135 0
118 132 0
119 133 0
122 135 0
120 133 0
118 130 0
118 131 0
117 129 0
113 124 0
109 120 0
114 125 0
100 111 0
102 113 0
101 111 0
94 103 0
91 100 0
83 91 0
82 90 0
87 95 0
95 104 0
88 98 0
94 104 0
106 116 0
97 107 0
94 105 0
92 102 0
110 122 0
103 115 0
116 128 0
118 131 0
116 128 0
108 121 0
118 131 0
122 135 0
123 137 0
113 126 0
113 126 0
109 123 0
121 136 0
125 140 0
117 131 0
119 134 0
130 145 0
137 152 0
138 154 0
126 142 0
121 137 0
124 139 0
119 136 0
121 136 0
121 137 0
124 141 0
126 142 0
120 137 0
126 142 0
119 136 0
122 139 0
135 153 0
133 150 0
126 144 0
132 150 0
127 145 0
129 146 0
123 142 0
124 141 0
121 139 0
130 149 0
128 147 0
123 141 0
117 134 0
134 153 0
128 148 0
112 130 0
135 154 0
128 146 0
132 151 0
127 144 0
130 148 0
117 135 0
128 146 0
120 138 0
120 138 0
125 143 0
129 148 0
129 147 0
116 133 0
124 143 0
117 136 0
119 138 0
119 138 0
111 129 0
121 141 0
100 118 0
122 139 0
125 144 0
113 131 0
125 143 0
113 131 0
109 127 0
115 133 0
107 125 0
112 130 0
101 119 0
114 133 0
102 120 0
108 125 0
109 126 0
106 123 0
105 121 0
113 130 0
99 115 0
98 116 0
110 127 0
97 114 0
106 121 0
101 117 0
100 116 0
98 113 0
111 126 0
99 114 0
92 109 0
96 113 0
103 118 0
91 107 0
93 107 0
95 109 0
106 122 0
91 106 0
98 113 0
97 114 0
107 121 0
97 113 0
90 104 0
96 111 0
98 112 0
97 113 0
94 107 0
107 122 0
102 117 0
105 121 0
95 109 0
95 110 0
96 110 0
106 120 0
104 119 0
97 113 0
100 114 0
105 119 0
105 120 0
104 119 0
97 111 0
112 127 0
103 118 0
105 120 0
110 125 0
109 123 0
109 123 0
122 137 0
110 124 0
96 112 0
109 121 0
114 130 0
116 130 0
113 127 0
113 128 0
120 134 0
117 131 0
116 131 0
104 118 0
106 121 0
119 136 0
113 128 0
118 129 0
122 137 0
117 131 0
116 129 0
112 125 0
115 129 0
115 128 0
126 139 0
116 132 0
116 128 0
122 136 0
117 130 0
125 138 0
134 148 0
128 142 0
132 146 0
119 131 0
112 123 0
128 138 0
122 133 0
123 135 0
123 133 0
134 144 0
127 139 0
124 133 0
120 131 0
124 134 0
123 130 0
118 128 0
121 129 0
117 125 0
130 137 0
128 138 0
125 133 0
118 125 0
130 140 0
123 128 0
119 126 0
128 134 0
111 117 0
123 128 0
113 119 0
121 126 0
109 110 0
109 114 0
107 110 0
121 123 0
124 126 0
129 132 0
102 102 0
110 108 0
114 113 0
107 105 0
115 116 0
107 107 0
101 94 0
112 109 0
111 108 0
97 93 0
107 104 0
101 95 0
98 94 0
88 82 0
78 69 0
86 82 0
96 89 0
92 85 0
86 76 0
72 61 0
78 68 0
75 66 0
81 71 0
87 77 0
88 77 0
86 76 0
91 81 0
88 78 0
101 89 0
91 82 0
95 87 0
92 82 0
96 84 0
86 75 0
107 94 0
105 96 0
90 79 0
95 85 0
107 98 0
114 101 0
104 93 0
97 87 0
100 92 0
111 100 0
119 106 0
110 102 0
115 104 0
111 99 0
109 97 0
108 99 0
103 92 0
108 97 0
111 102 0
112 102 0
110 99 0
114 104 0
115 106 0
120 110 0
118 109 0
112 102 0
110 100 0
114 104 0
111 101 0
116 107 16
107 100 0
114 106 0
114 106 0
121 113 0
118 111 11
114 104 19
112 104 16
115 107 11
121 112 11
120 109 19
122 114 0
115 107 19
113 105 19
115 105 22
117 110 16
120 112 22
116 108 25
121 113 25
115 108 28
122 115 25
117 110 11
121 113 19
103 96 16
116 107 25
116 109 25
113 105 28
104 98 25
115 105 28
116 109 22
111 104 34
119 116 28
141 146 30
144 156 0
167 186 11
169 187 0
166 185 0
167 186 0
171 188 0
168 186 0
170 188 0
168 187 0
167 186 0
167 186 0
170 190 0
169 191 0
169 192 0
169 192 0
169 191 0
168 190 0
169 191 0
171 193 0
169 190 0
169 192 0
170 192 0
168 190 0
167 189 0
170 190 0
167 189 0
161 181 0
152 172 0
145 163 0
130 146 0
125 139 0
131 147 0
131 147 0
124 139 0
139 156 0
135 151 0
143 160 0
142 159 0
144 160 0
142 158 0
148 165 0
144 161 0
144 161 0
139 155 0
141 158 0
140 156 0
143 159 0
141 157 0
139 155 0
134 150 0
138 154 0
139 155 0
139 155 0
142 158 0
138 154 0
137 152 0
136 151 0
137 152 0
134 149 0
137 152 0
137 153 0
135 151 0
130 146 0
138 153 0
137 153 0
136 151 0
133 148 0
132 146 0
129 143 0
134 147 0
133 148 0
126 141 0
127 142 0
129 144 0
127 140 0
133 147 0
131 144 0
125 138 0
125 140 0
128 142 0
120 134 0
129 143 0
124 137 0
121 134 0
121 134 0
114 127 0
119 131 0
115 127 0
113 125 0
112 124 0
107 118 0
105 116 0
95 104 0
103 114 0
84 92 0
81 89 0
87 94 0
83 91 0
89 97 0
102 111 0
80 87 0
105 115 0
101 112 0
101 112 0
106 117 0
97 107 0
106 117 0
113 125 0
109 121 0
104 115 0
113 127 0
109 121 0
114 127 0
118 131 0
119 132 0
110 123 0
114 127 0
119 132 0
122 137 0
115 129 0
128 143 0
122 137 0
117 131 0
116 131 0
120 136 0
132 147 0
130 145 0
125 141 0
130 146 0
117 132 0
132 147 0
128 144 0
115 130 0
125 142 0
119 136 0
129 146 0
132 149 0
126 144 0
121 137 0
133 152 0
124 142 0
121 139 0
131 149 0
129 147 0
139 157 0
133 150 0
136 155 0
134 151 0
129 147 0
124 142 0
125 143 0
133 151 0
132 150 0
125 144 0
122 139 0
133 152 0
119 137 0
133 151 0
121 139 0
124 143 0
119 137 0
127 146 0
132 150 0
125 143 0
136 155 0
121 139 0
127 146 0
129 148 0
118 135 0
127 145 0
132 151 0
108 126 0
116 134 0
106 125 0
115 131 0
122 140 0
109 127 0
124 143 0
115 134 0
109 126 0
108 126 0
119 138 0
113 131 0
122 140 0
119 136 0
112 128 0
114 131 0
118 136 0
107 125 0
110 127 0
109 126 0
108 125 0
97 113 0
110 127 0
107 124 0
103 120 0
102 119 0
98 115 0
106 123 0
106 123 0
96 112 0
104 120 0
106 120 0
104 120 0
93 109 0
110 127 0
82 98 0
99 115 0
109 125 0
98 113 0
105 121 0
102 118 0
110 125 0
101 117 0
97 112 0
97 113 0
101 116 0
90 107 0
94 109 0
101 117 0
99 116 0
109 126 0
101 117 0
111 126 0
101 116 0
104 119 0
106 120 0
107 121 0
102 118 0
92 107 0
105 119 0
111 127 0
105 122 0
106 121 0
108 122 0
103 119 0
116 130 0
116 133 0
115 130 0
117 133 0
101 116 0
117 133 0
123 139 0
113 128 0
111 124 0
109 126 0
119 135 0
118 133 0
119 133 0
117 130 0
112 126 0
113 127 0
121 136 0
119 136 0
100 114 0
107 122 0
113 128 0
127 142 0
120 135 0
115 130 0
119 134 0
113 128 0
130 143 0
134 149 0
121 135 0
128 143 0
128 141 0
121 135 0
118 129 0
129 142 0
118 131 0
129 141 0
125 136 0
120 133 0
125 137 0
113 121 0
123 134 0
128 140 0
120 131 0
123 131 0
132 142 0
126 138 0
128 138 0
125 135 0
120 129 0
123 132 0
119 126 0
122 132 0
107 113 0
126 133 0
127 135 0
119 125 0
124 134 0
127 135 0
120 125 0
126 132 0
128 133 0
121 129 0
121 124 0
112 117 0
119 122 0
107 110 0
119 121 0
112 113 0
114 116 0
124 123 0
106 107 0
107 107 0
105 103 0
99 100 0
114 113 0
104 101 0
103 102 0
106 104 0
89 82 0
101 100 0
101 96 0
103 99 0
98 92 0
93 87 0
89 82 0
92 86 0
83 77 0
86 79 0
95 90 0
86 78 0
79 70 0
81 74 0
78 64 0
75 64 0
68 55 0
80 69 0
83 70 0
93 80 0
87 76 0
99 88 0
82 71 0
99 88 0
104 93 0
104 92 0
95 81 0
105 95 0
98 87 0
100 89 0
102 92 0
89 79 0
107 95 0
110 99 0
105 95 0
106 95 0
102 90 0
111 100 0
109 100 0
109 101 0
106 97 0
110 100 0
112 102 0
104 95 0
107 96 0
105 96 0
110 100 0
101 92 0
112 101 0
115 108 0
114 105 0
112 103 0
103 94 0
112 103 16
121 112 19
119 110 19
111 104 0
109 99 0
109 102 0
115 107 16
118 108 11
117 108 16
114 106 11
110 103 16
115 106 25
114 106 19
111 102 22
125 116 11
110 102 16
116 108 11
114 106 11
120 113 25
107 100 19
113 103 28
117 108 30
115 107 11
119 111 25
112 102 28
113 108 22
108 99 16
111 108 28
124 129 19
147 154 25
156 171 0
163 178 0
167 185 0
166 182 0
164 181 0
168 185 0
166 183 0
165 183 0
168 186 0
167 183 0
168 188 0
169 187 0
171 191 0
169 187 0
170 189 0
169 191 0
174 196 0
172 194 0
168 190 0
169 190 0
171 193 0
168 189 0
168 190 0
166 188 0
171 193 0
168 188 0
167 187 0
165 187 0
169 190 0
166 188 0
162 183 0
168 189 0
167 188 0
159 179 0
147 165 0
142 159 0
132 148 0
123 137 0
121 135 0
133 148 0
124 139 0
134 149 0
135 151 0
129 143 0
140 157 0
137 152 0
133 149 0
139 156 0
141 157 0
140 156 0
137 153 0
144 161 0
138 155 0
133 147 0
140 157 0
138 154 0
132 148 0
138 153 0
138 153 0
137 152 0
136 151 0
137 151 0
135 150 0
133 148 0
132 147 0
132 146 0
132 147 0
132 147 0
124 138 0
130 144 0
134 149 0
128 141 0
131 146 0
126 140 0
132 146 0
128 143 0
131 145 0
126 140 0
128 142 0
125 138 0
122 135 0
126 140 0
126 140 0
119 131 0
126 139 0
117 129 0
118 130 0
114 126 0
113 125 0
99 109 0
98 108 0
98 108 0
103 114 0
91 100 0
88 96 0
87 95 0
92 100 0
84 92 0
90 99 0
108 118 0
88 97 0
97 107 0
104 113 0
101 111 0
110 121 0
100 111 0
111 122 0
107 117 0
105 117 0
107 119 0
117 129 0
107 120 0
112 125 0
115 128 0
119 133 0
119 132 0
120 134 0
113 127 0
121 135 0
117 131 0
124 139 0
120 135 0
120 134 0
124 138 0
132 147 0
133 149 0
110 125 0
123 138 0
119 134 0
127 142 0
134 151 0
127 144 0
131 147 0
113 130 0
124 141 0
126 143 0
116 132 0
127 143 0
132 149 0
122 140 0
136 154 0
130 147 0
136 153 0
126 144 0
129 148 0
127 145 0
125 141 0
121 139 0
122 140 0
123 141 0
124 140 0
127 145 0
132 152 0
125 145 0
135 154 0
132 151 0
121 139 0
127 146 0
126 145 0
125 143 0
121 139 0
127 147 0
131 149 0
133 152 0
131 150 0
125 143 0
124 142 0
123 141 0
115 134 0
128 148 0
121 139 0
123 143 0
135 155 0
132 152 0
118 138 0
126 144 0
122 141 0
121 140 0
117 137 0
107 126 0
107 125 0
119 138 0
109 127 0
116 134 0
115 132 0
119 137 0
109 129 0
115 133 0
110 128 0
111 127 0
111 128 0
103 120 0
121 139 0
105 124 0
104 120 0
108 126 0
105 122 0
115 132 0
103 121 0
114 133 0
114 132 0
97 113 0
108 125 0
105 121 0
96 111 0
111 127 0
109 126 0
98 114 0
104 121 0
110 126 0
105 122 0
102 118 0
98 115 0
102 116 0
110 126 0
106 122 0
97 114 0
92 109 0
95 111 0
106 122 0
96 111 0
109 126 0
110 126 0
96 112 0
115 131 0
111 127 0
105 120 0
99 115 0
111 127 0
101 117 0
102 117 0
109 125 0
109 124 0
118 134 0
117 131 0
105 121 0
103 115 0
116 133 0
116 132 0
106 120 0
111 126 0
112 128 0
104 119 0
100 115 0
115 130 0
112 128 0
101 116 0
119 134 0
126 143 0
124 139 0
118 132 0
108 124 0
124 139 0
120 136 0
117 130 0
119 133 0
126 140 0
124 139 0
119 134 0
134 148 0
123 138 0
124 139 0
124 139 0
130 145 0
129 143 0
129 144 0
126 140 0
137 150 0
113 126 0
127 141 0
127 145 0
135 149 0
124 138 0
124 137 0
127 142 0
121 133 0
132 149 0
132 145 0
124 134 0
120 134 0
130 144 0
124 137 0
123 134 0
127 136 0
132 145 0
127 139 0
123 137 0
123 134 0
122 132 0
125 136 0
124 133 0
121 130 0
136 146 0
135 144 0
118 127 0
120 127 0
125 134 0
118 124 0
128 136 0
125 130 0
120 124 0
128 134 0
122 128 0
124 132 0
127 135 0
122 125 0
124 128 0
114 116 0
106 109 0
114 114 0
111 113 0
113 113 0
120 123 0
122 124 0
111 111 0
114 112 0
110 108 0
103 102 0
109 108 0
109 107 0
98 93 0
105 104 0
104 100 0
108 103 0
108 105 0
109 104 0
89 82 0
105 98 0
91 84 0
83 74 0
101 93 0
99 93 0
91 81 0
97 90 0
89 77 0
81 73 0
94 80 0
81 68 0
75 65 0
83 70 0
92 81 0
95 84 0
92 79 0
91 81 0
96 85 0
96 84 0
93 81 0
94 84 0
98 88 0
95 85 0
92 81 0
104 94 0
102 91 0
97 84 0
105 93 0
102 92 0
110 99 0
96 86 0
106 95 0
106 95 0
114 105 0
109 97 0
104 95 0
111 101 0
101 93 0
115 105 0
107 96 0
99 91 0
117 108 0
114 105 0
107 100 0
103 95 0
109 98 0
112 103 0
105 96 0
111 101 11
106 97 11
105 97 19
109 99 16
103 95 0
108 100 22
107 98 11
113 104 0
111 102 11
109 100 19
110 101 25
117 109 19
105 95 22
115 106 25
102 94 22
96 88 16
110 103 16
109 107 16
112 110 28
139 144 19
146 152 11
158 171 11
165 182 0
161 175 0
161 175 0
164 180 0
168 186 0
167 185 0
165 184 0
165 182 0
165 180 0
165 183 0
165 181 0
169 189 0
168 183 0
169 185 0
165 181 0
169 186 0
168 188 0
170 189 0
169 192 0
167 188 0
170 191 0
168 189 0
171 193 0
170 191 0
167 189 0
169 190 0
171 192 0
166 189 0
166 187 0
168 190 0
170 191 0
169 190 0
164 186 0
166 186 0
166 186 0
164 185 0
163 184 0
164 184 0
163 184 0
166 186 0
166 186 0
153 172 0
156 175 0
144 161 0
140 156 0
129 144 0
132 147 0
126 140 0
127 141 0
129 144 0
129 143 0
131 146 0
130 145 0
132 146 0
133 147 0
131 145 0
128 142 0
131 146 0
135 150 0
139 154 0
141 156 0
141 156 0
137 152 0
133 147 0
131 145 0
135 150 0
131 145 0
135 150 0
138 153 0
125 137 0
129 144 0
132 146 0
124 137 0
130 144 0
131 145 0
126 139 0
122 135 0
124 137 0
130 144 0
114 126 0
116 129 0
116 128 0
118 130 0
120 132 0
119 131 0
110 122 0
108 119 0
105 116 0
103 113 0
90 100 0
93 102 0
97 106 0
107 117 0
100 110 0
101 110 0
103 112 0
106 116 0
91 100 0
105 114 0
93 103 0
112 123 0
98 108 0
113 124 0
107 118 0
103 115 0
117 128 0
114 127 0
109 120 0
109 121 0
115 128 0
118 131 0
112 124 0
119 132 0
122 135 0
123 136 0
111 125 0
120 134 0
112 124 0
118 131 0
129 144 0
117 131 0
123 137 0
130 146 0
125 140 0
120 136 0
128 144 0
133 147 0
124 139 0
130 147 0
122 137 0
128 144 0
129 145 0
119 134 0
134 150 0
130 146 0
129 146 0
122 139 0
120 136 0
128 144 0
128 146 0
135 154 0
127 143 0
132 150 0
129 146 0
126 142 0
139 157 0
122 141 0
130 148 0
133 152 0
119 136 0
127 146 0
125 144 0
123 141 0
138 157 0
132 151 0
119 137 0
129 147 0
131 149 0
134 154 0
125 143 0
134 154 0
118 136 0
118 135 0
126 144 0
130 148 0
128 147 0
125 143 0
123 142 0
129 148 0
115 134 0
121 142 0
132 152 0
125 143 0
124 143 0
125 144 0
126 146 0
114 132 0
117 136 0
123 142 0
117 137 0
124 142 0
127 145 0
113 131 0
110 129 0
127 146 0
132 150 0
115 135 0
126 144 0
117 135 0
123 142 0
121 139 0
107 125 0
118 137 0
124 144 0
122 141 0
120 138 0
114 132 0
125 143 0
116 133 0
120 138 0
121 138 0
116 132 0
116 133 0
102 120 0
109 126 0
103 120 0
107 125 0
101 118 0
114 131 0
108 125 0
106 123 0
108 125 0
104 121 0
110 126 0
91 107 0
107 125 0
111 127 0
122 139 0
96 114 0
109 125 0
115 133 0
106 122 0
110 126 0
99 115 0
106 122 0
112 129 0
104 121 0
98 114 0
113 128 0
106 122 0
116 132 0
105 120 0
106 122 0
107 120 0
107 124 0
118 135 0
107 123 0
106 122 0
108 123 0
111 127 0
116 131 0
125 142 0
122 138 0
128 144 0
117 133 0
119 135 0
115 130 0
98 114 0
117 132 0
118 133 0
114 128 0
119 136 0
107 123 0
122 137 0
120 133 0
118 133 0
126 141 0
121 136 0
124 140 0
119 134 0
133 152 0
126 141 0
131 147 0
118 133 0
115 130 0
119 134 0
131 146 0
116 128 0
123 138 0
111 126 0
126 141 0
125 140 0
122 137 0
119 134 0
124 138 0
126 140 0
123 138 0
130 146 0
133 147 0
131 145 0
131 145 0
125 138 0
121 133 0
134 146 0
129 141 0
123 134 0
119 131 0
120 133 0
125 135 0
122 133 0
122 135 0
141 152 0
132 140 0
129 139 0
123 132 0
137 147 0
125 133 0
128 135 0
128 133 0
118 127 0
119 125 0
127 135 0
123 129 0
121 130 0
125 131 0
114 122 0
123 127 0
125 130 0
117 123 0
116 121 0
127 131 0
120 125 0
116 115 0
116 121 0
117 119 0
109 111 0
118 120 0
119 120 0
106 104 0
112 110 0
108 106 0
117 113 0
109 109 0
121 120 0
109 104 0
106 103 0
114 112 0
109 105 0
91 85 0
97 91 0
118 117 0
99 91 0
106 104 0
99 96 0
96 87 0
99 92 0
100 93 0
95 86 0
104 96 0
93 86 0
93 86 0
96 89 0
89 80 0
89 80 0
78 68 0
97 86 0
86 73 0
81 69 0
94 82 0
86 74 0
85 73 0
93 82 0
91 80 0
96 84 0
99 86 0
103 90 0
95 85 0
106 94 0
100 89 0
98 88 0
100 89 0
99 89 0
107 95 0
97 87 0
100 92 0
98 90 0
93 83 0
105 96 0
104 93 0
102 90 0
109 100 11
102 92 11
108 96 11
103 94 11
111 102 0
109 99 11
102 93 11
106 99 0
111 101 22
104 95 28
106 99 19
92 83 0
102 92 11
107 97 16
105 96 11
112 101 22
104 96 19
99 91 19
104 97 28
123 114 19
125 121 19
131 131 22
138 144 0
152 160 19
161 172 11
161 174 0
167 179 0
158 171 0
165 178 0
161 175 0
165 180 0
162 175 0
168 183 0
162 178 0
161 174 0
163 179 0
166 181 0
165 181 0
165 183 0
166 183 0
167 180 0
165 182 0
165 182 0
167 183 0
169 186 0
166 184 0
169 187 0
169 186 0
168 190 0
168 190 0
169 190 0
169 191 0
168 189 0
170 192 0
166 186 0
166 187 0
167 188 0
168 190 0
170 191 0
164 185 0
166 186 0
166 187 0
168 188 0
170 190 0
167 189 0
167 187 0
168 187 0
162 182 0
164 184 0
167 187 0
163 183 0
166 185 0
161 180 0
164 184 0
161 181 0
166 186 0
167 187 0
162 181 0
152 169 0
146 163 0
142 158 0
142 159 0
128 143 0
129 144 0
125 139 0
113 125 0
121 134 0
123 137 0
128 142 0
123 137 0
124 137 0
117 130 0
122 135 0
123 137 0
122 134 0
121 134 0
122 136 0
120 133 0
120 134 0
116 128 0
121 133 0
118 131 0
117 129 0
118 130 0
112 124 0
116 129 0
108 119 0
114 125 0
106 117 0
112 124 0
108 119 0
99 109 0
113 125 0
104 114 0
105 116 0
99 109 0
109 118 0
118 129 0
99 108 0
103 113 0
101 111 0
99 108 0
101 110 0
104 114 0
105 114 0
110 121 0
113 124 0
111 121 0
106 116 0
112 123 0
109 120 0
104 115 0
121 132 0
108 119 0
119 131 0
109 120 0
116 129 0
119 131 0
115 128 0
125 138 0
124 138 0
124 138 0
120 133 0
119 133 0
118 132 0
120 134 0
123 138 0
120 134 0
125 139 0
123 138 0
123 139 0
125 141 0
122 137 0
125 140 0
127 142 0
133 148 0
121 136 0
127 142 0
122 137 0
120 136 0
127 144 0
130 146 0
124 140 0
131 148 0
132 149 0
127 144 0
136 154 0
115 131 0
134 151 0
131 147 0
125 142 0
126 144 0
138 156 0
126 143 0
125 142 0
133 153 0
132 151 0
143 163 0
134 151 0
137 155 0
130 148 0
138 156 0
130 149 0
131 150 0
130 149 0
131 150 0
130 149 0
133 152 0
128 148 0
127 147 0
126 146 0
128 146 0
138 159 0
125 144 0
126 144 0
123 141 0
126 143 0
136 155 0
130 148 0
129 147 0
135 153 0
125 144 0
138 157 0
134 154 0
134 153 0
123 141 0
124 144 0
121 140 0
133 153 0
116 135 0
129 147 0
126 146 0
118 135 0
115 133 0
128 147 0
127 145 0
112 132 0
118 136 0
111 130 0
115 134 0
117 134 0
121 140 0
124 143 0
127 146 0
115 133 0
120 139 0
114 132 0
110 128 0
107 125 0
113 130 0
125 143 0
113 131 0
99 116 0
122 140 0
119 136 0
110 127 0
97 113 0
105 121 0
100 117 0
112 129 0
113 132 0
102 118 0
118 136 0
118 136 0
112 128 0
107 124 0
110 127 0
110 126 0
118 135 0
105 123 0
108 126 0
110 125 0
113 130 0
122 138 0
106 123 0
108 125 0
107 123 0
121 138 0
123 140 0
110 127 0
106 122 0
105 122 0
104 121 0
120 136 0
117 134 0
121 140 0
120 135 0
120 136 0
121 139 0
111 128 0
116 133 0
112 129 0
117 135 0
125 142 0
127 143 0
111 125 0
120 135 0
126 141 0
107 122 0
123 139 0
110 127 0
124 139 0
122 140 0
119 134 0
123 137 0
119 136 0
122 138 0
122 138 0
120 136 0
124 139 0
129 144 0
128 142 0
125 139 0
119 133 0
113 128 0
128 143 0
120 135 0
125 140 0
123 138 0
122 136 0
136 150 0
126 139 0
122 137 0
129 143 0
124 138 0
109 122 0
129 143 0
120 133 0
121 134 0
135 151 0
132 149 0
127 139 0
126 138 0
116 129 0
136 148 0
132 148 0
122 135 0
127 137 0
127 138 0
126 138 0
130 142 0
131 140 0
134 144 0
119 126 0
126 136 0
123 131 0
136 146 0
139 150 0
125 134 0
127 135 0
128 138 0
130 140 0
134 146 0
134 143 0
122 128 0
132 137 0
128 136 0
117 122 0
125 129 0
121 124 0
128 136 0
121 127 0
119 123 0
121 125 0
113 116 0
118 120 0
116 118 0
119 119 0
122 125 0
123 125 0
113 114 0
113 114 0
110 112 0
115 115 0
97 95 0
115 113 0
124 123 0
114 112 0
113 112 0
118 116 0
102 98 0
105 99 0
107 102 0
115 110 0
109 101 0
108 102 0
112 108 0
114 111 0
102 93 0
93 86 0
99 92 0
117 110 0
102 91 0
104 95 0
95 86 0
105 98 0
100 93 0
106 100 0
102 92 0
104 99 0
94 85 0
103 96 0
92 82 0
93 84 0
98 87 0
89 78 0
97 84 0
87 75 0
104 93 0
100 89 0
85 72 0
99 88 0
97 87 0
91 80 0
96 84 11
98 84 0
112 99 0
100 90 11
101 91 11
99 88 0
103 90 11
108 98 11
96 86 0
98 88 0
92 81 11
84 76 0
103 94 11
107 98 11
94 85 11
103 95 19
116 108 19
113 108 0
120 117 22
127 125 22
135 137 16
133 134 11
146 149 16
139 144 11
156 164 16
158 169 0
159 168 0
160 171 0
163 175 0
160 172 0
165 177 0
161 171 0
161 173 0
160 171 0
159 171 0
163 178 0
166 182 0
158 171 0
163 176 0
158 171 0
163 178 0
164 177 0
166 181 0
165 180 0
169 185 0
164 179 0
167 182 0
171 189 0
167 181 0
168 185 0
164 181 0
166 182 0
165 183 0
163 181 0
167 188 0
170 192 0
167 189 0
168 189 0
169 190 0
165 186 0
167 189 0
170 191 0
168 191 0
168 190 0
167 188 0
164 185 0
168 189 0
164 185 0
165 185 0
167 187 0
166 186 0
169 190 0
165 185 0
162 182 0
168 188 0
165 184 0
164 183 0
163 182 0
163 182 0
165 185 0
161 180 0
163 182 0
160 178 0
163 182 0
159 177 0
157 175 0
160 179 0
157 174 0
158 175 0
155 172 0
162 180 0
152 169 0
153 170 0
146 161 0
141 157 0
147 163 0
140 155 0
136 150 0
133 147 0
138 152 0
129 143 0
127 140 0
127 140 0
133 147 0
121 135 0
117 129 0
120 132 0
127 139 0
124 136 0
119 131 0
120 132 0
118 130 0
117 128 0
121 133 0
124 137 0
125 137 0
119 130 0
122 133 0
118 129 0
120 132 0
121 132 0
116 127 0
119 131 0
124 136 0
124 135 0
112 123 0
112 123 0
104 115 0
120 131 0
113 124 0
114 125 0
121 132 0
111 122 0
116 127 0
119 131 0
117 128 0
125 138 0
128 140 0
120 131 0
118 130 0
126 139 0
111 123 0
124 137 0
127 141 0
117 130 0
123 137 0
127 141 0
116 130 0
125 138 0
119 132 0
125 140 0
122 137 0
124 140 0
133 149 0
122 137 0
129 143 0
123 138 0
137 153 0
132 148 0
124 139 0
133 149 0
125 141 0
126 142 0
139 155 0
136 153 0
128 144 0
133 150 0
125 141 0
134 151 0
124 140 0
131 148 0
136 152 0
127 144 0
129 147 0
125 141 0
129 147 0
139 158 0
132 150 0
131 148 0
130 148 0
120 137 0
122 139 0
122 140 0
135 153 0
135 154 0
135 153 0
131 150 0
131 151 0
128 146 0
128 146 0
134 154 0
134 153 0
133 152 0
135 154 0
129 149 0
138 158 0
132 151 0
124 143 0
140 160 0
135 155 0
141 161 0
124 142 0
136 155 0
134 153 0
132 150 0
129 149 0
133 153 0
135 152 0
122 142 0
124 143 0
126 144 0
115 132 0
128 148 0
124 143 0
127 145 0
118 138 0
129 148 0
121 140 0
126 146 0
127 147 0
126 145 0
131 151 0
126 145 0
125 144 0
115 133 0
112 131 0
117 134 0
113 131 0
124 142 0
117 135 0
117 136 0
114 132 0
102 119 0
127 146 0
116 135 0
104 121 0
125 142 0
118 137 0
118 136 0
109 128 0
106 124 0
100 117 0
113 132 0
113 132 0
114 133 0
117 135 0
110 127 0
112 129 0
108 125 0
120 138 0
105 123 0
104 121 0
115 132 0
120 136 0
110 126 0
115 131 0
122 140 0
93 110 0
112 128 0
117 133 0
107 125 0
118 136 0
118 135 0
123 141 0
113 129 0
108 125 0
123 141 0
123 141 0
124 141 0
114 130 0
115 132 0
109 123 0
117 134 0
112 128 0
107 125 0
110 125 0
118 135 0
98 114 0
121 138 0
117 134 0
121 137 0
127 143 0
133 149 0
116 132 0
124 142 0
122 138 0
125 140 0
124 142 0
119 134 0
114 130 0
117 132 0
126 143 0
123 138 0
118 133 0
122 135 0
118 134 0
127 141 0
118 134 0
122 137 0
114 131 0
123 140 0
119 135 0
122 138 0
125 139 0
128 144 0
127 143 0
130 147 0
130 143 0
120 134 0
128 141 0
121 135 0
124 139 0
115 128 0
137 153 0
128 142 0
134 148 0
127 140 0
132 146 0
134 146 0
131 144 0
135 149 0
132 147 0
134 149 0
132 145 0
129 142 0
118 132 0
124 134 0
128 140 0
132 142 0
128 139 0
121 131 0
139 151 0
121 133 0
121 128 0
133 144 0
136 147 0
129 136 0
118 127 0
116 123 0
123 132 0
122 131 0
128 135 0
116 123 0
134 139 0
124 128 0
127 134 0
124 128 0
118 122 0
123 127 0
131 136 0
121 129 0
123 126 0
121 125 0
127 131 0
131 137 0
121 125 0
119 119 0
117 118 0
118 119 0
122 126 0
118 117 0
118 115 0
118 118 0
113 113 0
127 126 0
114 113 0
118 117 0
117 115 0
108 100 0
102 98 0
108 104 0
108 104 0
114 114 0
108 102 0
106 103 0
117 112 0
98 89 0
115 107 0
109 104 0
102 96 0
100 94 0
112 105 0
98 94 0
111 106 0
106 101 0
116 110 0
117 114 0
123 118 0
118 113 0
113 108 0
117 110 0
121 116 0
107 100 0
113 107 0
110 104 0
115 109 0
127 122 0
119 115 0
120 115 11
111 105 0
111 106 0
105 99 0
113 104 11
113 109 11
113 107 0
117 116 11
123 122 11
123 121 0
130 125 0
128 129 0
137 135 11
133 133 0
134 136 0
132 134 0
139 142 0
153 155 0
146 149 0
151 157 0
152 157 0
151 158 0
157 165 0
150 155 0
158 165 0
152 162 0
156 163 0
155 165 0
163 172 0
160 170 0
159 170 0
157 166 0
157 170 0
164 176 0
162 172 0
163 179 0
161 173 0
162 175 0
165 177 0
159 173 0
159 172 0
163 176 0
163 178 0
163 176 0
160 173 0
164 178 0
165 182 0
166 181 0
166 181 0
168 184 0
169 184 0
164 178 0
169 187 0
167 185 0
164 179 0
163 177 0
168 190 0
166 188 0
172 193 0
167 187 0
166 187 0
166 187 0
166 188 0
168 189 0
168 189 0
167 188 0
166 187 0
170 190 0
163 183 0
167 187 0
165 185 0
164 184 0
165 184 0
165 185 0
161 180 0
157 176 0
161 180 0
157 176 0
164 184 0
163 183 0
166 185 0
164 183 0
163 182 0
160 179 0
158 177 0
161 178 0
159 177 0
161 179 0
157 175 0
157 176 0
160 178 0
150 168 0
157 174 0
151 168 0
157 173 0
153 169 0
152 169 0
150 165 0
149 165 0
151 167 0
152 168 0
145 160 0
136 150 0
140 154 0
148 163 0
144 158 0
134 148 0
144 158 0
130 143 0
131 144 0
135 149 0
134 147 0
137 151 0
124 137 0
125 138 0
122 134 0
130 143 0
131 144 0
125 137 0
125 137 0
120 131 0
124 136 0
110 121 0
121 132 0
121 134 0
125 137 0
120 133 0
128 140 0
117 129 0
121 133 0
114 126 0
111 121 0
112 123 0
113 125 0
119 132 0
120 132 0
120 132 0
121 133 0
118 130 0
120 133 0
121 134 0
126 139 0
126 140 0
117 130 0
124 138 0
121 135 0
136 150 0
132 147 0
122 136 0
126 140 0
127 142 0
128 142 0
131 146 0
132 147 0
133 148 0
131 147 0
131 148 0
120 135 0
127 143 0
131 147 0
128 143 0
139 156 0
138 154 0
143 161 0
128 145 0
133 151 0
129 145 0
119 135 0
128 145 0
136 154 0
132 149 0
133 150 0
138 156 0
130 148 0
133 150 0
134 152 0
130 149 0
135 153 0
136 154 0
140 159 0
136 154 0
131 150 0
118 138 0
132 151 0
133 151 0
130 149 0
132 151 0
142 162 0
141 160 0
142 161 0
131 150 0
135 155 0
141 159 0
129 148 0
132 150 0
141 159 0
134 153 0
129 147 0
130 149 0
119 138 0
128 146 0
128 147 0
142 161 0
129 149 0
130 149 0
132 149 0
130 149 0
134 153 0
141 161 0
142 161 0
123 142 0
126 144 0
133 153 0
135 153 0
129 149 0
130 149 0
119 139 0
131 149 0
118 137 0
115 134 0
126 146 0
113 131 0
120 139 0
122 142 0
135 156 0
129 148 0
119 138 0
122 140 0
121 139 0
117 137 0
131 151 0
122 141 0
133 153 0
112 130 0
110 128 0
112 131 0
120 138 0
111 128 0
119 137 0
120 137 0
124 143 0
115 133 0
125 142 0
114 132 0
100 118 0
117 134 0
116 133 0
121 140 0
108 125 0
115 132 0
121 140 0
118 136 0
120 138 0
112 130 0
118 134 0
110 127 0
118 137 0
108 124 0
129 146 0
124 141 0
110 127 0
114 132 0
111 128 0
117 133 0
120 137 0
116 132 0
116 133 0
113 129 0
130 149 0
115 131 0
120 136 0
108 125 0
131 149 0
123 141 0
128 146 0
112 130 0
123 142 0
121 139 0
113 129 0
124 140 0
126 143 0
119 135 0
122 139 0
129 146 0
113 131 0
121 139 0
119 137 0
115 133 0
116 131 0
124 141 0
132 149 0
131 147 0
121 137 0
125 142 0
121 136 0
130 145 0
125 140 0
117 132 0
123 140 0
121 137 0
126 142 0
132 147 0
129 147 0
133 149 0
123 138 0
125 141 0
122 137 0
129 145 0
123 139 0
135 152 0
125 141 0
133 146 0
126 141 0
126 139 0
126 142 0
131 146 0
125 137 0
125 136 0
128 143 0
133 147 0
131 143 0
125 139 0
134 147 0
137 151 0
132 145 0
127 140 0
140 152 0
131 144 0
115 125 0
129 143 0
137 151 0
131 141 0
130 141 0
132 141 0
124 136 0
136 148 0
115 124 0
125 137 0
133 141 0
130 140 0
133 142 0
128 135 0
131 140 0
142 152 0
119 126 0
124 131 0
136 146 0
128 136 0
126 133 0
133 140 0
127 133 0
130 135 0
127 130 0
134 142 0
136 140 0
123 125 0
117 121 0
131 135 0
118 122 0
128 132 0
122 122 0
123 123 0
120 120 0
124 126 0
128 129 0
117 118 0
112 108 0
111 107 0
117 118 0
113 112 0
126 124 0
118 115 0
122 119 0
114 112 0
120 117 0
112 106 0
113 107 0
116 112 0
110 105 0
99 97 0
110 107 0
117 112 0
111 108 0
108 102 0
112 103 0
114 110 0
104 98 0
116 109 0
115 108 0
116 113 0
123 117 0
124 120 0
115 108 0
121 117 0
126 123 0
128 124 0
129 127 0
128 126 0
130 126 0
120 114 0
130 127 0
133 132 0
132 131 0
132 130 0
135 130 0
138 135 0
135 135 0
139 139 0
134 134 0
133 132 0
131 128 0
140 140 0
136 139 0
144 149 0
150 152 0
145 147 0
152 156 0
145 147 0
150 156 0
151 156 0
150 154 0
155 165 0
153 157 0
155 162 0
150 157 0
154 161 0
152 161 0
153 160 0
153 160 0
151 160 0
149 157 0
157 167 0
155 165 0
158 167 0
162 177 0
158 172 0
157 169 0
163 176 0
159 171 0
153 163 0
163 176 0
163 176 0
162 174 0
162 174 0
162 178 0
162 177 0
164 179 0
166 179 0
164 177 0
164 180 0
168 182 0
162 177 0
165 181 0
165 182 0
169 186 0
161 176 0
166 188 0
165 187 0
167 188 0
165 186 0
167 189 0
165 186 0
163 184 0
166 186 0
165 186 0
167 188 0
164 184 0
164 185 0
167 188 0
163 183 0
168 188 0
161 181 0
164 184 0
163 183 0
163 181 0
162 182 0
161 180 0
160 180 0
163 182 0
161 180 0
157 176 0
161 180 0
162 180 0
160 178 0
159 177 0
158 176 0
157 176 0
154 172 0
159 177 0
150 167 0
155 172 0
156 173 0
154 170 0
147 163 0
156 173 0
155 172 0
151 166 0
153 169 0
144 159 0
143 158 0
145 159 0
149 164 0
142 157 0
149 164 0
143 158 0
145 159 0
134 149 0
129 142 0
135 148 0
131 144 0
140 153 0
134 146 0
134 147 0
134 147 0
141 156 0
131 144 0
133 146 0
126 138 0
125 138 0
125 138 0
122 134 0
126 138 0
123 134 0
131 143 0
118 130 0
117 129 0
120 131 0
123 135 0
123 135 0
123 136 0
127 140 0
120 132 0
128 140 0
116 129 0
119 130 0
128 141 0
124 137 0
123 136 0
125 138 0
118 131 0
123 137 0
129 142 0
131 145 0
129 144 0
128 142 0
139 154 0
128 143 0
127 141 0
124 139 0
128 144 0
127 141 0
128 142 0
131 145 0
138 154 0
133 149 0
128 144 0
124 140 0
133 150 0
135 151 0
132 148 0
136 153 0
133 150 0
139 156 0
137 153 0
129 146 0
133 151 0
130 148 0
135 153 0
131 149 0
141 158 0
142 159 0
140 157 0
129 146 0
142 161 0
139 156 0
127 145 0
129 146 0
135 153 0
141 161 0
135 153 0
134 153 0
137 156 0
136 156 0
138 155 0
135 153 0
137 156 0
126 146 0
127 146 0
132 150 0
135 153 0
135 154 0
139 157 0
138 156 0
135 154 0
130 150 0
134 154 0
130 151 0
122 141 0
139 159 0
132 152 0
128 147 0
125 144 0
131 150 0
129 150 0
132 150 0
129 148 0
135 155 0
139 158 0
128 146 0
131 151 0
120 139 0
139 159 0
130 150 0
128 146 0
127 147 0
126 146 0
130 151 0
132 150 0
132 151 0
131 150 0
133 153 0
128 147 0
121 139 0
127 146 0
121 140 0
129 148 0
130 148 0
121 140 0
106 125 0
122 141 0
130 148 0
114 132 0
125 144 0
128 145 0
110 128 0
132 150 0
124 144 0
118 135 0
121 140 0
102 118 0
114 132 0
123 143 0
113 132 0
110 127 0
113 131 0
126 144 0
117 137 0
116 133 0
127 145 0
109 128 0
115 133 0
111 127 0
109 127 0
116 135 0
129 148 0
122 140 0
120 138 0
115 133 0
109 128 0
122 139 0
123 140 0
126 142 0
115 130 0
121 139 0
116 133 0
114 131 0
120 137 0
119 138 0
126 145 0
119 137 0
111 130 0
115 132 0
119 137 0
123 140 0
114 129 0
103 121 0
117 136 0
118 136 0
119 135 0
123 140 0
118 135 0
121 138 0
130 147 0
120 137 0
124 140 0
129 146 0
115 131 0
129 147 0
118 135 0
127 144 0
130 148 0
133 151 0
134 150 0
127 145 0
124 142 0
131 149 0
130 148 0
133 150 0
124 142 0
134 148 0
131 144 0
126 143 0
119 135 0
126 143 0
141 158 0
122 138 0
120 133 0
133 148 0
126 143 0
129 146 0
130 142 0
138 154 0
138 153 0
137 152 0
129 143 0
134 151 0
133 145 0
131 145 0
135 149 0
130 144 0
137 153 0
136 150 0
142 158 0
132 145 0
134 147 0
130 144 0
130 142 0
135 150 0
120 131 0
135 146 0
121 131 0
127 140 0
129 140 0
144 157 0
129 138 0
123 133 0
132 141 0
131 141 0
126 137 0
121 132 0
134 144 0
122 133 0
123 134 0
133 143 0
133 141 0
129 135 0
128 133 0
127 134 0
132 142 0
128 136 0
129 136 0
128 132 0
124 131 0
125 131 0
121 125 0
125 129 0
129 134 0
130 137 0
125 130 0
127 132 0
123 127 0
134 138 0
109 112 0
122 125 0
123 127 0
129 130 0
131 131 0
115 116 0
113 114 0
127 128 0
127 127 0
113 113 0
112 112 0
108 106 0
117 114 0
115 113 0
104 105 0
119 116 0
102 98 0
110 105 0
130 127 0
113 108 0
110 107 0
114 109 0
129 127 0
110 106 0
110 106 0
113 109 0
109 105 0
111 100 0
116 112 0
129 126 0
112 107 0
126 124 0
112 110 0
124 119 0
120 114 0
125 122 0
129 126 0
133 131 0
126 122 0
134 134 0
131 130 0
136 136 0
129 125 0
132 132 0
126 123 0
135 135 0
134 130 0
134 133 0
138 138 0
138 140 0
142 144 0
139 140 0
139 140 0
149 152 0
145 152 0
150 154 0
150 153 0
149 153 0
149 154 0
148 151 0
152 156 0
155 162 0
153 161 0
152 157 0
155 162 0
150 156 0
152 158 0
155 163 0
157 168 0
149 160 0
160 167 0
155 163 0
162 173 0
156 165 0
153 162 0
160 171 0
161 173 0
156 166 0
164 176 0
164 176 0
158 171 0
165 178 0
168 184 0
164 177 0
168 182 0
163 176 0
163 177 0
161 177 0
164 181 0
165 181 0
166 181 0
162 177 0
163 178 0
167 183 0
162 183 0
167 189 0
168 190 0
164 184 0
168 189 0
168 189 0
167 188 0
167 187 0
164 185 0
168 188 0
166 186 0
164 183 0
165 185 0
163 183 0
165 184 0
164 184 0
159 178 0
159 179 0
164 183 0
164 184 0
162 180 0
162 180 0
159 178 0
162 181 0
160 179 0
157 175 0
161 180 0
155 173 0
157 175 0
157 175 0
155 172 0
158 175 0
156 173 0
160 178 0
158 176 0
153 171 0
154 171 0
152 169 0
145 161 0
146 162 0
146 162 0
148 165 0
141 156 0
151 167 0
148 163 0
144 158 0
143 159 0
142 157 0
140 154 0
134 148 0
133 147 0
141 155 0
136 149 0
131 144 0
136 150 0
136 149 0
126 139 0
133 146 0
130 142 0
132 145 0
130 142 0
128 141 0
128 140 0
125 138 0
135 148 0
131 145 0
128 141 0
133 146 0
115 126 0
131 144 0
131 144 0
125 137 0
125 138 0
134 147 0
124 137 0
130 143 0
130 143 0
126 140 0
126 139 0
129 142 0
123 135 0
126 138 0
133 147 0
129 143 0
130 145 0
124 139 0
131 145 0
131 145 0
129 142 0
135 150 0
131 145 0
125 139 0
133 149 0
127 143 0
129 144 0
134 148 0
131 146 0
130 145 0
126 141 0
137 153 0
132 148 0
134 151 0
130 146 0
132 149 0
142 160 0
143 161 0
133 150 0
137 155 0
130 147 0
142 160 0
128 145 0
127 145 0
137 155 0
137 155 0
136 154 0
141 161 0
133 152 0
141 160 0
138 156 0
141 160 0
137 156 0
134 153 0
128 146 0
127 145 0
133 151 0
130 149 0
131 150 0
133 153 0
136 155 0
137 155 0
135 154 0
136 156 0
136 156 0
133 152 0
132 150 0
129 148 0
139 159 0
131 148 0
128 147 0
137 157 0
128 147 0
140 160 0
135 155 0
133 152 0
130 149 0
129 150 0
130 148 0
138 159 0
125 144 0
135 156 0
127 147 0
128 148 0
130 150 0
128 148 0
125 145 0
114 133 0
129 149 0
127 147 0
128 147 0
138 158 0
133 153 0
130 150 0
127 147 0
135 154 0
127 146 0
130 151 0
124 143 0
120 138 0
135 156 0
126 145 0
122 142 0
119 138 0
125 143 0
129 148 0
126 146 0
124 143 0
119 138 0
128 146 0
127 145 0
122 142 0
120 139 0
116 134 0
119 139 0
119 138 0
120 138 0
114 133 0
125 144 0
115 132 0
127 145 0
120 139 0
123 142 0
119 137 0
117 135 0
120 138 0
127 146 0
116 135 0
133 151 0
123 141 0
117 134 0
123 143 0
116 135 0
128 146 0
129 145 0
110 127 0
121 140 0
122 139 0
130 149 0
119 138 0
135 152 0
119 138 0
119 137 0
133 150 0
132 150 0
127 143 0
111 129 0
117 134 0
125 144 0
123 137 0
138 156 0
112 131 0
108 126 0
128 147 0
119 136 0
121 138 0
125 142 0
122 140 0
124 141 0
121 137 0
128 147 0
117 133 0
127 145 0
135 150 0
118 134 0
122 139 0
120 137 0
129 147 0
131 147 0
120 136 0
135 152 0
126 143 0
132 149 0
129 144 0
120 136 0
126 144 0
136 152 0
108 124 0
127 142 0
123 138 0
132 148 0
132 148 0
136 152 0
123 140 0
128 143 0
130 147 0
128 146 0
131 146 0
117 133 0
131 145 0
126 144 0
126 137 0
133 148 0
127 138 0
138 153 0
136 148 0
122 138 0
125 140 0
134 149 0
119 132 0
137 151 0
125 139 0
130 143 0
130 143 0
130 144 0
141 154 0
130 143 0
131 144 0
135 150 0
121 131 0
134 147 0
126 138 0
127 137 0
125 135 0
127 140 0
130 139 0
130 140 0
121 130 0
135 146 0
135 144 0
133 144 0
132 140 0
137 147 0
121 128 0
127 137 0
122 131 0
115 121 0
123 131 0
124 131 0
132 141 0
125 130 0
134 140 0
127 129 0
128 135 0
122 124 0
119 122 0
122 126 0
135 139 0
124 127 0
115 117 0
122 124 0
121 121 0
121 121 0
126 126 0
118 119 0
124 126 0
125 126 0
129 130 0
127 125 0
135 139 0
126 126 0
122 120 0
117 117 0
119 117 0
114 113 0
124 120 0
123 122 0
118 113 0
123 120 0
119 119 0
118 117 0
122 121 0
122 120 0
113 110 0
115 112 0
118 114 0
121 118 0
115 111 0
120 115 0
119 114 0
127 121 0
134 134 0
132 130 0
128 124 0
121 116 0
123 120 0
127 125 0
133 130 0
130 127 0
121 113 0
135 131 0
129 127 0
124 123 0
137 136 0
146 147 0
141 142 0
141 140 0
145 144 0
141 138 0
138 139 0
142 146 0
138 138 0
137 138 0
140 143 0
144 147 0
142 146 0
144 147 0
147 150 0
146 150 0
152 158 0
151 156 0
157 164 0
156 164 0
152 161 0
152 161 0
152 159 0
156 165 0
160 170 0
159 170 0
156 166 0
157 167 0
159 168 0
161 171 0
157 167 0
160 171 0
155 168 0
159 171 0
160 174 0
158 170 0
166 179 0
162 175 0
163 176 0
161 172 0
163 176 0
158 169 0
160 174 0
163 178 0
161 173 0
164 179 0
166 182 0
163 178 0
169 184 0
167 187 0
161 182 0
166 187 0
167 189 0
166 186 0
167 187 0
165 186 0
158 177 0
167 187 0
164 185 0
165 185 0
165 185 0
165 185 0
163 183 0
164 183 0
166 186 0
162 181 0
162 181 0
158 176 0
164 183 0
163 182 0
162 181 0
163 182 0
159 177 0
159 177 0
158 177 0
154 173 0
157 174 0
158 176 0
157 174 0
160 177 0
157 175 0
156 173 0
159 176 0
148 165 0
152 168 0
153 169 0
150 166 0
149 164 0
152 168 0
147 163 0
151 168 0
141 156 0
144 159 0
144 160 0
153 168 0
145 159 0
142 157 0
150 166 0
138 152 0
135 149 0
144 158 0
134 149 0
132 146 0
126 139 0
138 152 0
142 155 0
137 151 0
130 143 0
132 146 0
131 145 0
130 144 0
130 143 0
134 148 0
122 135 0
122 135 0
125 138 0
131 145 0
134 147 0
131 144 0
132 146 0
126 139 0
126 139 0
128 142 0
134 147 0
131 144 0
135 150 0
133 148 0
136 149 0
128 142 0
134 149 0
135 150 0
127 141 0
135 149 0
126 141 0
133 148 0
133 149 0
125 140 0
130 145 0
139 155 0
129 144 0
133 149 0
132 147 0
137 154 0
144 161 0
139 155 0
124 140 0
142 159 0
133 151 0
126 142 0
136 152 0
126 143 0
127 144 0
132 149 0
144 161 0
135 153 0
143 160 0
130 147 0
132 149 0
140 158 0
138 156 0
134 151 0
133 149 0
140 158 0
137 155 0
137 155 0
134 152 0
133 151 0
141 160 0
132 150 0
131 149 0
139 156 0
146 165 0
133 152 0
140 159 0
134 152 0
131 150 0
131 150 0
141 160 0
135 154 0
133 153 0
132 151 0
138 157 0
129 148 0
138 157 0
134 153 0
134 153 0
131 151 0
138 156 0
140 159 0
129 149 0
137 157 0
128 147 0
140 160 0
128 147 0
129 149 0
139 160 0
129 149 0
128 147 0
135 153 0
130 150 0
133 153 0
136 156 0
125 147 0
135 156 0
129 149 0
133 153 0
136 156 0
112 132 0
128 147 0
127 148 0
126 146 0
130 149 0
143 163 0
124 144 0
133 152 0
119 139 0
128 147 0
125 143 0
131 150 0
129 148 0
123 142 0
129 148 0
127 145 0
125 146 0
132 152 0
125 144 0
114 133 0
124 143 0
138 156 0
130 149 0
129 148 0
116 135 0
133 152 0
118 136 0
116 134 0
126 146 0
124 142 0
125 143 0
123 142 0
123 143 0
114 134 0
117 135 0
126 144 0
112 130 0
130 149 0
120 139 0
121 139 0
119 138 0
123 141 0
120 138 0
122 140 0
130 149 0
117 135 0
122 141 0
119 135 0
118 136 0
128 148 0
123 140 0
119 138 0
121 139 0
122 141 0
119 136 0
129 146 0
126 144 0
128 146 0
120 138 0
116 132 0
121 139 0
123 143 0
125 142 0
130 149 0
125 143 0
125 141 0
122 139 0
123 141 0
121 139 0
116 130 0
125 142 0
134 151 0
130 148 0
126 144 0
129 148 0
126 142 0
124 144 0
119 135 0
124 140 0
125 141 0
119 137 0
125 143 0
134 149 0
123 140 0
133 150 0
119 136 0
122 140 0
132 149 0
139 158 0
128 144 0
126 144 0
130 146 0
128 144 0
129 147 0
121 135 0
129 146 0
130 147 0
137 154 0
136 152 0
131 146 0
128 142 0
123 140 0
123 138 0
124 137 0
136 152 0
133 151 0
133 149 0
135 151 0
143 158 0
138 153 0
136 150 0
139 154 0
136 150 0
134 147 0
133 145 0
131 142 0
135 149 0
142 155 0
137 146 0
139 150 0
131 144 0
139 153 0
132 144 0
132 142 0
139 151 0
135 145 0
127 135 0
134 142 0
134 147 0
127 137 0
126 136 0
132 143 0
132 141 0
134 142 0
134 144 0
132 143 0
138 146 0
133 140 0
133 141 0
133 142 0
129 139 0
128 137 0
132 138 0
127 133 0
131 133 0
134 139 0
122 123 0
130 135 0
122 126 0
125 128 0
124 127 0
136 140 0
131 135 0
132 135 0
131 134 0
130 133 0
128 129 0
126 126 0
125 126 0
124 125 0
126 128 0
125 125 0
132 132 0
116 115 0
123 123 0
124 121 0
125 121 0
125 121 0
122 124 0
114 110 0
124 119 0
122 121 0
122 120 0
123 121 0
126 124 0
123 122 0
127 124 0
132 129 0
114 107 0
124 122 0
128 126 0
114 109 0
130 126 0
125 123 0
122 116 0
129 130 0
128 126 0
138 135 0
126 124 0
134 134 0
135 134 0
140 141 0
137 133 0
129 126 0
127 127 0
133 131 0
137 138 0
141 144 0
137 137 0
143 147 0
136 139 0
139 136 0
143 145 0
148 151 0
145 147 0
141 145 0
153 161 0
147 152 0
149 155 0
150 156 0
149 153 0
155 162 0
153 157 0
152 159 0
148 153 0
147 153 0
157 166 0
156 164 0
160 168 0
155 163 0
156 164 0
155 162 0
159 171 0
154 163 0
162 173 0
160 169 0
163 177 0
161 175 0
154 165 0
161 171 0
158 169 0
159 170 0
161 173 0
162 175 0
163 173 0
158 171 0
162 174 0
158 169 0
161 175 0
164 180 0
166 181 0
164 178 0
163 183 0
168 188 0
166 187 0
167 188 0
170 191 0
166 188 0
165 186 0
166 186 0
163 184 0
163 184 0
167 187 0
160 179 0
162 182 0
160 181 0
162 182 0
160 180 0
159 178 0
159 177 0
164 183 0
161 180 0
157 176 0
156 173 0
160 179 0
159 177 0
155 173 0
163 181 0
157 175 0
157 175 0
155 172 0
152 170 0
150 166 0
152 169 0
154 172 0
155 171 0
155 172 0
149 167 0
153 170 0
147 161 0
147 163 0
148 163 0
148 163 0
147 163 0
151 167 0
146 161 0
146 161 0
142 157 0
147 162 0
139 154 0
131 145 0
142 157 0
145 160 0
140 154 0
139 152 0
140 155 0
136 150 0
135 148 0
135 149 0
139 153 0
139 153 0
135 149 0
129 143 0
129 143 0
135 149 0
133 146 0
132 146 0
136 150 0
137 152 0
129 142 0
137 151 0
135 148 0
135 149 0
125 138 0
135 150 0
136 150 0
134 148 0
127 140 0
122 136 0
133 147 0
128 143 0
129 144 0
144 159 0
137 152 0
136 151 0
125 140 0
132 146 0
136 152 0
134 150 0
129 144 0
142 159 0
133 148 0
129 144 0
135 152 0
136 153 0
135 153 0
127 143 0
132 148 0
134 152 0
136 153 0
143 160 0
130 146 0
139 158 0
139 157 0
138 154 0
136 153 0
138 155 0
137 155 0
144 162 0
137 155 0
132 149 0
141 160 0
139 156 0
147 166 0
128 146 0
131 148 0
143 162 0
138 156 0
146 165 0
134 153 0
133 152 0
129 148 0
135 154 0
141 160 0
131 150 0
138 157 0
136 156 0
137 157 0
137 156 0
130 149 0
136 155 0
132 151 0
130 149 0
135 155 0
139 159 0
134 151 0
133 152 0
126 145 0
141 161 0
141 161 0
138 158 0
134 155 0
136 157 0
139 159 0
137 156 0
138 158 0
136 156 0
134 154 0
128 147 0
135 154 0
140 159 0
130 150 0
127 147 0
132 152 0
128 147 0
131 150 0
129 148 0
123 142 0
134 153 0
122 141 0
128 147 0
142 162 0
124 145 0
126 147 0
128 147 0
127 146 0
129 148 0
133 152 0
130 151 0
126 146 0
130 150 0
130 148 0
134 154 0
132 152 0
119 138 0
127 146 0
129 149 0
129 150 0
116 134 0
133 152 0
126 146 0
121 140 0
127 146 0
121 140 0
129 150 0
126 145 0
129 147 0
115 134 0
125 144 0
132 151 0
123 143 0
117 136 0
127 146 0
124 143 0
121 141 0
114 133 0
118 138 0
127 147 0
127 146 0
115 134 0
115 134 0
124 144 0
122 142 0
130 149 0
123 143 0
123 140 0
120 139 0
127 145 0
128 147 0
123 142 0
116 134 0
122 139 0
123 142 0
124 141 0
125 143 0
120 137 0
116 133 0
127 146 0
133 151 0
138 156 0
113 132 0
107 124 0
121 140 0
126 144 0
126 144 0
117 135 0
121 138 0
118 135 0
132 149 0
125 143 0
133 150 0
129 147 0
133 151 0
124 142 0
131 150 0
130 148 0
120 137 0
144 163 0
129 146 0
122 139 0
132 149 0
117 135 0
134 151 0
121 138 0
135 154 0
123 139 0
130 149 0
119 135 0
136 153 0
135 151 0
125 141 0
124 141 0
142 159 0
131 147 0
135 153 0
136 153 0
139 155 0
139 157 0
122 139 0
129 142 0
140 154 0
131 146 0
139 155 0
138 153 0
133 150 0
134 150 0
135 151 0
134 148 0
140 157 0
136 149 0
131 146 0
136 151 0
141 157 0
138 151 0
131 146 0
135 148 0
136 147 0
134 149 0
134 149 0
135 147 0
136 151 0
141 155 0
135 148 0
130 142 0
141 153 0
137 148 0
140 153 0
138 149 0
126 136 0
139 150 0
128 143 0
126 136 0
124 134 0
140 150 0
130 137 0
136 146 0
136 146 0
127 134 0
130 138 0
131 136 0
141 148 0
132 141 0
124 131 0
131 138 0
131 134 0
130 137 0
130 139 0
132 139 0
131 135 0
138 140 0
132 136 0
129 133 0
128 132 0
130 137 0
124 124 0
122 125 0
131 134 0
132 133 0
127 131 0
121 122 0
124 126 0
127 127 0
122 121 0
131 133 0
129 127 0
123 122 0
124 125 0
113 110 0
124 122 0
121 119 0
121 119 0
129 126 0
119 118 0
128 126 0
124 124 0
128 128 0
123 121 0
124 120 0
124 121 0
127 126 0
122 119 0
126 123 0
132 128 0
123 120 0
133 131 0
126 124 0
132 130 0
129 126 0
139 138 0
138 137 0
131 132 0
131 128 0
137 136 0
125 125 0
130 128 0
139 139 0
140 139 0
126 126 0
143 142 0
146 150 0
141 144 0
138 142 0
153 155 0
141 140 0
146 147 0
149 153 0
148 150 0
145 150 0
151 154 0
152 159 0
146 151 0
147 152 0
150 154 0
149 156 0
149 153 0
153 162 0
151 160 0
149 154 0
157 165 0
152 158 0
158 169 0
154 162 0
159 169 0
154 163 0
160 169 0
162 170 0
156 165 0
158 171 0
156 165 0
162 174 0
161 172 0
154 166 0
157 168 0
156 167 0
161 173 0
157 170 0
163 179 0
158 171 0
162 176 0
161 173 0
163 176 0
158 173 0
167 186 0
165 185 0
163 183 0
166 186 0
164 184 0
164 185 0
165 185 0
163 183 0
163 182 0
166 185 0
165 185 0
161 180 0
164 184 0
160 178 0
158 177 0
160 179 0
159 179 0
164 183 0
163 182 0
156 174 0
154 172 0
159 177 0
158 176 0
162 181 0
158 175 0
155 173 0
160 177 0
158 176 0
154 171 0
158 175 0
157 174 0
155 172 0
152 168 0
158 176 0
147 163 0
153 169 0
144 160 0
148 165 0
156 172 0
155 171 0
148 164 0
144 160 0
143 158 0
146 161 0
144 159 0
150 165 0
143 158 0
137 152 0
144 159 0
138 152 0
148 163 0
142 156 0
143 157 0
144 158 0
134 148 0
138 152 0
141 156 0
133 146 0
130 144 0
139 154 0
141 156 0
137 151 0
139 152 0
128 142 0
125 138 0
143 158 0
136 150 0
130 144 0
133 147 0
137 152 0
133 147 0
134 148 0
135 149 0
144 159 0
130 145 0
136 150 0
134 150 0
138 153 0
134 148 0
138 154 0
133 148 0
132 147 0
140 155 0
138 153 0
141 157 0
141 157 0
138 154 0
126 142 0
141 157 0
136 153 0
143 160 0
139 157 0
138 155 0
145 162 0
123 141 0
141 159 0
139 155 0
135 152 0
140 158 0
140 157 0
129 146 0
136 153 0
135 152 0
143 161 0
145 163 0
136 154 0
140 158 0
133 150 0
136 155 0
136 155 0
124 142 0
139 157 0
140 157 0
137 156 0
132 151 0
146 165 0
135 154 0
140 159 0
140 159 0
144 164 0
143 163 0
135 153 0
140 158 0
133 153 0
148 166 0
129 149 0
132 151 0
138 158 0
127 146 0
150 170 0
142 162 0
124 143 0
132 152 0
139 159 0
139 158 0
139 159 0
138 157 0
135 155 0
144 165 0
131 150 0
136 155 0
128 148 0
142 162 0
132 153 0
134 154 0
140 161 0
134 154 0
135 155 0
138 158 0
139 160 0
126 147 0
141 161 0
137 157 0
135 155 0
124 144 0
129 149 0
129 149 0
132 153 0
134 154 0
127 147 0
132 151 0
120 140 0
133 153 0
128 146 0
129 149 0
137 157 0
110 130 0
130 150 0
129 147 0
128 147 0
126 146 0
130 149 0
119 139 0
130 148 0
125 145 0
129 149 0
124 143 0
131 149 0
124 142 0
123 142 0
122 142 0
120 139 0
128 147 0
125 145 0
123 142 0
128 148 0
126 146 0
116 135 0
134 154 0
117 135 0
132 152 0
121 140 0
121 140 0
123 143 0
137 156 0
123 143 0
113 132 0
121 140 0
127 144 0
130 149 0
127 145 0
115 133 0
131 150 0
123 141 0
128 147 0
127 145 0
129 147 0
123 142 0
111 129 0
123 142 0
114 133 0
118 136 0
125 145 0
125 144 0
121 138 0
112 130 0
130 149 0
131 149 0
122 141 0
130 147 0
124 142 0
113 130 0
132 149 0
127 143 0
121 137 0
128 148 0
128 144 0
131 150 0
139 157 0
131 149 0
131 148 0
130 149 0
137 155 0
139 156 0
136 153 0
129 146 0
129 146 0
138 157 0
135 152 0
133 150 0
133 151 0
130 147 0
127 145 0
132 149 0
127 143 0
124 142 0
143 161 0
136 152 0
126 143 0
137 155 0
134 150 0
128 143 0
144 161 0
128 145 0
129 146 0
126 143 0
138 155 0
136 151 0
135 152 0
145 161 0
137 152 0
133 148 0
131 146 0
129 145 0
140 155 0
136 152 0
139 154 0
135 152 0
135 149 0
136 151 0
135 149 0
139 154 0
140 155 0
129 143 0
134 147 0
138 150 0
138 151 0
131 145 0
127 139 0
140 154 0
139 149 0
133 144 0
129 140 0
138 151 0
140 151 0
136 147 0
135 148 0
138 150 0
140 152 0
144 153 0
131 143 0
129 139 0
136 146 0
143 153 0
131 138 0
129 137 0
130 138 0
128 138 0
135 142 0
136 144 0
133 143 0
126 134 0
129 137 0
129 138 0
135 143 0
140 147 0
129 133 0
131 135 0
130 136 0
129 132 0
129 134 0
136 142 0
138 143 0
129 135 0
131 136 0
129 135 0
127 131 0
127 127 0
134 137 0
129 131 0
125 130 0
127 129 0
129 131 0
124 122 0
123 122 0
133 137 0
132 135 0
123 122 0
123 122 0
129 126 0
134 134 0
141 143 0
129 125 0
121 116 0
121 119 0
131 131 0
125 128 0
130 127 0
137 137 0
130 126 0
128 128 0
135 135 0
126 125 0
135 135 0
132 132 0
138 139 0
136 133 0
133 132 0
134 134 0
131 131 0
132 134 0
138 136 0
141 142 0
138 138 0
139 138 0
141 140 0
144 148 0
128 128 0
146 149 0
145 149 0
149 152 0
140 144 0
146 148 0
147 151 0
144 150 0
144 145 0
144 148 0
147 154 0
147 152 0
151 156 0
155 162 0
154 160 0
150 155 0
151 159 0
153 159 0
149 153 0
149 155 0
153 160 0
151 156 0
156 165 0
162 172 0
150 159 0
158 168 0
151 159 0
158 169 0
159 168 0
158 169 0
158 167 0
157 167 0
161 172 0
160 169 0
158 170 0
158 172 0
163 176 0
160 171 0
162 175 0
161 175 0
163 178 0
165 178 0
167 182 0
165 185 0
165 186 0
162 182 0
166 186 0
167 187 0
167 187 0
163 183 0
164 184 0
162 182 0
164 183 0
163 182 0
160 178 0
160 178 0
159 178 0
159 177 0
159 178 0
161 180 0
159 178 0
160 178 0
155 173 0
155 173 0
160 179 0
159 178 0
160 177 0
154 172 0
151 168 0
159 176 0
161 179 0
154 172 0
163 181 0
155 172 0
157 172 0
152 170 0
145 162 0
151 168 0
146 162 0
156 173 0
152 168 0
149 165 0
143 159 0
150 165 0
151 167 0
148 164 0
150 165 0
139 155 0
145 161 0
149 163 0
144 159 0
144 160 0
149 164 0
142 157 0
132 146 0
136 150 0
143 157 0
144 159 0
143 158 0
135 150 0
137 151 0
141 156 0
141 155 0
135 150 0
143 158 0
134 148 0
137 152 0
137 152 0
133 148 0
131 144 0
143 158 0
131 145 0
135 150 0
139 153 0
133 148 0
139 155 0
140 155 0
142 158 0
135 150 0
135 150 0
130 144 0
132 147 0
127 142 0
141 156 0
138 154 0
138 154 0
133 149 0
133 149 0
138 154 0
140 156 0
142 158 0
132 150 0
136 152 0
135 152 0
139 156 0
140 157 0
138 155 0
131 147 0
138 155 0
135 152 0
143 161 0
141 159 0
134 152 0
139 156 0
142 160 0
137 154 0
128 146 0
136 154 0
134 150 0
142 160 0
139 158 0
142 161 0
148 167 0
137 155 0
135 154 0
139 157 0
143 161 0
141 159 0
134 153 0
136 155 0
133 153 0
141 160 0
142 160 0
139 159 0
141 161 0
135 155 0
141 160 0
134 154 0
142 161 0
136 156 0
140 160 0
130 149 0
126 144 0
134 152 0
130 148 0
132 151 0
139 159 0
128 147 0
138 158 0
139 161 0
148 168 0
138 158 0
134 153 0
137 157 0
138 157 0
135 155 0
141 161 0
137 158 0
134 155 0
135 155 0
135 155 0
146 166 0
138 157 0
137 156 0
133 152 0
131 151 0
131 152 0
133 153 0
128 148 0
135 155 0
133 154 0
142 162 0
134 152 0
130 149 0
129 149 0
136 156 0
137 157 0
122 141 0
133 152 0
138 157 0
124 144 0
140 159 0
133 152 0
129 149 0
125 145 0
137 155 0
125 144 0
125 145 0
119 137 0
124 144 0
131 151 0
131 150 0
124 144 0
121 140 0
115 136 0
123 142 0
128 149 0
134 155 0
134 154 0
121 140 0
128 148 0
135 155 0
129 146 0
126 145 0
130 150 0
128 146 0
133 151 0
131 150 0
132 153 0
120 139 0
126 144 0
127 146 0
128 146 0
121 140 0
135 154 0
121 139 0
127 145 0
116 135 0
136 155 0
125 143 0
121 140 0
124 142 0
134 153 0
133 151 0
125 144 0
125 144 0
134 153 0
127 146 0
129 148 0
127 145 0
129 147 0
127 144 0
126 144 0
126 145 0
120 139 0
129 146 0
129 146 0
125 143 0
131 150 0
132 149 0
138 156 0
128 145 0
132 150 0
125 143 0
121 138 0
122 140 0
126 143 0
130 148 0
131 149 0
133 151 0
127 145 0
133 151 0
123 138 0
135 152 0
133 148 0
135 154 0
134 150 0
130 148 0
129 146 0
137 153 0
132 148 0
133 149 0
139 155 0
125 140 0
136 153 0
139 155 0
122 138 0
131 144 0
133 150 0
137 153 0
128 143 0
130 145 0
140 157 0
143 157 0
140 156 0
132 148 0
135 149 0
131 148 0
139 154 0
136 151 0
136 151 0
126 137 0
131 144 0
136 149 0
142 158 0
140 154 0
138 150 0
137 153 0
137 151 0
140 153 0
136 147 0
135 149 0
140 152 0
136 150 0
140 152 0
143 157 0
142 155 0
127 140 0
130 142 0
142 155 0
137 148 0
140 152 0
136 147 0
136 147 0
139 153 0
139 150 0
138 147 0
131 140 0
140 150 0
126 131 0
136 145 0
139 147 0
136 144 0
136 144 0
138 145 0
133 143 0
129 137 0
142 150 0
136 145 0
131 136 0
119 125 0
130 136 0
140 147 0
130 138 0
134 139 0
135 141 0
127 129 0
127 132 0
128 133 0
122 123 0
139 147 0
131 133 0
131 134 0
137 141 0
144 151 0
139 145 0
125 126 0
124 122 0
137 137 0
134 137 0
136 139 0
140 143 0
138 141 0
129 129 0
136 137 0
138 141 0
129 129 0
127 128 0
130 128 0
130 129 0
126 125 0
119 117 0
132 131 0
123 122 0
130 128 0
131 129 0
124 123 0
133 133 0
129 126 0
127 126 0
139 141 0
135 133 0
140 142 0
134 133 0
133 132 0
127 125 0
133 131 0
139 141 0
132 131 0
135 137 0
139 141 0
143 144 0
146 148 0
145 149 0
149 152 0
141 144 0
148 153 0
144 145 0
150 156 0
144 144 0
147 150 0
149 152 0
148 153 0
151 158 0
145 149 0
149 156 0
151 155 0
157 159 0
150 155 0
149 155 0
155 162 0
148 153 0
158 167 0
155 162 0
156 168 0
152 159 0
159 168 0
153 160 0
157 166 0
158 167 0
164 175 0
156 167 0
157 165 0
159 169 0
159 171 0
155 167 0
157 169 0
156 166 0
160 171 0
164 177 0
160 171 0
162 175 0
162 177 0
165 185 0
163 183 0
168 187 0
166 185 0
168 188 0
164 184 0
163 183 0
162 182 0
163 182 0
164 182 0
166 185 0
161 180 0
163 183 0
164 184 0
159 178 0
157 174 0
156 174 0
159 176 0
161 179 0
157 174 0
162 180 0
153 171 0
162 180 0
155 172 0
158 176 0
157 174 0
154 171 0
161 177 0
153 170 0
153 171 0
147 164 0
153 170 0
157 174 0
155 172 0
155 172 0
149 166 0
147 162 0
150 166 0
155 171 0
149 164 0
148 163 0
144 159 0
145 161 0
147 162 0
146 160 0
144 159 0
146 161 0
147 163 0
146 160 0
135 150 0
141 156 0
142 156 0
140 155 0
148 164 0
135 150 0
137 151 0
142 157 0
147 163 0
143 158 0
135 149 0
129 143 0
146 161 0
136 151 0
137 152 0
134 148 0
139 154 0
139 155 0
143 158 0
137 152 0
133 148 0
137 153 0
134 149 0
141 155 0
138 154 0
133 148 0
142 158 0
134 149 0
135 151 0
138 154 0
138 152 0
136 152 0
135 152 0
143 159 0
132 148 0
132 148 0
132 149 0
138 154 0
141 158 0
134 150 0
137 154 0
131 148 0
140 157 0
143 160 0
139 156 0
142 161 0
136 153 0
132 150 0
140 157 0
135 152 0
139 157 0
138 155 0
142 160 0
150 169 0
140 160 0
139 158 0
140 158 0
146 165 0
139 157 0
135 153 0
141 160 0
136 154 0
138 157 0
141 160 0
132 150 0
145 165 0
148 167 0
137 156 0
140 159 0
140 159 0
135 153 0
144 164 0
141 160 0
138 156 0
134 152 0
141 161 0
136 155 0
144 164 0
135 155 0
138 157 0
137 156 0
133 151 0
135 156 0
142 162 0
138 157 0
146 168 0
139 159 0
140 161 0
141 162 0
137 156 0
134 153 0
137 158 0
142 164 0
146 167 0
135 155 0
145 166 0
135 155 0
128 146 0
141 161 0
138 158 0
137 157 0
141 161 0
133 152 0
142 161 0
125 145 0
136 157 0
139 158 0
133 151 0
133 151 0
126 147 0
134 154 0
140 160 0
126 145 0
129 147 0
134 154 0
137 158 0
136 155 0
125 146 0
135 154 0
126 147 0
135 154 0
127 147 0
137 157 0
127 147 0
134 153 0
139 159 0
136 154 0
132 151 0
135 155 0
126 147 0
125 145 0
128 146 0
130 150 0
131 151 0
135 154 0
132 152 0
121 141 0
129 148 0
134 154 0
124 144 0
124 144 0
133 154 0
126 146 0
138 157 0
126 145 0
122 141 0
123 141 0
126 143 0
129 148 0
121 139 0
118 137 0
130 148 0
130 149 0
124 143 0
132 151 0
120 139 0
117 134 0
139 159 0
134 152 0
124 143 0
136 155 0
133 149 0
131 150 0
126 145 0
122 140 0
132 152 0
132 151 0
125 142 0
123 142 0
132 150 0
123 140 0
132 150 0
126 145 0
136 154 0
128 146 0
132 150 0
121 139 0
129 147 0
129 148 0
127 145 0
132 150 0
134 152 0
136 153 0
134 151 0
128 147 0
126 145 0
132 149 0
129 147 0
135 153 0
140 157 0
133 152 0
140 158 0
129 148 0
138 156 0
136 153 0
134 152 0
136 154 0
126 145 0
133 149 0
127 143 0
138 156 0
142 159 0
138 156 0
129 147 0
136 153 0
130 148 0
131 147 0
136 154 0
133 148 0
141 160 0
129 148 0
146 164 0
132 148 0
137 153 0
129 144 0
137 153 0
128 143 0
130 145 0
141 157 0
132 149 0
129 146 0
134 151 0
141 156 0
131 148 0
134 149 0
133 146 0
137 149 0
141 157 0
131 144 0
128 140 0
137 151 0
146 160 0
138 151 0
140 154 0
132 142 0
137 152 0
140 153 0
142 155 0
128 139 0
133 147 0
134 145 0
140 153 0
141 152 0
144 159 0
134 146 0
129 139 0
132 142 0
143 157 0
143 154 0
143 150 0
131 140 0
134 146 0
141 150 0
135 142 0
138 144 0
135 143 0
140 150 0
139 149 0
130 136 0
128 135 0
140 150 0
130 136 0
138 147 0
127 133 0
136 139 0
131 135 0
135 140 0
135 141 0
133 139 0
144 149 0
129 132 0
135 140 0
130 135 0
132 135 0
139 142 0
133 134 0
132 137 0
126 124 0
137 140 0
133 138 0
134 138 0
140 145 0
127 127 0
131 133 0
137 140 0
132 130 0
128 129 0
134 135 0
138 139 0
142 146 0
139 139 0
134 138 0
135 135 0
136 136 0
136 135 0
129 127 0
138 139 0
124 121 0
140 140 0
142 143 0
138 138 0
136 135 0
134 136 0
144 146 0
145 147 0
135 133 0
143 145 0
140 143 0
140 142 0
143 145 0
147 151 0
137 136 0
141 142 0
140 141 0
135 138 0
137 137 0
144 148 0
138 141 0
148 153 0
147 150 0
144 147 0
153 158 0
148 155 0
152 158 0
153 160 0
153 157 0
151 159 0
155 161 0
155 161 0
153 160 0
159 164 0
149 156 0
150 158 0
159 169 0
159 169 0
154 164 0
156 165 0
155 165 0
161 172 0
150 159 0
157 166 0
156 165 0
162 173 0
158 169 0
161 173 0
159 169 0
156 167 0
162 174 0
157 168 0
162 175 0
159 173 0
162 182 0
160 180 0
165 185 0
162 181 0
168 188 0
164 185 0
162 181 0
160 178 0
157 176 0
156 175 0
163 182 0
165 184 0
158 176 0
166 184 0
160 179 0
158 176 0
158 176 0
156 174 0
161 180 0
156 174 0
158 176 0
157 175 0
156 174 0
152 170 0
160 178 0
153 169 0
155 174 0
152 170 0
156 173 0
151 168 0
155 173 0
149 165 0
154 171 0
154 171 0
152 168 0
158 174 0
144 159 0
152 168 0
147 162 0
148 164 0
146 161 0
145 161 0
152 168 0
147 162 0
141 157 0
138 153 0
144 159 0
145 160 0
146 161 0
145 160 0
141 156 0
148 163 0
143 159 0
140 155 0
133 148 0
152 169 0
143 158 0
142 158 0
134 148 0
139 155 0
142 157 0
140 155 0
141 157 0
138 153 0
139 154 0
142 158 0
144 160 0
149 165 0
145 161 0
136 152 0
149 166 0
135 150 0
140 155 0
140 156 0
146 162 0
142 158 0
145 162 0
137 153 0
146 164 0
144 160 0
143 160 0
140 157 0
143 159 0
139 156 0
135 152 0
142 159 0
142 158 0
140 157 0
138 155 0
140 157 0
139 156 0
142 160 0
135 152 0
138 156 0
145 163 0
146 163 0
142 158 0
145 163 0
133 151 0
131 149 0
136 154 0
137 156 0
143 163 0
137 156 0
136 155 0
140 159 0
141 160 0
135 153 0
139 158 0
143 163 0
143 161 0
139 157 0
138 157 0
145 163 0
143 161 0
137 155 0
143 162 0
137 157 0
138 157 0
144 164 0
145 164 0
140 159 0
136 157 0
145 164 0
144 164 0
135 154 0
136 156 0
146 165 0
138 158 0
140 160 0
138 159 0
137 157 0
143 164 0
139 160 0
132 152 0
147 167 0
141 160 0
141 161 0
137 155 0
134 154 0
138 159 0
135 155 0
142 162 0
149 170 0
136 157 0
132 153 0
132 153 0
140 160 0
137 156 0
138 157 0
140 161 0
134 155 0
136 156 0
136 157 0
141 161 0
142 162 0
135 155 0
137 158 0
136 156 0
130 150 0
128 148 0
140 161 0
131 151 0
138 158 0
137 157 0
134 154 0
135 154 0
143 163 0
125 145 0
132 153 0
131 151 0
130 151 0
132 152 0
130 151 0
134 155 0
136 157 0
139 159 0
131 153 0
141 160 0
119 140 0
131 152 0
126 146 0
127 145 0
132 152 0
136 156 0
124 146 0
135 155 0
131 151 0
129 146 0
128 149 0
124 143 0
139 159 0
132 151 0
135 154 0
124 141 0
130 150 0
132 151 0
136 157 0
131 152 0
125 143 0
131 150 0
130 148 0
139 158 0
118 136 0
126 146 0
133 151 0
127 146 0
125 145 0
131 149 0
129 147 0
136 155 0
121 140 0
132 150 0
147 166 0
138 157 0
131 149 0
132 151 0
131 148 0
133 151 0
126 145 0
129 148 0
128 147 0
133 152 0
136 155 0
130 150 0
133 152 0
131 149 0
129 148 0
128 147 0
132 150 0
128 146 0
129 147 0
132 151 0
133 149 0
126 142 0
131 149 0
134 152 0
130 146 0
132 150 0
132 151 0
132 149 0
133 150 0
129 146 0
137 155 0
144 163 0
139 157 0
144 162 0
136 153 0
129 147 0
131 149 0
122 139 0
139 156 0
143 160 0
136 152 0
134 151 0
138 155 0
132 148 0
133 150 0
146 165 0
137 153 0
139 156 0
131 147 0
133 150 0
135 151 0
144 161 0
132 149 0
141 155 0
139 155 0
138 153 0
140 154 0
139 155 0
141 158 0
131 147 0
137 151 0
136 151 0
142 159 0
135 151 0
150 165 0
142 157 0
129 141 0
137 149 0
128 141 0
140 154 0
133 147 0
140 152 0
130 142 0
135 147 0
133 143 0
146 160 0
136 149 0
150 164 0
133 146 0
144 157 0
142 154 0
139 151 0
140 152 0
135 146 0
136 148 0
136 143 0
130 139 0
141 153 0
136 144 0
135 146 0
134 144 0
140 149 0
135 143 0
134 143 0
136 144 0
135 141 0
142 151 0
146 155 0
134 142 0
137 144 0
138 146 0
123 127 0
139 145 0
133 140 0
125 132 0
134 141 0
131 138 0
141 146 0
142 149 0
130 133 0
133 137 0
137 141 0
141 146 0
135 139 0
127 130 0
137 140 0
133 133 0
135 138 0
130 133 0
134 136 0
139 142 0
137 141 0
142 147 0
140 139 0
127 127 0
133 135 0
130 132 0
134 134 0
129 131 0
131 130 0
128 129 0
142 144 0
133 131 0
145 145 0
136 134 0
144 147 0
139 140 0
133 132 0
136 134 0
149 152 0
143 144 0
137 137 0
138 139 0
140 143 0
137 134 0
138 140 0
129 129 0
138 141 0
133 131 0
146 148 0
140 141 0
145 146 0
140 141 0
147 153 0
148 150 0
150 152 0
149 154 0
151 159 0
142 142 0
147 155 0
150 155 0
152 156 0
150 157 0
151 155 0
158 166 0
150 157 0
154 162 0
153 159 0
151 156 0
153 158 0
153 161 0
152 160 0
154 162 0
157 169 0
158 166 0
159 169 0
152 160 0
161 172 0
161 171 0
158 168 0
162 175 0
161 170 0
158 169 0
153 163 0
164 175 0
158 170 0
159 170 0
159 180 0
161 181 0
164 182 0
159 179 0
160 179 0
164 184 0
164 183 0
159 178 0
162 181 0
163 183 0
159 177 0
160 178 0
164 183 0
162 182 0
160 179 0
159 177 0
161 180 0
157 173 0
157 175 0
158 175 0
154 172 0
157 175 0
156 172 0
160 178 0
155 171 0
154 172 0
159 176 0
154 171 0
153 168 0
153 169 0
158 175 0
153 170 0
155 172 0
154 171 0
146 163 0
149 165 0
149 165 0
151 166 0
144 158 0
150 167 0
147 162 0
150 166 0
145 160 0
150 166 0
148 164 0
142 157 0
145 161 0
152 168 0
141 156 0
145 160 0
146 162 0
146 162 0
144 161 0
145 161 0
141 157 0
145 161 0
141 156 0
136 150 0
141 157 0
150 166 0
143 159 0
143 159 0
147 163 0
141 157 0
135 151 0
141 157 0
133 147 0
138 153 0
148 163 0
145 160 0
137 154 0
136 152 0
149 165 0
146 164 0
143 159 0
136 152 0
146 163 0
141 158 0
130 145 0
144 161 0
140 157 0
147 164 0
148 164 0
147 163 0
136 153 0
140 157 0
146 163 0
141 159 0
145 163 0
141 159 0
144 162 0
144 162 0
142 160 0
144 163 0
141 159 0
145 163 0
146 164 0
138 155 0
143 160 0
142 161 0
144 162 0
135 154 0
143 161 0
133 151 0
148 167 0
142 161 0
131 150 0
142 161 0
144 162 0
134 152 0
145 164 0
142 162 0
146 165 0
146 166 0
137 155 0
145 164 0
144 164 0
143 163 0
140 160 0
143 162 0
140 158 0
139 158 0
138 157 0
135 155 0
134 153 0
139 160 0
142 162 0
154 173 0
138 157 0
134 155 0
136 156 0
141 161 0
143 164 0
142 162 0
138 157 0
138 159 0
143 164 0
146 166 0
145 166 0
141 162 0
144 165 0
138 159 0
139 159 0
133 153 0
134 155 0
140 162 0
134 155 0
145 165 0
139 159 0
137 157 0
139 160 0
127 148 0
132 154 0
137 156 0
140 161 0
131 151 0
124 144 0
136 157 0
141 161 0
133 153 0
130 150 0
138 157 0
135 156 0
135 156 0
133 151 0
137 157 0
139 159 0
135 155 0
132 153 0
132 153 0
126 145 0
133 154 0
140 160 0
131 152 0
129 149 0
138 157 0
133 153 0
129 149 0
130 150 0
134 154 0
127 146 0
125 144 0
113 132 0
132 153 0
129 148 0
133 153 0
134 153 0
129 148 0
133 153 0
130 150 0
134 154 0
130 150 0
133 153 0
130 151 0
135 154 0
135 155 0
129 148 0
135 154 0
135 155 0
131 151 0
136 156 0
126 145 0
138 157 0
125 145 0
123 143 0
136 156 0
130 148 0
136 156 0
133 152 0
133 150 0
136 156 0
132 151 0
133 153 0
129 150 0
127 146 0
130 150 0
137 156 0
125 143 0
122 142 0
129 148 0
131 150 0
133 154 0
137 156 0
133 152 0
115 133 0
137 156 0
132 151 0
126 145 0
135 155 0
140 159 0
125 142 0
121 137 0
133 151 0
139 157 0
142 161 0
131 148 0
139 158 0
133 149 0
134 153 0
135 154 0
147 167 0
136 155 0
130 149 0
143 162 0
138 156 0
137 153 0
132 151 0
128 146 0
134 149 0
137 154 0
146 163 0
142 161 0
131 147 0
143 161 0
138 156 0
140 156 0
144 160 0
138 154 0
138 155 0
134 150 0
140 158 0
130 145 0
141 157 0
141 157 0
133 149 0
135 149 0
135 152 0
143 159 0
142 159 0
137 154 0
141 157 0
138 154 0
133 146 0
135 149 0
139 156 0
138 153 0
136 151 0
140 155 0
142 159 0
142 158 0
142 156 0
142 157 0
141 156 0
142 159 0
135 146 0
138 154 0
148 164 0
130 142 0
140 154 0
130 140 0
138 151 0
143 157 0
135 147 0
139 153 0
136 149 0
134 145 0
146 160 0
141 150 0
143 155 0
139 150 0
137 148 0
139 149 0
140 152 0
132 141 0
134 144 0
137 148 0
129 137 0
139 147 0
137 145 0
143 156 0
140 149 0
132 138 0
139 146 0
136 144 0
131 137 0
131 135 0
140 146 0
138 145 0
129 134 0
141 147 0
141 149 0
131 138 0
131 133 0
132 139 0
132 136 0
142 144 0
139 146 0
126 130 0
137 139 0
131 134 0
137 141 0
144 151 0
147 152 0
138 144 0
133 137 0
140 140 0
137 140 0
139 143 0
129 130 0
139 140 0
145 145 0
143 145 0
138 140 0
141 142 0
137 136 0
136 138 0
130 131 0
139 140 0
134 132 0
129 130 0
143 145 0
137 138 0
146 149 0
139 140 0
144 148 0
141 144 0
140 142 0
134 137 0
141 144 0
140 143 0
137 137 0
146 149 0
145 146 0
143 143 0
147 153 0
148 154 0
152 154 0
143 146 0
149 153 0
146 150 0
142 143 0
148 152 0
152 156 0
146 150 0
153 158 0
154 161 0
146 149 0
151 157 0
152 156 0
144 150 0
151 158 0
155 166 0
147 154 0
155 162 0
151 157 0
151 159 0
153 162 0
155 164 0
151 162 0
158 166 0
157 166 0
152 162 0
154 161 0
155 166 0
159 168 0
160 172 0
156 166 0
159 169 0
158 167 0
162 175 0
162 182 0
162 182 0
160 179 0
164 182 0
167 187 0
157 176 0
159 178 0
164 183 0
163 182 0
162 180 0
163 183 0
159 178 0
161 180 0
159 177 0
161 180 0
158 176 0
161 179 0
153 170 0
157 174 0
159 177 0
149 166 0
159 177 0
156 173 0
152 169 0
155 173 0
150 167 0
149 166 0
148 165 0
154 170 0
156 173 0
150 166 0
153 170 0
149 165 0
148 164 0
153 170 0
154 171 0
154 170 0
150 167 0
153 170 0
150 166 0
154 171 0
141 156 0
144 160 0
147 163 0
142 158 0
147 162 0
149 165 0
146 162 0
142 158 0
136 151 0
143 159 0
147 163 0
141 157 0
142 157 0
147 164 0
132 146 0
140 156 0
139 155 0
142 159 0
142 157 0
141 156 0
145 161 0
149 166 0
140 156 0
149 165 0
144 160 0
135 151 0
140 157 0
140 156 0
145 162 0
134 150 0
141 158 0
143 159 0
137 154 0
144 160 0
147 164 0
147 165 0
137 154 0
144 160 0
141 158 0
142 158 0
134 150 0
143 161 0
145 164 0
142 160 0
139 157 0
141 159 0
143 161 0
143 161 0
141 159 0
140 157 0
140 157 0
137 156 0
140 158 0
140 159 0
143 162 0
144 163 0
145 164 0
138 158 0
140 158 0
132 150 0
145 164 0
136 155 0
142 161 0
141 160 0
144 163 0
134 153 0
145 163 0
135 153 0
142 161 0
142 162 0
138 157 0
146 166 0
139 158 0
143 162 0
139 159 0
139 159 0
144 164 0
136 155 0
146 166 0
137 157 0
140 160 0
141 160 0
145 164 0
149 170 0
140 161 0
129 148 0
145 165 0
135 154 0
143 163 0
140 160 0
137 157 0
144 164 0
140 160 0
133 154 0
146 166 0
145 166 0
149 169 0
137 156 0
143 163 0
144 164 0
136 156 0
138 159 0
136 158 0
138 158 0
139 160 0
144 165 0
135 155 0
148 168 0
137 157 0
139 161 0
129 149 0
142 163 0
137 157 0
133 153 0
142 162 0
136 156 0
131 151 0
134 155 0
144 164 0
131 152 0
133 154 0
140 160 0
129 149 0
130 150 0
140 160 0
128 149 0
129 150 0
128 148 0
133 153 0
144 164 0
133 154 0
135 157 0
133 154 0
135 155 0
125 144 0
127 145 0
130 151 0
136 156 0
129 150 0
132 152 0
131 150 0
133 154 0
140 159 0
126 146 0
133 153 0
138 157 0
136 156 0
129 148 0
130 149 0
132 151 0
127 146 0
135 154 0
139 158 0
135 155 0
133 152 0
126 147 0
124 144 0
135 154 0
130 150 0
126 146 0
131 152 0
129 149 0
120 140 0
125 144 0
135 154 0
133 153 0
132 151 0
130 150 0
128 147 0
131 150 0
130 150 0
127 147 0
132 150 0
131 150 0
132 151 0
125 143 0
126 144 0
134 154 0
129 148 0
141 162 0
141 159 0
129 147 0
138 157 0
137 155 0
143 163 0
134 154 0
128 146 0
133 152 0
133 152 0
137 155 0
135 153 0
131 149 0
139 155 0
139 156 0
130 148 0
137 156 0
138 156 0
129 146 0
139 159 0
141 160 0
130 149 0
137 155 0
126 142 0
131 148 0
140 159 0
142 160 0
134 152 0
139 156 0
133 151 0
133 151 0
134 151 0
135 153 0
133 152 0
138 156 0
128 147 0
131 147 0
141 155 0
136 152 0
138 156 0
139 156 0
140 157 0
143 158 0
148 167 0
130 144 0
147 165 0
145 162 0
137 152 0
142 156 0
147 164 0
130 141 0
138 155 0
142 159 0
141 157 0
143 159 0
146 163 0
131 145 0
145 159 0
143 158 0
134 148 0
136 151 0
143 158 0
148 163 0
141 155 0
138 153 0
145 162 0
139 153 0
135 149 0
138 152 0
131 144 0
138 154 0
124 136 0
135 146 0
146 158 0
145 160 0
138 147 0
139 151 0
133 143 0
139 152 0
140 150 0
141 152 0
142 154 0
144 153 0
130 137 0
139 149 0
144 155 0
132 143 0
133 141 0
139 148 0
142 150 0
136 143 0
140 151 0
132 138 0
139 146 0
133 141 0
128 135 0
135 141 0
134 142 0
149 158 0
136 145 0
129 133 0
137 145 0
133 136 0
134 141 0
144 147 0
136 143 0
136 139 0
134 138 0
133 137 0
140 146 0
137 140 0
136 140 0
140 141 0
144 149 0
142 149 0
136 141 0
147 150 0
135 137 0
131 133 0
139 143 0
145 146 0
135 136 0
130 132 0
140 141 0
132 134 0
145 149 0
135 136 0
147 149 0
132 131 0
133 132 0
141 144 0
140 142 0
135 136 0
134 137 0
138 139 0
132 132 0
140 144 0
140 144 0
149 157 0
145 146 0
147 150 0
145 147 0
145 145 0
145 149 0
136 137 0
141 145 0
148 151 0
140 141 0
143 149 0
152 159 0
147 151 0
146 150 0
149 157 0
153 161 0
150 151 0
151 157 0
153 159 0
153 159 0
154 163 0
152 155 0
143 150 0
152 160 0
155 162 0
149 156 0
155 162 0
153 164 0
152 158 0
158 166 0
158 166 0
154 162 0
156 165 0
153 163 0
154 165 0
151 162 0
159 169 0
155 165 0
165 176 0
163 173 0
163 177 0
155 168 0
164 183 0
158 177 0
164 182 0
163 182 0
159 179 0
159 178 0
157 175 0
161 180 0
158 177 0
162 181 0
159 177 0
160 178 0
163 182 0
163 182 0
160 178 0
162 180 0
155 173 0
158 176 0
161 180 0
158 176 0
152 169 0
158 177 0
156 173 0
160 178 0
157 174 0
161 179 0
148 164 0
151 168 0
160 178 0
153 169 0
154 171 0
150 168 0
146 163 0
150 166 0
153 168 0
154 171 0
153 169 0
148 165 0
145 161 0
149 165 0
144 161 0
150 166 0
152 169 0
146 162 0
148 165 0
148 164 0
150 167 0
143 158 0
142 159 0
143 159 0
146 162 0
148 164 0
145 161 0
146 163 0
138 153 0
150 167 0
142 157 0
145 160 0
145 161 0
139 155 0
147 164 0
141 156 0
144 160 0
144 161 0
138 155 0
138 154 0
138 154 0
137 153 0
145 161 0
143 160 0
144 162 0
141 158 0
141 158 0
147 164 0
147 165 0
144 161 0
141 157 0
143 160 0
146 164 0
141 160 0
137 154 0
145 162 0
141 159 0
140 158 0
147 164 0
142 160 0
142 161 0
144 162 0
148 167 0
141 160 0
148 166 0
144 163 0
143 161 0
143 162 0
140 158 0
138 155 0
144 163 0
149 169 0
144 164 0
140 157 0
136 155 0
141 160 0
142 161 0
143 161 0
140 159 0
139 158 0
147 167 0
144 164 0
139 158 0
140 159 0
138 157 0
141 161 0
140 160 0
148 168 0
143 164 0
140 159 0
143 162 0
146 166 0
136 156 0
140 161 0
137 157 0
144 163 0
148 168 0
145 166 0
138 158 0
142 161 0
150 170 0
143 164 0
143 164 0
144 165 0
139 160 0
141 161 0
138 158 0
140 161 0
146 166 0
134 155 0
145 166 0
136 157 0
141 162 0
141 161 0
140 162 0
146 167 0
134 156 0
144 166 0
140 161 0
145 165 0
147 167 0
130 151 0
134 154 0
133 153 0
140 161 0
140 161 0
140 161 0
143 164 0
138 159 0
131 152 0
136 156 0
134 153 0
139 160 0
136 156 0
131 151 0
137 157 0
138 157 0
146 166 0
135 154 0
143 163 0
139 160 0
143 164 0
130 150 0
140 160 0
132 152 0
127 147 0
131 152 0
134 155 0
137 157 0
138 158 0
131 150 0
131 150 0
130 150 0
131 151 0
134 154 0
135 155 0
131 152 0
128 147 0
133 154 0
125 144 0
132 152 0
134 152 0
131 151 0
137 158 0
132 151 0
136 155 0
131 152 0
126 146 0
140 160 0
128 148 0
143 163 0
131 152 0
130 149 0
130 150 0
130 150 0
137 156 0
133 152 0
129 148 0
134 155 0
135 155 0
133 152 0
130 150 0
135 156 0
127 147 0
131 150 0
136 156 0
124 144 0
122 141 0
135 155 0
142 161 0
128 147 0
133 153 0
127 148 0
133 152 0
137 155 0
128 147 0
134 154 0
137 155 0
136 157 0
135 155 0
134 152 0
145 164 0
131 149 0
137 158 0
125 143 0
130 148 0
137 156 0
136 155 0
131 149 0
128 146 0
142 159 0
131 152 0
136 156 0
140 159 0
136 155 0
128 146 0
142 159 0
128 145 0
144 162 0
136 155 0
138 158 0
130 149 0
132 149 0
139 158 0
147 163 0
132 150 0
136 153 0
139 159 0
132 149 0
145 163 0
140 159 0
134 152 0
139 158 0
141 158 0
140 157 0
131 147 0
147 161 0
139 155 0
132 150 0
145 162 0
138 156 0
140 156 0
141 158 0
144 162 0
139 156 0
145 163 0
138 154 0
134 149 0
134 150 0
138 154 0
144 159 0
138 154 0
138 153 0
125 139 0
138 154 0
138 153 0
140 155 0
145 161 0
145 158 0
141 157 0
147 164 0
140 155 0
142 156 0
135 149 0
141 154 0
144 157 0
137 150 0
144 158 0
144 158 0
140 153 0
137 151 0
141 153 0
143 156 0
138 148 0
145 156 0
140 152 0
140 152 0
144 157 0
143 155 0
147 159 0
139 149 0
136 146 0
136 147 0
135 145 0
139 147 0
136 147 0
142 148 0
137 147 0
138 146 0
135 146 0
148 160 0
148 158 0
132 138 0
139 147 0
141 148 0
138 145 0
141 148 0
135 141 0
135 143 0
136 144 0
137 143 0
144 149 0
151 159 0
131 135 0
146 151 0
139 143 0
134 138 0
141 148 0
137 142 0
134 138 0
146 149 0
140 144 0
141 147 0
143 146 0
133 136 0
139 143 0
141 142 0
138 141 0
139 144 0
139 140 0
145 148 0
144 148 0
136 138 0
149 154 0
142 146 0
153 157 0
144 150 0
138 142 0
133 134 0
146 147 0
133 136 0
140 143 0
148 152 0
139 142 0
144 149 0
146 149 0
145 150 0
149 154 0
138 138 0
150 152 0
143 144 0
146 150 0
143 148 0
149 154 0
152 159 0
141 146 0
140 145 0
147 150 0
152 158 0
158 169 0
152 157 0
142 146 0
160 167 0
154 162 0
152 157 0
149 156 0
152 159 0
155 163 0
153 160 0
154 161 0
157 164 0
159 170 0
156 166 0
160 171 0
150 159 0
154 162 0
157 167 0
157 167 0
158 170 0
155 161 0
158 168 0
162 175 0
155 164 0
160 172 0
161 180 0
165 184 0
161 180 0
159 177 0
160 179 0
157 176 0
163 182 0
161 180 0
158 176 0
161 181 0
161 179 0
160 179 0
162 182 0
160 179 0
156 174 0
157 176 0
157 176 0
155 173 0
151 168 0
153 171 0
155 172 0
157 176 0
150 167 0
160 178 0
149 167 0
154 171 0
150 167 0
158 175 0
152 169 0
147 165 0
153 169 0
152 169 0
152 169 0
149 166 0
151 169 0
150 167 0
154 171 0
149 165 0
151 168 0
145 161 0
144 160 0
150 165 0
146 161 0
149 165 0
146 161 0
149 166 0
147 164 0
151 169 0
144 161 0
148 164 0
151 168 0
150 166 0
140 156 0
147 163 0
152 170 0
146 162 0
136 152 0
145 161 0
146 162 0
142 158 0
147 164 0
143 160 0
147 164 0
148 164 0
141 157 0
141 158 0
142 158 0
150 167 0
139 156 0
153 171 0
141 159 0
147 164 0
143 160 0
146 163 0
143 160 0
143 159 0
140 158 0
143 161 0
146 163 0
142 160 0
145 163 0
142 160 0
145 162 0
143 161 0
143 160 0
150 168 0
146 165 0
142 160 0
135 153 0
145 164 0
140 159 0
143 162 0
151 171 0
147 166 0
140 159 0
142 160 0
140 158 0
138 157 0
146 165 0
144 163 0
142 162 0
144 163 0
149 167 0
143 163 0
144 163 0
143 162 0
148 167 0
145 165 0
127 146 0
143 163 0
137 157 0
141 161 0
141 161 0
142 162 0
142 161 0
140 159 0
146 165 0
148 168 0
143 163 0
140 159 0
151 171 0
139 158 0
142 162 0
144 163 0
146 167 0
136 155 0
140 160 0
146 166 0
138 158 0
144 165 0
141 161 0
147 168 0
136 156 0
146 167 0
144 165 0
134 155 0
139 159 0
132 151 0
131 151 0
142 163 0
135 154 0
140 161 0
141 161 0
139 160 0
140 162 0
140 161 0
134 155 0
140 160 0
141 163 0
135 156 0
140 160 0
146 166 0
140 161 0
138 158 0
131 151 0
145 166 0
134 154 0
138 159 0
119 137 0
145 166 0
137 158 0
138 159 0
134 155 0
139 158 0
145 166 0
134 153 0
131 153 0
141 160 0
131 151 0
140 160 0
136 156 0
133 153 0
138 158 0
140 159 0
132 152 0
137 157 0
139 159 0
129 147 0
130 151 0
134 155 0
122 142 0
129 148 0
131 151 0
133 152 0
132 151 0
143 162 0
132 152 0
137 156 0
136 155 0
136 156 0
132 152 0
141 161 0
123 143 0
137 157 0
132 152 0
133 152 0
124 144 0
130 150 0
143 163 0
131 150 0
134 154 0
134 154 0
126 145 0
135 155 0
129 148 0
132 152 0
139 160 0
131 150 0
125 145 0
132 153 0
132 150 0
138 156 0
128 147 0
136 155 0
135 155 0
137 156 0
128 147 0
138 156 0
135 154 0
132 150 0
136 153 0
125 146 0
133 152 0
132 152 0
133 151 0
132 151 0
142 160 0
132 151 0
135 153 0
129 148 0
129 149 0
136 155 0
131 150 0
140 158 0
132 151 0
141 157 0
136 155 0
133 152 0
134 154 0
131 149 0
135 154 0
136 155 0
134 151 0
146 165 0
138 157 0
139 159 0
133 149 0
140 158 0
135 153 0
137 155 0
143 162 0
140 157 0
145 162 0
136 153 0
145 164 0
129 145 0
134 150 0
142 157 0
142 160 0
148 163 0
135 152 0
134 150 0
140 157 0
140 155 0
141 158 0
149 169 0
138 156 0
152 167 0
140 158 0
137 153 0
135 149 0
134 149 0
137 154 0
143 160 0
146 162 0
144 161 0
144 159 0
145 162 0
143 160 0
135 152 0
138 154 0
138 152 0
141 157 0
140 153 0
136 149 0
142 157 0
134 148 0
147 164 0
140 155 0
141 155 0
145 162 0
138 151 0
145 159 0
140 152 0
142 156 0
142 156 0
136 147 0
140 153 0
145 158 0
150 162 0
138 150 0
143 155 0
136 147 0
146 157 0
143 155 0
150 163 0
147 159 0
140 147 0
143 156 0
145 155 0
138 148 0
143 154 0
139 149 0
140 150 0
141 152 0
140 149 0
140 148 0
136 145 0
138 147 0
142 152 0
138 145 0
140 149 0
140 145 0
136 139 0
144 152 0
134 141 0
129 135 0
136 143 0
138 144 0
140 146 0
141 147 0
131 140 0
146 154 0
143 149 0
147 152 0
141 146 0
141 146 0
138 141 0
141 146 0
139 145 0
141 147 0
135 137 0
142 148 0
144 147 0
141 143 0
140 143 0
147 153 0
137 138 0
136 140 0
144 148 0
145 147 0
127 128 0
145 150 0
142 144 0
148 153 0
142 145 0
145 150 0
143 144 0
141 144 0
149 154 0
143 149 0
145 148 0
149 154 0
146 150 0
137 142 0
144 150 0
144 150 0
143 147 0
145 148 0
151 157 0
151 157 0
152 157 0
149 153 0
149 154 0
150 157 0
153 163 0
145 149 0
151 157 0
151 157 0
152 159 0
156 164 0
142 148 0
147 153 0
151 156 0
155 162 0
159 168 0
150 156 0
156 164 0
154 164 0
150 154 0
159 167 0
160 172 0
157 166 0
155 165 0
155 163 0
157 167 0
160 171 0
158 165 0
157 167 0
163 174 0
164 185 0
162 180 0
159 178 0
157 176 0
162 180 0
159 178 0
157 175 0
160 178 0
160 179 0
166 184 0
162 182 0
156 173 0
156 174 0
158 176 0
158 176 0
158 176 0
162 180 0
155 173 0
158 176 0
157 175 0
155 172 0
157 175 0
158 175 0
155 173 0
151 169 0
158 176 0
160 177 0
145 161 0
153 170 0
155 173 0
148 165 0
150 167 0
151 168 0
149 166 0
148 165 0
157 175 0
154 172 0
146 163 0
151 167 0
152 169 0
146 162 0
156 173 0
146 162 0
143 160 0
152 168 0
147 164 0
146 163 0
148 163 0
150 168 0
148 165 0
147 164 0
148 164 0
154 171 0
147 164 0
153 171 0
145 161 0
148 165 0
148 164 0
151 167 0
144 161 0
145 162 0
151 168 0
148 164 0
150 168 0
147 164 0
148 166 0
145 162 0
144 161 0
152 170 0
152 170 0
152 169 0
147 164 0
143 161 0
145 163 0
143 161 0
154 172 0
141 159 0
143 161 0
150 168 0
149 168 0
139 157 0
139 156 0
150 169 0
139 157 0
144 162 0
150 169 0
142 160 0
144 162 0
148 166 0
137 155 0
138 157 0
144 162 0
139 158 0
148 165 0
142 161 0
145 165 0
146 166 0
148 167 0
145 164 0
147 166 0
145 164 0
153 173 0
146 165 0
148 168 0
148 167 0
147 168 0
138 158 0
145 165 0
140 160 0
142 163 0
146 166 0
142 162 0
147 168 0
144 163 0
142 161 0
148 167 0
139 159 0
138 158 0
135 155 0
140 159 0
142 162 0
141 161 0
143 164 0
153 172 0
144 164 0
147 168 0
147 168 0
150 171 0
146 168 0
144 165 0
143 164 0
141 161 0
142 162 0
148 168 0
140 159 0
143 164 0
135 157 0
143 165 0
147 167 0
144 165 0
140 160 0
136 157 0
136 157 0
136 157 0
140 160 0
141 162 0
141 161 0
145 164 0
132 152 0
138 159 0
143 162 0
137 157 0
128 148 0
137 158 0
145 165 0
143 163 0
130 150 0
149 168 0
136 158 0
136 157 0
136 156 0
125 144 0
147 168 0
136 156 0
135 156 0
136 157 0
138 158 0
144 166 0
141 163 0
132 152 0
126 144 0
139 160 0
138 159 0
128 148 0
140 161 0
141 162 0
130 151 0
129 149 0
136 155 0
130 150 0
139 159 0
137 158 0
141 161 0
139 159 0
133 154 0
137 159 0
123 143 0
138 158 0
122 143 0
142 161 0
140 160 0
143 164 0
137 157 0
141 161 0
131 153 0
130 150 0
127 147 0
132 150 0
137 158 0
147 167 0
135 154 0
136 155 0
138 158 0
140 159 0
129 149 0
135 154 0
141 160 0
141 161 0
130 149 0
130 149 0
137 157 0
134 154 0
140 160 0
139 158 0
142 161 0
121 140 0
133 153 0
142 162 0
134 153 0
136 155 0
133 153 0
134 154 0
136 157 0
136 154 0
136 157 0
138 156 0
136 157 0
131 150 0
140 160 0
136 155 0
135 153 0
135 152 0
141 159 0
137 157 0
134 153 0
138 157 0
140 159 0
148 167 0
132 151 0
146 166 0
137 156 0
141 161 0
143 163 0
137 156 0
141 157 0
135 153 0
140 159 0
141 161 0
130 147 0
129 147 0
140 158 0
146 165 0
131 149 0
136 154 0
141 159 0
135 153 0
133 151 0
142 159 0
131 149 0
144 163 0
142 160 0
136 153 0
140 158 0
131 146 0
142 160 0
140 157 0
137 154 0
150 169 0
150 167 0
147 166 0
140 158 0
142 160 0
145 162 0
138 154 0
138 153 0
139 156 0
139 153 0
146 165 0
147 164 0
142 157 0
142 159 0
141 159 0
144 160 0
136 149 0
140 152 0
142 159 0
142 157 0
147 162 0
137 151 0
143 156 0
146 161 0
141 155 0
148 165 0
143 158 0
138 152 0
143 156 0
156 169 0
141 154 0
138 150 0
143 156 0
139 149 0
145 157 0
133 148 0
142 153 0
136 149 0
131 142 0
131 143 0
146 158 0
137 149 0
141 151 0
140 152 0
136 145 0
141 151 0
144 156 0
139 147 0
145 155 0
148 159 0
145 156 0
137 144 0
144 153 0
143 153 0
146 158 0
131 138 0
136 146 0
148 157 0
137 145 0
143 151 0
140 147 0
143 152 0
148 156 0
138 144 0
148 155 0
140 147 0
136 142 0
134 141 0
137 141 0
136 142 0
140 144 0
133 140 0
142 145 0
145 152 0
150 154 0
138 147 0
135 140 0
149 157 0
143 148 0
144 147 0
142 146 0
144 147 0
137 138 0
144 149 0
144 150 0
136 139 0
130 133 0
141 144 0
151 157 0
141 145 0
137 139 0
139 141 0
143 149 0
146 148 0
142 149 0
148 155 0
145 151 0
148 153 0
140 144 0
149 155 0
135 138 0
149 153 0
149 154 0
152 159 0
144 146 0
149 155 0
149 155 0
152 157 0
149 154 0
151 157 0
151 158 0
153 158 0
143 149 0
147 155 0
153 160 0
147 153 0
153 158 0
150 158 0
156 163 0
146 152 0
153 159 0
155 162 0
147 152 0
149 159 0
155 162 0
153 163 0
156 166 0
161 171 0
154 164 0
154 162 0
155 164 0
163 175 0
162 175 0
160 179 0
164 184 0
159 178 0
160 179 0
162 181 0
159 178 0
159 178 0
158 177 0
160 178 0
158 177 0
161 179 0
158 177 0
162 180 0
159 177 0
159 177 0
157 175 0
155 173 0
154 172 0
154 172 0
154 172 0
157 174 0
161 178 0
153 170 0
157 174 0
158 176 0
154 172 0
154 172 0
152 169 0
156 174 0
155 172 0
149 167 0
150 167 0
152 169 0
152 169 0
151 167 0
151 168 0
158 175 0
149 167 0
146 162 0
152 169 0
152 169 0
148 164 0
146 163 0
152 169 0
155 172 0
152 169 0
151 168 0
152 170 0
146 163 0
146 162 0
147 164 0
148 166 0
145 162 0
146 163 0
149 165 0
149 167 0
146 162 0
153 170 0
144 161 0
145 160 0
150 167 0
140 158 0
150 168 0
146 163 0
141 157 0
144 162 0
146 164 0
145 162 0
140 157 0
150 168 0
146 164 0
150 168 0
145 163 0
145 164 0
147 165 0
154 173 0
140 157 0
146 165 0
149 167 0
142 161 0
147 166 0
153 171 0
142 160 0
149 167 0
146 165 0
151 169 0
150 167 0
141 160 0
141 160 0
139 158 0
146 164 0
139 157 0
149 170 0
143 162 0
147 167 0
143 162 0
143 162 0
154 174 0
144 164 0
152 172 0
145 165 0
148 167 0
144 164 0
145 165 0
143 161 0
144 162 0
145 166 0
143 163 0
152 170 0
137 155 0
141 160 0
146 165 0
140 161 0
144 163 0
143 164 0
146 166 0
142 163 0
153 173 0
146 166 0
151 173 0
150 172 0
141 161 0
142 162 0
146 167 0
146 167 0
138 158 0
130 150 0
140 160 0
142 163 0
149 169 0
138 158 0
144 165 0
137 158 0
147 167 0
133 153 0
133 153 0
144 164 0
136 157 0
135 156 0
143 165 0
143 164 0
141 162 0
142 162 0
140 160 0
138 158 0
143 164 0
138 157 0
145 165 0
140 161 0
141 163 0
145 166 0
150 172 0
131 151 0
141 162 0
127 147 0
141 162 0
147 168 0
136 157 0
133 154 0
148 168 0
137 158 0
140 160 0
139 159 0
140 160 0
137 156 0
135 155 0
141 162 0
132 152 0
137 157 0
145 165 0
143 164 0
136 156 0
139 160 0
133 153 0
137 157 0
135 155 0
140 160 0
141 161 0
139 161 0
138 158 0
133 153 0
140 161 0
136 157 0
131 152 0
130 150 0
136 156 0
125 144 0
141 161 0
137 160 0
135 155 0
133 153 0
137 157 0
137 158 0
145 166 0
128 147 0
136 156 0
124 144 0
136 156 0
135 155 0
134 155 0
131 151 0
131 150 0
131 151 0
134 154 0
126 146 0
142 161 0
145 166 0
141 162 0
136 158 0
135 156 0
141 161 0
134 154 0
138 157 0
140 159 0
133 152 0
142 163 0
145 165 0
141 161 0
138 158 0
142 161 0
135 155 0
136 155 0
134 153 0
134 155 0
135 152 0
140 158 0
140 158 0
142 161 0
130 149 0
132 152 0
140 159 0
127 145 0
141 161 0
138 157 0
134 152 0
141 161 0
144 163 0
137 155 0
131 150 0
136 155 0
131 149 0
140 158 0
139 157 0
140 159 0
140 158 0
144 163 0
144 163 0
137 157 0
141 159 0
146 164 0
140 159 0
140 159 0
143 161 0
137 154 0
137 154 0
141 159 0
146 165 0
146 165 0
144 160 0
141 160 0
144 163 0
138 156 0
137 154 0
138 156 0
133 151 0
138 154 0
150 168 0
140 157 0
140 158 0
134 152 0
146 163 0
143 161 0
145 164 0
146 163 0
146 165 0
153 170 0
143 159 0
147 164 0
141 156 0
132 147 0
145 160 0
146 161 0
147 162 0
146 164 0
142 159 0
141 156 0
143 158 0
134 149 0
142 157 0
145 158 0
142 157 0
138 153 0
143 157 0
137 150 0
140 154 0
139 155 0
138 152 0
140 151 0
140 152 0
140 153 0
138 150 0
144 157 0
142 154 0
142 153 0
142 153 0
144 158 0
139 151 0
137 148 0
140 149 0
147 159 0
143 154 0
148 158 0
142 154 0
140 148 0
145 158 0
144 154 0
142 150 0
144 152 0
139 149 0
137 148 0
145 154 0
145 154 0
139 149 0
138 148 0
138 149 0
149 158 0
144 153 0
143 150 0
147 157 0
143 149 0
145 153 0
143 147 0
146 155 0
146 155 0
137 144 0
143 150 0
138 143 0
142 147 0
146 153 0
134 140 0
149 158 0
143 149 0
149 157 0
146 154 0
143 148 0
142 149 0
135 138 0
145 149 0
147 153 0
135 137 0
143 151 0
146 152 0
141 144 0
142 145 0
137 142 0
146 152 0
141 144 0
140 144 0
144 149 0
136 141 0
144 148 0
148 152 0
144 148 0
142 146 0
137 138 0
148 153 0
152 157 0
146 151 0
147 152 0
148 155 0
150 154 0
145 147 0
148 152 0
151 156 0
142 146 0
149 154 0
146 150 0
148 153 0
144 151 0
150 156 0
153 163 0
147 151 0
155 162 0
155 164 0
158 167 0
152 161 0
156 164 0
157 165 0
157 165 0
163 174 0
156 165 0
155 165 0
152 160 0
153 160 0
158 167 0
155 164 0
154 164 0
156 165 0
157 168 0
157 169 0
166 185 0
162 181 0
154 172 0
165 184 0
160 179 0
159 177 0
160 179 0
159 178 0
159 177 0
159 177 0
161 180 0
156 174 0
159 177 0
156 173 0
157 174 0
160 178 0
159 177 0
156 175 0
155 172 0
164 183 0
156 173 0
151 169 0
153 170 0
154 172 0
158 175 0
157 174 0
152 170 0
155 172 0
152 169 0
151 169 0
153 170 0
148 164 0
150 167 0
145 162 0
152 169 0
148 165 0
150 168 0
150 168 0
151 168 0
150 167 0
146 162 0
154 171 0
151 168 0
144 161 0
153 170 0
150 167 0
155 172 0
150 167 0
147 165 0
154 172 0
150 168 0
155 172 0
148 165 0
141 158 0
147 164 0
147 164 0
146 163 0
147 164 0
148 166 0
151 168 0
143 160 0
142 159 0
151 168 0
148 166 0
142 160 0
146 163 0
147 165 0
148 166 0
147 165 0
152 171 0
147 166 0
143 161 0
146 164 0
144 162 0
150 168 0
145 162 0
145 164 0
140 159 0
137 155 0
143 161 0
140 157 0
147 166 0
148 167 0
144 163 0
150 170 0
150 169 0
143 161 0
152 171 0
145 164 0
149 168 0
145 165 0
149 169 0
147 166 0
144 164 0
144 163 0
140 159 0
146 165 0
152 172 0
139 159 0
147 167 0
144 164 0
141 160 0
152 172 0
143 162 0
147 167 0
148 169 0
143 163 0
146 167 0
146 166 0
145 166 0
143 163 0
147 167 0
147 168 0
148 168 0
138 158 0
141 161 0
131 151 0
141 161 0
136 156 0
136 156 0
138 157 0
143 163 0
148 168 0
146 167 0
137 158 0
138 159 0
146 166 0
148 169 0
145 166 0
138 159 0
145 167 0
141 162 0
139 161 0
146 165 0
144 165 0
143 163 0
143 163 0
132 152 0
148 169 0
145 167 0
145 164 0
140 162 0
142 163 0
142 163 0
142 162 0
142 163 0
140 158 0
155 176 0
138 158 0
131 152 0
136 156 0
137 160 0
140 161 0
143 165 0
138 158 0
139 160 0
139 160 0
146 168 0
132 153 0
143 164 0
135 156 0
136 157 0
135 155 0
137 159 0
135 156 0
140 161 0
135 155 0
133 153 0
141 162 0
142 163 0
133 154 0
134 154 0
141 160 0
139 161 0
140 160 0
144 164 0
135 155 0
133 155 0
140 159 0
132 151 0
133 153 0
137 158 0
135 154 0
141 162 0
132 152 0
136 158 0
135 156 0
131 153 0
136 156 0
131 152 0
129 148 0
129 150 0
138 158 0
133 153 0
128 148 0
142 161 0
133 153 0
131 150 0
134 153 0
140 159 0
136 155 0
138 158 0
139 158 0
128 147 0
139 159 0
130 151 0
140 160 0
136 155 0
146 167 0
137 158 0
132 152 0
133 151 0
130 149 0
145 164 0
128 150 0
133 154 0
139 158 0
130 151 0
146 167 0
148 169 0
138 158 0
137 156 0
138 156 0
142 160 0
133 152 0
132 152 0
132 152 0
142 162 0
122 139 0
138 156 0
144 162 0
136 155 0
134 153 0
142 161 0
144 162 0
146 165 0
145 165 0
146 164 0
134 153 0
139 158 0
135 154 0
143 162 0
136 155 0
148 167 0
142 161 0
135 156 0
137 154 0
139 158 0
142 160 0
135 154 0
141 159 0
137 154 0
134 153 0
142 162 0
145 165 0
142 162 0
141 158 0
145 165 0
136 151 0
144 162 0
142 160 0
145 164 0
136 153 0
133 149 0
143 160 0
136 154 0
147 164 0
136 154 0
146 164 0
143 161 0
139 157 0
141 158 0
139 155 0
145 162 0
145 162 0
138 155 0
146 163 0
142 159 0
146 161 0
150 168 0
136 153 0
137 152 0
143 160 0
135 149 0
138 153 0
139 153 0
146 163 0
142 156 0
142 159 0
135 147 0
145 161 0
141 155 0
142 155 0
139 156 0
140 152 0
150 167 0
138 152 0
139 153 0
142 157 0
140 154 0
139 152 0
147 162 0
151 166 0
150 164 0
146 159 0
143 157 0
139 151 0
142 155 0
146 157 0
144 156 0
134 146 0
145 155 0
145 155 0
145 156 0
145 158 0
135 146 0
143 156 0
144 155 0
135 145 0
151 163 0
134 143 0
143 152 0
140 151 0
140 148 0
143 157 0
138 147 0
140 148 0
148 159 0
142 154 0
144 154 0
150 158 0
144 155 0
141 148 0
144 152 0
138 143 0
140 145 0
137 140 0
149 158 0
145 152 0
139 144 0
146 152 0
142 147 0
141 147 0
150 159 0
145 151 0
138 144 0
142 147 0
145 151 0
145 151 0
142 147 0
145 152 0
143 150 0
144 147 0
148 152 0
146 151 0
144 149 0
139 144 0
149 153 0
152 158 0
147 151 0
150 156 0
145 151 0
148 152 0
141 145 0
155 162 0
141 143 0
142 147 0
146 150 0
149 155 0
136 141 0
145 150 0
148 153 0
153 160 0
148 154 0
148 153 0
152 161 0
145 150 0
146 153 0
148 155 0
149 153 0
155 163 0
151 158 0
154 161 0
142 145 0
150 156 0
154 162 0
156 164 0
155 164 0
157 163 0
160 170 0
157 165 0
157 166 0
158 169 0
162 173 0
159 170 0
159 170 0
152 162 0
161 171 0
158 167 0
154 159 0
160 179 0
159 179 0
157 175 0
161 180 0
159 178 0
158 177 0
161 179 0
159 177 0
159 178 0
155 172 0
153 172 0
158 176 0
159 178 0
155 173 0
153 171 0
157 176 0
159 178 0
156 174 0
155 172 0
158 176 0
161 179 0
150 166 0
158 176 0
155 171 0
150 168 0
163 182 0
154 171 0
151 168 0
152 169 0
154 172 0
152 170 0
149 166 0
152 170 0
151 167 0
153 171 0
152 169 0
154 171 0
154 171 0
147 163 0
152 169 0
151 169 0
144 161 0
156 173 0
153 171 0
153 171 0
152 169 0
150 166 0
149 166 0
152 170 0
146 162 0
156 173 0
149 167 0
143 160 0
148 166 0
152 170 0
147 165 0
152 171 0
146 164 0
148 166 0
144 161 0
146 163 0
151 169 0
148 166 0
146 164 0
152 169 0
142 159 0
148 165 0
148 165 0
152 170 0
153 171 0
147 165 0
149 168 0
147 165 0
142 159 0
143 161 0
146 165 0
151 171 0
139 158 0
142 160 0
144 163 0
147 165 0
149 169 0
146 163 0
143 164 0
142 161 0
142 160 0
148 166 0
144 163 0
156 175 0
147 165 0
142 161 0
141 159 0
144 163 0
139 159 0
141 161 0
141 161 0
149 169 0
148 167 0
144 164 0
144 164 0
139 159 0
146 165 0
138 158 0
147 167 0
138 158 0
146 167 0
138 158 0
138 158 0
141 162 0
142 162 0
151 171 0
143 163 0
133 154 0
145 166 0
154 174 0
138 159 0
146 166 0
145 166 0
138 159 0
138 159 0
149 169 0
140 160 0
146 166 0
145 166 0
144 166 0
143 164 0
145 165 0
152 173 0
150 170 0
145 166 0
140 160 0
149 169 0
147 168 0
143 163 0
149 170 0
139 160 0
143 164 0
142 163 0
141 161 0
148 170 0
143 164 0
150 171 0
142 164 0
142 164 0
138 158 0
140 160 0
135 156 0
144 164 0
143 164 0
137 157 0
142 164 0
145 168 0
137 158 0
146 167 0
142 164 0
144 163 0
130 150 0
138 158 0
143 165 0
136 156 0
150 171 0
143 164 0
142 162 0
133 154 0
144 165 0
149 170 0
138 158 0
137 159 0
139 160 0
134 154 0
143 165 0
137 156 0
136 156 0
139 159 0
144 165 0
136 157 0
137 159 0
136 155 0
139 159 0
145 166 0
146 166 0
140 161 0
142 163 0
139 160 0
131 153 0
134 154 0
133 153 0
145 166 0
137 156 0
142 163 0
142 161 0
133 152 0
139 161 0
135 157 0
138 158 0
128 148 0
139 160 0
134 154 0
136 155 0
138 159 0
131 150 0
134 155 0
136 154 0
135 156 0
135 154 0
138 159 0
137 156 0
134 155 0
138 157 0
135 155 0
133 153 0
134 154 0
135 155 0
135 155 0
140 162 0
138 157 0
136 154 0
133 153 0
141 159 0
146 167 0
134 152 0
135 154 0
140 160 0
139 159 0
135 156 0
142 160 0
146 164 0
128 147 0
135 156 0
137 156 0
137 156 0
148 166 0
131 151 0
130 148 0
144 163 0
138 157 0
146 167 0
141 162 0
141 163 0
135 155 0
142 161 0
138 156 0
143 162 0
137 153 0
148 167 0
138 159 0
137 156 0
140 160 0
137 156 0
147 164 0
147 164 0
146 164 0
137 155 0
145 165 0
140 158 0
144 160 0
144 163 0
147 167 0
124 142 0
135 150 0
143 163 0
148 166 0
140 157 0
143 159 0
152 171 0
138 156 0
134 150 0
138 155 0
146 163 0
141 160 0
135 152 0
149 167 0
140 156 0
145 162 0
139 157 0
141 158 0
141 157 0
142 159 0
146 163 0
142 158 0
138 152 0
145 161 0
142 157 0
142 155 0
150 165 0
147 164 0
150 167 0
133 150 0
141 157 0
140 157 0
142 160 0
137 150 0
141 157 0
139 152 0
150 165 0
143 157 0
148 164 0
139 153 0
140 153 0
150 162 0
147 162 0
145 161 0
146 159 0
145 157 0
140 154 0
147 161 0
143 154 0
143 158 0
145 158 0
140 152 0
138 152 0
131 140 0
138 151 0
147 161 0
144 158 0
145 157 0
136 148 0
140 151 0
145 155 0
144 158 0
147 159 0
142 153 0
146 158 0
143 153 0
142 148 0
148 159 0
146 157 0
145 156 0
150 160 0
133 141 0
139 150 0
145 152 0
143 150 0
147 154 0
141 150 0
138 144 0
135 143 0
150 161 0
144 152 0
142 149 0
145 153 0
140 146 0
148 157 0
149 155 0
142 151 0
146 153 0
140 143 0
139 143 0
146 151 0
146 153 0
140 145 0
142 151 0
145 150 0
143 148 0
143 148 0
141 147 0
141 146 0
151 156 0
151 159 0
146 151 0
140 148 0
146 149 0
151 156 0
149 153 0
145 149 0
146 151 0
147 153 0
153 162 0
151 158 0
155 160 0
144 149 0
148 150 0
147 154 0
157 164 0
143 147 0
147 152 0
147 154 0
154 160 0
152 161 0
146 152 0
138 145 0
153 158 0
155 162 0
154 161 0
149 154 0
153 157 0
145 149 0
152 163 0
157 165 0
157 164 0
153 162 0
155 163 0
152 160 0
154 162 0
150 160 0
161 171 0
152 160 0
157 166 0
158 169 0
161 172 0
161 179 0
160 180 0
159 177 0
159 178 0
163 182 0
161 179 0
158 176 0
162 181 0
159 177 0
156 174 0
156 174 0
156 174 0
157 175 0
156 174 0
166 183 0
156 175 0
155 173 0
155 172 0
153 169 0
150 167 0
160 178 0
158 176 0
152 170 0
157 175 0
152 170 0
156 175 0
156 173 0
155 172 0
159 176 0
151 169 0
150 167 0
160 178 0
152 169 0
154 172 0
152 170 0
152 170 0
154 172 0
154 173 0
152 169 0
152 169 0
152 170 0
145 162 0
156 175 0
157 175 0
149 166 0
152 170 0
153 171 0
151 170 0
155 173 0
152 170 0
157 175 0
148 166 0
149 166 0
145 163 0
149 167 0
153 171 0
150 168 0
146 163 0
150 168 0
153 171 0
148 165 0
147 164 0
157 175 0
145 164 0
152 169 0
154 173 0
153 171 0
150 170 0
151 170 0
148 167 0
142 160 0
151 170 0
148 167 0
146 166 0
153 172 0
153 173 0
146 165 0
148 167 0
147 166 0
142 161 0
145 164 0
149 168 0
155 174 0
141 160 0
152 170 0
146 166 0
149 169 0
142 161 0
147 166 0
146 166 0
145 166 0
152 171 0
145 164 0
148 168 0
147 166 0
151 172 0
151 171 0
139 158 0
149 168 0
147 168 0
146 165 0
152 173 0
149 169 0
141 160 0
146 166 0
146 166 0
140 161 0
138 159 0
150 170 0
142 163 0
150 170 0
148 168 0
140 160 0
145 166 0
142 162 0
143 164 0
149 170 0
150 170 0
142 162 0
141 162 0
154 173 0
149 170 0
142 163 0
140 160 0
145 166 0
143 163 0
149 169 0
145 166 0
145 165 0
148 169 0
144 164 0
142 161 0
140 160 0
141 163 0
154 175 0
146 167 0
141 163 0
151 171 0
148 169 0
146 166 0
146 166 0
151 172 0
131 152 0
151 173 0
146 167 0
148 170 0
149 171 0
141 162 0
142 164 0
125 146 0
139 162 0
143 163 0
142 163 0
147 169 0
143 164 0
138 159 0
140 160 0
134 154 0
150 172 0
138 158 0
142 164 0
141 161 0
147 167 0
144 166 0
139 159 0
136 157 0
141 162 0
146 168 0
141 162 0
138 160 0
135 155 0
147 168 0
145 166 0
136 156 0
144 166 0
138 159 0
141 161 0
140 161 0
151 172 0
125 146 0
140 161 0
144 164 0
138 159 0
143 164 0
144 163 0
138 157 0
141 161 0
139 159 0
148 169 0
128 148 0
146 168 0
148 169 0
139 160 0
145 165 0
135 156 0
145 165 0
141 161 0
135 155 0
129 149 0
137 158 0
142 163 0
132 154 0
134 155 0
128 148 0
135 155 0
141 161 0
137 157 0
142 162 0
143 162 0
136 156 0
135 154 0
142 163 0
137 156 0
138 158 0
130 150 0
136 158 0
129 149 0
138 158 0
137 156 0
140 160 0
141 162 0
148 168 0
140 159 0
142 162 0
138 158 0
135 155 0
129 147 0
140 160 0
143 162 0
142 163 0
141 162 0
147 167 0
134 155 0
153 172 0
140 160 0
128 147 0
129 147 0
138 158 0
142 162 0
138 158 0
140 160 0
149 167 0
155 173 0
142 159 0
146 163 0
145 167 0
131 148 0
135 153 0
146 163 0
134 154 0
141 161 0
142 160 0
142 160 0
144 164 0
142 161 0
143 162 0
151 171 0
138 157 0
145 163 0
144 163 0
148 166 0
144 161 0
140 158 0
145 165 0
136 154 0
150 169 0
145 163 0
142 160 0
143 161 0
141 157 0
140 155 0
140 157 0
141 161 0
146 164 0
144 160 0
142 159 0
143 160 0
138 154 0
150 168 0
146 162 0
152 169 0
143 161 0
138 155 0
149 164 0
138 156 0
146 162 0
144 162 0
142 158 0
142 158 0
146 160 0
146 160 0
148 165 0
146 162 0
141 157 0
143 162 0
145 159 0
146 163 0
147 162 0
141 154 0
146 161 0
144 157 0
144 156 0
142 158 0
143 155 0
136 148 0
138 151 0
149 165 0
144 158 0
148 163 0
149 161 0
141 153 0
149 162 0
145 158 0
143 153 0
139 151 0
147 159 0
145 155 0
146 157 0
141 156 0
142 152 0
141 150 0
152 165 0
133 143 0
141 152 0
144 158 0
139 150 0
142 152 0
141 151 0
152 163 0
148 157 0
150 161 0
141 150 0
147 157 0
143 153 0
146 157 0
151 159 0
138 146 0
146 153 0
149 157 0
147 156 0
139 146 0
141 150 0
141 149 0
142 149 0
149 158 0
144 148 0
154 164 0
146 153 0
143 149 0
143 147 0
147 155 0
148 156 0
141 146 0
146 155 0
144 151 0
146 154 0
150 157 0
142 148 0
138 141 0
149 154 0
152 161 0
141 147 0
135 139 0
142 146 0
151 159 0
150 157 0
149 155 0
149 153 0
150 153 0
147 153 0
148 153 0
152 158 0
149 155 0
153 161 0
148 156 0
150 157 0
149 154 0
150 157 0
152 158 0
155 161 0
149 154 0
156 166 0
155 164 0
150 159 0
151 157 0
153 163 0
151 157 0
156 164 0
156 165 0
158 168 0
154 162 0
161 171 0
147 153 0
157 165 0
153 160 0
153 160 0
153 160 0
155 163 0
161 173 0
154 165 0
160 180 0
162 180 0
161 181 0
156 175 0
163 183 0
159 177 0
158 176 0
160 179 0
162 181 0
161 180 0
158 176 0
158 177 0
158 176 0
153 171 0
160 178 0
153 171 0
154 173 0
158 178 0
155 174 0
152 171 0
155 172 0
157 176 0
155 174 0
150 169 0
154 172 0
159 176 0
152 169 0
157 176 0
153 170 0
147 164 0
154 172 0
153 172 0
154 171 0
151 168 0
155 173 0
156 174 0
152 170 0
148 165 0
156 173 0
150 167 0
145 161 0
151 169 0
159 177 0
154 172 0
148 166 0
152 171 0
149 166 0
145 163 0
148 167 0
150 168 0
156 174 0
154 172 0
156 174 0
157 175 0
155 173 0
153 171 0
149 166 0
144 162 0
153 171 0
152 170 0
143 161 0
142 160 0
151 169 0
151 169 0
152 170 0
151 172 0
149 168 0
154 173 0
148 167 0
148 166 0
142 159 0
152 172 0
150 168 0
142 161 0
150 169 0
150 169 0
149 169 0
146 166 0
145 165 0
150 170 0
150 168 0
149 168 0
149 168 0
150 171 0
143 162 0
146 165 0
153 173 0
131 149 0
142 161 0
146 166 0
153 173 0
147 167 0
140 158 0
154 174 0
149 169 0
143 163 0
155 175 0
140 160 0
151 172 0
147 168 0
150 170 0
145 165 0
148 169 0
146 167 0
133 153 0
148 169 0
154 174 0
149 170 0
145 165 0
145 165 0
149 170 0
147 169 0
151 172 0
144 164 0
141 162 0
148 170 0
148 168 0
146 168 0
151 174 0
147 167 0
149 171 0
141 161 0
144 165 0
145 166 0
142 161 0
156 177 0
139 160 0
145 165 0
150 170 0
142 162 0
148 168 0
154 174 0
147 169 0
147 168 0
141 162 0
139 159 0
145 166 0
140 161 0
146 167 0
150 172 0
141 162 0
152 173 0
145 167 0
143 164 0
146 167 0
147 167 0
141 162 0
140 162 0
144 166 0
148 171 0
141 163 0
145 165 0
142 162 0
143 163 0
141 161 0
140 161 0
137 158 0
133 154 0
141 163 0
148 170 0
142 162 0
147 167 0
137 157 0
148 169 0
139 160 0
147 168 0
136 156 0
137 157 0
140 162 0
144 164 0
134 153 0
135 154 0
137 157 0
129 149 0
141 162 0
131 150 0
135 155 0
146 167 0
146 167 0
141 160 0
132 153 0
146 168 0
134 155 0
124 145 0
138 158 0
141 162 0
134 155 0
140 159 0
142 163 0
143 164 0
139 160 0
146 169 0
141 163 0
135 156 0
139 161 0
136 157 0
143 162 0
144 164 0
131 150 0
141 161 0
137 159 0
142 161 0
136 157 0
134 155 0
127 147 0
134 153 0
135 155 0
132 153 0
137 156 0
137 157 0
135 155 0
140 159 0
137 158 0
139 161 0
142 161 0
143 163 0
147 167 0
128 146 0
145 164 0
136 154 0
138 157 0
134 152 0
138 155 0
138 160 0
144 164 0
139 157 0
146 166 0
137 156 0
132 152 0
142 161 0
144 163 0
144 163 0
143 163 0
139 159 0
134 153 0
146 166 0
137 156 0
150 169 0
150 169 0
136 155 0
128 148 0
135 156 0
140 158 0
133 151 0
143 163 0
137 158 0
148 166 0
141 158 0
144 162 0
144 163 0
140 159 0
148 168 0
141 161 0
145 163 0
144 162 0
140 158 0
143 163 0
134 152 0
142 158 0
142 160 0
145 164 0
139 157 0
146 165 0
150 170 0
143 161 0
145 164 0
149 167 0
143 162 0
140 156 0
146 163 0
146 163 0
134 151 0
147 164 0
141 158 0
147 164 0
142 159 0
153 172 0
148 165 0
142 158 0
151 168 0
145 161 0
138 154 0
141 156 0
150 164 0
149 168 0
147 165 0
154 172 0
136 153 0
145 162 0
142 157 0
144 158 0
143 156 0
141 156 0
137 148 0
139 154 0
138 154 0
150 168 0
148 165 0
135 148 0
144 159 0
143 158 0
145 159 0
142 157 0
145 160 0
151 163 0
143 158 0
145 161 0
143 158 0
144 157 0
136 148 0
138 150 0
147 162 0
140 151 0
144 157 0
142 153 0
149 162 0
150 161 0
140 153 0
152 165 0
145 156 0
143 154 0
143 153 0
140 151 0
146 159 0
138 147 0
140 152 0
149 157 0
146 156 0
151 165 0
142 151 0
140 145 0
153 168 0
146 155 0
147 157 0
147 157 0
139 147 0
135 143 0
148 160 0
145 153 0
142 153 0
148 159 0
142 149 0
144 152 0
153 163 0
139 147 0
140 148 0
150 159 0
139 146 0
139 147 0
148 158 0
152 160 0
152 162 0
144 150 0
137 144 0
147 154 0
148 158 0
145 152 0
146 153 0
145 152 0
155 163 0
148 155 0
156 163 0
147 153 0
152 159 0
154 161 0
151 159 0
151 159 0
152 159 0
149 157 0
142 150 0
153 161 0
151 156 0
153 158 0
152 158 0
152 161 0
141 148 0
152 160 0
152 159 0
149 152 0
151 158 0
150 155 0
138 142 0
149 158 0
147 151 0
150 158 0
160 169 0
155 162 0
151 159 0
160 166 0
154 161 0
151 158 0
156 164 0
161 174 0
156 167 0
159 167 0
156 166 0
153 162 0
161 172 0
160 171 0
153 163 0
161 180 0
159 178 0
164 184 0
159 178 0
164 183 0
167 186 0
164 183 0
166 186 0
160 178 0
155 173 0
158 177 0
157 175 0
157 175 0
158 176 0
155 174 0
155 173 0
155 172 0
157 176 0
157 175 0
156 174 0
157 175 0
159 177 0
159 177 0
154 172 0
152 170 0
153 170 0
152 170 0
160 179 0
150 167 0
159 177 0
152 170 0
156 173 0
157 175 0
152 170 0
149 167 0
153 171 0
155 174 0
152 170 0
151 169 0
147 165 0
149 167 0
157 176 0
158 176 0
153 171 0
150 167 0
153 171 0
152 169 0
154 173 0
150 168 0
154 172 0
150 169 0
145 163 0
150 168 0
150 168 0
143 161 0
150 168 0
154 172 0
148 166 0
152 171 0
152 170 0
146 165 0
149 168 0
154 173 0
152 171 0
145 164 0
148 165 0
146 165 0
140 158 0
148 166 0
154 174 0
143 162 0
147 166 0
145 162 0
153 171 0
148 167 0
147 165 0
145 163 0
148 166 0
148 167 0
146 165 0
145 164 0
147 166 0
143 163 0
140 158 0
143 163 0
150 170 0
148 167 0
146 166 0
147 166 0
145 165 0
144 164 0
149 168 0
146 167 0
149 168 0
149 169 0
152 173 0
146 167 0
150 170 0
156 176 0
147 167 0
141 160 0
142 163 0
151 172 0
150 170 0
148 168 0
147 167 0
150 170 0
140 160 0
148 169 0
149 169 0
148 168 0
143 164 0
143 164 0
150 172 0
152 172 0
142 164 0
150 171 0
144 164 0
144 164 0
143 163 0
143 164 0
146 167 0
142 163 0
147 168 0
149 171 0
146 166 0
140 161 0
137 157 0
145 165 0
150 171 0
133 154 0
150 172 0
140 162 0
139 160 0
143 164 0
147 169 0
136 157 0
140 159 0
147 168 0
145 167 0
140 163 0
144 166 0
139 161 0
146 167 0
147 169 0
145 167 0
137 159 0
142 163 0
146 167 0
142 163 0
140 159 0
139 160 0
146 168 0
141 161 0
143 165 0
140 161 0
134 155 0
138 160 0
145 166 0
136 158 0
142 163 0
146 167 0
143 164 0
142 163 0
134 156 0
143 163 0
147 168 0
136 157 0
134 155 0
148 169 0
137 158 0
145 166 0
136 156 0
136 157 0
136 156 0
137 157 0
127 147 0
134 155 0
137 158 0
145 167 0
147 168 0
140 161 0
139 158 0
139 160 0
145 165 0
136 156 0
141 161 0
135 155 0
137 159 0
141 161 0
135 157 0
148 170 0
130 151 0
146 166 0
132 151 0
135 156 0
134 153 0
145 166 0
146 167 0
134 154 0
141 161 0
139 159 0
143 164 0
145 165 0
136 156 0
140 161 0
140 160 0
142 162 0
141 161 0
145 165 0
143 161 0
138 157 0
140 160 0
143 164 0
144 165 0
136 155 0
140 160 0
140 158 0
142 163 0
136 156 0
146 167 0
135 155 0
141 161 0
146 167 0
138 157 0
138 157 0
136 156 0
142 161 0
148 167 0
144 163 0
146 167 0
140 160 0
137 156 0
147 167 0
143 163 0
137 158 0
143 163 0
138 160 0
135 153 0
145 164 0
134 154 0
128 147 0
151 170 0
142 161 0
140 159 0
139 159 0
149 168 0
140 159 0
142 160 0
144 164 0
146 163 0
149 169 0
144 163 0
144 163 0
142 159 0
141 160 0
145 163 0
140 160 0
149 167 0
140 160 0
141 159 0
145 164 0
130 148 0
145 164 0
143 161 0
146 164 0
146 164 0
142 159 0
148 167 0
143 160 0
151 169 0
140 156 0
143 163 0
143 161 0
140 157 0
140 158 0
142 161 0
147 164 0
145 161 0
140 156 0
150 165 0
138 154 0
145 160 0
149 165 0
143 161 0
146 162 0
144 162 0
147 163 0
145 161 0
140 155 0
142 158 0
141 158 0
146 163 0
143 159 0
150 167 0
150 166 0
145 160 0
148 164 0
149 164 0
144 160 0
145 160 0
147 162 0
141 154 0
144 159 0
133 148 0
148 161 0
148 164 0
137 149 0
148 162 0
144 160 0
150 163 0
144 157 0
143 160 0
148 162 0
145 158 0
147 158 0
140 151 0
142 153 0
149 162 0
146 160 0
145 156 0
141 152 0
146 162 0
152 165 0
144 155 0
138 149 0
147 160 0
138 150 0
145 154 0
137 147 0
140 148 0
145 153 0
140 150 0
146 156 0
143 153 0
142 151 0
147 158 0
132 138 0
146 156 0
150 161 0
154 163 0
140 151 0
152 159 0
149 155 0
154 163 0
156 166 0
146 153 0
151 159 0
148 157 0
149 156 0
147 156 0
151 159 0
153 161 0
155 165 0
146 153 0
143 152 0
148 154 0
148 153 0
139 142 0
150 158 0
151 158 0
150 156 0
151 162 0
149 157 0
147 155 0
146 153 0
154 163 0
143 148 0
145 152 0
150 158 0
153 161 0
157 166 0
150 160 0
144 149 0
150 157 0
148 153 0
152 158 0
157 167 0
156 167 0
155 163 0
151 157 0
151 158 0
150 156 0
151 157 0
149 153 0
151 157 0
151 159 0
156 167 0
157 164 0
150 156 0
155 166 0
150 159 0
151 157 0
156 165 0
153 161 0
154 163 0
150 158 0
158 167 0
161 171 0
152 162 0
159 178 0
162 181 0
164 184 0
158 176 0
156 174 0
158 176 0
161 181 0
156 175 0
161 179 0
160 179 0
160 179 0
157 176 0
157 175 0
152 169 0
155 174 0
156 174 0
153 171 0
161 179 0
158 177 0
157 175 0
158 177 0
157 176 0
157 175 0
157 175 0
155 173 0
157 175 0
155 173 0
158 178 0
152 169 0
152 169 0
157 175 0
154 173 0
154 172 0
153 171 0
152 169 0
153 172 0
158 176 0
162 180 0
153 170 0
153 171 0
151 169 0
147 166 0
146 164 0
150 169 0
153 172 0
154 172 0
149 167 0
147 166 0
148 166 0
150 168 0
152 170 0
151 169 0
155 173 0
148 167 0
152 170 0
151 170 0
151 170 0
151 169 0
151 169 0
154 173 0
147 165 0
153 173 0
153 171 0
149 167 0
153 171 0
148 167 0
150 168 0
155 174 0
148 168 0
147 166 0
147 167 0
144 163 0
150 170 0
152 171 0
152 171 0
152 171 0
154 174 0
155 174 0
150 168 0
149 168 0
145 164 0
143 163 0
146 165 0
151 170 0
157 177 0
149 169 0
137 158 0
150 170 0
141 161 0
148 168 0
142 162 0
144 163 0
148 168 0
147 168 0
155 175 0
151 171 0
141 161 0
144 165 0
153 174 0
143 162 0
140 159 0
151 171 0
148 169 0
146 166 0
155 174 0
144 164 0
150 171 0
152 174 0
143 164 0
149 170 0
148 169 0
142 163 0
145 167 0
142 162 0
150 171 0
149 169 0
149 169 0
149 170 0
149 171 0
147 167 0
141 162 0
137 157 0
146 168 0
143 163 0
144 164 0
146 166 0
148 169 0
146 167 0
146 166 0
145 167 0
146 168 0
144 166 0
143 165 0
151 171 0
151 173 0
139 159 0
143 163 0
149 170 0
147 168 0
139 160 0
147 168 0
153 175 0
153 175 0
141 162 0
132 153 0
147 169 0
134 155 0
153 175 0
141 163 0
141 162 0
142 162 0
138 159 0
139 160 0
144 165 0
143 162 0
141 164 0
140 162 0
146 168 0
145 167 0
144 166 0
146 168 0
147 168 0
145 167 0
138 159 0
144 166 0
141 162 0
139 160 0
136 157 0
142 163 0
145 166 0
145 167 0
140 161 0
141 163 0
144 166 0
138 158 0
147 167 0
135 155 0
137 158 0
145 167 0
142 163 0
147 168 0
137 159 0
136 157 0
139 160 0
138 158 0
149 171 0
143 163 0
146 168 0
144 165 0
143 164 0
141 162 0
136 156 0
142 162 0
141 162 0
134 155 0
146 167 0
138 160 0
145 165 0
139 159 0
142 161 0
142 162 0
140 159 0
147 167 0
139 159 0
147 167 0
142 163 0
133 154 0
132 152 0
139 160 0
143 164 0
131 150 0
145 164 0
139 157 0
133 154 0
138 157 0
140 160 0
139 160 0
137 157 0
138 158 0
134 154 0
142 162 0
144 166 0
138 158 0
146 166 0
136 155 0
139 160 0
137 156 0
141 160 0
136 157 0
141 162 0
133 154 0
140 160 0
139 160 0
143 163 0
136 156 0
142 161 0
151 171 0
143 162 0
140 159 0
145 165 0
134 153 0
145 164 0
148 169 0
144 163 0
143 161 0
149 168 0
148 167 0
142 163 0
144 164 0
148 167 0
144 162 0
147 168 0
135 152 0
145 164 0
144 163 0
149 169 0
144 162 0
141 161 0
143 163 0
150 170 0
136 154 0
144 162 0
141 161 0
145 165 0
144 161 0
144 163 0
137 155 0
139 156 0
140 157 0
142 161 0
142 158 0
153 172 0
143 161 0
144 163 0
148 166 0
151 167 0
145 163 0
139 155 0
148 165 0
143 160 0
148 164 0
140 157 0
151 169 0
140 158 0
146 163 0
139 155 0
144 160 0
140 154 0
149 167 0
143 157 0
149 166 0
144 161 0
146 163 0
147 164 0
144 161 0
146 160 0
149 164 0
148 165 0
144 160 0
150 165 0
147 161 0
143 157 0
147 161 0
154 170 0
146 159 0
149 165 0
147 158 0
152 165 0
154 169 0
151 165 0
145 160 0
140 152 0
149 164 0
142 157 0
151 166 0
146 158 0
139 151 0
146 161 0
139 152 0
142 155 0
148 161 0
149 161 0
146 157 0
155 169 0
152 167 0
150 163 0
140 151 0
150 164 0
140 151 0
144 154 0
146 158 0
150 161 0
135 147 0
148 159 0
150 160 0
139 149 0
145 157 0
152 162 0
148 160 0
153 165 0
142 152 0
139 146 0
149 160 0
147 158 0
152 161 0
155 163 0
148 161 0
149 159 0
154 162 0
145 153 0
145 153 0
151 159 0
143 148 0
143 149 0
145 153 0
150 160 0
149 157 0
152 162 0
146 152 0
146 154 0
144 152 0
146 153 0
147 156 0
144 152 0
147 156 0
152 160 0
152 158 0
152 160 0
143 150 0
150 157 0
146 153 0
144 150 0
146 151 0
149 158 0
154 163 0
146 152 0
152 159 0
154 164 0
151 160 0
156 166 0
154 162 0
150 157 0
154 163 0
152 159 0
155 166 0
152 161 0
148 157 0
153 162 0
149 158 0
153 160 0
155 165 0
157 165 0
153 166 0
156 166 0
161 171 0
161 170 0
156 165 0
164 173 0
159 170 0
159 171 0
156 176 0
159 177 0
159 177 0
162 181 0
158 177 0
161 180 0
158 177 0
154 172 0
159 177 0
161 179 0
157 175 0
158 178 0
162 180 0
153 171 0
161 180 0
158 176 0
155 173 0
153 170 0
161 179 0
160 178 0
160 178 0
153 171 0
158 176 0
154 172 0
157 176 0
153 171 0
157 176 0
149 166 0
158 177 0
154 172 0
150 169 0
156 175 0
152 170 0
158 176 0
151 169 0
154 172 0
150 168 0
151 170 0
158 177 0
154 172 0
151 169 0
148 167 0
150 169 0
153 171 0
160 178 0
153 171 0
145 164 0
144 162 0
154 173 0
154 173 0
150 168 0
152 171 0
151 170 0
159 178 0
149 168 0
158 177 0
156 175 0
143 161 0
153 171 0
154 173 0
152 171 0
160 178 0
153 172 0
155 174 0
153 171 0
151 170 0
149 168 0
150 168 0
148 166 0
156 175 0
144 164 0
146 165 0
146 166 0
142 161 0
149 168 0
149 169 0
152 172 0
142 161 0
149 168 0
150 170 0
157 177 0
152 172 0
152 171 0
144 164 0
152 173 0
149 169 0
151 172 0
148 169 0
145 165 0
150 169 0
154 173 0
154 175 0
142 162 0
144 164 0
147 168 0
150 171 0
151 171 0
147 167 0
139 160 0
149 170 0
155 176 0
156 178 0
152 173 0
151 172 0
144 165 0
151 172 0
146 167 0
147 168 0
147 167 0
152 173 0
153 173 0
144 166 0
142 162 0
157 179 0
150 171 0
153 172 0
153 174 0
150 171 0
144 166 0
143 164 0
153 175 0
150 169 0
146 167 0
146 168 0
143 163 0
154 175 0
145 166 0
153 174 0
154 175 0
147 168 0
150 169 0
144 166 0
141 162 0
150 171 0
146 167 0
144 165 0
151 172 0
144 165 0
149 171 0
146 168 0
145 165 0
140 160 0
143 165 0
139 161 0
148 170 0
142 163 0
150 171 0
143 165 0
148 169 0
142 162 0
143 164 0
149 169 0
145 166 0
146 167 0
146 168 0
137 157 0
151 173 0
140 163 0
145 166 0
147 169 0
144 166 0
144 166 0
146 166 0
145 166 0
146 168 0
142 164 0
140 161 0
141 163 0
129 149 0
144 164 0
149 171 0
148 168 0
145 166 0
141 162 0
142 164 0
141 162 0
142 164 0
139 161 0
145 167 0
146 167 0
142 162 0
148 168 0
135 155 0
147 169 0
131 152 0
141 162 0
139 160 0
135 156 0
140 160 0
135 156 0
140 162 0
140 160 0
142 162 0
145 166 0
148 169 0
139 158 0
135 155 0
135 155 0
149 169 0
141 163 0
140 160 0
138 160 0
145 164 0
140 161 0
145 165 0
139 159 0
146 166 0
145 165 0
138 159 0
125 145 0
137 158 0
140 161 0
146 168 0
142 162 0
133 154 0
144 164 0
142 163 0
135 155 0
141 160 0
136 153 0
132 153 0
136 155 0
136 156 0
133 153 0
142 162 0
144 165 0
141 161 0
141 161 0
146 166 0
136 154 0
137 154 0
150 168 0
143 165 0
137 156 0
145 166 0
140 159 0
143 163 0
151 172 0
142 161 0
144 165 0
145 166 0
142 161 0
132 150 0
139 157 0
145 165 0
150 170 0
145 164 0
139 159 0
147 165 0
142 162 0
136 155 0
146 166 0
146 165 0
146 166 0
141 161 0
136 155 0
139 158 0
147 166 0
147 166 0
147 165 0
142 158 0
141 158 0
146 165 0
144 163 0
146 165 0
149 167 0
146 166 0
146 163 0
144 163 0
145 162 0
137 155 0
150 168 0
147 165 0
152 171 0
144 163 0
151 169 0
151 170 0
143 161 0
143 161 0
146 163 0
152 167 0
145 163 0
144 162 0
148 168 0
137 154 0
146 165 0
140 157 0
137 152 0
152 171 0
139 156 0
146 163 0
142 158 0
146 162 0
143 160 0
144 162 0
144 160 0
151 168 0
146 163 0
143 159 0
142 157 0
145 160 0
149 165 0
141 155 0
153 169 0
145 160 0
144 158 0
146 162 0
150 166 0
149 163 0
149 165 0
139 153 0
146 160 0
145 162 0
142 156 0
149 163 0
144 157 0
145 159 0
153 166 0
140 154 0
147 160 0
152 165 0
135 147 0
141 153 0
139 153 0
140 150 0
145 157 0
143 154 0
140 153 0
137 147 0
147 160 0
145 156 0
148 164 0
147 159 0
148 158 0
148 159 0
140 150 0
139 147 0
153 166 0
145 152 0
143 152 0
152 163 0
145 155 0
156 166 0
143 154 0
148 159 0
145 158 0
152 163 0
142 149 0
150 160 0
148 157 0
148 157 0
149 159 0
149 163 0
152 163 0
144 153 0
142 148 0
146 156 0
145 153 0
142 151 0
155 167 0
154 163 0
149 161 0
158 170 0
142 152 0
147 153 0
154 163 0
151 162 0
139 146 0
146 153 0
150 159 0
149 155 0
148 156 0
156 164 0
151 156 0
152 157 0
154 161 0
155 163 0
152 161 0
156 166 0
147 153 0
158 163 0
149 157 0
156 167 0
160 171 0
154 162 0
152 162 0
156 165 0
154 160 0
149 155 0
155 165 0
152 162 0
154 163 0
152 160 0
156 167 0
155 164 0
156 164 0
158 166 0
156 169 0
155 165 0
154 161 0
162 181 0
160 180 0
157 176 0
160 179 0
163 182 0
160 179 0
157 176 0
158 176 0
161 181 0
160 179 0
160 180 0
158 176 0
157 176 0
157 175 0
160 179 0
156 175 0
155 173 0
157 176 0
157 175 0
152 170 0
157 176 0
156 174 0
155 174 0
155 173 0
156 175 0
155 172 0
157 177 0
157 176 0
153 171 0
156 174 0
155 174 0
157 176 0
161 179 0
155 173 0
148 167 0
157 176 0
160 180 0
154 172 0
159 178 0
153 172 0
148 166 0
153 171 0
147 165 0
156 173 0
156 175 0
151 169 0
154 172 0
154 172 0
150 169 0
148 167 0
150 169 0
158 177 0
151 172 0
146 164 0
155 174 0
153 171 0
158 179 0
146 165 0
151 171 0
149 166 0
153 173 0
149 168 0
143 162 0
149 168 0
152 171 0
150 169 0
161 182 0
147 165 0
146 165 0
153 173 0
158 178 0
152 171 0
144 164 0
149 170 0
146 166 0
139 158 0
152 171 0
154 174 0
141 161 0
147 167 0
141 162 0
149 170 0
151 171 0
148 169 0
145 165 0
150 171 0
149 169 0
145 164 0
153 172 0
145 166 0
147 168 0
151 171 0
146 167 0
150 171 0
155 176 0
145 165 0
154 175 0
155 176 0
145 165 0
149 170 0
147 168 0
151 171 0
143 164 0
151 172 0
152 174 0
138 157 0
149 169 0
139 159 0
152 173 0
142 163 0
149 169 0
148 169 0
148 169 0
146 167 0
147 169 0
149 171 0
144 166 0
151 172 0
152 172 0
151 171 0
152 173 0
146 165 0
139 160 0
148 169 0
138 159 0
143 164 0
149 170 0
149 172 0
147 167 0
144 165 0
145 166 0
145 166 0
151 173 0
146 168 0
151 172 0
142 163 0
143 163 0
151 172 0
148 170 0
151 171 0
144 166 0
141 163 0
143 163 0
142 164 0
148 169 0
139 160 0
147 167 0
137 159 0
150 173 0
144 163 0
140 162 0
147 169 0
150 171 0
146 167 0
143 165 0
140 160 0
142 164 0
143 165 0
143 165 0
139 161 0
145 168 0
146 169 0
144 166 0
147 167 0
143 164 0
141 161 0
138 159 0
132 153 0
144 164 0
137 158 0
143 165 0
145 166 0
138 157 0
143 165 0
136 157 0
132 152 0
149 170 0
150 171 0
136 156 0
138 159 0
145 166 0
153 175 0
142 164 0
136 156 0
142 163 0
134 155 0
138 159 0
143 164 0
136 156 0
141 162 0
131 150 0
137 158 0
144 164 0
146 168 0
141 160 0
146 167 0
134 155 0
148 169 0
146 167 0
143 164 0
137 157 0
134 154 0
140 161 0
146 168 0
150 171 0
140 160 0
144 164 0
136 158 0
143 164 0
141 162 0
147 167 0
150 172 0
141 161 0
144 165 0
139 159 0
144 165 0
134 155 0
147 169 0
147 167 0
132 151 0
136 157 0
143 163 0
142 163 0
149 170 0
152 172 0
140 160 0
138 160 0
149 169 0
127 144 0
138 158 0
141 158 0
148 169 0
145 164 0
141 160 0
140 160 0
140 158 0
144 164 0
147 166 0
142 163 0
136 155 0
143 164 0
146 167 0
149 168 0
148 167 0
143 162 0
145 164 0
149 170 0
148 167 0
140 160 0
140 160 0
144 163 0
144 164 0
135 153 0
146 165 0
151 170 0
147 166 0
151 168 0
139 161 0
143 162 0
148 167 0
153 174 0
140 159 0
142 161 0
140 158 0
139 157 0
143 160 0
152 171 0
143 162 0
156 175 0
150 168 0
142 160 0
143 161 0
140 158 0
146 164 0
148 168 0
147 163 0
148 168 0
150 168 0
144 159 0
141 160 0
142 159 0
153 171 0
151 168 0
155 174 0
144 160 0
147 165 0
146 163 0
141 160 0
139 157 0
141 157 0
144 160 0
145 163 0
151 170 0
144 161 0
144 160 0
141 157 0
145 161 0
148 162 0
145 162 0
148 164 0
148 164 0
140 157 0
141 156 0
147 164 0
151 165 0
156 172 0
145 160 0
146 160 0
147 161 0
152 168 0
144 157 0
143 156 0
142 154 0
149 164 0
147 163 0
150 166 0
149 165 0
138 153 0
143 156 0
146 160 0
141 151 0
153 168 0
152 166 0
151 165 0
145 160 0
148 163 0
151 160 0
146 157 0
145 158 0
150 164 0
153 165 0
151 163 0
150 162 0
145 157 0
141 151 0
149 161 0
149 161 0
147 158 0
146 155 0
145 158 0
151 162 0
150 164 0
140 148 0
145 156 0
149 161 0
152 162 0
150 162 0
146 155 0
146 154 0
147 156 0
153 165 0
143 155 0
146 153 0
146 156 0
146 158 0
143 152 0
152 163 0
157 166 0
147 155 0
153 164 0
152 163 0
148 156 0
148 155 0
152 161 0
147 156 0
145 153 0
140 148 0
155 166 0
148 157 0
148 157 0
152 163 0
156 164 0
153 163 0
150 158 0
152 160 0
158 169 0
144 152 0
154 165 0
146 154 0
148 158 0
151 161 0
143 150 0
145 153 0
159 168 0
148 156 0
160 170 0
156 165 0
155 165 0
156 167 0
149 155 0
153 161 0
153 164 0
154 165 0
154 164 0
159 168 0
156 165 0
157 164 0
157 165 0
151 158 0
154 163 0
158 177 0
159 179 0
164 184 0
161 181 0
161 180 0
159 178 0
158 176 0
157 175 0
162 181 0
157 175 0
160 178 0
158 177 0
155 174 0
158 176 0
159 178 0
164 183 0
161 179 0
155 174 0
162 181 0
153 171 0
161 179 0
159 176 0
159 177 0
159 178 0
156 175 0
156 174 0
158 176 0
153 171 0
155 172 0
154 173 0
154 172 0
152 171 0
153 171 0
157 175 0
156 175 0
158 176 0
156 175 0
153 172 0
154 172 0
151 169 0
158 176 0
152 171 0
154 174 0
152 171 0
153 171 0
156 174 0
154 173 0
156 176 0
156 176 0
153 172 0
150 169 0
145 165 0
151 169 0
153 173 0
156 176 0
152 172 0
145 164 0
157 176 0
153 173 0
154 173 0
156 175 0
149 169 0
154 173 0
150 170 0
152 171 0
146 165 0
154 173 0
153 172 0
154 173 0
156 176 0
150 168 0
148 168 0
146 165 0
153 172 0
145 164 0
151 171 0
149 170 0
148 168 0
155 174 0
150 169 0
147 165 0
148 169 0
157 177 0
150 169 0
151 170 0
152 173 0
152 172 0
147 168 0
152 172 0
144 164 0
149 170 0
153 172 0
150 170 0
149 170 0
149 169 0
151 172 0
143 165 0
150 170 0
139 160 0
141 161 0
149 168 0
146 166 0
145 166 0
143 163 0
155 176 0
152 173 0
152 173 0
145 165 0
150 171 0
148 170 0
135 155 0
144 164 0
142 163 0
150 171 0
146 167 0
134 155 0
148 169 0
138 160 0
145 165 0
149 170 0
150 172 0
150 172 0
154 175 0
147 168 0
147 168 0
152 173 0
145 166 0
155 176 0
146 167 0
142 163 0
143 163 0
154 176 0
150 171 0
145 165 0
139 160 0
145 166 0
144 164 0
152 172 0
146 168 0
147 167 0
147 169 0
139 160 0
137 158 0
145 167 0
147 168 0
142 165 0
145 167 0
150 172 0
144 164 0
143 163 0
149 170 0
144 166 0
148 170 0
146 167 0
141 161 0
143 165 0
140 162 0
142 162 0
135 155 0
141 162 0
150 172 0
143 163 0
138 159 0
147 168 0
147 169 0
149 171 0
139 160 0
147 168 0
151 173 0
147 167 0
147 165 0
141 162 0
141 161 0
147 166 0
146 166 0
140 161 0
140 160 0
140 161 0
145 166 0
140 161 0
137 157 0
139 160 0
139 160 0
137 159 0
136 155 0
143 165 0
141 162 0
136 158 0
149 171 0
140 161 0
134 157 0
147 168 0
150 171 0
142 163 0
134 155 0
139 160 0
139 160 0
142 163 0
143 165 0
140 161 0
132 151 0
143 163 0
148 170 0
132 150 0
141 162 0
140 159 0
140 161 0
151 171 0
143 164 0
145 166 0
142 163 0
140 161 0
145 165 0
141 162 0
146 167 0
144 164 0
144 165 0
142 163 0
133 153 0
140 160 0
141 162 0
143 163 0
139 160 0
135 154 0
147 167 0
138 158 0
142 161 0
144 164 0
143 163 0
134 155 0
136 157 0
134 153 0
143 162 0
143 162 0
141 160 0
146 167 0
142 160 0
148 168 0
144 165 0
143 162 0
136 157 0
136 154 0
145 165 0
147 167 0
146 166 0
140 161 0
138 157 0
140 160 0
137 156 0
144 164 0
143 165 0
146 165 0
151 170 0
142 161 0
140 159 0
142 162 0
151 170 0
147 169 0
144 162 0
147 166 0
154 173 0
148 169 0
148 166 0
146 165 0
148 166 0
152 172 0
139 159 0
144 164 0
151 170 0
145 163 0
145 162 0
155 173 0
148 167 0
155 174 0
152 170 0
146 162 0
149 165 0
143 161 0
148 166 0
144 162 0
144 163 0
146 163 0
148 165 0
140 157 0
150 166 0
138 155 0
151 169 0
146 164 0
149 166 0
147 163 0
144 160 0
152 170 0
153 171 0
146 163 0
144 161 0
152 169 0
146 162 0
147 165 0
150 165 0
147 164 0
153 170 0
145 159 0
149 166 0
140 155 0
150 168 0
134 148 0
148 164 0
150 166 0
149 164 0
146 160 0
142 156 0
151 166 0
146 160 0
143 159 0
138 152 0
151 163 0
148 164 0
148 163 0
155 171 0
145 158 0
146 160 0
142 155 0
148 162 0
148 161 0
150 164 0
152 168 0
147 159 0
150 160 0
154 168 0
147 157 0
144 155 0
149 163 0
155 168 0
147 159 0
150 161 0
145 155 0
151 164 0
147 157 0
149 161 0
150 160 0
147 159 0
147 159 0
147 156 0
153 166 0
149 160 0
149 157 0
142 152 0
144 153 0
145 152 0
150 161 0
148 160 0
155 164 0
141 151 0
151 162 0
156 166 0
149 157 0
147 152 0
148 156 0
148 155 0
156 164 0
152 162 0
144 151 0
149 158 0
150 161 0
150 159 0
150 157 0
152 162 0
154 167 0
156 168 0
152 160 0
156 165 0
149 157 0
147 155 0
158 169 0
150 158 0
150 157 0
151 163 0
145 153 0
159 169 0
148 158 0
155 162 0
153 162 0
145 150 0
152 162 0
155 167 0
151 160 0
153 163 0
156 166 0
157 166 0
155 164 0
155 163 0
147 155 0
158 167 0
159 171 0
151 160 0
156 166 0
160 168 0
151 159 0
151 158 0
160 169 0
162 181 0
161 179 0
162 181 0
155 174 0
157 176 0
158 176 0
162 182 0
159 178 0
153 171 0
155 174 0
161 180 0
154 173 0
158 177 0
155 174 0
154 171 0
156 175 0
159 179 0
159 177 0
158 177 0
160 178 0
157 176 0
158 176 0
152 170 0
155 174 0
161 180 0
158 177 0
158 177 0
161 179 0
153 171 0
156 175 0
154 173 0
153 171 0
150 168 0
157 177 0
156 175 0
155 175 0
145 163 0
153 172 0
157 176 0
156 175 0
157 176 0
158 177 0
155 175 0
144 164 0
154 173 0
157 176 0
155 174 0
158 177 0
149 169 0
152 171 0
152 172 0
146 165 0
152 171 0
156 175 0
153 172 0
144 163 0
146 165 0
153 172 0
150 170 0
145 164 0
150 169 0
151 171 0
151 171 0
149 168 0
148 168 0
156 176 0
152 172 0
146 166 0
151 171 0
153 173 0
145 165 0
150 170 0
149 169 0
151 171 0
155 175 0
151 171 0
145 164 0
158 179 0
149 169 0
151 171 0
151 171 0
151 171 0
153 173 0
150 170 0
151 172 0
156 176 0
154 174 0
146 166 0
148 168 0
156 176 0
145 166 0
146 167 0
153 173 0
148 170 0
153 174 0
140 161 0
154 176 0
145 165 0
152 172 0
149 170 0
154 174 0
147 167 0
147 168 0
152 173 0
143 163 0
150 170 0
150 170 0
152 174 0
153 174 0
146 167 0
149 170 0
145 166 0
145 166 0
146 166 0
143 163 0
149 170 0
146 168 0
148 168 0
148 168 0
139 160 0
155 176 0
151 171 0
152 174 0
147 169 0
148 170 0
144 165 0
144 166 0
147 169 0
144 165 0
152 174 0
149 171 0
149 170 0
149 171 0
143 165 0
139 159 0
143 165 0
144 166 0
151 173 0
148 170 0
150 172 0
147 168 0
147 167 0
149 172 0
153 175 0
147 170 0
146 168 0
141 162 0
149 170 0
141 163 0
147 168 0
139 159 0
145 167 0
149 169 0
148 170 0
139 162 0
140 161 0
144 166 0
149 171 0
140 161 0
149 170 0
138 159 0
141 164 0
149 172 0
140 162 0
151 172 0
143 165 0
147 168 0
137 160 0
140 160 0
140 162 0
146 168 0
144 165 0
148 169 0
138 159 0
141 161 0
144 165 0
140 160 0
146 167 0
149 170 0
147 168 0
148 170 0
140 161 0
142 164 0
140 162 0
135 157 0
147 168 0
138 160 0
146 167 0
135 155 0
140 159 0
144 166 0
139 158 0
144 165 0
141 161 0
148 168 0
142 163 0
134 155 0
133 153 0
140 161 0
135 155 0
147 169 0
143 163 0
146 167 0
150 170 0
139 160 0
146 167 0
135 156 0
135 154 0
141 162 0
140 160 0
130 151 0
148 170 0
149 169 0
146 166 0
139 160 0
138 159 0
144 165 0
141 161 0
142 161 0
140 159 0
140 161 0
145 167 0
137 158 0
140 160 0
144 165 0
152 171 0
142 163 0
142 163 0
142 163 0
139 161 0
144 164 0
144 163 0
145 165 0
135 154 0
146 166 0
143 163 0
145 165 0
138 159 0
137 156 0
154 175 0
133 151 0
149 168 0
143 164 0
140 161 0
138 157 0
143 162 0
138 159 0
144 164 0
142 162 0
139 159 0
143 161 0
142 162 0
146 166 0
141 159 0
144 163 0
146 167 0
136 156 0
137 155 0
143 164 0
143 162 0
149 168 0
146 164 0
144 163 0
143 161 0
145 162 0
147 167 0
150 169 0
144 162 0
154 173 0
150 169 0
150 169 0
142 162 0
152 172 0
149 168 0
142 160 0
153 171 0
138 153 0
147 163 0
145 165 0
145 164 0
144 162 0
139 156 0
141 158 0
146 164 0
149 166 0
153 170 0
146 163 0
147 162 0
141 158 0
154 172 0
143 160 0
140 159 0
148 165 0
148 165 0
152 171 0
150 164 0
152 170 0
147 166 0
145 161 0
141 156 0
145 162 0
147 164 0
148 163 0
150 166 0
150 165 0
151 167 0
147 163 0
144 160 0
143 156 0
150 166 0
145 161 0
153 168 0
149 166 0
151 165 0
143 157 0
153 168 0
144 156 0
148 164 0
153 168 0
152 167 0
147 162 0
155 168 0
150 165 0
142 157 0
141 159 0
147 161 0
153 166 0
145 157 0
143 154 0
139 150 0
141 154 0
145 157 0
151 165 0
145 158 0
146 158 0
144 155 0
148 159 0
145 156 0
148 160 0
148 159 0
154 166 0
143 158 0
152 165 0
147 158 0
146 159 0
149 157 0
149 165 0
139 149 0
145 157 0
153 163 0
148 158 0
145 153 0
149 157 0
145 153 0
150 160 0
154 166 0
144 155 0
142 154 0
144 152 0
151 161 0
148 157 0
157 168 0
148 156 0
152 159 0
148 155 0
149 155 0
154 163 0
149 159 0
149 158 0
146 154 0
151 160 0
150 159 0
154 163 0
158 170 0
155 164 0
150 158 0
153 162 0
151 160 0
154 165 0
152 160 0
153 163 0
157 168 0
157 168 0
154 160 0
152 164 0
155 167 0
154 164 0
154 164 0
150 160 0
153 160 0
149 158 0
160 169 0
159 167 0
159 169 0
157 166 0
155 167 0
156 164 0
155 165 0
157 168 0
159 168 0
155 174 0
155 174 0
158 176 0
162 180 0
158 177 0
162 181 0
161 179 0
158 177 0
157 177 0
159 177 0
158 176 0
165 185 0
160 179 0
158 176 0
159 177 0
158 178 0
160 179 0
159 177 0
161 179 0
156 174 0
152 170 0
159 178 0
158 177 0
154 172 0
156 175 0
156 175 0
155 173 0
155 174 0
157 176 0
164 184 0
153 171 0
155 174 0
155 174 0
155 175 0
151 169 0
155 174 0
161 180 0
155 174 0
159 178 0
159 179 0
158 177 0
156 175 0
158 177 0
156 175 0
154 173 0
148 168 0
160 179 0
157 175 0
156 175 0
150 169 0
151 170 0
152 170 0
153 173 0
157 178 0
155 175 0
152 171 0
150 168 0
154 173 0
148 167 0
154 173 0
147 167 0
150 170 0
150 169 0
150 168 0
153 173 0
149 168 0
149 168 0
148 167 0
150 170 0
149 169 0
154 174 0
146 167 0
145 165 0
155 175 0
156 177 0
147 167 0
154 174 0
147 166 0
151 170 0
152 172 0
157 177 0
155 174 0
152 173 0
149 169 0
149 169 0
147 167 0
150 170 0
140 161 0
145 165 0
149 170 0
150 170 0
148 169 0
150 170 0
147 168 0
151 172 0
145 165 0
146 167 0
148 170 0
152 173 0
147 169 0
151 172 0
146 167 0
153 174 0
149 170 0
144 165 0
144 165 0
144 164 0
154 175 0
143 163 0
148 168 0
146 167 0
150 172 0
148 169 0
156 176 0
145 166 0
152 172 0
151 173 0
149 170 0
146 169 0
145 165 0
145 167 0
142 164 0
146 167 0
150 171 0
146 167 0
142 163 0
147 169 0
151 173 0
157 179 0
150 173 0
151 172 0
148 169 0
150 171 0
153 175 0
146 167 0
143 164 0
138 160 0
143 164 0
149 169 0
142 163 0
141 162 0
146 167 0
136 158 0
158 182 0
149 172 0
143 165 0
147 169 0
145 165 0
145 167 0
158 180 0
139 160 0
143 165 0
148 168 0
144 164 0
145 168 0
149 171 0
145 167 0
148 170 0
140 162 0
146 168 0
145 167 0
154 174 0
141 162 0
150 173 0
144 165 0
129 150 0
141 163 0
150 172 0
145 166 0
147 168 0
151 172 0
144 167 0
141 163 0
152 173 0
138 159 0
132 154 0
145 168 0
150 170 0
140 161 0
144 166 0
142 165 0
145 166 0
145 166 0
135 156 0
145 167 0
146 167 0
142 164 0
141 162 0
146 167 0
145 165 0
130 152 0
146 168 0
134 154 0
150 171 0
144 165 0
149 168 0
144 165 0
144 165 0
144 165 0
148 171 0
143 164 0
132 152 0
146 167 0
131 151 0
149 170 0
145 167 0
142 164 0
141 162 0
143 165 0
136 156 0
146 168 0
145 165 0
141 161 0
147 168 0
149 170 0
150 171 0
143 163 0
146 166 0
140 161 0
146 165 0
142 163 0
147 167 0
129 149 0
139 158 0
143 164 0
140 159 0
146 165 0
146 165 0
148 168 0
144 164 0
144 164 0
148 169 0
142 162 0
138 157 0
145 166 0
141 161 0
143 162 0
149 168 0
148 169 0
142 163 0
150 169 0
151 172 0
146 166 0
141 159 0
149 168 0
140 159 0
147 168 0
137 155 0
149 166 0
146 166 0
148 168 0
133 150 0
142 162 0
136 158 0
146 168 0
140 158 0
140 159 0
142 160 0
147 165 0
146 166 0
142 161 0
152 169 0
145 164 0
143 163 0
150 169 0
147 166 0
150 169 0
150 168 0
149 167 0
145 163 0
150 168 0
142 162 0
154 173 0
140 159 0
149 169 0
149 167 0
144 163 0
140 157 0
141 159 0
150 170 0
147 164 0
145 162 0
149 168 0
150 166 0
144 163 0
144 159 0
146 164 0
144 160 0
149 167 0
154 172 0
148 166 0
151 168 0
148 165 0
146 164 0
146 164 0
156 175 0
147 163 0
149 166 0
142 157 0
148 165 0
147 162 0
158 174 0
154 172 0
144 160 0
146 162 0
142 157 0
142 156 0
149 165 0
148 164 0
143 160 0
149 162 0
150 164 0
153 167 0
146 160 0
150 166 0
147 162 0
147 162 0
151 164 0
147 159 0
151 166 0
147 162 0
147 162 0
145 162 0
148 161 0
142 155 0
147 157 0
148 162 0
159 173 0
150 163 0
149 164 0
148 164 0
146 159 0
147 161 0
144 154 0
146 160 0
149 160 0
155 167 0
152 162 0
146 159 0
150 162 0
145 157 0
147 158 0
149 159 0
153 166 0
147 160 0
148 159 0
154 166 0
143 155 0
148 162 0
147 158 0
150 161 0
145 154 0
156 168 0
147 156 0
147 156 0
153 163 0
149 162 0
156 166 0
140 144 0
148 159 0
152 163 0
148 158 0
154 165 0
153 162 0
153 164 0
153 163 0
141 149 0
151 160 0
148 156 0
149 159 0
151 159 0
154 161 0
152 162 0
140 148 0
147 155 0
153 165 0
149 157 0
151 161 0
151 158 0
148 158 0
148 160 0
150 159 0
154 161 0
159 169 0
152 160 0
153 160 0
157 167 0
151 159 0
154 166 0
152 162 0
151 159 0
159 170 0
156 167 0
153 161 0
152 163 0
159 169 0
153 164 0
152 160 0
159 172 0
153 161 0
162 183 0
159 179 0
160 180 0
158 177 0
160 179 0
157 176 0
164 183 0
156 174 0
157 176 0
158 176 0
158 177 0
154 173 0
156 175 0
155 174 0
154 172 0
160 180 0
158 178 0
156 172 0
155 173 0
154 174 0
158 177 0
156 176 0
148 167 0
156 174 0
159 178 0
151 169 0
158 177 0
160 179 0
153 172 0
157 176 0
159 178 0
154 173 0
155 174 0
153 173 0
152 170 0
157 177 0
157 176 0
153 173 0
160 180 0
150 168 0
151 170 0
148 167 0
157 177 0
154 174 0
155 172 0
153 172 0
151 170 0
153 174 0
154 174 0
155 174 0
153 171 0
152 172 0
158 177 0
158 178 0
156 177 0
158 178 0
154 173 0
153 173 0
152 172 0
151 171 0
158 178 0
150 169 0
152 172 0
152 173 0
151 170 0
148 168 0
151 171 0
147 166 0
149 167 0
144 164 0
160 181 0
154 174 0
152 172 0
155 176 0
152 173 0
154 174 0
150 170 0
149 169 0
153 174 0
159 179 0
152 173 0
156 177 0
156 178 0
144 164 0
154 175 0
150 170 0
148 169 0
154 175 0
160 180 0
149 169 0
146 166 0
149 170 0
149 170 0
147 166 0
149 170 0
151 171 0
151 172 0
152 173 0
143 163 0
156 177 0
151 172 0
151 171 0
147 166 0
149 170 0
150 171 0
150 171 0
154 177 0
154 175 0
142 163 0
148 169 0
159 181 0
153 173 0
138 158 0
154 175 0
150 171 0
140 162 0
151 173 0
152 174 0
144 164 0
149 169 0
149 171 0
149 171 0
147 168 0
148 169 0
154 175 0
150 171 0
145 167 0
145 166 0
149 170 0
151 172 0
151 173 0
146 168 0
147 167 0
151 171 0
148 169 0
150 172 0
141 163 0
149 170 0
142 165 0
143 164 0
142 163 0
145 168 0
149 170 0
148 168 0
142 163 0
145 166 0
154 175 0
154 175 0
148 170 0
147 170 0
133 155 0
140 160 0
147 169 0
140 161 0
147 168 0
152 173 0
137 159 0
137 157 0
146 167 0
155 176 0
147 169 0
142 163 0
147 169 0
148 169 0
141 161 0
137 158 0
137 158 0
153 175 0
148 169 0
146 166 0
142 163 0
140 161 0
138 159 0
138 159 0
141 162 0
144 166 0
153 173 0
145 166 0
146 167 0
142 163 0
140 162 0
148 168 0
145 165 0
142 164 0
141 162 0
138 160 0
139 158 0
146 168 0
142 164 0
149 170 0
138 159 0
144 163 0
146 168 0
136 157 0
143 164 0
147 168 0
152 174 0
143 162 0
140 162 0
148 170 0
143 164 0
143 163 0
141 162 0
143 164 0
142 164 0
144 164 0
143 165 0
139 160 0
137 156 0
150 170 0
146 166 0
140 161 0
133 153 0
149 171 0
131 150 0
146 166 0
143 165 0
143 162 0
134 154 0
144 165 0
144 164 0
147 168 0
142 162 0
143 163 0
142 161 0
151 172 0
145 165 0
145 165 0
138 158 0
146 166 0
136 155 0
135 154 0
141 162 0
145 165 0
144 163 0
146 165 0
145 164 0
145 164 0
144 162 0
146 165 0
146 166 0
150 171 0
147 167 0
141 160 0
143 164 0
132 152 0
141 160 0
143 163 0
143 164 0
139 159 0
145 163 0
147 167 0
145 164 0
142 162 0
137 157 0
144 163 0
143 161 0
149 168 0
146 167 0
142 161 0
151 171 0
146 166 0
146 164 0
150 170 0
138 158 0
145 164 0
147 165 0
151 172 0
142 160 0
141 160 0
136 155 0
148 168 0
143 164 0
147 164 0
150 170 0
151 171 0
147 165 0
149 169 0
143 160 0
137 158 0
154 170 0
152 171 0
147 166 0
151 170 0
152 170 0
144 162 0
141 159 0
145 164 0
144 160 0
148 165 0
148 165 0
149 167 0
140 157 0
153 171 0
149 165 0
141 156 0
151 170 0
151 168 0
148 165 0
149 166 0
150 166 0
144 161 0
154 171 0
145 161 0
145 162 0
151 168 0
145 160 0
154 169 0
149 166 0
146 162 0
150 162 0
148 163 0
149 164 0
144 158 0
153 171 0
147 160 0
151 166 0
151 167 0
150 164 0
153 169 0
147 162 0
147 163 0
141 154 0
147 161 0
149 163 0
146 163 0
139 152 0
153 166 0
150 164 0
153 166 0
144 158 0
149 163 0
145 158 0
148 161 0
146 158 0
152 164 0
140 152 0
147 159 0
145 156 0
141 153 0
144 154 0
145 159 0
147 158 0
142 154 0
149 161 0
147 157 0
151 165 0
151 160 0
152 164 0
152 164 0
155 167 0
148 161 0
151 161 0
151 162 0
155 168 0
157 168 0
148 160 0
153 163 0
152 164 0
157 169 0
151 164 0
145 154 0
153 163 0
151 158 0
149 159 0
146 153 0
150 161 0
155 166 0
156 169 0
150 158 0
144 153 0
152 164 0
150 158 0
153 163 0
156 166 0
154 166 0
151 163 0
153 162 0
152 160 0
149 160 0
159 171 0
150 160 0
155 168 0
157 167 0
147 157 0
156 166 0
145 154 0
156 164 0
152 160 0
156 165 0
156 167 0
155 165 0
154 166 0
152 161 0
151 157 0
152 159 0
157 167 0
159 171 0
157 165 0
155 164 0
161 180 0
158 178 0
166 185 0
165 184 0
163 181 0
158 177 0
152 171 0
162 180 0
158 177 0
156 174 0
156 176 0
159 177 0
163 182 0
155 174 0
156 175 0
161 181 0
156 176 0
152 171 0
157 176 0
156 174 0
154 172 0
155 173 0
156 176 0
156 175 0
158 178 0
154 172 0
157 175 0
158 177 0
155 174 0
159 179 0
156 176 0
153 173 0
156 175 0
155 175 0
153 173 0
156 175 0
154 172 0
152 171 0
157 177 0
156 175 0
157 176 0
153 171 0
153 173 0
153 172 0
156 176 0
150 170 0
156 175 0
153 172 0
150 170 0
149 168 0
155 174 0
147 166 0
150 170 0
155 176 0
153 172 0
151 171 0
155 175 0
152 171 0
152 172 0
152 171 0
155 176 0
154 173 0
151 170 0
150 170 0
153 173 0
156 175 0
156 176 0
148 168 0
154 173 0
151 173 0
150 171 0
144 163 0
150 170 0
153 173 0
152 171 0
149 170 0
156 175 0
148 170 0
156 176 0
149 169 0
151 172 0
157 177 0
153 174 0
153 174 0
146 167 0
152 173 0
149 170 0
152 172 0
153 174 0
153 174 0
150 170 0
148 169 0
153 175 0
155 176 0
152 172 0
151 171 0
145 165 0
147 168 0
144 165 0
149 170 0
145 167 0
154 175 0
142 163 0
143 163 0
143 165 0
145 166 0
147 167 0
147 167 0
149 170 0
149 171 0
151 173 0
151 171 0
151 171 0
145 166 0
150 172 0
148 168 0
146 168 0
143 164 0
141 162 0
147 167 0
148 170 0
148 169 0
155 177 0
145 165 0
150 172 0
152 173 0
154 175 0
147 167 0
154 176 0
150 170 0
151 171 0
138 160 0
152 174 0
152 174 0
146 168 0
147 168 0
143 164 0
149 171 0
144 166 0
149 169 0
143 165 0
144 166 0
147 168 0
152 174 0
148 169 0
149 169 0
144 164 0
146 168 0
141 162 0
142 163 0
148 169 0
148 170 0
156 179 0
148 169 0
149 172 0
139 161 0
154 175 0
147 169 0
155 176 0
143 164 0
143 165 0
150 171 0
138 160 0
148 170 0
144 165 0
148 170 0
151 173 0
147 168 0
146 167 0
141 162 0
152 173 0
145 167 0
144 166 0
145 166 0
147 168 0
153 175 0
145 165 0
146 167 0
144 165 0
146 168 0
137 157 0
146 168 0
144 164 0
148 170 0
143 164 0
144 166 0
137 159 0
145 167 0
136 156 0
139 160 0
146 169 0
143 163 0
147 167 0
144 163 0
141 162 0
140 161 0
136 158 0
145 166 0
151 172 0
143 164 0
149 170 0
144 166 0
137 159 0
140 160 0
143 165 0
140 160 0
144 166 0
149 171 0
144 165 0
145 167 0
143 164 0
148 170 0
137 156 0
135 157 0
142 164 0
148 167 0
150 173 0
142 162 0
141 162 0
142 161 0
146 165 0
138 158 0
151 173 0
142 163 0
140 160 0
147 167 0
151 171 0
140 160 0
144 163 0
144 164 0
145 165 0
143 164 0
149 170 0
146 166 0
143 164 0
146 165 0
141 160 0
149 169 0
148 166 0
143 162 0
148 169 0
139 159 0
146 165 0
149 170 0
140 160 0
145 165 0
147 165 0
143 163 0
146 165 0
147 167 0
146 166 0
148 167 0
157 178 0
145 165 0
144 163 0
146 168 0
144 165 0
146 166 0
143 162 0
154 172 0
144 164 0
146 165 0
147 166 0
149 169 0
151 170 0
144 161 0
148 166 0
146 166 0
140 158 0
147 164 0
143 160 0
144 163 0
149 169 0
155 174 0
146 167 0
141 160 0
142 160 0
153 172 0
147 164 0
140 156 0
150 169 0
150 171 0
147 166 0
132 148 0
142 161 0
148 166 0
154 174 0
147 164 0
144 161 0
143 161 0
144 160 0
144 160 0
145 163 0
142 160 0
154 173 0
149 167 0
153 170 0
154 173 0
146 163 0
158 176 0
151 170 0
147 163 0
154 170 0
148 165 0
145 162 0
151 167 0
145 160 0
144 158 0
150 166 0
151 167 0
148 166 0
154 169 0
151 166 0
149 164 0
149 165 0
155 169 0
152 166 0
149 165 0
155 171 0
140 154 0
150 164 0
146 161 0
150 165 0
154 167 0
147 161 0
150 163 0
142 158 0
153 168 0
155 169 0
145 159 0
142 154 0
151 166 0
147 159 0
154 168 0
146 157 0
153 165 0
152 166 0
147 158 0
153 167 0
151 164 0
149 162 0
146 161 0
151 160 0
147 159 0
150 162 0
156 170 0
153 166 0
148 161 0
142 155 0
151 163 0
150 162 0
151 165 0
152 165 0
152 163 0
155 167 0
143 152 0
153 165 0
148 157 0
150 161 0
150 161 0
149 159 0
153 164 0
148 158 0
151 162 0
145 153 0
152 161 0
159 172 0
151 159 0
151 158 0
148 158 0
148 156 0
146 153 0
155 166 0
151 163 0
152 162 0
157 167 0
150 163 0
152 160 0
155 166 0
152 166 0
154 164 0
156 166 0
149 161 0
152 161 0
156 166 0
154 163 0
153 162 0
155 167 0
156 166 0
151 161 0
156 166 0
154 163 0
158 171 0
156 164 0
148 158 0
155 167 0
151 161 0
154 163 0
161 172 0
150 161 0
159 178 0
161 179 0
162 182 0
161 181 0
158 178 0
160 179 0
158 178 0
158 177 0
161 181 0
160 179 0
161 180 0
157 176 0
159 178 0
158 177 0
157 177 0
159 179 0
159 179 0
155 173 0
160 179 0
159 177 0
160 179 0
158 177 0
156 176 0
153 172 0
158 176 0
156 175 0
160 178 0
158 178 0
154 173 0
149 169 0
150 169 0
154 173 0
153 172 0
162 182 0
150 170 0
152 170 0
156 175 0
155 174 0
158 177 0
155 174 0
152 171 0
156 176 0
154 173 0
152 172 0
157 177 0
155 174 0
149 169 0
156 174 0
155 175 0
155 175 0
149 168 0
151 171 0
153 174 0
142 162 0
148 168 0
149 167 0
155 175 0
154 174 0
156 176 0
153 173 0
152 173 0
155 176 0
148 169 0
147 167 0
155 176 0
152 172 0
158 179 0
149 169 0
142 161 0
152 173 0
150 170 0
154 173 0
153 173 0
153 173 0
152 172 0
146 167 0
149 169 0
157 177 0
152 173 0
157 178 0
147 167 0
156 176 0
158 179 0
152 172 0
152 171 0
150 171 0
152 172 0
151 172 0
156 177 0
152 172 0
147 168 0
153 173 0
147 169 0
155 175 0
147 168 0
154 175 0
145 166 0
153 174 0
154 176 0
147 168 0
155 175 0
150 171 0
149 170 0
142 163 0
148 168 0
148 169 0
151 173 0
146 168 0
153 174 0
152 174 0
153 173 0
150 171 0
146 168 0
153 176 0
151 173 0
151 173 0
140 161 0
153 174 0
145 165 0
154 176 0
151 172 0
143 164 0
149 171 0
155 176 0
150 172 0
143 165 0
148 170 0
147 168 0
148 170 0
148 169 0
153 174 0
146 167 0
149 171 0
151 171 0
152 173 0
150 172 0
144 166 0
150 171 0
150 171 0
140 162 0
146 168 0
153 174 0
144 165 0
149 170 0
153 175 0
142 164 0
142 162 0
149 170 0
146 169 0
150 171 0
151 174 0
145 166 0
145 168 0
142 163 0
147 169 0
141 161 0
153 175 0
146 167 0
148 170 0
142 164 0
141 163 0
135 156 0
144 166 0
140 161 0
135 157 0
140 160 0
137 160 0
145 163 0
142 164 0
142 163 0
144 165 0
150 171 0
143 164 0
143 164 0
145 165 0
137 158 0
144 166 0
150 170 0
143 163 0
148 170 0
140 161 0
144 166 0
147 168 0
148 170 0
146 168 0
143 162 0
147 170 0
146 167 0
150 172 0
150 171 0
143 164 0
145 167 0
148 168 0
146 168 0
143 164 0
140 162 0
141 162 0
148 169 0
139 160 0
141 161 0
149 170 0
147 169 0
143 165 0
138 157 0
146 168 0
151 172 0
137 157 0
143 164 0
140 159 0
145 166 0
146 167 0
139 159 0
130 149 0
132 152 0
141 161 0
143 163 0
150 171 0
149 169 0
140 161 0
150 170 0
148 168 0
143 163 0
137 157 0
141 162 0
144 165 0
136 156 0
151 173 0
154 176 0
148 169 0
151 171 0
143 164 0
150 172 0
145 165 0
146 167 0
141 160 0
144 164 0
137 155 0
140 160 0
142 163 0
145 165 0
146 166 0
146 167 0
150 171 0
143 164 0
141 161 0
144 164 0
148 167 0
151 171 0
150 171 0
152 173 0
151 172 0
146 165 0
139 158 0
141 157 0
149 166 0
142 162 0
148 166 0
148 167 0
146 166 0
144 164 0
140 159 0
157 176 0
148 168 0
154 173 0
141 162 0
147 165 0
147 165 0
153 173 0
149 168 0
147 165 0
150 169 0
150 169 0
149 168 0
142 160 0
146 164 0
153 173 0
151 171 0
149 167 0
151 171 0
155 174 0
156 176 0
145 160 0
149 169 0
137 153 0
148 166 0
143 160 0
153 172 0
145 162 0
143 159 0
142 157 0
144 164 0
145 161 0
146 163 0
151 170 0
154 171 0
150 170 0
154 171 0
138 155 0
138 156 0
147 164 0
143 161 0
153 168 0
147 166 0
147 165 0
152 169 0
148 165 0
143 158 0
146 161 0
152 169 0
157 174 0
148 162 0
153 171 0
148 164 0
150 165 0
143 157 0
140 156 0
155 173 0
154 172 0
144 161 0
139 154 0
150 165 0
145 161 0
151 165 0
154 170 0
146 161 0
151 167 0
148 163 0
142 157 0
145 158 0
148 165 0
154 168 0
145 156 0
143 157 0
153 168 0
154 170 0
151 165 0
152 165 0
151 165 0
154 169 0
145 157 0
147 160 0
147 159 0
156 171 0
148 159 0
149 161 0
144 156 0
154 168 0
146 158 0
145 155 0
144 156 0
151 163 0
154 166 0
155 168 0
148 158 0
149 162 0
152 161 0
140 151 0
151 162 0
155 170 0
153 165 0
151 163 0
153 162 0
143 155 0
142 151 0
144 154 0
158 170 0
151 162 0
153 162 0
159 173 0
154 167 0
153 166 0
145 152 0
158 167 0
148 156 0
149 159 0
161 174 0
156 168 0
156 165 0
160 171 0
156 167 0
157 168 0
151 161 0
155 167 0
161 175 0
156 166 0
153 163 0
154 163 0
154 164 0
148 159 0
154 164 0
157 165 0
158 167 0
154 164 0
151 163 0
154 163 0
155 165 0
159 171 0
154 161 0
155 163 0
159 172 0
165 185 0
162 182 0
159 178 0
157 176 0
162 181 0
155 175 0
154 173 0
155 174 0
163 182 0
156 175 0
159 178 0
157 176 0
160 178 0
162 182 0
157 176 0
151 171 0
158 178 0
153 172 0
155 175 0
156 175 0
158 178 0
153 172 0
156 176 0
156 176 0
153 172 0
157 176 0
157 176 0
158 176 0
154 172 0
159 179 0
157 176 0
159 178 0
151 169 0
154 173 0
150 168 0
152 171 0
154 174 0
150 169 0
157 176 0
157 177 0
160 180 0
158 178 0
157 177 0
154 175 0
155 176 0
157 177 0
159 179 0
152 172 0
153 174 0
155 174 0
155 175 0
155 174 0
154 174 0
153 172 0
155 175 0
159 180 0
153 173 0
151 172 0
151 171 0
156 176 0
152 173 0
149 170 0
150 170 0
156 177 0
154 174 0
151 171 0
151 171 0
157 177 0
146 166 0
157 177 0
155 176 0
150 170 0
156 178 0
153 174 0
151 171 0
145 165 0
152 172 0
150 172 0
156 177 0
146 167 0
155 175 0
154 174 0
154 174 0
159 179 0
147 169 0
155 175 0
146 166 0
152 173 0
153 172 0
153 174 0
147 168 0
149 169 0
149 170 0
145 166 0
149 170 0
153 174 0
153 174 0
151 172 0
151 172 0
152 173 0
150 172 0
142 163 0
148 169 0
147 169 0
144 165 0
156 177 0
147 168 0
147 168 0
154 174 0
150 171 0
149 170 0
151 172 0
146 168 0
156 178 0
149 171 0
151 173 0
161 182 0
144 167 0
153 173 0
148 169 0
146 166 0
147 168 0
151 174 0
146 168 0
145 166 0
140 162 0
152 173 0
150 172 0
150 170 0
147 168 0
142 162 0
143 165 0
154 175 0
153 174 0
149 171 0
148 171 0
149 169 0
146 167 0
148 170 0
140 160 0
145 166 0
149 171 0
144 165 0
147 168 0
148 169 0
150 171 0
151 173 0
144 166 0
144 166 0
147 168 0
152 174 0
141 161 0
133 154 0
146 168 0
152 174 0
141 162 0
141 163 0
143 163 0
151 171 0
149 171 0
145 166 0
147 169 0
141 162 0
145 167 0
148 170 0
138 159 0
146 168 0
152 174 0
149 171 0
146 167 0
148 169 0
144 164 0
151 173 0
154 176 0
145 166 0
144 165 0
141 161 0
147 169 0
145 165 0
142 164 0
144 164 0
143 163 0
143 165 0
147 168 0
152 172 0
140 160 0
140 160 0
136 156 0
143 165 0
138 158 0
138 157 0
144 164 0
146 168 0
138 159 0
145 166 0
145 168 0
155 176 0
148 169 0
143 162 0
148 168 0
147 168 0
150 171 0
146 168 0
146 166 0
143 164 0
145 165 0
149 171 0
150 170 0
141 163 0
146 167 0
147 166 0
146 168 0
138 159 0
149 168 0
144 165 0
145 166 0
147 169 0
144 165 0
147 168 0
146 168 0
147 168 0
144 164 0
146 168 0
147 168 0
142 162 0
141 162 0
153 174 0
151 172 0
148 170 0
142 161 0
144 165 0
129 148 0
142 164 0
139 161 0
145 166 0
141 160 0
145 165 0
143 163 0
143 163 0
143 163 0
144 165 0
144 161 0
148 168 0
142 162 0
140 159 0
144 163 0
151 170 0
148 168 0
152 173 0
149 168 0
144 165 0
152 173 0
143 164 0
142 161 0
142 162 0
149 168 0
149 168 0
136 153 0
141 159 0
149 168 0
144 165 0
154 174 0
144 162 0
146 166 0
148 166 0
140 157 0
137 155 0
146 166 0
148 168 0
157 176 0
149 168 0
146 165 0
150 168 0
146 164 0
147 166 0
142 162 0
151 171 0
149 166 0
146 163 0
148 166 0
147 165 0
150 167 0
149 168 0
154 172 0
148 165 0
147 165 0
150 167 0
144 165 0
149 168 0
152 170 0
149 166 0
153 173 0
144 161 0
147 165 0
142 161 0
150 169 0
150 169 0
141 158 0
150 168 0
152 169 0
150 167 0
153 172 0
152 170 0
146 162 0
151 165 0
147 165 0
150 166 0
150 166 0
151 166 0
149 166 0
144 161 0
152 170 0
152 168 0
149 164 0
150 166 0
156 173 0
152 167 0
147 163 0
148 164 0
151 164 0
158 175 0
148 162 0
151 165 0
144 159 0
146 161 0
145 160 0
150 165 0
145 160 0
142 155 0
156 172 0
146 162 0
153 166 0
151 165 0
146 159 0
149 166 0
145 158 0
144 155 0
156 170 0
150 164 0
154 171 0
152 167 0
148 161 0
149 162 0
155 170 0
154 166 0
142 155 0
146 159 0
151 165 0
160 173 0
149 163 0
148 161 0
154 165 0
152 164 0
150 162 0
148 159 0
151 166 0
152 167 0
143 155 0
148 161 0
156 169 0
154 165 0
150 164 0
152 165 0
154 167 0
154 164 0
151 163 0
148 159 0
155 166 0
148 158 0
154 165 0
154 167 0
157 168 0
152 163 0
152 162 0
156 166 0
155 166 0
156 167 0
150 163 0
152 163 0
146 155 0
151 159 0
154 165 0
154 166 0
149 158 0
161 174 0
152 164 0
153 165 0
153 163 0
156 169 0
153 163 0
158 170 0
155 167 0
157 168 0
150 159 0
155 166 0
160 171 0
157 167 0
152 163 0
160 169 0
156 166 0
164 183 0
158 177 0
160 180 0
162 182 0
156 175 0
159 178 0
154 172 0
159 179 0
159 178 0
155 174 0
161 179 0
158 177 0
153 172 0
159 179 0
159 180 0
157 177 0
155 174 0
156 174 0
154 173 0
162 182 0
158 178 0
162 181 0
155 174 0
158 180 0
161 181 0
156 176 0
156 176 0
152 171 0
154 174 0
156 175 0
151 171 0
156 176 0
156 176 0
151 171 0
157 176 0
153 172 0
152 172 0
154 173 0
159 180 0
152 172 0
148 169 0
159 178 0
157 177 0
154 175 0
156 176 0
155 174 0
156 176 0
156 176 0
155 174 0
160 180 0
152 172 0
155 175 0
150 171 0
150 169 0
149 168 0
159 180 0
149 169 0
153 174 0
150 170 0
153 172 0
153 175 0
153 173 0
155 176 0
146 165 0
154 174 0
149 170 0
156 177 0
151 172 0
150 171 0
157 177 0
155 177 0
146 166 0
152 172 0
152 173 0
148 168 0
153 174 0
153 174 0
156 178 0
156 178 0
151 171 0
146 167 0
152 173 0
153 174 0
148 170 0
149 170 0
152 173 0
146 166 0
144 165 0
149 171 0
155 177 0
156 178 0
154 175 0
152 174 0
151 173 0
159 180 0
154 176 0
155 177 0
158 180 0
150 172 0
156 177 0
149 169 0
151 172 0
149 171 0
148 170 0
152 173 0
148 169 0
148 170 0
146 167 0
157 178 0
148 169 0
156 178 0
149 170 0
156 178 0
150 170 0
151 173 0
147 168 0
152 175 0
149 171 0
145 168 0
154 177 0
144 165 0
146 167 0
145 167 0
149 171 0
148 170 0
139 161 0
150 172 0
148 168 0
152 173 0
150 171 0
154 176 0
149 171 0
151 173 0
150 171 0
149 171 0
152 172 0
145 166 0
152 174 0
147 168 0
142 163 0
153 174 0
143 164 0
146 168 0
144 167 0
152 174 0
152 173 0
147 168 0
148 170 0
144 167 0
146 166 0
147 170 0
145 167 0
157 179 0
144 164 0
145 165 0
144 166 0
147 169 0
145 166 0
152 172 0
147 169 0
144 165 0
144 166 0
151 173 0
151 173 0
140 161 0
138 160 0
150 172 0
145 166 0
155 177 0
143 164 0
147 168 0
149 172 0
149 172 0
153 177 0
147 168 0
146 167 0
144 167 0
144 166 0
141 162 0
146 167 0
150 171 0
159 182 0
146 168 0
153 175 0
145 166 0
148 170 0
141 160 0
148 169 0
143 165 0
148 170 0
140 161 0
147 167 0
144 164 0
145 167 0
145 166 0
143 164 0
150 170 0
148 169 0
153 175 0
146 167 0
144 165 0
139 159 0
152 172 0
146 168 0
147 169 0
141 162 0
151 172 0
150 170 0
146 167 0
148 170 0
144 167 0
151 171 0
144 165 0
155 177 0
143 164 0
143 163 0
146 167 0
153 173 0
150 169 0
142 163 0
155 177 0
149 170 0
147 169 0
141 161 0
149 170 0
153 172 0
134 155 0
139 160 0
145 166 0
142 161 0
150 170 0
146 166 0
140 161 0
152 173 0
152 173 0
144 165 0
134 154 0
136 154 0
147 168 0
142 161 0
149 169 0
151 171 0
142 162 0
158 179 0
146 167 0
141 160 0
142 162 0
146 165 0
149 169 0
149 170 0
148 168 0
147 168 0
151 171 0
143 164 0
144 162 0
143 164 0
149 169 0
147 167 0
147 166 0
151 171 0
143 164 0
146 167 0
147 165 0
152 170 0
144 165 0
141 160 0
146 165 0
151 169 0
151 172 0
145 164 0
149 164 0
147 167 0
149 168 0
151 171 0
135 153 0
143 159 0
145 165 0
152 172 0
151 170 0
147 166 0
143 160 0
142 159 0
150 170 0
146 167 0
152 170 0
154 175 0
152 170 0
151 172 0
151 170 0
148 164 0
145 163 0
151 169 0
159 177 0
152 171 0
139 158 0
143 160 0
150 167 0
150 166 0
153 171 0
145 161 0
144 160 0
156 174 0
150 169 0
149 167 0
148 165 0
149 169 0
152 170 0
153 173 0
152 170 0
150 166 0
148 164 0
146 159 0
149 164 0
155 171 0
150 164 0
144 160 0
149 164 0
149 164 0
145 161 0
152 168 0
149 166 0
143 157 0
146 163 0
150 165 0
146 160 0
153 168 0
146 160 0
146 159 0
152 167 0
157 172 0
150 166 0
146 159 0
151 167 0
151 167 0
147 163 0
151 163 0
152 163 0
148 163 0
150 163 0
149 163 0
150 166 0
153 170 0
153 167 0
144 160 0
153 165 0
152 166 0
155 168 0
153 168 0
152 166 0
149 159 0
148 161 0
151 161 0
152 164 0
149 161 0
149 162 0
148 162 0
155 168 0
153 168 0
145 158 0
154 168 0
151 161 0
152 162 0
152 163 0
148 159 0
153 166 0
148 156 0
155 165 0
149 162 0
156 166 0
156 167 0
154 164 0
152 166 0
151 163 0
147 156 0
146 158 0
162 176 0
149 158 0
153 163 0
157 170 0
150 162 0
162 174 0
156 165 0
156 167 0
155 167 0
158 171 0
156 170 0
155 168 0
152 164 0
153 162 0
151 162 0
160 173 0
156 168 0
161 171 0
158 170 0
158 169 0
158 169 0
155 166 0
156 168 0
150 161 0
156 166 0
161 180 0
160 179 0
155 174 0
161 179 0
156 175 0
161 180 0
162 183 0
160 179 0
161 181 0
156 175 0
161 181 0
153 172 0
155 174 0
159 178 0
161 181 0
160 180 0
156 175 0
161 181 0
165 184 0
155 174 0
153 172 0
161 181 0
158 177 0
159 177 0
155 174 0
157 177 0
156 176 0
150 169 0
159 178 0
159 178 0
149 169 0
158 178 0
151 171 0
156 175 0
156 176 0
157 177 0
155 175 0
159 178 0
164 184 0
155 175 0
155 174 0
150 170 0
158 178 0
152 172 0
151 170 0
153 171 0
153 173 0
154 173 0
153 173 0
149 168 0
159 179 0
154 174 0
162 182 0
155 176 0
158 178 0
154 175 0
151 171 0
152 172 0
158 178 0
155 174 0
152 172 0
150 172 0
156 177 0
153 173 0
154 175 0
152 173 0
152 173 0
157 177 0
154 175 0
152 172 0
149 170 0
150 171 0
149 169 0
158 179 0
155 175 0
157 176 0
151 171 0
152 173 0
153 175 0
153 174 0
153 174 0
154 175 0
154 175 0
150 170 0
157 179 0
147 167 0
152 173 0
149 168 0
151 172 0
155 176 0
155 176 0
145 167 0
144 165 0
154 176 0
146 168 0
146 166 0
151 171 0
155 177 0
151 172 0
145 166 0
156 177 0
155 176 0
150 172 0
150 172 0
155 177 0
158 179 0
146 168 0
151 173 0
151 173 0
147 168 0
149 170 0
144 165 0
150 170 0
145 166 0
149 171 0
144 166 0
147 168 0
146 167 0
145 167 0
146 167 0
152 174 0
150 172 0
146 167 0
153 175 0
153 175 0
153 174 0
148 170 0
143 165 0
156 178 0
158 179 0
148 170 0
145 166 0
145 166 0
146 168 0
147 169 0
148 170 0
144 165 0
147 168 0
148 168 0
150 172 0
145 166 0
154 177 0
148 170 0
156 177 0
160 183 0
142 163 0
144 166 0
151 173 0
152 174 0
147 168 0
146 167 0
156 178 0
150 172 0
149 171 0
145 166 0
146 167 0
148 169 0
150 171 0
143 165 0
153 174 0
149 170 0
145 165 0
143 165 0
148 169 0
151 172 0
156 176 0
143 165 0
150 171 0
145 167 0
141 163 0
142 162 0
140 161 0
143 163 0
147 167 0
145 166 0
142 164 0
145 168 0
152 173 0
146 166 0
142 162 0
146 168 0
148 171 0
140 162 0
142 162 0
146 167 0
146 168 0
143 163 0
145 166 0
144 165 0
153 174 0
147 167 0
145 166 0
148 168 0
149 170 0
151 173 0
149 169 0
148 168 0
145 166 0
153 174 0
140 161 0
152 173 0
153 174 0
151 171 0
152 175 0
142 161 0
142 164 0
147 166 0
143 163 0
140 160 0
152 173 0
146 167 0
147 167 0
137 159 0
144 166 0
144 164 0
150 170 0
141 162 0
140 160 0
152 174 0
144 165 0
146 167 0
142 161 0
149 170 0
139 159 0
143 163 0
147 167 0
151 173 0
142 162 0
147 168 0
147 167 0
145 166 0
154 175 0
146 166 0
134 154 0
151 172 0
140 160 0
147 169 0
151 172 0
149 168 0
154 175 0
149 170 0
143 163 0
142 162 0
151 172 0
143 163 0
148 168 0
145 163 0
139 158 0
142 162 0
151 168 0
145 167 0
147 167 0
151 171 0
142 162 0
151 171 0
146 167 0
150 168 0
150 170 0
143 164 0
143 163 0
153 170 0
154 176 0
147 167 0
147 165 0
146 166 0
149 169 0
153 173 0
140 160 0
150 170 0
140 159 0
142 162 0
153 172 0
136 155 0
158 179 0
148 165 0
154 171 0
158 179 0
151 171 0
151 170 0
151 170 0
151 170 0
145 164 0
143 161 0
150 168 0
156 174 0
153 171 0
155 175 0
150 169 0
155 174 0
154 173 0
146 163 0
152 171 0
152 171 0
155 174 0
149 167 0
149 168 0
151 169 0
153 172 0
148 165 0
141 159 0
149 167 0
154 171 0
152 168 0
151 167 0
153 170 0
151 170 0
148 166 0
142 157 0
150 167 0
152 169 0
150 167 0
154 172 0
153 169 0
154 172 0
152 170 0
146 162 0
150 162 0
149 166 0
146 161 0
149 164 0
143 158 0
154 171 0
157 173 0
152 170 0
159 177 0
149 163 0
152 167 0
148 163 0
150 163 0
147 160 0
151 166 0
147 161 0
154 168 0
158 174 0
148 163 0
146 160 0
148 163 0
147 162 0
148 163 0
157 171 0
145 159 0
148 162 0
154 167 0
145 158 0
154 168 0
150 163 0
153 167 0
148 158 0
149 164 0
154 168 0
152 167 0
145 159 0
149 161 0
154 170 0
153 165 0
150 162 0
149 160 0
160 174 0
147 160 0
155 167 0
153 167 0
149 160 0
150 162 0
152 165 0
156 169 0
157 172 0
147 156 0
154 164 0
156 169 0
155 170 0
153 166 0
153 167 0
157 170 0
159 172 0
151 161 0
158 170 0
153 163 0
158 170 0
152 165 0
153 165 0
159 173 0
159 173 0
157 168 0
157 169 0
158 171 0
154 167 0
152 162 0
154 165 0
156 168 0
157 170 0
153 163 0
152 161 0
148 158 0
157 168 0
154 168 0
156 167 0
156 168 0
161 174 0
154 164 0
156 167 0
164 185 0
162 182 0
160 179 0
161 180 0
155 173 0
154 172 0
158 179 0
161 182 0
159 179 0
157 177 0
156 175 0
157 177 0
158 178 0
159 178 0
155 175 0
157 177 0
159 178 0
156 176 0
159 179 0
160 180 0
156 175 0
160 179 0
163 184 0
155 175 0
160 179 0
151 170 0
157 177 0
156 176 0
157 177 0
159 179 0
160 179 0
161 181 0
160 179 0
153 172 0
158 177 0
150 170 0
159 179 0
155 174 0
155 174 0
155 175 0
155 174 0
156 176 0
155 175 0
149 169 0
154 175 0
154 175 0
156 176 0
152 173 0
150 169 0
151 170 0
154 174 0
157 177 0
156 177 0
153 173 0
155 175 0
154 174 0
158 178 0
159 179 0
159 179 0
149 169 0
157 177 0
150 169 0
153 173 0
154 176 0
160 180 0
160 181 0
156 177 0
156 177 0
152 171 0
154 174 0
159 180 0
153 173 0
152 173 0
152 173 0
149 170 0
149 170 0
150 170 0
150 171 0
163 184 0
157 177 0
146 167 0
155 176 0
157 179 0
156 178 0
149 170 0
153 174 0
153 173 0
153 173 0
156 177 0
152 173 0
154 175 0
148 169 0
155 176 0
152 173 0
155 176 0
153 175 0
153 175 0
148 169 0
153 173 0
155 176 0
149 171 0
152 173 0
144 165 0
155 176 0
145 166 0
149 170 0
152 174 0
153 173 0
145 166 0
150 172 0
150 172 0
149 171 0
151 172 0
143 164 0
152 174 0
152 174 0
149 170 0
155 177 0
148 170 0
144 165 0
149 171 0
152 175 0
146 168 0
150 170 0
154 175 0
149 171 0
145 167 0
142 165 0
151 172 0
143 163 0
142 163 0
153 175 0
144 165 0
144 165 0
152 173 0
135 155 0
151 172 0
152 174 0
148 169 0
155 177 0
147 168 0
146 167 0
151 171 0
149 170 0
149 171 0
146 167 0
153 175 0
149 172 0
139 160 0
150 172 0
151 174 0
146 167 0
146 167 0
147 169 0
153 174 0
146 167 0
142 164 0
152 173 0
141 162 0
153 174 0
149 170 0
144 165 0
151 172 0
145 167 0
153 175 0
153 173 0
152 173 0
146 168 0
146 167 0
150 172 0
145 167 0
146 168 0
145 167 0
149 172 0
149 170 0
137 159 0
143 165 0
150 171 0
147 168 0
142 162 0
143 163 0
146 165 0
145 166 0
150 171 0
150 170 0
148 169 0
146 167 0
149 171 0
149 168 0
147 168 0
143 166 0
148 169 0
143 164 0
148 169 0
149 170 0
151 173 0
145 167 0
149 171 0
149 171 0
147 168 0
145 167 0
152 174 0
143 164 0
150 172 0
142 163 0
147 167 0
149 171 0
139 160 0
141 163 0
140 161 0
142 164 0
154 175 0
154 175 0
149 170 0
153 174 0
144 164 0
140 160 0
151 173 0
140 161 0
150 172 0
148 168 0
141 162 0
144 164 0
149 169 0
147 168 0
151 172 0
147 168 0
145 166 0
150 170 0
151 172 0
152 174 0
162 183 0
140 160 0
149 167 0
147 169 0
146 165 0
148 168 0
146 166 0
147 166 0
149 170 0
147 166 0
144 164 0
154 176 0
145 164 0
149 172 0
140 159 0
155 176 0
148 168 0
152 172 0
150 170 0
147 167 0
139 161 0
144 166 0
148 169 0
153 174 0
141 160 0
149 169 0
144 165 0
142 160 0
145 164 0
144 164 0
144 162 0
153 173 0
147 166 0
151 172 0
143 163 0
139 158 0
155 175 0
145 165 0
146 165 0
147 166 0
151 169 0
144 164 0
147 165 0
154 172 0
152 174 0
146 168 0
146 163 0
154 173 0
151 171 0
147 167 0
149 170 0
153 172 0
147 166 0
145 165 0
150 169 0
150 168 0
144 161 0
147 165 0
152 169 0
150 167 0
146 164 0
154 172 0
153 171 0
148 167 0
149 168 0
154 174 0
153 172 0
145 163 0
148 165 0
149 165 0
155 173 0
150 165 0
152 169 0
154 171 0
147 164 0
150 167 0
151 167 0
157 173 0
153 172 0
146 163 0
147 163 0
150 169 0
146 162 0
151 168 0
154 171 0
146 159 0
150 164 0
155 170 0
156 174 0
155 172 0
150 165 0
151 166 0
152 169 0
148 164 0
153 171 0
156 173 0
151 167 0
146 158 0
151 165 0
148 162 0
150 167 0
155 170 0
149 163 0
152 168 0
147 162 0
149 166 0
143 156 0
147 161 0
150 163 0
150 165 0
142 154 0
147 161 0
154 169 0
144 159 0
153 169 0
148 162 0
150 165 0
153 167 0
150 163 0
147 161 0
149 164 0
145 156 0
153 167 0
140 154 0
149 161 0
149 161 0
147 161 0
152 164 0
155 170 0
150 162 0
160 174 0
159 174 0
146 159 0
147 160 0
153 165 0
156 169 0
150 165 0
146 158 0
153 164 0
154 167 0
149 161 0
158 170 0
153 165 0
155 168 0
154 167 0
147 160 0
150 159 0
163 176 0
155 167 0
155 169 0
158 170 0
157 168 0
150 160 0
157 169 0
161 173 0
159 170 0
159 173 0
159 169 0
156 168 0
156 169 0
151 162 0
151 163 0
156 168 0
158 172 0
155 169 0
153 168 0
151 163 0
155 166 0
156 167 0
157 178 0
161 182 0
166 185 0
162 182 0
160 179 0
164 184 0
159 178 0
159 178 0
163 182 0
160 180 0
159 180 0
153 173 0
152 170 0
157 178 0
161 180 0
160 179 0
159 179 0
162 182 0
154 174 0
157 176 0
160 180 0
155 175 0
156 176 0
153 172 0
153 172 0
159 180 0
155 174 0
157 178 0
155 175 0
158 179 0
162 182 0
157 176 0
162 182 0
155 174 0
157 177 0
159 179 0
153 173 0
152 172 0
154 173 0
159 180 0
159 178 0
155 175 0
156 176 0
161 181 0
155 176 0
153 174 0
148 167 0
154 174 0
153 174 0
154 174 0
158 180 0
155 175 0
159 180 0
155 174 0
152 173 0
156 177 0
155 176 0
155 175 0
157 178 0
156 177 0
159 179 0
161 183 0
152 172 0
162 184 0
151 172 0
148 169 0
150 170 0
154 175 0
152 173 0
152 172 0
156 177 0
155 175 0
153 173 0
151 173 0
152 172 0
155 174 0
158 179 0
158 179 0
151 171 0
150 171 0
152 173 0
161 182 0
159 181 0
159 180 0
143 164 0
155 177 0
157 178 0
148 169 0
157 179 0
145 167 0
142 162 0
151 172 0
153 176 0
149 172 0
156 177 0
159 181 0
155 176 0
154 174 0
149 170 0
156 177 0
150 172 0
157 179 0
155 177 0
157 179 0
149 169 0
153 174 0
151 173 0
152 174 0
148 169 0
150 172 0
150 171 0
154 176 0
153 175 0
152 175 0
148 171 0
151 172 0
147 168 0
148 169 0
151 172 0
157 179 0
156 178 0
158 180 0
149 171 0
150 171 0
162 184 0
150 172 0
151 173 0
150 171 0
141 161 0
142 163 0
148 170 0
148 171 0
143 164 0
150 172 0
152 173 0
144 166 0
140 161 0
149 170 0
139 161 0
152 174 0
155 178 0
147 169 0
152 174 0
145 166 0
151 174 0
137 157 0
150 172 0
143 164 0
149 170 0
153 175 0
149 170 0
147 168 0
151 171 0
152 174 0
151 173 0
146 168 0
149 171 0
148 169 0
147 167 0
150 172 0
143 165 0
156 178 0
151 172 0
143 165 0
148 168 0
153 176 0
150 171 0
143 163 0
146 166 0
153 174 0
152 174 0
153 175 0
155 175 0
142 163 0
143 164 0
151 173 0
143 165 0
153 174 0
148 169 0
146 168 0
142 164 0
140 161 0
147 169 0
139 161 0
146 168 0
148 170 0
146 168 0
147 168 0
139 162 0
135 156 0
145 166 0
149 170 0
147 167 0
141 162 0
148 168 0
153 174 0
157 180 0
147 168 0
140 160 0
146 167 0
146 168 0
140 160 0
144 165 0
152 173 0
150 172 0
141 162 0
147 167 0
146 167 0
143 164 0
144 165 0
152 173 0
149 170 0
148 169 0
148 168 0
139 161 0
144 166 0
148 170 0
150 170 0
145 166 0
141 162 0
149 169 0
150 170 0
152 175 0
143 165 0
152 173 0
138 159 0
144 165 0
145 168 0
150 173 0
148 167 0
142 162 0
148 169 0
147 169 0
147 170 0
141 161 0
146 167 0
152 172 0
150 170 0
151 171 0
141 160 0
146 167 0
141 161 0
135 155 0
150 169 0
147 167 0
147 167 0
143 164 0
145 166 0
146 167 0
145 164 0
156 177 0
156 177 0
148 167 0
148 170 0
148 169 0
157 178 0
148 168 0
144 164 0
150 170 0
159 180 0
148 167 0
148 167 0
144 163 0
145 163 0
149 167 0
147 166 0
149 170 0
146 165 0
147 166 0
147 166 0
146 165 0
150 169 0
144 162 0
153 173 0
149 166 0
150 170 0
152 172 0
147 166 0
148 167 0
149 168 0
149 169 0
150 170 0
152 171 0
148 166 0
142 159 0
148 167 0
153 172 0
155 175 0
147 163 0
152 170 0
149 164 0
148 165 0
148 166 0
154 172 0
153 172 0
144 162 0
151 169 0
148 168 0
155 174 0
151 168 0
153 170 0
152 167 0
140 157 0
153 171 0
147 164 0
152 168 0
151 168 0
159 178 0
154 171 0
148 165 0
142 158 0
150 166 0
148 165 0
147 164 0
154 170 0
153 170 0
156 174 0
158 176 0
152 168 0
154 172 0
154 172 0
149 164 0
146 161 0
151 169 0
147 161 0
154 172 0
148 164 0
144 159 0
153 168 0
139 156 0
149 165 0
148 163 0
152 168 0
155 171 0
150 164 0
143 155 0
152 166 0
153 169 0
149 161 0
155 170 0
151 166 0
147 162 0
149 165 0
159 173 0
152 170 0
151 165 0
149 164 0
151 166 0
152 164 0
150 165 0
154 168 0
146 160 0
155 169 0
149 163 0
144 157 0
152 166 0
159 176 0
158 173 0
154 167 0
150 163 0
149 164 0
156 169 0
155 167 0
153 164 0
147 159 0
151 163 0
156 168 0
144 152 0
146 156 0
153 167 0
152 161 0
154 166 0
158 173 0
147 158 0
154 165 0
157 170 0
150 161 0
147 160 0
148 157 0
155 167 0
154 165 0
152 160 0
151 161 0
151 163 0
160 173 0
153 166 0
158 172 0
158 170 0
155 166 0
153 164 0
156 167 0
157 171 0
156 166 0
157 169 0
162 176 0
154 167 0
159 170 0
154 163 0
156 169 0
163 177 0
160 181 0
161 182 0
158 177 0
162 181 0
154 173 0
160 181 0
161 180 0
160 181 0
158 177 0
158 178 0
159 178 0
161 180 0
158 178 0
153 172 0
156 176 0
159 179 0
160 180 0
156 177 0
160 181 0
162 181 0
157 175 0
157 177 0
155 175 0
159 178 0
156 177 0
157 177 0
159 179 0
162 182 0
160 179 0
161 180 0
160 181 0
155 176 0
158 178 0
159 179 0
148 167 0
152 172 0
156 175 0
157 178 0
153 173 0
150 170 0
151 171 0
155 174 0
154 174 0
158 178 0
151 171 0
157 177 0
159 178 0
155 176 0
157 177 0
149 169 0
158 179 0
149 169 0
159 181 0
155 176 0
156 176 0
156 178 0
158 179 0
150 171 0
154 173 0
153 174 0
151 172 0
153 174 0
153 174 0
160 181 0
158 179 0
155 175 0
153 173 0
158 179 0
155 175 0
149 170 0
163 183 0
151 172 0
151 172 0
157 178 0
153 173 0
153 173 0
154 176 0
153 173 0
152 172 0
160 181 0
155 175 0
156 177 0
155 176 0
151 171 0
151 173 0
155 176 0
157 179 0
146 168 0
153 174 0
154 175 0
153 175 0
148 170 0
155 177 0
157 178 0
147 168 0
152 173 0
152 173 0
159 181 0
152 174 0
151 173 0
144 165 0
149 171 0
151 172 0
149 172 0
157 179 0
154 176 0
150 171 0
152 174 0
156 177 0
156 177 0
150 170 0
154 177 0
143 165 0
152 173 0
149 171 0
151 173 0
153 175 0
158 181 0
150 171 0
147 168 0
157 179 0
150 171 0
150 171 0
150 171 0
150 171 0
147 169 0
138 159 0
153 176 0
159 181 0
142 164 0
150 173 0
149 170 0
148 171 0
149 171 0
149 170 0
151 172 0
149 171 0
147 168 0
155 176 0
147 169 0
146 167 0
144 165 0
155 177 0
149 171 0
149 169 0
149 173 0
147 169 0
155 176 0
144 166 0
147 168 0
145 166 0
146 169 0
150 170 0
149 170 0
152 173 0
146 167 0
151 172 0
147 168 0
151 171 0
142 163 0
150 171 0
145 166 0
144 167 0
144 165 0
146 168 0
145 166 0
151 173 0
154 176 0
149 172 0
148 169 0
150 170 0
147 170 0
144 165 0
144 165 0
149 171 0
143 163 0
140 162 0
144 167 0
140 161 0
144 165 0
144 166 0
153 173 0
151 171 0
157 178 0
144 165 0
144 167 0
150 172 0
148 169 0
143 164 0
153 175 0
148 169 0
152 173 0
146 168 0
150 171 0
146 168 0
152 175 0
154 174 0
143 166 0
147 168 0
148 171 0
149 169 0
142 165 0
145 166 0
152 173 0
149 169 0
151 173 0
148 170 0
144 166 0
156 178 0
138 159 0
150 171 0
152 174 0
144 164 0
148 170 0
142 163 0
142 162 0
142 161 0
148 168 0
142 163 0
150 170 0
150 171 0
149 169 0
149 171 0
146 165 0
151 171 0
143 164 0
138 157 0
148 169 0
148 168 0
141 163 0
145 165 0
147 168 0
147 169 0
150 171 0
144 166 0
150 169 0
145 167 0
137 158 0
147 167 0
149 169 0
145 165 0
149 170 0
144 164 0
146 168 0
148 167 0
148 167 0
142 163 0
149 170 0
149 169 0
148 168 0
151 171 0
147 167 0
152 173 0
146 167 0
139 160 0
145 165 0
150 169 0
153 174 0
150 170 0
147 168 0
141 162 0
145 164 0
148 168 0
148 169 0
150 170 0
142 161 0
142 160 0
141 161 0
146 165 0
143 162 0
154 174 0
153 172 0
151 170 0
149 169 0
155 174 0
145 162 0
155 175 0
150 170 0
153 172 0
149 170 0
143 162 0
147 167 0
154 174 0
148 166 0
152 172 0
150 168 0
147 166 0
155 173 0
152 172 0
149 170 0
156 174 0
151 168 0
148 166 0
148 168 0
149 166 0
152 169 0
153 171 0
145 164 0
149 169 0
149 166 0
148 165 0
151 168 0
156 174 0
150 169 0
153 172 0
158 176 0
152 168 0
147 163 0
152 171 0
148 164 0
153 169 0
149 166 0
146 165 0
157 174 0
146 166 0
149 167 0
147 166 0
150 166 0
149 166 0
154 171 0
155 171 0
152 170 0
144 160 0
148 164 0
151 166 0
150 166 0
149 166 0
154 167 0
145 161 0
153 173 0
152 165 0
154 172 0
150 168 0
145 160 0
156 173 0
152 167 0
146 161 0
151 167 0
150 164 0
153 169 0
159 174 0
150 165 0
150 165 0
146 161 0
155 168 0
153 169 0
155 168 0
150 163 0
149 163 0
152 165 0
151 164 0
153 168 0
155 170 0
147 161 0
159 173 0
150 165 0
156 168 0
156 173 0
157 172 0
154 167 0
149 162 0
158 172 0
154 168 0
149 160 0
149 163 0
150 164 0
156 171 0
159 175 0
157 170 0
152 164 0
151 164 0
157 170 0
153 168 0
150 163 0
153 165 0
155 167 0
151 163 0
157 170 0
155 168 0
154 166 0
147 159 0
149 160 0
152 161 0
153 163 0
155 167 0
152 163 0
158 170 0
156 167 0
150 162 0
155 168 0
156 167 0
156 170 0
154 164 0
161 175 0
157 170 0
155 166 0
159 175 0
154 166 0
153 162 0
156 172 0
159 178 0
165 186 0
155 174 0
164 185 0
163 183 0
155 175 0
163 183 0
162 182 0
162 182 0
167 186 0
157 178 0
157 177 0
159 179 0
161 181 0
162 182 0
160 180 0
157 177 0
158 178 0
159 179 0
162 182 0
159 180 0
154 174 0
156 176 0
157 177 0
152 172 0
159 179 0
159 180 0
160 181 0
157 178 0
155 175 0
157 177 0
159 179 0
163 183 0
150 171 0
155 176 0
155 175 0
159 180 0
163 184 0
159 180 0
153 174 0
155 175 0
160 180 0
157 178 0
151 171 0
154 174 0
153 173 0
158 179 0
158 179 0
151 172 0
151 172 0
153 175 0
147 168 0
154 175 0
149 169 0
150 171 0
154 175 0
160 180 0
152 173 0
156 175 0
157 178 0
151 171 0
155 176 0
156 176 0
156 177 0
147 168 0
151 171 0
160 181 0
152 173 0
152 172 0
155 176 0
148 169 0
155 176 0
156 177 0
155 177 0
155 176 0
143 164 0
152 173 0
152 173 0
152 173 0
156 177 0
155 177 0
154 175 0
150 171 0
153 174 0
156 177 0
149 170 0
154 175 0
152 174 0
148 168 0
157 178 0
153 175 0
154 175 0
156 176 0
155 177 0
155 175 0
153 174 0
153 175 0
154 177 0
161 183 0
154 176 0
155 177 0
151 174 0
150 171 0
150 172 0
152 173 0
150 171 0
151 173 0
151 173 0
152 174 0
147 170 0
154 176 0
148 168 0
151 173 0
147 169 0
155 176 0
153 175 0
149 170 0
146 167 0
157 178 0
147 169 0
152 172 0
145 166 0
151 174 0
151 174 0
151 174 0
154 175 0
151 173 0
151 171 0
152 175 0
142 164 0
152 174 0
140 161 0
153 175 0
148 170 0
150 172 0
150 172 0
155 177 0
152 175 0
149 171 0
152 174 0
141 161 0
144 167 0
151 173 0
154 176 0
146 168 0
143 165 0
145 166 0
151 173 0
153 174 0
144 166 0
148 171 0
154 176 0
150 171 0
146 170 0
153 176 0
145 167 0
158 180 0
150 173 0
152 173 0
151 172 0
149 170 0
142 163 0
147 169 0
141 162 0
151 173 0
144 165 0
151 173 0
141 163 0
146 168 0
143 164 0
146 168 0
148 170 0
146 167 0
140 161 0
157 179 0
148 170 0
142 162 0
154 175 0
145 166 0
150 173 0
145 167 0
150 171 0
144 165 0
153 173 0
141 162 0
141 163 0
135 157 0
146 169 0
151 172 0
142 163 0
147 169 0
150 172 0
149 169 0
150 171 0
138 161 0
148 169 0
149 171 0
145 167 0
144 164 0
150 171 0
154 176 0
140 161 0
153 175 0
151 172 0
146 167 0
153 174 0
138 159 0
140 161 0
146 166 0
151 172 0
147 166 0
142 165 0
143 164 0
140 161 0
149 169 0
147 168 0
152 174 0
143 165 0
149 171 0
147 167 0
147 168 0
149 170 0
141 162 0
148 170 0
147 170 0
147 169 0
148 170 0
148 169 0
151 171 0
139 159 0
151 173 0
142 162 0
148 168 0
143 164 0
143 163 0
146 165 0
142 162 0
142 162 0
149 169 0
142 163 0
143 163 0
147 169 0
147 168 0
149 170 0
145 166 0
152 172 0
147 168 0
140 160 0
147 167 0
144 166 0
150 171 0
152 172 0
151 171 0
148 169 0
146 166 0
150 170 0
145 164 0
145 164 0
151 171 0
151 171 0
152 173 0
148 166 0
142 160 0
154 174 0
149 169 0
146 166 0
147 166 0
148 168 0
157 176 0
149 169 0
140 159 0
157 176 0
142 159 0
150 170 0
149 169 0
152 171 0
155 175 0
151 171 0
151 170 0
147 166 0
149 169 0
155 173 0
150 168 0
157 178 0
159 179 0
149 169 0
153 170 0
148 166 0
155 174 0
146 164 0
154 173 0
149 170 0
151 171 0
149 168 0
154 173 0
148 167 0
145 163 0
145 162 0
152 171 0
153 172 0
147 166 0
147 166 0
151 168 0
152 168 0
154 172 0
153 170 0
151 169 0
154 173 0
154 171 0
153 171 0
156 174 0
157 173 0
155 175 0
150 169 0
153 171 0
152 168 0
148 167 0
150 165 0
142 160 0
144 160 0
144 161 0
159 177 0
152 166 0
152 165 0
153 171 0
151 167 0
150 168 0
148 164 0
153 169 0
155 172 0
147 164 0
153 168 0
153 166 0
156 174 0
148 165 0
150 166 0
148 162 0
153 168 0
154 169 0
159 177 0
150 167 0
145 160 0
152 168 0
155 170 0
157 172 0
156 172 0
152 164 0
148 161 0
155 170 0
151 167 0
152 167 0
155 169 0
148 159 0
145 161 0
156 171 0
157 175 0
153 167 0
157 171 0
159 172 0
159 175 0
148 160 0
156 170 0
149 162 0
156 171 0
151 163 0
153 169 0
148 158 0
155 170 0
152 165 0
155 170 0
157 170 0
156 167 0
157 170 0
156 172 0
153 164 0
153 166 0
154 166 0
160 174 0
155 169 0
155 167 0
152 164 0
158 173 0
154 166 0
152 163 0
161 173 0
154 166 0
158 171 0
150 162 0
156 167 0
153 164 0
151 160 0
157 170 0
157 168 0
156 167 0
155 165 0
152 163 0
159 173 0
159 173 0
153 165 0
158 169 0
164 183 0
163 184 0
163 183 0
161 182 0
164 183 0
158 179 0
161 181 0
156 176 0
154 174 0
161 180 0
153 171 0
155 176 0
161 181 0
156 174 0
156 176 0
159 179 0
149 169 0
158 177 0
155 175 0
153 172 0
165 186 0
154 175 0
156 176 0
159 180 0
157 177 0
160 180 0
153 173 0
155 174 0
159 179 0
150 170 0
158 178 0
160 180 0
153 174 0
159 180 0
157 177 0
160 181 0
154 175 0
158 178 0
163 182 0
153 172 0
153 173 0
154 174 0
152 173 0
162 183 0
156 177 0
158 180 0
149 170 0
154 174 0
162 183 0
163 184 0
153 173 0
151 172 0
156 177 0
149 168 0
159 180 0
157 178 0
145 166 0
149 170 0
158 179 0
151 172 0
157 177 0
155 177 0
156 176 0
154 175 0
156 177 0
159 180 0
150 171 0
155 176 0
152 172 0
159 180 0
154 176 0
152 174 0
155 176 0
149 169 0
150 170 0
152 174 0
153 175 0
160 181 0
154 177 0
152 173 0
149 170 0
158 179 0
150 170 0
156 178 0
157 179 0
151 173 0
154 176 0
156 178 0
151 172 0
156 177 0
149 170 0
150 171 0
154 175 0
150 172 0
152 174 0
154 175 0
149 170 0
154 175 0
151 172 0
151 172 0
148 169 0
157 178 0
150 173 0
150 172 0
152 174 0
151 172 0
151 172 0
147 169 0
150 172 0
156 177 0
160 181 0
153 176 0
151 172 0
151 172 0
147 168 0
149 171 0
143 165 0
148 169 0
148 170 0
153 174 0
156 177 0
152 174 0
153 174 0
150 173 0
150 171 0
155 177 0
147 168 0
153 175 0
150 173 0
155 177 0
152 174 0
154 177 0
155 176 0
152 174 0
153 175 0
150 173 0
146 167 0
147 168 0
149 171 0
151 173 0
144 165 0
155 176 0
151 173 0
142 162 0
145 167 0
151 173 0
150 172 0
158 180 0
154 175 0
145 166 0
155 176 0
148 170 0
154 176 0
151 173 0
150 171 0
145 166 0
143 165 0
151 173 0
149 170 0
149 171 0
145 167 0
153 175 0
156 177 0
146 167 0
146 168 0
158 179 0
145 167 0
139 162 0
143 165 0
141 162 0
153 174 0
141 161 0
141 162 0
148 169 0
139 159 0
149 170 0
150 173 0
141 163 0
145 167 0
143 163 0
154 176 0
148 170 0
150 171 0
142 162 0
145 166 0
143 165 0
142 163 0
144 164 0
149 170 0
153 175 0
145 167 0
144 166 0
151 171 0
147 170 0
157 179 0
152 174 0
148 170 0
145 167 0
158 179 0
151 172 0
149 170 0
142 163 0
149 171 0
141 161 0
142 163 0
144 166 0
145 165 0
143 164 0
147 168 0
150 172 0
151 174 0
145 166 0
147 168 0
142 162 0
147 169 0
145 167 0
138 158 0
152 172 0
151 172 0
143 165 0
144 163 0
137 158 0
145 165 0
147 167 0
147 168 0
153 173 0
149 168 0
153 175 0
152 172 0
151 173 0
150 172 0
149 170 0
149 170 0
148 168 0
139 160 0
150 170 0
153 174 0
148 167 0
150 171 0
142 162 0
149 169 0
148 170 0
148 169 0
149 171 0
155 173 0
153 173 0
149 169 0
155 176 0
159 179 0
151 171 0
145 166 0
151 172 0
150 173 0
143 162 0
153 175 0
139 159 0
149 169 0
150 170 0
144 165 0
147 167 0
147 167 0
153 174 0
155 174 0
145 165 0
150 169 0
144 164 0
153 172 0
147 165 0
148 170 0
155 173 0
151 171 0
145 163 0
142 161 0
147 165 0
148 167 0
146 166 0
147 166 0
151 172 0
150 170 0
145 166 0
157 178 0
150 169 0
151 170 0
155 175 0
139 156 0
154 174 0
153 174 0
153 171 0
152 170 0
152 170 0
149 169 0
149 168 0
149 167 0
142 160 0
155 173 0
141 159 0
155 173 0
155 172 0
151 170 0
154 172 0
148 170 0
152 170 0
144 163 0
150 170 0
146 163 0
148 165 0
145 165 0
153 173 0
151 169 0
150 167 0
150 168 0
148 166 0
149 169 0
145 162 0
150 166 0
155 173 0
153 172 0
145 161 0
154 171 0
154 172 0
153 169 0
151 168 0
153 172 0
159 176 0
152 167 0
145 162 0
155 172 0
153 168 0
149 164 0
156 174 0
152 167 0
151 167 0
155 172 0
151 168 0
151 165 0
157 174 0
154 169 0
152 168 0
153 168 0
159 175 0
146 161 0
146 160 0
153 166 0
151 168 0
155 170 0
152 168 0
152 167 0
152 167 0
151 169 0
154 168 0
151 166 0
148 161 0
150 163 0
154 169 0
150 164 0
154 169 0
152 167 0
151 166 0
152 167 0
152 169 0
157 171 0
157 172 0
151 162 0
151 165 0
150 161 0
151 166 0
151 165 0
149 163 0
149 163 0
155 168 0
153 163 0
148 161 0
157 167 0
160 174 0
151 164 0
148 162 0
149 160 0
153 165 0
159 169 0
149 161 0
157 171 0
157 170 0
163 175 0
149 162 0
159 175 0
156 166 0
157 171 0
156 169 0
158 168 0
154 167 0
159 171 0
160 173 0
155 170 0
155 170 0
154 166 0
155 167 0
150 159 0
159 173 0
155 168 0
152 163 0
157 177 0
157 178 0
160 180 0
155 175 0
159 179 0
161 180 0
163 184 0
153 174 0
155 174 0
158 179 0
157 177 0
159 179 0
163 183 0
158 178 0
160 179 0
160 181 0
156 177 0
150 169 0
159 178 0
158 178 0
156 176 0
157 178 0
158 178 0
158 178 0
153 173 0
159 179 0
160 181 0
159 179 0
155 174 0
157 178 0
155 176 0
156 176 0
157 177 0
158 178 0
156 175 0
149 169 0
155 175 0
158 179 0
155 176 0
159 179 0
154 174 0
161 183 0
159 180 0
150 170 0
159 180 0
152 172 0
155 176 0
153 174 0
157 179 0
156 176 0
156 178 0
155 175 0
150 170 0
157 178 0
155 176 0
155 175 0
156 178 0
154 175 0
158 179 0
151 172 0
160 181 0
157 176 0
152 173 0
153 175 0
155 177 0
150 171 0
153 175 0
149 169 0
156 178 0
160 182 0
154 175 0
157 179 0
156 177 0
158 179 0
150 172 0
155 176 0
151 173 0
152 173 0
157 178 0
156 176 0
144 166 0
149 170 0
151 173 0
150 172 0
152 172 0
157 178 0
152 173 0
156 178 0
156 179 0
153 174 0
153 175 0
152 173 0
156 177 0
149 171 0
155 177 0
153 175 0
153 174 0
157 179 0
154 175 0
152 172 0
154 176 0
155 176 0
152 174 0
154 177 0
152 174 0
153 174 0
155 178 0
152 174 0
147 170 0
156 179 0
150 172 0
155 176 0
156 179 0
150 173 0
150 173 0
149 170 0
151 174 0
155 176 0
149 171 0
156 176 0
152 174 0
152 175 0
152 174 0
149 170 0
155 178 0
142 163 0
157 179 0
150 172 0
146 167 0
156 179 0
156 177 0
156 178 0
149 171 0
155 176 0
142 163 0
147 169 0
153 176 0
142 162 0
153 175 0
151 172 0
153 174 0
143 166 0
152 173 0
157 178 0
153 174 0
147 171 0
154 176 0
153 174 0
152 174 0
150 172 0
147 169 0
147 169 0
146 167 0
149 171 0
148 170 0
153 176 0
154 176 0
142 164 0
147 168 0
144 166 0
146 167 0
149 170 0
140 162 0
142 163 0
151 173 0
147 168 0
141 162 0
151 172 0
152 173 0
148 170 0
152 174 0
156 179 0
142 164 0
144 166 0
153 176 0
145 167 0
149 171 0
152 174 0
147 170 0
150 171 0
152 174 0
146 169 0
143 164 0
151 171 0
148 169 0
147 168 0
148 170 0
148 170 0
154 177 0
150 172 0
145 167 0
146 167 0
147 169 0
150 172 0
140 161 0
153 175 0
150 172 0
146 168 0
149 172 0
150 172 0
150 171 0
142 163 0
147 168 0
151 173 0
152 174 0
146 169 0
145 166 0
146 168 0
142 163 0
145 166 0
148 170 0
145 166 0
153 175 0
148 170 0
149 171 0
143 164 0
152 173 0
148 169 0
150 170 0
145 167 0
153 175 0
155 174 0
145 165 0
146 168 0
150 171 0
152 173 0
147 168 0
139 160 0
143 165 0
144 163 0
151 173 0
154 174 0
146 166 0
153 173 0
143 164 0
151 172 0
143 165 0
145 165 0
149 170 0
153 174 0
148 169 0
149 170 0
150 172 0
152 172 0
143 164 0
154 176 0
150 169 0
147 169 0
147 167 0
153 173 0
151 172 0
149 170 0
146 165 0
144 164 0
149 170 0
154 175 0
149 171 0
157 178 0
149 169 0
146 165 0
150 170 0
150 171 0
135 155 0
154 173 0
156 177 0
150 169 0
147 168 0
148 166 0
147 166 0
148 168 0
148 168 0
150 171 0
153 172 0
153 174 0
148 168 0
158 179 0
151 172 0
149 168 0
152 171 0
154 174 0
151 170 0
152 168 0
156 177 0
154 173 0
153 171 0
155 174 0
144 164 0
156 176 0
151 171 0
153 172 0
154 172 0
158 177 0
148 165 0
150 168 0
147 165 0
153 170 0
151 171 0
150 169 0
159 176 0
150 168 0
148 165 0
152 169 0
155 173 0
153 172 0
154 173 0
149 167 0
145 164 0
155 175 0
152 170 0
155 173 0
150 167 0
146 164 0
155 173 0
152 169 0
150 166 0
148 166 0
146 164 0
154 172 0
148 167 0
152 170 0
155 171 0
156 175 0
153 169 0
144 159 0
152 168 0
160 177 0
155 170 0
156 173 0
154 172 0
151 167 0
150 166 0
152 170 0
153 170 0
153 169 0
149 163 0
152 167 0
147 162 0
155 172 0
150 166 0
147 163 0
152 168 0
151 167 0
151 167 0
154 170 0
153 169 0
155 169 0
149 163 0
154 169 0
153 168 0
159 174 0
152 166 0
150 165 0
153 168 0
150 168 0
155 171 0
155 169 0
158 172 0
157 173 0
153 165 0
159 174 0
152 166 0
157 172 0
152 167 0
152 168 0
153 165 0
146 159 0
151 166 0
154 169 0
149 163 0
154 167 0
156 171 0
161 176 0
157 172 0
151 163 0
153 164 0
154 166 0
155 168 0
154 168 0
156 170 0
155 167 0
154 168 0
157 171 0
155 170 0
158 172 0
154 168 0
155 167 0
156 171 0
150 160 0
159 171 0
152 166 0
157 172 0
155 169 0
159 171 0
158 169 0
152 167 0
159 174 0
156 169 0
156 167 0
159 174 0
153 165 0
161 181 0
159 180 0
160 180 0
158 178 0
162 182 0
158 178 0
157 177 0
157 177 0
158 178 0
160 179 0
160 180 0
156 175 0
160 180 0
161 181 0
159 179 0
156 177 0
159 180 0
159 180 0
157 177 0
158 177 0
156 176 0
158 178 0
159 179 0
160 180 0
160 180 0
157 177 0
159 178 0
159 180 0
155 175 0
158 178 0
157 178 0
159 179 0
158 180 0
157 177 0
162 182 0
156 176 0
156 176 0
153 172 0
153 173 0
150 169 0
160 181 0
152 173 0
157 178 0
162 183 0
155 176 0
149 170 0
160 182 0
157 178 0
153 174 0
157 178 0
157 178 0
152 171 0
155 176 0
149 168 0
154 174 0
159 180 0
155 176 0
158 179 0
159 181 0
152 172 0
155 176 0
154 176 0
154 174 0
154 175 0
158 180 0
148 169 0
152 173 0
159 181 0
151 173 0
150 171 0
148 169 0
152 174 0
160 182 0
153 174 0
158 180 0
157 178 0
154 175 0
153 174 0
150 171 0
156 177 0
147 168 0
156 177 0
148 169 0
157 180 0
158 180 0
147 167 0
152 171 0
155 176 0
151 172 0
153 174 0
149 169 0
157 179 0
155 178 0
158 180 0
153 175 0
148 170 0
152 174 0
151 172 0
155 177 0
152 173 0
153 174 0
151 173 0
153 175 0
157 180 0
153 173 0
143 164 0
150 171 0
150 172 0
155 176 0
148 170 0
151 173 0
154 176 0
156 177 0
152 174 0
147 168 0
150 171 0
147 168 0
154 175 0
146 168 0
152 174 0
144 166 0
145 166 0
155 177 0
149 171 0
148 169 0
155 177 0
151 172 0
144 166 0
151 173 0
149 172 0
147 169 0
145 169 0
149 170 0
150 173 0
150 173 0
155 176 0
153 175 0
149 172 0
152 174 0
154 176 0
154 175 0
153 176 0
150 172 0
155 178 0
153 176 0
153 174 0
153 174 0
152 174 0
141 163 0
152 173 0
153 175 0
149 172 0
155 177 0
156 178 0
151 172 0
152 173 0
154 176 0
153 175 0
152 174 0
149 170 0
152 174 0
147 169 0
151 172 0
152 175 0
151 172 0
150 171 0
142 163 0
150 172 0
146 168 0
151 172 0
145 167 0
145 168 0
139 160 0
143 166 0
151 174 0
141 162 0
147 168 0
147 169 0
152 174 0
149 170 0
152 174 0
152 174 0
150 172 0
142 161 0
143 166 0
149 170 0
145 166 0
146 169 0
152 174 0
148 171 0
143 164 0
144 165 0
145 166 0
152 173 0
151 174 0
145 167 0
150 173 0
152 174 0
139 160 0
153 176 0
147 169 0
153 173 0
154 175 0
149 172 0
154 175 0
150 171 0
150 172 0
146 166 0
155 177 0
139 161 0
157 178 0
151 171 0
151 171 0
149 171 0
150 172 0
151 172 0
148 168 0
154 174 0
147 168 0
144 165 0
152 175 0
143 164 0
152 173 0
150 172 0
152 172 0
148 169 0
148 169 0
152 172 0
149 172 0
146 164 0
152 171 0
155 175 0
153 173 0
155 176 0
150 171 0
156 177 0
152 172 0
147 168 0
143 163 0
146 168 0
146 166 0
145 166 0
149 169 0
151 173 0
148 169 0
147 167 0
146 166 0
144 163 0
145 167 0
152 174 0
151 171 0
151 170 0
145 166 0
151 173 0
141 161 0
150 170 0
150 171 0
148 169 0
158 177 0
149 169 0
153 175 0
148 169 0
150 170 0
146 167 0
152 171 0
154 175 0
152 173 0
158 179 0
144 164 0
146 165 0
148 168 0
158 179 0
152 171 0
146 166 0
152 172 0
148 167 0
155 173 0
150 169 0
146 166 0
146 164 0
145 163 0
152 171 0
156 176 0
153 172 0
150 170 0
154 175 0
155 174 0
152 171 0
154 174 0
154 173 0
153 172 0
136 155 0
148 167 0
150 171 0
147 165 0
152 173 0
148 167 0
151 171 0
161 179 0
153 170 0
152 171 0
154 171 0
147 164 0
147 165 0
148 166 0
147 165 0
157 175 0
163 182 0
155 174 0
153 169 0
148 167 0
157 177 0
155 175 0
149 167 0
151 169 0
148 166 0
150 169 0
144 161 0
151 171 0
156 175 0
150 169 0
153 169 0
157 176 0
151 169 0
153 167 0
148 164 0
146 162 0
158 176 0
151 168 0
153 171 0
154 172 0
145 160 0
155 171 0
151 167 0
151 169 0
150 167 0
153 168 0
154 171 0
149 165 0
157 173 0
152 166 0
149 164 0
152 167 0
164 182 0
148 165 0
149 164 0
154 167 0
155 172 0
154 170 0
149 164 0
155 171 0
150 165 0
149 162 0
154 165 0
152 166 0
150 164 0
156 172 0
152 167 0
155 170 0
152 169 0
150 165 0
156 170 0
146 160 0
152 167 0
154 167 0
156 169 0
156 167 0
148 161 0
152 167 0
157 172 0
148 163 0
152 167 0
155 167 0
151 165 0
154 170 0
150 164 0
151 165 0
149 163 0
154 166 0
156 172 0
156 168 0
154 168 0
156 169 0
154 167 0
153 165 0
153 166 0
157 168 0
156 168 0
156 170 0
155 166 0
153 166 0
157 170 0
155 166 0
152 165 0
159 171 0
154 169 0
158 170 0
160 174 0
155 166 0
153 165 0
161 182 0
163 183 0
158 179 0
161 181 0
158 178 0
155 176 0
160 180 0
159 178 0
159 179 0
155 175 0
155 174 0
151 170 0
161 181 0
161 182 0
162 182 0
158 176 0
157 177 0
158 178 0
160 181 0
159 180 0
160 179 0
153 173 0
157 177 0
156 176 0
166 187 0
157 179 0
157 178 0
160 181 0
154 173 0
155 176 0
153 173 0
162 182 0
155 175 0
157 179 0
156 177 0
158 179 0
155 176 0
152 171 0
157 177 0
155 175 0
154 174 0
155 176 0
157 178 0
155 177 0
155 177 0
156 177 0
155 175 0
160 182 0
160 180 0
156 177 0
156 177 0
149 169 0
152 174 0
159 180 0
152 173 0
154 175 0
162 183 0
155 177 0
152 174 0
155 176 0
158 179 0
156 178 0
159 180 0
151 172 0
158 179 0
159 180 0
151 172 0
154 175 0
145 165 0
156 177 0
152 174 0
154 175 0
156 176 0
153 175 0
156 177 0
153 173 0
150 171 0
155 176 0
157 179 0
158 178 0
153 175 0
157 180 0
157 178 0
159 180 0
158 178 0
154 176 0
156 178 0
150 171 0
146 168 0
152 174 0
153 174 0
156 176 0
154 176 0
157 179 0
153 175 0
150 173 0
152 173 0
149 171 0
152 173 0
157 178 0
150 173 0
141 163 0
147 169 0
158 180 0
154 177 0
148 169 0
150 172 0
150 172 0
152 175 0
152 173 0
151 173 0
154 175 0
156 179 0
153 175 0
158 179 0
158 181 0
158 180 0
150 173 0
153 175 0
154 176 0
154 176 0
151 174 0
151 173 0
152 172 0
152 174 0
154 176 0
149 170 0
148 169 0
149 171 0
155 177 0
150 171 0
151 172 0
150 171 0
147 169 0
150 172 0
155 176 0
148 171 0
150 173 0
152 174 0
144 166 0
152 173 0
154 174 0
148 171 0
155 177 0
158 179 0
154 176 0
149 170 0
154 176 0
149 171 0
151 174 0
154 175 0
148 170 0
150 172 0
144 166 0
148 168 0
154 174 0
150 170 0
152 174 0
147 169 0
148 170 0
155 176 0
152 173 0
156 178 0
146 167 0
151 173 0
154 175 0
152 174 0
154 176 0
141 162 0
143 165 0
147 168 0
153 175 0
148 169 0
149 171 0
148 168 0
148 170 0
140 161 0
150 172 0
147 169 0
151 174 0
151 173 0
149 171 0
148 169 0
147 169 0
148 171 0
151 173 0
148 169 0
143 166 0
153 175 0
150 170 0
153 174 0
144 166 0
148 169 0
150 171 0
147 169 0
149 171 0
143 163 0
148 169 0
153 174 0
155 176 0
148 170 0
146 168 0
148 168 0
147 168 0
139 160 0
152 171 0
146 168 0
149 170 0
144 165 0
151 171 0
144 165 0
153 174 0
142 165 0
146 166 0
152 173 0
141 164 0
142 164 0
144 165 0
148 170 0
151 172 0
153 173 0
148 168 0
155 177 0
151 173 0
151 173 0
152 173 0
149 169 0
153 174 0
154 175 0
149 170 0
151 172 0
151 171 0
151 173 0
152 174 0
155 176 0
143 163 0
141 161 0
146 168 0
142 162 0
148 168 0
148 169 0
145 165 0
148 169 0
151 173 0
151 171 0
144 165 0
144 164 0
151 172 0
154 175 0
156 176 0
148 168 0
153 174 0
149 169 0
153 175 0
144 163 0
150 170 0
149 168 0
143 165 0
152 173 0
146 167 0
145 167 0
144 164 0
148 167 0
147 165 0
141 160 0
146 166 0
151 172 0
150 170 0
148 168 0
155 174 0
146 166 0
146 164 0
153 173 0
151 171 0
148 167 0
159 180 0
155 175 0
157 178 0
153 172 0
155 176 0
156 176 0
152 172 0
159 178 0
155 174 0
144 162 0
150 168 0
143 162 0
149 167 0
152 172 0
152 173 0
150 169 0
148 167 0
148 166 0
147 168 0
147 164 0
140 159 0
146 163 0
155 174 0
151 169 0
155 174 0
147 164 0
152 171 0
144 160 0
146 163 0
153 171 0
151 170 0
151 169 0
154 171 0
156 175 0
153 170 0
149 168 0
151 168 0
150 169 0
152 171 0
155 172 0
154 172 0
152 171 0
151 170 0
152 171 0
145 161 0
147 163 0
152 170 0
155 170 0
151 170 0
151 169 0
157 173 0
152 167 0
153 171 0
157 174 0
153 170 0
152 168 0
152 169 0
156 173 0
143 158 0
149 165 0
149 167 0
155 173 0
150 166 0
158 174 0
153 169 0
150 167 0
148 165 0
152 165 0
156 171 0
155 170 0
152 167 0
150 167 0
157 174 0
146 160 0
150 168 0
148 161 0
152 168 0
152 166 0
156 171 0
155 170 0
149 165 0
151 167 0
158 172 0
148 162 0
154 167 0
157 173 0
149 161 0
154 170 0
152 168 0
157 172 0
152 167 0
155 170 0
155 169 0
161 177 0
156 170 0
155 168 0
155 169 0
151 165 0
156 170 0
153 168 0
158 174 0
154 168 0
156 172 0
153 165 0
151 160 0
157 169 0
157 171 0
153 164 0
152 168 0
155 167 0
157 170 0
153 167 0
155 169 0
160 173 0
153 165 0
162 175 0
153 167 0
155 168 0
152 164 0
155 169 0
159 173 0
158 173 0
158 172 0
155 166 0
154 167 0
155 175 0
161 181 0
162 183 0
161 181 0
160 180 0
160 180 0
163 184 0
162 182 0
163 183 0
158 179 0
158 177 0
159 180 0
161 182 0
150 171 0
159 178 0
157 178 0
158 178 0
154 174 0
151 170 0
158 178 0
153 173 0
158 179 0
158 179 0
160 182 0
159 180 0
160 180 0
162 182 0
149 169 0
156 176 0
157 177 0
155 175 0
155 175 0
161 182 0
157 177 0
159 178 0
153 174 0
154 175 0
153 174 0
157 178 0
153 172 0
154 175 0
159 180 0
160 181 0
155 177 0
155 176 0
152 174 0
160 181 0
155 176 0
160 182 0
156 176 0
158 179 0
158 179 0
157 178 0
150 171 0
154 175 0
159 180 0
154 175 0
158 179 0
153 174 0
159 179 0
150 171 0
153 175 0
157 178 0
155 176 0
155 175 0
154 176 0
153 175 0
151 171 0
152 173 0
153 174 0
159 181 0
154 176 0
152 172 0
158 179 0
157 178 0
157 178 0
155 177 0
154 175 0
152 174 0
150 171 0
153 175 0
152 173 0
152 174 0
157 178 0
161 182 0
158 179 0
157 179 0
146 168 0
152 173 0
159 181 0
147 168 0
151 172 0
154 176 0
150 172 0
156 178 0
166 188 0
145 165 0
155 178 0
158 180 0
150 171 0
160 183 0
156 178 0
155 178 0
151 172 0
158 181 0
153 175 0
156 177 0
147 169 0
154 176 0
150 172 0
149 170 0
154 176 0
156 177 0
147 169 0
156 178 0
157 177 0
152 174 0
146 168 0
153 175 0
150 171 0
150 171 0
150 172 0
156 177 0
154 176 0
158 180 0
152 174 0
149 170 0
149 170 0
154 175 0
146 168 0
150 172 0
156 178 0
150 173 0
145 166 0
149 171 0
152 174 0
148 169 0
159 181 0
149 171 0
141 163 0
155 177 0
154 176 0
153 174 0
154 176 0
147 170 0
150 171 0
153 176 0
152 176 0
157 178 0
151 172 0
144 164 0
152 173 0
148 170 0
151 173 0
152 174 0
153 176 0
161 183 0
138 160 0
148 171 0
150 171 0
145 167 0
152 175 0
145 166 0
150 172 0
151 173 0
159 182 0
150 170 0
144 166 0
140 162 0
154 175 0
154 176 0
151 173 0
151 173 0
148 170 0
149 170 0
151 174 0
159 181 0
157 179 0
155 178 0
152 174 0
153 174 0
148 169 0
146 166 0
144 165 0
149 171 0
147 169 0
154 178 0
151 172 0
153 175 0
152 173 0
145 167 0
145 167 0
148 170 0
145 167 0
153 173 0
143 164 0
153 175 0
147 169 0
143 163 0
152 174 0
154 177 0
150 172 0
151 173 0
153 174 0
146 167 0
146 168 0
150 171 0
146 167 0
151 173 0
148 169 0
156 178 0
150 172 0
151 172 0
149 171 0
149 170 0
142 164 0
154 175 0
151 174 0
147 167 0
155 175 0
140 160 0
147 169 0
155 175 0
145 167 0
153 176 0
143 165 0
146 167 0
152 175 0
156 178 0
149 171 0
152 173 0
138 157 0
147 168 0
154 173 0
150 172 0
149 170 0
147 169 0
151 172 0
144 164 0
145 166 0
151 171 0
149 170 0
157 178 0
152 173 0
146 167 0
145 165 0
151 172 0
144 166 0
149 169 0
151 171 0
151 173 0
153 173 0
146 167 0
146 166 0
146 165 0
146 166 0
150 170 0
146 167 0
149 169 0
147 167 0
150 171 0
152 171 0
145 165 0
154 172 0
154 171 0
156 175 0
153 172 0
150 168 0
148 168 0
148 167 0
144 163 0
149 170 0
145 166 0
153 173 0
149 169 0
150 170 0
152 172 0
145 163 0
149 168 0
154 174 0
160 180 0
151 171 0
150 171 0
153 173 0
149 169 0
156 176 0
146 162 0
151 170 0
150 170 0
157 177 0
150 169 0
160 179 0
157 177 0
159 176 0
149 168 0
151 169 0
150 170 0
147 166 0
151 168 0
151 169 0
147 166 0
154 173 0
153 172 0
156 175 0
153 172 0
155 174 0
151 169 0
149 169 0
147 163 0
152 171 0
151 168 0
148 164 0
151 167 0
152 170 0
150 167 0
154 175 0
154 173 0
157 175 0
151 169 0
152 169 0
152 170 0
149 165 0
154 171 0
149 165 0
156 177 0
151 168 0
160 177 0
154 173 0
153 170 0
154 171 0
151 166 0
158 176 0
146 163 0
161 178 0
155 171 0
150 167 0
148 164 0
153 170 0
161 179 0
155 174 0
148 164 0
151 168 0
148 165 0
156 171 0
155 172 0
152 169 0
145 160 0
146 160 0
155 171 0
150 166 0
149 164 0
150 164 0
155 171 0
157 173 0
151 166 0
154 169 0
154 169 0
155 171 0
158 172 0
152 166 0
150 165 0
154 169 0
154 168 0
152 169 0
151 163 0
156 171 0
153 167 0
149 162 0
154 168 0
149 163 0
155 170 0
156 170 0
147 162 0
154 167 0
154 168 0
152 169 0
155 167 0
156 170 0
160 172 0
158 174 0
160 174 0
161 175 0
159 173 0
148 161 0
153 167 0
156 172 0
158 171 0
157 171 0
153 166 0
154 167 0
153 167 0
158 172 0
155 167 0
151 162 0
156 169 0
158 171 0
155 169 0
153 169 0
154 167 0
160 176 0
159 180 0
158 179 0
161 182 0
161 183 0
157 178 0
161 180 0
158 177 0
162 183 0
162 182 0
161 182 0
160 181 0
161 182 0
151 172 0
154 174 0
155 175 0
159 179 0
155 175 0
157 177 0
163 184 0
150 169 0
158 179 0
152 173 0
163 183 0
157 177 0
156 176 0
157 177 0
155 175 0
155 175 0
160 181 0
163 184 0
156 176 0
155 176 0
161 182 0
156 176 0
157 177 0
160 181 0
159 180 0
158 179 0
154 174 0
161 182 0
152 173 0
154 175 0
153 175 0
157 178 0
159 180 0
162 184 0
154 176 0
161 182 0
156 178 0
156 177 0
161 183 0
158 178 0
156 177 0
156 176 0
153 174 0
157 178 0
161 182 0
152 173 0
154 175 0
154 175 0
157 179 0
154 175 0
159 181 0
154 175 0
151 173 0
156 177 0
149 170 0
153 174 0
156 177 0
158 179 0
156 177 0
148 170 0
155 177 0
163 185 0
150 172 0
153 174 0
157 179 0
152 172 0
157 179 0
155 177 0
158 180 0
156 178 0
154 176 0
152 173 0
151 173 0
151 172 0
154 175 0
155 177 0
156 177 0
155 176 0
155 177 0
153 176 0
155 177 0
157 179 0
153 174 0
151 173 0
154 175 0
153 174 0
153 175 0
154 174 0
154 177 0
157 179 0
145 166 0
149 170 0
149 170 0
151 173 0
152 174 0
150 172 0
153 175 0
159 179 0
149 170 0
156 178 0
154 176 0
154 175 0
151 173 0
152 173 0
152 174 0
156 178 0
148 169 0
156 178 0
148 169 0
149 170 0
145 167 0
158 180 0
158 180 0
146 169 0
152 174 0
152 173 0
143 164 0
155 177 0
151 173 0
149 171 0
155 178 0
147 169 0
156 177 0
153 174 0
151 172 0
149 172 0
155 177 0
144 166 0
148 169 0
150 172 0
156 178 0
145 166 0
138 159 0
149 169 0
153 176 0
149 171 0
153 174 0
148 170 0
153 176 0
153 174 0
141 162 0
147 169 0
155 178 0
154 176 0
151 173 0
149 171 0
156 178 0
148 169 0
152 173 0
145 167 0
149 171 0
155 177 0
152 175 0
156 177 0
149 171 0
142 163 0
152 174 0
153 174 0
147 169 0
149 171 0
152 174 0
152 174 0
152 173 0
153 174 0
160 182 0
145 167 0
156 178 0
149 169 0
148 170 0
147 169 0
157 179 0
153 175 0
150 171 0
150 172 0
146 167 0
149 170 0
148 170 0
141 163 0
145 167 0
149 168 0
147 168 0
156 177 0
154 175 0
148 169 0
147 170 0
151 173 0
150 171 0
145 167 0
150 171 0
144 165 0
155 178 0
149 171 0
144 165 0
144 167 0
150 171 0
138 159 0
139 159 0
148 169 0
146 167 0
148 169 0
151 172 0
146 168 0
148 169 0
146 166 0
150 170 0
149 170 0
145 167 0
147 167 0
152 174 0
146 166 0
150 171 0
146 168 0
148 170 0
146 167 0
149 169 0
146 168 0
156 178 0
153 173 0
145 166 0
150 173 0
151 172 0
149 169 0
147 170 0
143 164 0
155 177 0
148 168 0
154 174 0
144 166 0
150 172 0
145 164 0
150 172 0
150 171 0
150 170 0
152 173 0
146 167 0
155 174 0
156 178 0
155 176 0
152 174 0
152 174 0
153 175 0
150 172 0
152 172 0
153 172 0
147 166 0
148 168 0
157 178 0
151 172 0
154 174 0
149 168 0
149 169 0
150 170 0
150 171 0
152 173 0
152 172 0
145 165 0
152 173 0
153 174 0
154 173 0
155 176 0
144 164 0
151 171 0
156 175 0
152 172 0
147 167 0
149 168 0
151 171 0
154 174 0
151 171 0
160 179 0
152 170 0
157 176 0
152 171 0
149 169 0
149 168 0
149 168 0
149 169 0
154 174 0
154 172 0
143 162 0
148 168 0
150 170 0
153 171 0
153 171 0
151 170 0
151 171 0
149 169 0
156 174 0
154 173 0
158 178 0
148 169 0
158 177 0
149 168 0
146 165 0
143 160 0
157 177 0
152 171 0
148 167 0
147 167 0
156 175 0
151 170 0
155 173 0
154 174 0
155 175 0
152 169 0
151 171 0
149 167 0
151 169 0
152 169 0
155 173 0
151 168 0
151 168 0
153 173 0
158 177 0
150 166 0
150 168 0
144 163 0
151 169 0
154 171 0
155 175 0
153 170 0
150 164 0
160 178 0
154 170 0
159 175 0
155 174 0
158 174 0
151 169 0
146 163 0
146 162 0
154 172 0
156 174 0
149 163 0
152 168 0
155 169 0
153 169 0
150 168 0
150 165 0
153 170 0
155 171 0
152 168 0
156 174 0
157 173 0
159 173 0
159 175 0
153 168 0
156 172 0
159 173 0
144 157 0
153 170 0
160 177 0
156 173 0
152 167 0
155 169 0
153 167 0
156 170 0
147 161 0
156 172 0
152 166 0
155 169 0
150 164 0
161 179 0
146 161 0
157 173 0
152 166 0
157 171 0
161 176 0
156 172 0
155 169 0
153 167 0
157 171 0
161 176 0
152 164 0
152 167 0
157 172 0
157 169 0
155 170 0
155 167 0
153 165 0
154 167 0
157 167 0
150 162 0
156 167 0
155 166 0
157 172 0
159 174 0
160 171 0
159 172 0
163 182 0
161 181 0
161 181 0
161 182 0
156 176 0
161 182 0
160 180 0
160 181 0
163 184 0
157 178 0
155 176 0
163 183 0
161 182 0
154 174 0
155 174 0
159 179 0
150 170 0
161 181 0
157 177 0
162 183 0
160 181 0
153 173 0
157 177 0
155 176 0
163 184 0
156 177 0
157 178 0
152 172 0
160 181 0
150 171 0
154 175 0
155 176 0
155 175 0
155 174 0
152 172 0
159 180 0
159 180 0
160 180 0
160 181 0
159 180 0
157 178 0
156 176 0
157 178 0
160 181 0
151 172 0
153 172 0
154 175 0
157 178 0
156 177 0
155 175 0
159 179 0
158 179 0
149 171 0
155 177 0
154 174 0
154 174 0
159 180 0
154 176 0
157 179 0
157 178 0
162 183 0
156 176 0
150 171 0
151 173 0
154 174 0
153 174 0
151 172 0
158 179 0
151 173 0
157 178 0
154 175 0
152 173 0
154 176 0
155 176 0
156 179 0
157 178 0
151 172 0
161 181 0
157 179 0
151 173 0
148 169 0
151 172 0
152 173 0
159 181 0
153 174 0
159 180 0
150 171 0
154 175 0
157 178 0
155 176 0
155 177 0
156 178 0
154 177 0
149 171 0
154 175 0
145 167 0
160 181 0
148 169 0
155 176 0
153 174 0
156 177 0
154 176 0
153 174 0
156 178 0
149 170 0
151 173 0
151 173 0
153 175 0
156 179 0
154 177 0
153 175 0
150 171 0
157 180 0
153 176 0
157 179 0
155 177 0
153 175 0
148 171 0
148 169 0
153 176 0
142 164 0
151 173 0
152 174 0
153 175 0
157 179 0
152 174 0
143 164 0
157 179 0
153 175 0
151 172 0
152 174 0
152 173 0
154 176 0
159 181 0
151 172 0
149 170 0
146 168 0
151 173 0
150 171 0
144 166 0
153 175 0
152 174 0
147 168 0
156 178 0
150 171 0
149 170 0
155 177 0
153 174 0
148 170 0
150 172 0
152 173 0
151 173 0
155 177 0
152 173 0
151 172 0
154 176 0
147 170 0
155 177 0
148 170 0
151 173 0
150 173 0
152 174 0
148 170 0
155 177 0
146 167 0
148 171 0
151 173 0
152 172 0
147 169 0
149 171 0
147 169 0
156 179 0
149 170 0
145 166 0
145 166 0
148 170 0
151 174 0
152 175 0
150 172 0
149 172 0
152 174 0
150 172 0
141 162 0
151 173 0
151 173 0
145 166 0
155 176 0
151 173 0
150 172 0
149 171 0
145 166 0
152 172 0
149 170 0
145 166 0
149 171 0
153 175 0
150 172 0
149 170 0
152 173 0
150 171 0
156 177 0
149 171 0
153 175 0
141 163 0
148 169 0
147 169 0
152 173 0
149 171 0
140 162 0
146 169 0
145 165 0
154 176 0
146 165 0
151 173 0
152 172 0
147 168 0
141 163 0
146 167 0
152 175 0
158 180 0
150 171 0
144 165 0
142 163 0
153 174 0
149 170 0
148 169 0
149 171 0
148 169 0
154 176 0
144 165 0
151 172 0
152 174 0
149 170 0
151 172 0
153 175 0
149 170 0
145 166 0
152 174 0
154 174 0
150 171 0
147 167 0
151 171 0
149 170 0
152 173 0
146 167 0
149 170 0
154 175 0
144 163 0
151 171 0
150 172 0
147 168 0
150 171 0
149 169 0
146 165 0
148 170 0
147 169 0
151 171 0
146 166 0
157 177 0
149 169 0
154 176 0
156 176 0
150 169 0
155 176 0
148 168 0
154 174 0
153 175 0
145 165 0
146 166 0
154 174 0
151 172 0
148 167 0
156 176 0
157 177 0
154 176 0
146 166 0
146 165 0
153 173 0
149 169 0
162 182 0
151 172 0
157 176 0
154 174 0
156 176 0
152 170 0
147 166 0
148 168 0
153 170 0
155 175 0
150 169 0
151 170 0
155 176 0
154 174 0
154 171 0
149 167 0
147 168 0
147 168 0
159 178 0
154 171 0
152 171 0
150 167 0
145 164 0
157 176 0
149 167 0
156 173 0
148 166 0
146 167 0
161 180 0
153 172 0
149 167 0
150 168 0
156 173 0
147 166 0
146 164 0
154 173 0
161 177 0
148 163 0
152 170 0
154 172 0
151 170 0
145 161 0
146 164 0
151 169 0
150 167 0
158 176 0
152 169 0
145 161 0
153 169 0
150 164 0
152 169 0
152 169 0
155 173 0
147 164 0
151 167 0
153 170 0
151 169 0
148 163 0
152 169 0
155 168 0
152 168 0
152 169 0
154 168 0
152 169 0
157 174 0
159 176 0
150 168 0
156 173 0
154 172 0
150 165 0
153 167 0
155 174 0
154 171 0
156 173 0
155 169 0
158 176 0
152 168 0
157 172 0
154 171 0
153 169 0
146 161 0
156 171 0
155 171 0
155 170 0
150 167 0
156 172 0
152 167 0
152 168 0
148 161 0
154 171 0
162 176 0
150 166 0
161 178 0
154 166 0
151 168 0
155 171 0
151 165 0
154 168 0
153 168 0
157 171 0
153 167 0
161 179 0
157 168 0
158 172 0
155 169 0
153 166 0
158 173 0
154 170 0
150 166 0
157 171 0
156 167 0
161 172 0
155 168 0
155 170 0
158 171 0
157 171 0
156 171 0
154 167 0
156 171 0
159 173 0
157 168 0
163 183 0
163 184 0
161 181 0
159 179 0
154 174 0
159 179 0
164 185 0
162 183 0
155 175 0
161 181 0
163 182 0
159 179 0
156 177 0
161 181 0
162 184 0
159 180 0
158 179 0
161 182 0
159 180 0
160 180 0
155 175 0
155 176 0
153 172 0
158 178 0
155 176 0
158 178 0
156 177 0
160 182 0
158 179 0
153 174 0
155 176 0
154 175 0
161 181 0
161 183 0
157 178 0
159 181 0
159 180 0
159 181 0
155 175 0
159 179 0
155 176 0
157 178 0
158 179 0
155 176 0
159 180 0
157 177 0
156 177 0
157 177 0
155 176 0
156 176 0
151 173 0
155 176 0
153 173 0
160 182 0
144 164 0
156 177 0
157 178 0
154 174 0
156 177 0
153 174 0
162 183 0
162 184 0
148 170 0
152 175 0
155 177 0
154 175 0
160 181 0
158 179 0
156 178 0
151 172 0
158 179 0
151 173 0
159 181 0
154 175 0
150 172 0
157 179 0
158 179 0
154 175 0
151 173 0
157 179 0
153 174 0
157 179 0
151 173 0
155 178 0
159 181 0
158 180 0
151 172 0
148 170 0
160 182 0
153 174 0
154 177 0
154 176 0
153 175 0
158 181 0
152 174 0
154 174 0
158 180 0
148 170 0
152 173 0
155 178 0
148 170 0
153 175 0
149 169 0
148 171 0
151 172 0
142 163 0
146 168 0
158 180 0
152 174 0
152 174 0
152 173 0
155 178 0
147 169 0
151 172 0
158 180 0
153 174 0
154 175 0
155 176 0
151 173 0
150 170 0
153 175 0
155 177 0
152 175 0
151 173 0
152 174 0
150 172 0
155 179 0
154 175 0
156 178 0
148 169 0
155 178 0
151 172 0
156 179 0
150 173 0
159 180 0
151 171 0
156 178 0
154 175 0
152 173 0
148 170 0
153 175 0
151 173 0
148 170 0
151 172 0
155 175 0
155 177 0
150 172 0
151 173 0
154 176 0
151 173 0
157 179 0
149 171 0
146 169 0
147 169 0
147 168 0
152 175 0
152 174 0
151 172 0
156 177 0
156 177 0
153 176 0
150 173 0
144 165 0
145 166 0
147 169 0
155 177 0
152 174 0
147 169 0
153 175 0
150 171 0
151 173 0
147 169 0
149 171 0
149 170 0
148 170 0
155 176 0
151 173 0
155 176 0
147 168 0
151 172 0
155 176 0
150 171 0
147 170 0
148 170 0
146 167 0
149 171 0
159 180 0
139 161 0
145 168 0
153 175 0
146 168 0
154 176 0
152 172 0
154 175 0
149 170 0
150 171 0
145 166 0
141 162 0
155 178 0
154 175 0
157 177 0
147 169 0
139 161 0
158 180 0
152 174 0
151 173 0
155 177 0
152 175 0
146 168 0
145 165 0
144 164 0
144 165 0
149 169 0
147 169 0
146 166 0
151 172 0
146 167 0
139 160 0
150 172 0
151 172 0
151 174 0
148 170 0
153 174 0
155 176 0
150 172 0
152 174 0
144 164 0
154 176 0
146 167 0
152 174 0
151 171 0
151 173 0
157 177 0
159 180 0
154 175 0
153 173 0
150 172 0
157 179 0
148 169 0
152 172 0
145 166 0
149 171 0
152 173 0
139 159 0
156 176 0
156 177 0
154 175 0
152 172 0
154 175 0
147 169 0
152 172 0
146 167 0
150 171 0
158 179 0
149 169 0
148 168 0
156 177 0
147 168 0
152 171 0
152 174 0
157 177 0
152 174 0
156 177 0
148 168 0
156 177 0
147 168 0
149 169 0
148 168 0
154 174 0
158 179 0
154 175 0
142 162 0
148 170 0
142 162 0
148 167 0
154 174 0
154 176 0
147 167 0
160 180 0
152 172 0
150 169 0
152 171 0
153 172 0
155 175 0
156 176 0
150 169 0
148 167 0
150 170 0
157 176 0
148 165 0
149 167 0
152 173 0
154 174 0
147 165 0
156 175 0
154 173 0
148 168 0
156 177 0
156 176 0
162 181 0
156 175 0
153 174 0
158 179 0
153 173 0
155 175 0
153 172 0
155 175 0
160 181 0
149 168 0
145 164 0
151 169 0
154 172 0
156 174 0
156 174 0
158 175 0
159 177 0
156 175 0
156 175 0
158 175 0
149 166 0
148 166 0
156 174 0
153 171 0
159 176 0
155 173 0
147 165 0
158 173 0
152 173 0
156 172 0
148 165 0
157 175 0
157 175 0
157 174 0
149 169 0
155 171 0
154 171 0
152 169 0
154 171 0
156 172 0
154 171 0
157 174 0
153 169 0
155 171 0
153 170 0
151 168 0
154 169 0
156 172 0
154 172 0
151 168 0
161 179 0
152 167 0
153 167 0
143 158 0
152 167 0
153 167 0
147 163 0
153 167 0
151 165 0
154 169 0
155 171 0
151 165 0
154 169 0
155 168 0
154 170 0
157 173 0
152 167 0
155 170 0
151 166 0
157 176 0
155 170 0
158 175 0
150 164 0
154 170 0
153 167 0
155 170 0
154 169 0
148 164 0
159 173 0
157 172 0
154 171 0
153 169 0
152 164 0
150 164 0
162 177 0
154 171 0
153 165 0
146 158 0
156 170 0
155 170 0
149 162 0
154 170 0
154 171 0
162 177 0
153 164 0
150 164 0
153 167 0
155 166 0
153 168 0
158 173 0
161 174 0
164 184 0
160 181 0
158 179 0
158 178 0
165 186 0
159 180 0
165 185 0
160 181 0
162 183 0
161 182 0
156 176 0
163 183 0
160 180 0
160 181 0
157 179 0
155 176 0
161 182 0
155 175 0
159 180 0
161 182 0
160 181 0
159 180 0
155 176 0
159 180 0
159 180 0
161 182 0
152 173 0
157 178 0
160 182 0
158 179 0
160 181 0
158 178 0
160 181 0
157 178 0
160 181 0
161 182 0
157 178 0
158 179 0
158 179 0
154 174 0
157 179 0
162 184 0
157 178 0
157 177 0
156 177 0
153 173 0
155 176 0
155 176 0
151 173 0
159 180 0
152 174 0
150 171 0
154 175 0
157 177 0
163 185 0
160 182 0
153 175 0
157 179 0
155 176 0
151 173 0
152 173 0
151 172 0
160 182 0
153 175 0
153 174 0
156 177 0
146 167 0
156 178 0
156 178 0
157 179 0
161 184 0
161 183 0
154 177 0
153 174 0
155 176 0
154 175 0
149 171 0
156 178 0
152 173 0
153 174 0
152 174 0
156 179 0
151 171 0
147 168 0
155 177 0
154 175 0
161 182 0
158 179 0
156 178 0
158 180 0
153 173 0
148 169 0
156 178 0
155 177 0
159 181 0
157 179 0
154 176 0
152 174 0
149 171 0
158 179 0
152 175 0
152 174 0
150 171 0
153 175 0
154 176 0
151 172 0
153 175 0
158 180 0
160 181 0
157 179 0
156 178 0
152 174 0
153 175 0
152 174 0
154 177 0
153 175 0
156 178 0
148 170 0
157 178 0
146 168 0
154 174 0
153 174 0
153 176 0
157 179 0
155 176 0
150 171 0
148 170 0
153 176 0
156 177 0
147 168 0
155 177 0
152 175 0
147 169 0
153 175 0
151 174 0
154 176 0
151 173 0
148 169 0
147 169 0
149 169 0
152 173 0
154 175 0
150 171 0
151 173 0
148 170 0
151 173 0
147 169 0
150 172 0
150 173 0
157 179 0
145 167 0
154 176 0
150 172 0
152 173 0
152 174 0
150 172 0
157 179 0
152 174 0
148 170 0
152 175 0
154 176 0
152 174 0
151 173 0
154 176 0
152 174 0
159 182 0
150 173 0
149 170 0
152 174 0
144 166 0
146 168 0
151 173 0
149 172 0
157 180 0
148 169 0
151 174 0
146 168 0
157 178 0
157 179 0
154 175 0
158 179 0
153 174 0
145 166 0
149 170 0
151 173 0
149 170 0
147 169 0
155 176 0
152 173 0
148 170 0
146 169 0
142 164 0
146 169 0
151 172 0
150 173 0
147 169 0
153 174 0
152 172 0
154 176 0
157 179 0
151 173 0
147 166 0
150 171 0
151 172 0
153 175 0
151 171 0
153 175 0
152 174 0
156 178 0
152 173 0
150 171 0
145 166 0
153 174 0
156 179 0
157 178 0
148 168 0
142 164 0
147 168 0
151 172 0
145 165 0
152 175 0
155 176 0
140 161 0
145 166 0
151 172 0
148 169 0
148 170 0
152 173 0
150 172 0
154 175 0
145 166 0
153 176 0
146 168 0
154 175 0
144 165 0
144 165 0
147 167 0
147 166 0
150 171 0
148 168 0
150 171 0
152 175 0
146 166 0
148 168 0
146 167 0
156 177 0
155 176 0
155 176 0
153 174 0
157 178 0
153 174 0
148 167 0
154 175 0
150 171 0
146 165 0
139 159 0
154 175 0
144 164 0
160 181 0
149 170 0
155 176 0
156 176 0
142 161 0
154 174 0
158 179 0
154 175 0
151 171 0
156 175 0
148 167 0
156 177 0
150 171 0
156 177 0
148 170 0
155 175 0
152 173 0
146 165 0
149 167 0
155 177 0
150 169 0
150 170 0
154 174 0
157 177 0
149 169 0
152 173 0
151 170 0
146 166 0
157 178 0
149 167 0
162 184 0
149 169 0
157 178 0
152 173 0
150 168 0
163 182 0
148 167 0
153 172 0
154 175 0
154 173 0
155 175 0
154 174 0
153 172 0
157 176 0
151 168 0
150 169 0
149 168 0
151 171 0
155 175 0
152 173 0
148 166 0
156 174 0
152 170 0
152 170 0
145 161 0
150 167 0
152 170 0
155 174 0
154 173 0
149 166 0
157 175 0
156 173 0
149 167 0
153 173 0
153 169 0
160 181 0
152 171 0
152 170 0
153 171 0
150 168 0
154 173 0
158 177 0
156 173 0
149 166 0
158 174 0
152 172 0
153 170 0
153 168 0
152 167 0
145 162 0
149 166 0
147 165 0
154 171 0
142 160 0
149 166 0
145 162 0
151 170 0
152 169 0
157 173 0
153 168 0
153 170 0
152 166 0
154 170 0
155 170 0
150 165 0
158 175 0
158 175 0
155 171 0
157 174 0
156 174 0
156 170 0
155 170 0
151 165 0
156 172 0
158 175 0
158 176 0
161 177 0
145 161 0
160 176 0
158 174 0
152 167 0
156 172 0
155 171 0
154 170 0
160 174 0
152 167 0
160 176 0
158 173 0
158 174 0
153 166 0
157 172 0
156 170 0
157 171 0
153 169 0
153 167 0
157 172 0
156 170 0
149 161 0
158 173 0
154 170 0
160 174 0
156 170 0
153 169 0
153 168 0
152 165 0
157 171 0
159 173 0
157 170 0
156 170 0
159 172 0
156 172 0
157 172 0
160 180 0
160 181 0
158 179 0
153 174 0
157 178 0
158 178 0
157 179 0
161 182 0
159 180 0
160 181 0
157 177 0
160 181 0
160 180 0
159 179 0
159 180 0
156 176 0
157 176 0
165 186 0
156 177 0
166 187 0
162 183 0
161 182 0
153 173 0
157 178 0
158 179 0
158 178 0
156 177 0
159 181 0
155 175 0
154 174 0
160 182 0
155 176 0
159 180 0
159 180 0
161 183 0
162 184 0
158 180 0
161 183 0
159 181 0
159 180 0
158 179 0
150 170 0
158 179 0
157 178 0
162 183 0
156 178 0
160 181 0
155 176 0
155 175 0
162 183 0
152 174 0
162 183 0
156 178 0
154 176 0
156 178 0
158 180 0
152 173 0
160 181 0
156 177 0
153 174 0
163 185 0
160 181 0
154 175 0
154 176 0
152 174 0
157 179 0
152 174 0
155 176 0
162 183 0
151 173 0
158 180 0
151 173 0
148 169 0
150 172 0
164 186 0
155 176 0
159 181 0
154 176 0
152 174 0
156 178 0
157 179 0
159 181 0
153 174 0
161 183 0
159 181 0
162 184 0
157 178 0
154 175 0
155 177 0
151 173 0
157 177 0
150 172 0
156 178 0
158 181 0
150 172 0
158 179 0
158 181 0
155 178 0
158 181 0
146 167 0
153 175 0
154 176 0
151 174 0
158 181 0
157 180 0
156 179 0
153 175 0
150 172 0
154 176 0
152 173 0
153 176 0
149 170 0
154 176 0
150 172 0
149 172 0
154 177 0
151 173 0
149 171 0
147 167 0
158 180 0
152 175 0
152 174 0
144 166 0
152 175 0
152 174 0
155 177 0
154 177 0
152 173 0
150 172 0
159 181 0
153 175 0
156 178 0
155 177 0
151 174 0
150 173 0
157 180 0
151 172 0
149 172 0
144 166 0
150 173 0
152 175 0
157 179 0
148 170 0
152 174 0
152 174 0
153 175 0
156 177 0
156 178 0
149 171 0
157 178 0
152 175 0
148 169 0
155 177 0
151 174 0
148 171 0
154 175 0
152 173 0
146 167 0
156 177 0
149 170 0
148 171 0
151 173 0
144 166 0
152 172 0
143 164 0
149 171 0
148 170 0
144 166 0
147 170 0
150 171 0
153 175 0
143 164 0
144 167 0
145 167 0
147 171 0
154 175 0
144 164 0
152 174 0
148 169 0
148 170 0
151 173 0
157 179 0
148 170 0
156 178 0
153 175 0
145 168 0
151 172 0
145 166 0
155 177 0
150 173 0
148 169 0
154 177 0
149 172 0
152 174 0
149 170 0
148 170 0
143 164 0
147 169 0
148 170 0
147 169 0
150 173 0
144 166 0
144 167 0
149 170 0
152 174 0
144 166 0
151 172 0
148 169 0
144 165 0
154 172 0
153 174 0
150 172 0
147 169 0
153 174 0
148 168 0
155 177 0
154 175 0
152 174 0
148 171 0
154 176 0
153 174 0
154 176 0
151 173 0
151 172 0
150 171 0
153 175 0
154 176 0
156 177 0
148 171 0
148 170 0
153 175 0
154 175 0
151 172 0
152 172 0
154 175 0
151 171 0
149 169 0
153 174 0
153 174 0
147 168 0
153 175 0
154 176 0
154 176 0
153 174 0
147 169 0
148 169 0
154 177 0
154 174 0
150 170 0
151 173 0
151 172 0
155 176 0
161 181 0
158 180 0
155 175 0
149 170 0
151 170 0
154 176 0
155 174 0
151 172 0
152 172 0
152 173 0
149 169 0
146 167 0
149 169 0
150 172 0
153 174 0
146 167 0
154 175 0
156 176 0
152 174 0
158 178 0
145 164 0
147 167 0
157 178 0
152 173 0
156 175 0
149 168 0
146 166 0
146 165 0
149 168 0
158 178 0
156 177 0
159 179 0
156 175 0
154 172 0
160 179 0
155 175 0
148 168 0
151 170 0
147 167 0
156 176 0
151 170 0
154 174 0
149 168 0
151 168 0
149 166 0
153 169 0
146 163 0
155 174 0
153 173 0
156 177 0
153 171 0
148 167 0
155 174 0
153 174 0
152 171 0
155 173 0
153 172 0
149 167 0
157 176 0
160 180 0
159 179 0
151 170 0
153 172 0
158 175 0
152 170 0
154 172 0
157 178 0
157 175 0
160 179 0
152 171 0
154 173 0
155 174 0
154 170 0
152 171 0
157 178 0
151 169 0
154 171 0
157 176 0
151 168 0
154 173 0
152 169 0
155 172 0
153 171 0
156 172 0
152 171 0
157 174 0
160 177 0
150 167 0
155 172 0
151 166 0
157 174 0
154 170 0
151 168 0
155 172 0
154 172 0
159 175 0
150 167 0
158 174 0
158 175 0
155 173 0
155 172 0
151 168 0
150 166 0
152 170 0
151 167 0
161 179 0
155 173 0
157 172 0
154 170 0
158 174 0
152 166 0
150 166 0
158 176 0
152 167 0
154 172 0
156 172 0
151 164 0
155 170 0
152 168 0
153 170 0
158 174 0
155 172 0
152 165 0
149 164 0
152 165 0
154 168 0
156 172 0
159 175 0
152 167 0
150 164 0
156 171 0
162 177 0
158 173 0
157 171 0
153 166 0
162 175 0
158 170 0
156 169 0
154 171 0
158 174 0
153 168 0
161 177 0
157 171 0
155 169 0
155 170 0
155 167 0
159 174 0
152 164 0
160 181 0
160 181 0
161 183 0
161 181 0
161 181 0
162 183 0
154 175 0
158 178 0
154 175 0
157 178 0
159 181 0
158 179 0
162 182 0
159 180 0
157 178 0
161 181 0
163 184 0
164 186 0
157 177 0
158 179 0
151 171 0
159 180 0
159 180 0
154 175 0
156 177 0
158 179 0
156 178 0
159 180 0
157 177 0
156 175 0
158 179 0
155 175 0
160 181 0
158 179 0
154 175 0
150 171 0
157 178 0
160 180 0
161 183 0
158 178 0
156 177 0
161 182 0
156 177 0
158 179 0
159 180 0
158 180 0
159 180 0
156 177 0
156 178 0
161 181 0
155 176 0
153 175 0
162 184 0
152 173 0
162 183 0
162 184 0
156 177 0
163 184 0
151 173 0
156 178 0
158 180 0
156 177 0
158 180 0
152 174 0
151 173 0
153 174 0
158 179 0
156 178 0
153 173 0
154 176 0
155 176 0
158 180 0
156 176 0
149 171 0
147 168 0
157 178 0
156 177 0
158 179 0
151 173 0
151 172 0
157 179 0
161 183 0
157 179 0
155 178 0
153 175 0
154 176 0
156 177 0
158 180 0
153 174 0
152 173 0
159 181 0
150 173 0
161 182 0
160 182 0
153 176 0
152 174 0
155 176 0
157 179 0
156 179 0
154 177 0
153 174 0
149 170 0
157 179 0
148 168 0
154 176 0
151 171 0
153 175 0
159 181 0
154 175 0
153 175 0
158 180 0
145 166 0
142 163 0
153 175 0
155 177 0
157 180 0
152 174 0
153 175 0
154 175 0
154 176 0
154 176 0
154 177 0
160 182 0
156 179 0
154 177 0
148 168 0
145 165 0
154 177 0
155 177 0
146 167 0
158 178 0
140 160 0
153 176 0
155 178 0
147 169 0
152 173 0
152 175 0
144 166 0
153 175 0
153 174 0
149 172 0
150 173 0
151 172 0
157 179 0
153 175 0
153 175 0
149 171 0
145 166 0
151 172 0
156 177 0
153 176 0
154 177 0
156 177 0
161 183 0
154 177 0
157 179 0
145 168 0
156 176 0
151 173 0
154 176 0
151 174 0
151 174 0
150 171 0
151 174 0
138 158 0
153 174 0
147 169 0
159 182 0
157 179 0
148 170 0
152 174 0
159 182 0
147 168 0
155 177 0
151 174 0
151 171 0
147 168 0
149 171 0
149 171 0
147 168 0
156 176 0
151 172 0
144 166 0
155 177 0
152 175 0
146 168 0
145 166 0
148 170 0
143 165 0
154 176 0
148 170 0
153 175 0
150 171 0
146 168 0
152 174 0
143 165 0
148 169 0
149 172 0
155 178 0
142 164 0
149 170 0
154 176 0
154 175 0
149 169 0
156 177 0
154 177 0
148 168 0
143 164 0
156 177 0
155 176 0
154 176 0
155 176 0
152 174 0
148 170 0
149 171 0
147 168 0
152 175 0
153 175 0
153 175 0
155 177 0
154 176 0
150 172 0
154 174 0
146 167 0
155 177 0
148 169 0
150 173 0
144 167 0
149 170 0
154 177 0
152 174 0
151 172 0
156 176 0
150 171 0
145 163 0
152 173 0
153 173 0
151 173 0
151 172 0
150 169 0
151 172 0
152 172 0
157 178 0
144 164 0
149 168 0
144 166 0
150 170 0
147 168 0
155 178 0
149 170 0
147 168 0
148 167 0
150 171 0
151 172 0
152 171 0
146 166 0
154 176 0
148 168 0
152 172 0
149 170 0
148 168 0
156 176 0
143 161 0
151 171 0
144 164 0
157 178 0
150 170 0
152 172 0
144 163 0
151 172 0
154 172 0
152 173 0
148 169 0
163 184 0
153 173 0
152 171 0
147 165 0
156 177 0
144 166 0
151 173 0
154 175 0
154 174 0
153 173 0
151 170 0
153 173 0
156 176 0
147 167 0
152 172 0
153 172 0
159 179 0
150 170 0
152 171 0
150 168 0
157 176 0
156 175 0
154 172 0
155 175 0
154 176 0
152 170 0
146 165 0
155 176 0
145 162 0
150 169 0
158 177 0
150 169 0
155 175 0
157 177 0
148 168 0
150 169 0
152 171 0
156 175 0
155 172 0
156 175 0
157 178 0
151 169 0
156 174 0
146 163 0
155 176 0
149 170 0
158 176 0
155 172 0
154 171 0
161 178 0
152 169 0
149 167 0
151 169 0
154 173 0
154 169 0
152 171 0
154 174 0
150 167 0
155 173 0
158 176 0
160 177 0
152 170 0
149 168 0
158 177 0
154 172 0
155 173 0
157 175 0
149 167 0
149 163 0
153 169 0
154 172 0
163 180 0
157 174 0
149 165 0
150 167 0
152 169 0
152 169 0
151 167 0
153 168 0
148 163 0
153 171 0
157 175 0
152 168 0
161 178 0
152 169 0
159 177 0
155 170 0
157 174 0
156 172 0
150 167 0
162 178 0
151 166 0
157 172 0
153 167 0
155 170 0
156 175 0
146 161 0
155 171 0
156 174 0
155 168 0
160 177 0
159 174 0
154 168 0
156 172 0
158 175 0
149 163 0
155 170 0
156 171 0
158 173 0
157 171 0
159 177 0
157 175 0
156 174 0
153 169 0
158 173 0
158 173 0
153 167 0
154 170 0
157 172 0
148 161 0
155 168 0
155 173 0
151 163 0
151 163 0
147 159 0
157 173 0
154 167 0
