P3
256 256
255
0 0 153
0 1 153
0 2 153
0 3 153
0 4 153
0 5 153
0 6 153
0 7 153
0 8 153
0 9 153
0 10 153
0 11 153
0 12 153
0 13 153
0 14 153
0 15 153
0 16 153
0 17 153
0 18 153
0 19 153
0 20 153
0 21 153
0 22 153
0 23 153
0 24 153
0 25 153
0 26 153
0 27 153
0 28 153
0 29 153
0 30 153
0 31 153
0 32 153
0 33 153
0 34 153
0 35 153
0 36 153
0 37 153
0 38 153
0 39 153
0 40 153
0 41 153
0 42 153
0 43 153
0 44 153
0 45 153
0 46 153
0 47 153
0 48 153
0 49 153
0 50 153
0 51 153
0 52 153
0 53 153
0 54 153
0 55 153
0 56 153
0 57 153
0 58 153
0 59 153
0 60 153
0 61 153
0 62 153
0 63 153
0 64 153
0 65 153
0 66 153
0 67 153
0 68 153
0 69 153
0 70 153
0 71 153
0 72 153
0 73 153
0 74 153
0 75 153
0 76 153
0 77 153
0 78 153
0 79 153
0 80 153
0 81 153
0 82 153
0 83 153
0 84 153
0 85 153
0 86 153
0 87 153
0 88 153
0 89 153
0 90 153
0 91 153
0 92 153
0 93 153
0 94 153
0 95 153
0 96 153
0 97 153
0 98 153
0 99 153
0 100 153
0 101 153
0 102 153
0 103 153
0 104 153
0 105 153
0 106 153
0 107 153
0 108 153
0 109 153
0 110 153
0 111 153
0 112 153
0 113 153
0 114 153
0 115 153
0 116 153
0 117 153
0 118 153
0 119 153
0 120 153
0 121 153
0 122 153
0 123 153
0 124 153
0 125 153
0 126 153
0 127 153
0 128 153
0 129 153
0 130 153
0 131 153
0 132 153
0 133 153
0 134 153
0 135 153
0 136 153
0 137 153
0 138 153
0 139 153
0 140 153
0 141 153
0 142 153
0 143 153
0 144 153
0 145 153
0 146 153
0 147 153
0 148 153
0 149 153
0 150 153
0 151 153
0 152 153
0 153 153
0 154 153
0 155 153
0 156 153
0 157 153
0 158 153
0 159 153
0 160 153
0 161 153
0 162 153
0 163 153
0 164 153
0 165 153
0 166 153
0 167 153
0 168 153
0 169 153
0 170 153
0 171 153
0 172 153
0 173 153
0 174 153
0 175 153
0 176 153
0 177 153
0 178 153
0 179 153
0 180 153
0 181 153
0 182 153
0 183 153
0 184 153
0 185 153
0 186 153
0 187 153
0 188 153
0 189 153
0 190 153
0 191 153
0 192 153
0 193 153
0 194 153
0 195 153
0 196 153
0 197 153
0 198 153
0 199 153
0 200 153
0 201 153
0 202 153
0 203 153
0 204 153
0 205 153
0 206 153
0 207 153
0 208 153
0 209 153
0 210 153
0 211 153
0 212 153
0 213 153
0 214 153
0 215 153
0 216 153
0 217 153
0 218 153
0 219 153
0 220 153
0 221 153
0 222 153
0 223 153
0 224 153
0 225 153
0 226 153
0 227 153
0 228 153
0 229 153
0 230 153
0 231 153
0 232 153
0 233 153
0 234 153
0 235 153
0 236 153
0 237 153
0 238 153
0 239 153
0 240 153
0 241 153
0 242 153
0 243 153
0 244 153
0 245 153
0 246 153
0 247 153
0 248 153
0 249 153
0 250 153
0 251 153
0 252 153
0 253 153
0 254 153
0 255 153
1 0 153
1 1 153
1 2 153
1 3 153
1 4 153
1 5 153
1 6 153
1 7 153
1 8 153
1 9 153
1 10 153
1 11 153
1 12 153
1 13 153
1 14 153
1 15 153
1 16 153
1 17 153
1 18 153
1 19 153
1 20 153
1 21 153
1 22 153
1 23 153
1 24 153
1 25 153
1 26 153
1 27 153
1 28 153
1 29 153
1 30 153
1 31 153
1 32 153
1 33 153
1 34 153
1 35 153
1 36 153
1 37 153
1 38 153
1 39 153
1 40 153
1 41 153
1 42 153
1 43 153
1 44 153
1 45 153
1 46 153
1 47 153
1 48 153
1 49 153
1 50 153
1 51 153
1 52 153
1 53 153
1 54 153
1 55 153
1 56 153
1 57 153
1 58 153
1 59 153
1 60 153
1 61 153
1 62 153
1 63 153
1 64 153
1 65 153
1 66 153
1 67 153
1 68 153
1 69 153
1 70 153
1 71 153
1 72 153
1 73 153
1 74 153
1 75 153
1 76 153
1 77 153
1 78 153
1 79 153
1 80 153
1 81 153
1 82 153
1 83 153
1 84 153
1 85 153
1 86 153
1 87 153
1 88 153
1 89 153
1 90 153
1 91 153
1 92 153
1 93 153
1 94 153
1 95 153
1 96 153
1 97 153
1 98 153
1 99 153
1 100 153
1 101 153
1 102 153
1 103 153
1 104 153
1 105 153
1 106 153
1 107 153
1 108 153
1 109 153
1 110 153
1 111 153
1 112 153
1 113 153
1 114 153
1 115 153
1 116 153
1 117 153
1 118 153
1 119 153
1 120 153
1 121 153
1 122 153
1 123 153
1 124 153
1 125 153
1 126 153
1 127 153
1 128 153
1 129 153
1 130 153
1 131 153
1 132 153
1 133 153
1 134 153
1 135 153
1 136 153
1 137 153
1 138 153
1 139 153
1 140 153
1 141 153
1 142 153
1 143 153
1 144 153
1 145 153
1 146 153
1 147 153
1 148 153
1 149 153
1 150 153
1 151 153
1 152 153
1 153 153
1 154 153
1 155 153
1 156 153
1 157 153
1 158 153
1 159 153
1 160 153
1 161 153
1 162 153
1 163 153
1 164 153
1 165 153
1 166 153
1 167 153
1 168 153
1 169 153
1 170 153
1 171 153
1 172 153
1 173 153
1 174 153
1 175 153
1 176 153
1 177 153
1 178 153
1 179 153
1 180 153
1 181 153
1 182 153
1 183 153
1 184 153
1 185 153
1 186 153
1 187 153
1 188 153
1 189 153
1 190 153
1 191 153
1 192 153
1 193 153
1 194 153
1 195 153
1 196 153
1 197 153
1 198 153
1 199 153
1 200 153
1 201 153
1 202 153
1 203 153
1 204 153
1 205 153
1 206 153
1 207 153
1 208 153
1 209 153
1 210 153
1 211 153
1 212 153
1 213 153
1 214 153
1 215 153
1 216 153
1 217 153
1 218 153
1 219 153
1 220 153
1 221 153
1 222 153
1 223 153
1 224 153
1 225 153
1 226 153
1 227 153
1 228 153
1 229 153
1 230 153
1 231 153
1 232 153
1 233 153
1 234 153
1 235 153
1 236 153
1 237 153
1 238 153
1 239 153
1 240 153
1 241 153
1 242 153
1 243 153
1 244 153
1 245 153
1 246 153
1 247 153
1 248 153
1 249 153
1 250 153
1 251 153
1 252 153
1 253 153
1 254 153
1 255 153
2 0 153
2 1 153
2 2 153
2 3 153
2 4 153
2 5 153
2 6 153
2 7 153
2 8 153
2 9 153
2 10 153
2 11 153
2 12 153
2 13 153
2 14 153
2 15 153
2 16 153
2 17 153
2 18 153
2 19 153
2 20 153
2 21 153
2 22 153
2 23 153
2 24 153
2 25 153
2 26 153
2 27 153
2 28 153
2 29 153
2 30 153
2 31 153
2 32 153
2 33 153
2 34 153
2 35 153
2 36 153
2 37 153
2 38 153
2 39 153
2 40 153
2 41 153
2 42 153
2 43 153
2 44 153
2 45 153
2 46 153
2 47 153
2 48 153
2 49 153
2 50 153
2 51 153
2 52 153
2 53 153
2 54 153
2 55 153
2 56 153
2 57 153
2 58 153
2 59 153
2 60 153
2 61 153
2 62 153
2 63 153
2 64 153
2 65 153
2 66 153
2 67 153
2 68 153
2 69 153
2 70 153
2 71 153
2 72 153
2 73 153
2 74 153
2 75 153
2 76 153
2 77 153
2 78 153
2 79 153
2 80 153
2 81 153
2 82 153
2 83 153
2 84 153
2 85 153
2 86 153
2 87 153
2 88 153
2 89 153
2 90 153
2 91 153
2 92 153
2 93 153
2 94 153
2 95 153
2 96 153
2 97 153
2 98 153
2 99 153
2 100 153
2 101 153
2 102 153
2 103 153
2 104 153
2 105 153
2 106 153
2 107 153
2 108 153
2 109 153
2 110 153
2 111 153
2 112 153
2 113 153
2 114 153
2 115 153
2 116 153
2 117 153
2 118 153
2 119 153
2 120 153
2 121 153
2 122 153
2 123 153
2 124 153
2 125 153
2 126 153
2 127 153
2 128 153
2 129 153
2 130 153
2 131 153
2 132 153
2 133 153
2 134 153
2 135 153
2 136 153
2 137 153
2 138 153
2 139 153
2 140 153
2 141 153
2 142 153
2 143 153
2 144 153
2 145 153
2 146 153
2 147 153
2 148 153
2 149 153
2 150 153
2 151 153
2 152 153
2 153 153
2 154 153
2 155 153
2 156 153
2 157 153
2 158 153
2 159 153
2 160 153
2 161 153
2 162 153
2 163 153
2 164 153
2 165 153
2 166 153
2 167 153
2 168 153
2 169 153
2 170 153
2 171 153
2 172 153
2 173 153
2 174 153
2 175 153
2 176 153
2 177 153
2 178 153
2 179 153
2 180 153
2 181 153
2 182 153
2 183 153
2 184 153
2 185 153
2 186 153
2 187 153
2 188 153
2 189 153
2 190 153
2 191 153
2 192 153
2 193 153
2 194 153
2 195 153
2 196 153
2 197 153
2 198 153
2 199 153
2 200 153
2 201 153
2 202 153
2 203 153
2 204 153
2 205 153
2 206 153
2 207 153
2 208 153
2 209 153
2 210 153
2 211 153
2 212 153
2 213 153
2 214 153
2 215 153
2 216 153
2 217 153
2 218 153
2 219 153
2 220 153
2 221 153
2 222 153
2 223 153
2 224 153
2 225 153
2 226 153
2 227 153
2 228 153
2 229 153
2 230 153
2 231 153
2 232 153
2 233 153
2 234 153
2 235 153
2 236 153
2 237 153
2 238 153
2 239 153
2 240 153
2 241 153
2 242 153
2 243 153
2 244 153
2 245 153
2 246 153
2 247 153
2 248 153
2 249 153
2 250 153
2 251 153
2 252 153
2 253 153
2 254 153
2 255 153
3 0 153
3 1 153
3 2 153
3 3 153
3 4 153
3 5 153
3 6 153
3 7 153
3 8 153
3 9 153
3 10 153
3 11 153
3 12 153
3 13 153
3 14 153
3 15 153
3 16 153
3 17 153
3 18 153
3 19 153
3 20 153
3 21 153
3 22 153
3 23 153
3 24 153
3 25 153
3 26 153
3 27 153
3 28 153
3 29 153
3 30 153
3 31 153
3 32 153
3 33 153
3 34 153
3 35 153
3 36 153
3 37 153
3 38 153
3 39 153
3 40 153
3 41 153
3 42 153
3 43 153
3 44 153
3 45 153
3 46 153
3 47 153
3 48 153
3 49 153
3 50 153
3 51 153
3 52 153
3 53 153
3 54 153
3 55 153
3 56 153
3 57 153
3 58 153
3 59 153
3 60 153
3 61 153
3 62 153
3 63 153
3 64 153
3 65 153
3 66 153
3 67 153
3 68 153
3 69 153
3 70 153
3 71 153
3 72 153
3 73 153
3 74 153
3 75 153
3 76 153
3 77 153
3 78 153
3 79 153
3 80 153
3 81 153
3 82 153
3 83 153
3 84 153
3 85 153
3 86 153
3 87 153
3 88 153
3 89 153
3 90 153
3 91 153
3 92 153
3 93 153
3 94 153
3 95 153
3 96 153
3 97 153
3 98 153
3 99 153
3 100 153
3 101 153
3 102 153
3 103 153
3 104 153
3 105 153
3 106 153
3 107 153
3 108 153
3 109 153
3 110 153
3 111 153
3 112 153
3 113 153
3 114 153
3 115 153
3 116 153
3 117 153
3 118 153
3 119 153
3 120 153
3 121 153
3 122 153
3 123 153
3 124 153
3 125 153
3 126 153
3 127 153
3 128 153
3 129 153
3 130 153
3 131 153
3 132 153
3 133 153
3 134 153
3 135 153
3 136 153
3 137 153
3 138 153
3 139 153
3 140 153
3 141 153
3 142 153
3 143 153
3 144 153
3 145 153
3 146 153
3 147 153
3 148 153
3 149 153
3 150 153
3 151 153
3 152 153
3 153 153
3 154 153
3 155 153
3 156 153
3 157 153
3 158 153
3 159 153
3 160 153
3 161 153
3 162 153
3 163 153
3 164 153
3 165 153
3 166 153
3 167 153
3 168 153
3 169 153
3 170 153
3 171 153
3 172 153
3 173 153
3 174 153
3 175 153
3 176 153
3 177 153
3 178 153
3 179 153
3 180 153
3 181 153
3 182 153
3 183 153
3 184 153
3 185 153
3 186 153
3 187 153
3 188 153
3 189 153
3 190 153
3 191 153
3 192 153
3 193 153
3 194 153
3 195 153
3 196 153
3 197 153
3 198 153
3 199 153
3 200 153
3 201 153
3 202 153
3 203 153
3 204 153
3 205 153
3 206 153
3 207 153
3 208 153
3 209 153
3 210 153
3 211 153
3 212 153
3 213 153
3 214 153
3 215 153
3 216 153
3 217 153
3 218 153
3 219 153
3 220 153
3 221 153
3 222 153
3 223 153
3 224 153
3 225 153
3 226 153
3 227 153
3 228 153
3 229 153
3 230 153
3 231 153
3 232 153
3 233 153
3 234 153
3 235 153
3 236 153
3 237 153
3 238 153
3 239 153
3 240 153
3 241 153
3 242 153
3 243 153
3 244 153
3 245 153
3 246 153
3 247 153
3 248 153
3 249 153
3 250 153
3 251 153
3 252 153
3 253 153
3 254 153
3 255 153
4 0 153
4 1 153
4 2 153
4 3 153
4 4 153
4 5 153
4 6 153
4 7 153
4 8 153
4 9 153
4 10 153
4 11 153
4 12 153
4 13 153
4 14 153
4 15 153
4 16 153
4 17 153
4 18 153
4 19 153
4 20 153
4 21 153
4 22 153
4 23 153
4 24 153
4 25 153
4 26 153
4 27 153
4 28 153
4 29 153
4 30 153
4 31 153
4 32 153
4 33 153
4 34 153
4 35 153
4 36 153
4 37 153
4 38 153
4 39 153
4 40 153
4 41 153
4 42 153
4 43 153
4 44 153
4 45 153
4 46 153
4 47 153
4 48 153
4 49 153
4 50 153
4 51 153
4 52 153
4 53 153
4 54 153
4 55 153
4 56 153
4 57 153
4 58 153
4 59 153
4 60 153
4 61 153
4 62 153
4 63 153
4 64 153
4 65 153
4 66 153
4 67 153
4 68 153
4 69 153
4 70 153
4 71 153
4 72 153
4 73 153
4 74 153
4 75 153
4 76 153
4 77 153
4 78 153
4 79 153
4 80 153
4 81 153
4 82 153
4 83 153
4 84 153
4 85 153
4 86 153
4 87 153
4 88 153
4 89 153
4 90 153
4 91 153
4 92 153
4 93 153
4 94 153
4 95 153
4 96 153
4 97 153
4 98 153
4 99 153
4 100 153
4 101 153
4 102 153
4 103 153
4 104 153
4 105 153
4 106 153
4 107 153
4 108 153
4 109 153
4 110 153
4 111 153
4 112 153
4 113 153
4 114 153
4 115 153
4 116 153
4 117 153
4 118 153
4 119 153
4 120 153
4 121 153
4 122 153
4 123 153
4 124 153
4 125 153
4 126 153
4 127 153
4 128 153
4 129 153
4 130 153
4 131 153
4 132 153
4 133 153
4 134 153
4 135 153
4 136 153
4 137 153
4 138 153
4 139 153
4 140 153
4 141 153
4 142 153
4 143 153
4 144 153
4 145 153
4 146 153
4 147 153
4 148 153
4 149 153
4 150 153
4 151 153
4 152 153
4 153 153
4 154 153
4 155 153
4 156 153
4 157 153
4 158 153
4 159 153
4 160 153
4 161 153
4 162 153
4 163 153
4 164 153
4 165 153
4 166 153
4 167 153
4 168 153
4 169 153
4 170 153
4 171 153
4 172 153
4 173 153
4 174 153
4 175 153
4 176 153
4 177 153
4 178 153
4 179 153
4 180 153
4 181 153
4 182 153
4 183 153
4 184 153
4 185 153
4 186 153
4 187 153
4 188 153
4 189 153
4 190 153
4 191 153
4 192 153
4 193 153
4 194 153
4 195 153
4 196 153
4 197 153
4 198 153
4 199 153
4 200 153
4 201 153
4 202 153
4 203 153
4 204 153
4 205 153
4 206 153
4 207 153
4 208 153
4 209 153
4 210 153
4 211 153
4 212 153
4 213 153
4 214 153
4 215 153
4 216 153
4 217 153
4 218 153
4 219 153
4 220 153
4 221 153
4 222 153
4 223 153
4 224 153
4 225 153
4 226 153
4 227 153
4 228 153
4 229 153
4 230 153
4 231 153
4 232 153
4 233 153
4 234 153
4 235 153
4 236 153
4 237 153
4 238 153
4 239 153
4 240 153
4 241 153
4 242 153
4 243 153
4 244 153
4 245 153
4 246 153
4 247 153
4 248 153
4 249 153
4 250 153
4 251 153
4 252 153
4 253 153
4 254 153
4 255 153
5 0 153
5 1 153
5 2 153
5 3 153
5 4 153
5 5 153
5 6 153
5 7 153
5 8 153
5 9 153
5 10 153
5 11 153
5 12 153
5 13 153
5 14 153
5 15 153
5 16 153
5 17 153
5 18 153
5 19 153
5 20 153
5 21 153
5 22 153
5 23 153
5 24 153
5 25 153
5 26 153
5 27 153
5 28 153
5 29 153
5 30 153
5 31 153
5 32 153
5 33 153
5 34 153
5 35 153
5 36 153
5 37 153
5 38 153
5 39 153
5 40 153
5 41 153
5 42 153
5 43 153
5 44 153
5 45 153
5 46 153
5 47 153
5 48 153
5 49 153
5 50 153
5 51 153
5 52 153
5 53 153
5 54 153
5 55 153
5 56 153
5 57 153
5 58 153
5 59 153
5 60 153
5 61 153
5 62 153
5 63 153
5 64 153
5 65 153
5 66 153
5 67 153
5 68 153
5 69 153
5 70 153
5 71 153
5 72 153
5 73 153
5 74 153
5 75 153
5 76 153
5 77 153
5 78 153
5 79 153
5 80 153
5 81 153
5 82 153
5 83 153
5 84 153
5 85 153
5 86 153
5 87 153
5 88 153
5 89 153
5 90 153
5 91 153
5 92 153
5 93 153
5 94 153
5 95 153
5 96 153
5 97 153
5 98 153
5 99 153
5 100 153
5 101 153
5 102 153
5 103 153
5 104 153
5 105 153
5 106 153
5 107 153
5 108 153
5 109 153
5 110 153
5 111 153
5 112 153
5 113 153
5 114 153
5 115 153
5 116 153
5 117 153
5 118 153
5 119 153
5 120 153
5 121 153
5 122 153
5 123 153
5 124 153
5 125 153
5 126 153
5 127 153
5 128 153
5 129 153
5 130 153
5 131 153
5 132 153
5 133 153
5 134 153
5 135 153
5 136 153
5 137 153
5 138 153
5 139 153
5 140 153
5 141 153
5 142 153
5 143 153
5 144 153
5 145 153
5 146 153
5 147 153
5 148 153
5 149 153
5 150 153
5 151 153
5 152 153
5 153 153
5 154 153
5 155 153
5 156 153
5 157 153
5 158 153
5 159 153
5 160 153
5 161 153
5 162 153
5 163 153
5 164 153
5 165 153
5 166 153
5 167 153
5 168 153
5 169 153
5 170 153
5 171 153
5 172 153
5 173 153
5 174 153
5 175 153
5 176 153
5 177 153
5 178 153
5 179 153
5 180 153
5 181 153
5 182 153
5 183 153
5 184 153
5 185 153
5 186 153
5 187 153
5 188 153
5 189 153
5 190 153
5 191 153
5 192 153
5 193 153
5 194 153
5 195 153
5 196 153
5 197 153
5 198 153
5 199 153
5 200 153
5 201 153
5 202 153
5 203 153
5 204 153
5 205 153
5 206 153
5 207 153
5 208 153
5 209 153
5 210 153
5 211 153
5 212 153
5 213 153
5 214 153
5 215 153
5 216 153
5 217 153
5 218 153
5 219 153
5 220 153
5 221 153
5 222 153
5 223 153
5 224 153
5 225 153
5 226 153
5 227 153
5 228 153
5 229 153
5 230 153
5 231 153
5 232 153
5 233 153
5 234 153
5 235 153
5 236 153
5 237 153
5 238 153
5 239 153
5 240 153
5 241 153
5 242 153
5 243 153
5 244 153
5 245 153
5 246 153
5 247 153
5 248 153
5 249 153
5 250 153
5 251 153
5 252 153
5 253 153
5 254 153
5 255 153
6 0 153
6 1 153
6 2 153
6 3 153
6 4 153
6 5 153
6 6 153
6 7 153
6 8 153
6 9 153
6 10 153
6 11 153
6 12 153
6 13 153
6 14 153
6 15 153
6 16 153
6 17 153
6 18 153
6 19 153
6 20 153
6 21 153
6 22 153
6 23 153
6 24 153
6 25 153
6 26 153
6 27 153
6 28 153
6 29 153
6 30 153
6 31 153
6 32 153
6 33 153
6 34 153
6 35 153
6 36 153
6 37 153
6 38 153
6 39 153
6 40 153
6 41 153
6 42 153
6 43 153
6 44 153
6 45 153
6 46 153
6 47 153
6 48 153
6 49 153
6 50 153
6 51 153
6 52 153
6 53 153
6 54 153
6 55 153
6 56 153
6 57 153
6 58 153
6 59 153
6 60 153
6 61 153
6 62 153
6 63 153
6 64 153
6 65 153
6 66 153
6 67 153
6 68 153
6 69 153
6 70 153
6 71 153
6 72 153
6 73 153
6 74 153
6 75 153
6 76 153
6 77 153
6 78 153
6 79 153
6 80 153
6 81 153
6 82 153
6 83 153
6 84 153
6 85 153
6 86 153
6 87 153
6 88 153
6 89 153
6 90 153
6 91 153
6 92 153
6 93 153
6 94 153
6 95 153
6 96 153
6 97 153
6 98 153
6 99 153
6 100 153
6 101 153
6 102 153
6 103 153
6 104 153
6 105 153
6 106 153
6 107 153
6 108 153
6 109 153
6 110 153
6 111 153
6 112 153
6 113 153
6 114 153
6 115 153
6 116 153
6 117 153
6 118 153
6 119 153
6 120 153
6 121 153
6 122 153
6 123 153
6 124 153
6 125 153
6 126 153
6 127 153
6 128 153
6 129 153
6 130 153
6 131 153
6 132 153
6 133 153
6 134 153
6 135 153
6 136 153
6 137 153
6 138 153
6 139 153
6 140 153
6 141 153
6 142 153
6 143 153
6 144 153
6 145 153
6 146 153
6 147 153
6 148 153
6 149 153
6 150 153
6 151 153
6 152 153
6 153 153
6 154 153
6 155 153
6 156 153
6 157 153
6 158 153
6 159 153
6 160 153
6 161 153
6 162 153
6 163 153
6 164 153
6 165 153
6 166 153
6 167 153
6 168 153
6 169 153
6 170 153
6 171 153
6 172 153
6 173 153
6 174 153
6 175 153
6 176 153
6 177 153
6 178 153
6 179 153
6 180 153
6 181 153
6 182 153
6 183 153
6 184 153
6 185 153
6 186 153
6 187 153
6 188 153
6 189 153
6 190 153
6 191 153
6 192 153
6 193 153
6 194 153
6 195 153
6 196 153
6 197 153
6 198 153
6 199 153
6 200 153
6 201 153
6 202 153
6 203 153
6 204 153
6 205 153
6 206 153
6 207 153
6 208 153
6 209 153
6 210 153
6 211 153
6 212 153
6 213 153
6 214 153
6 215 153
6 216 153
6 217 153
6 218 153
6 219 153
6 220 153
6 221 153
6 222 153
6 223 153
6 224 153
6 225 153
6 226 153
6 227 153
6 228 153
6 229 153
6 230 153
6 231 153
6 232 153
6 233 153
6 234 153
6 235 153
6 236 153
6 237 153
6 238 153
6 239 153
6 240 153
6 241 153
6 242 153
6 243 153
6 244 153
6 245 153
6 246 153
6 247 153
6 248 153
6 249 153
6 250 153
6 251 153
6 252 153
6 253 153
6 254 153
6 255 153
7 0 153
7 1 153
7 2 153
7 3 153
7 4 153
7 5 153
7 6 153
7 7 153
7 8 153
7 9 153
7 10 153
7 11 153
7 12 153
7 13 153
7 14 153
7 15 153
7 16 153
7 17 153
7 18 153
7 19 153
7 20 153
7 21 153
7 22 153
7 23 153
7 24 153
7 25 153
7 26 153
7 27 153
7 28 153
7 29 153
7 30 153
7 31 153
7 32 153
7 33 153
7 34 153
7 35 153
7 36 153
7 37 153
7 38 153
7 39 153
7 40 153
7 41 153
7 42 153
7 43 153
7 44 153
7 45 153
7 46 153
7 47 153
7 48 153
7 49 153
7 50 153
7 51 153
7 52 153
7 53 153
7 54 153
7 55 153
7 56 153
7 57 153
7 58 153
7 59 153
7 60 153
7 61 153
7 62 153
7 63 153
7 64 153
7 65 153
7 66 153
7 67 153
7 68 153
7 69 153
7 70 153
7 71 153
7 72 153
7 73 153
7 74 153
7 75 153
7 76 153
7 77 153
7 78 153
7 79 153
7 80 153
7 81 153
7 82 153
7 83 153
7 84 153
7 85 153
7 86 153
7 87 153
7 88 153
7 89 153
7 90 153
7 91 153
7 92 153
7 93 153
7 94 153
7 95 153
7 96 153
7 97 153
7 98 153
7 99 153
7 100 153
7 101 153
7 102 153
7 103 153
7 104 153
7 105 153
7 106 153
7 107 153
7 108 153
7 109 153
7 110 153
7 111 153
7 112 153
7 113 153
7 114 153
7 115 153
7 116 153
7 117 153
7 118 153
7 119 153
7 120 153
7 121 153
7 122 153
7 123 153
7 124 153
7 125 153
7 126 153
7 127 153
7 128 153
7 129 153
7 130 153
7 131 153
7 132 153
7 133 153
7 134 153
7 135 153
7 136 153
7 137 153
7 138 153
7 139 153
7 140 153
7 141 153
7 142 153
7 143 153
7 144 153
7 145 153
7 146 153
7 147 153
7 148 153
7 149 153
7 150 153
7 151 153
7 152 153
7 153 153
7 154 153
7 155 153
7 156 153
7 157 153
7 158 153
7 159 153
7 160 153
7 161 153
7 162 153
7 163 153
7 164 153
7 165 153
7 166 153
7 167 153
7 168 153
7 169 153
7 170 153
7 171 153
7 172 153
7 173 153
7 174 153
7 175 153
7 176 153
7 177 153
7 178 153
7 179 153
7 180 153
7 181 153
7 182 153
7 183 153
7 184 153
7 185 153
7 186 153
7 187 153
7 188 153
7 189 153
7 190 153
7 191 153
7 192 153
7 193 153
7 194 153
7 195 153
7 196 153
7 197 153
7 198 153
7 199 153
7 200 153
7 201 153
7 202 153
7 203 153
7 204 153
7 205 153
7 206 153
7 207 153
7 208 153
7 209 153
7 210 153
7 211 153
7 212 153
7 213 153
7 214 153
7 215 153
7 216 153
7 217 153
7 218 153
7 219 153
7 220 153
7 221 153
7 222 153
7 223 153
7 224 153
7 225 153
7 226 153
7 227 153
7 228 153
7 229 153
7 230 153
7 231 153
7 232 153
7 233 153
7 234 153
7 235 153
7 236 153
7 237 153
7 238 153
7 239 153
7 240 153
7 241 153
7 242 153
7 243 153
7 244 153
7 245 153
7 246 153
7 247 153
7 248 153
7 249 153
7 250 153
7 251 153
7 252 153
7 253 153
7 254 153
7 255 153
8 0 153
8 1 153
8 2 153
8 3 153
8 4 153
8 5 153
8 6 153
8 7 153
8 8 153
8 9 153
8 10 153
8 11 153
8 12 153
8 13 153
8 14 153
8 15 153
8 16 153
8 17 153
8 18 153
8 19 153
8 20 153
8 21 153
8 22 153
8 23 153
8 24 153
8 25 153
8 26 153
8 27 153
8 28 153
8 29 153
8 30 153
8 31 153
8 32 153
8 33 153
8 34 153
8 35 153
8 36 153
8 37 153
8 38 153
8 39 153
8 40 153
8 41 153
8 42 153
8 43 153
8 44 153
8 45 153
8 46 153
8 47 153
8 48 153
8 49 153
8 50 153
8 51 153
8 52 153
8 53 153
8 54 153
8 55 153
8 56 153
8 57 153
8 58 153
8 59 153
8 60 153
8 61 153
8 62 153
8 63 153
8 64 153
8 65 153
8 66 153
8 67 153
8 68 153
8 69 153
8 70 153
8 71 153
8 72 153
8 73 153
8 74 153
8 75 153
8 76 153
8 77 153
8 78 153
8 79 153
8 80 153
8 81 153
8 82 153
8 83 153
8 84 153
8 85 153
8 86 153
8 87 153
8 88 153
8 89 153
8 90 153
8 91 153
8 92 153
8 93 153
8 94 153
8 95 153
8 96 153
8 97 153
8 98 153
8 99 153
8 100 153
8 101 153
8 102 153
8 103 153
8 104 153
8 105 153
8 106 153
8 107 153
8 108 153
8 109 153
8 110 153
8 111 153
8 112 153
8 113 153
8 114 153
8 115 153
8 116 153
8 117 153
8 118 153
8 119 153
8 120 153
8 121 153
8 122 153
8 123 153
8 124 153
8 125 153
8 126 153
8 127 153
8 128 153
8 129 153
8 130 153
8 131 153
8 132 153
8 133 153
8 134 153
8 135 153
8 136 153
8 137 153
8 138 153
8 139 153
8 140 153
8 141 153
8 142 153
8 143 153
8 144 153
8 145 153
8 146 153
8 147 153
8 148 153
8 149 153
8 150 153
8 151 153
8 152 153
8 153 153
8 154 153
8 155 153
8 156 153
8 157 153
8 158 153
8 159 153
8 160 153
8 161 153
8 162 153
8 163 153
8 164 153
8 165 153
8 166 153
8 167 153
8 168 153
8 169 153
8 170 153
8 171 153
8 172 153
8 173 153
8 174 153
8 175 153
8 176 153
8 177 153
8 178 153
8 179 153
8 180 153
8 181 153
8 182 153
8 183 153
8 184 153
8 185 153
8 186 153
8 187 153
8 188 153
8 189 153
8 190 153
8 191 153
8 192 153
8 193 153
8 194 153
8 195 153
8 196 153
8 197 153
8 198 153
8 199 153
8 200 153
8 201 153
8 202 153
8 203 153
8 204 153
8 205 153
8 206 153
8 207 153
8 208 153
8 209 153
8 210 153
8 211 153
8 212 153
8 213 153
8 214 153
8 215 153
8 216 153
8 217 153
8 218 153
8 219 153
8 220 153
8 221 153
8 222 153
8 223 153
8 224 153
8 225 153
8 226 153
8 227 153
8 228 153
8 229 153
8 230 153
8 231 153
8 232 153
8 233 153
8 234 153
8 235 153
8 236 153
8 237 153
8 238 153
8 239 153
8 240 153
8 241 153
8 242 153
8 243 153
8 244 153
8 245 153
8 246 153
8 247 153
8 248 153
8 249 153
8 250 153
8 251 153
8 252 153
8 253 153
8 254 153
8 255 153
9 0 153
9 1 153
9 2 153
9 3 153
9 4 153
9 5 153
9 6 153
9 7 153
9 8 153
9 9 153
9 10 153
9 11 153
9 12 153
9 13 153
9 14 153
9 15 153
9 16 153
9 17 153
9 18 153
9 19 153
9 20 153
9 21 153
9 22 153
9 23 153
9 24 153
9 25 153
9 26 153
9 27 153
9 28 153
9 29 153
9 30 153
9 31 153
9 32 153
9 33 153
9 34 153
9 35 153
9 36 153
9 37 153
9 38 153
9 39 153
9 40 153
9 41 153
9 42 153
9 43 153
9 44 153
9 45 153
9 46 153
9 47 153
9 48 153
9 49 153
9 50 153
9 51 153
9 52 153
9 53 153
9 54 153
9 55 153
9 56 153
9 57 153
9 58 153
9 59 153
9 60 153
9 61 153
9 62 153
9 63 153
9 64 153
9 65 153
9 66 153
9 67 153
9 68 153
9 69 153
9 70 153
9 71 153
9 72 153
9 73 153
9 74 153
9 75 153
9 76 153
9 77 153
9 78 153
9 79 153
9 80 153
9 81 153
9 82 153
9 83 153
9 84 153
9 85 153
9 86 153
9 87 153
9 88 153
9 89 153
9 90 153
9 91 153
9 92 153
9 93 153
9 94 153
9 95 153
9 96 153
9 97 153
9 98 153
9 99 153
9 100 153
9 101 153
9 102 153
9 103 153
9 104 153
9 105 153
9 106 153
9 107 153
9 108 153
9 109 153
9 110 153
9 111 153
9 112 153
9 113 153
9 114 153
9 115 153
9 116 153
9 117 153
9 118 153
9 119 153
9 120 153
9 121 153
9 122 153
9 123 153
9 124 153
9 125 153
9 126 153
9 127 153
9 128 153
9 129 153
9 130 153
9 131 153
9 132 153
9 133 153
9 134 153
9 135 153
9 136 153
9 137 153
9 138 153
9 139 153
9 140 153
9 141 153
9 142 153
9 143 153
9 144 153
9 145 153
9 146 153
9 147 153
9 148 153
9 149 153
9 150 153
9 151 153
9 152 153
9 153 153
9 154 153
9 155 153
9 156 153
9 157 153
9 158 153
9 159 153
9 160 153
9 161 153
9 162 153
9 163 153
9 164 153
9 165 153
9 166 153
9 167 153
9 168 153
9 169 153
9 170 153
9 171 153
9 172 153
9 173 153
9 174 153
9 175 153
9 176 153
9 177 153
9 178 153
9 179 153
9 180 153
9 181 153
9 182 153
9 183 153
9 184 153
9 185 153
9 186 153
9 187 153
9 188 153
9 189 153
9 190 153
9 191 153
9 192 153
9 193 153
9 194 153
9 195 153
9 196 153
9 197 153
9 198 153
9 199 153
9 200 153
9 201 153
9 202 153
9 203 153
9 204 153
9 205 153
9 206 153
9 207 153
9 208 153
9 209 153
9 210 153
9 211 153
9 212 153
9 213 153
9 214 153
9 215 153
9 216 153
9 217 153
9 218 153
9 219 153
9 220 153
9 221 153
9 222 153
9 223 153
9 224 153
9 225 153
9 226 153
9 227 153
9 228 153
9 229 153
9 230 153
9 231 153
9 232 153
9 233 153
9 234 153
9 235 153
9 236 153
9 237 153
9 238 153
9 239 153
9 240 153
9 241 153
9 242 153
9 243 153
9 244 153
9 245 153
9 246 153
9 247 153
9 248 153
9 249 153
9 250 153
9 251 153
9 252 153
9 253 153
9 254 153
9 255 153
10 0 153
10 1 153
10 2 153
10 3 153
10 4 153
10 5 153
10 6 153
10 7 153
10 8 153
10 9 153
10 10 153
10 11 153
10 12 153
10 13 153
10 14 153
10 15 153
10 16 153
10 17 153
10 18 153
10 19 153
10 20 153
10 21 153
10 22 153
10 23 153
10 24 153
10 25 153
10 26 153
10 27 153
10 28 153
10 29 153
10 30 153
10 31 153
10 32 153
10 33 153
10 34 153
10 35 153
10 36 153
10 37 153
10 38 153
10 39 153
10 40 153
10 41 153
10 42 153
10 43 153
10 44 153
10 45 153
10 46 153
10 47 153
10 48 153
10 49 153
10 50 153
10 51 153
10 52 153
10 53 153
10 54 153
10 55 153
10 56 153
10 57 153
10 58 153
10 59 153
10 60 153
10 61 153
10 62 153
10 63 153
10 64 153
10 65 153
10 66 153
10 67 153
10 68 153
10 69 153
10 70 153
10 71 153
10 72 153
10 73 153
10 74 153
10 75 153
10 76 153
10 77 153
10 78 153
10 79 153
10 80 153
10 81 153
10 82 153
10 83 153
10 84 153
10 85 153
10 86 153
10 87 153
10 88 153
10 89 153
10 90 153
10 91 153
10 92 153
10 93 153
10 94 153
10 95 153
10 96 153
10 97 153
10 98 153
10 99 153
10 100 153
10 101 153
10 102 153
10 103 153
10 104 153
10 105 153
10 106 153
10 107 153
10 108 153
10 109 153
10 110 153
10 111 153
10 112 153
10 113 153
10 114 153
10 115 153
10 116 153
10 117 153
10 118 153
10 119 153
10 120 153
10 121 153
10 122 153
10 123 153
10 124 153
10 125 153
10 126 153
10 127 153
10 128 153
10 129 153
10 130 153
10 131 153
10 132 153
10 133 153
10 134 153
10 135 153
10 136 153
10 137 153
10 138 153
10 139 153
10 140 153
10 141 153
10 142 153
10 143 153
10 144 153
10 145 153
10 146 153
10 147 153
10 148 153
10 149 153
10 150 153
10 151 153
10 152 153
10 153 153
10 154 153
10 155 153
10 156 153
10 157 153
10 158 153
10 159 153
10 160 153
10 161 153
10 162 153
10 163 153
10 164 153
10 165 153
10 166 153
10 167 153
10 168 153
10 169 153
10 170 153
10 171 153
10 172 153
10 173 153
10 174 153
10 175 153
10 176 153
10 177 153
10 178 153
10 179 153
10 180 153
10 181 153
10 182 153
10 183 153
10 184 153
10 185 153
10 186 153
10 187 153
10 188 153
10 189 153
10 190 153
10 191 153
10 192 153
10 193 153
10 194 153
10 195 153
10 196 153
10 197 153
10 198 153
10 199 153
10 200 153
10 201 153
10 202 153
10 203 153
10 204 153
10 205 153
10 206 153
10 207 153
10 208 153
10 209 153
10 210 153
10 211 153
10 212 153
10 213 153
10 214 153
10 215 153
10 216 153
10 217 153
10 218 153
10 219 153
10 220 153
10 221 153
10 222 153
10 223 153
10 224 153
10 225 153
10 226 153
10 227 153
10 228 153
10 229 153
10 230 153
10 231 153
10 232 153
10 233 153
10 234 153
10 235 153
10 236 153
10 237 153
10 238 153
10 239 153
10 240 153
10 241 153
10 242 153
10 243 153
10 244 153
10 245 153
10 246 153
10 247 153
10 248 153
10 249 153
10 250 153
10 251 153
10 252 153
10 253 153
10 254 153
10 255 153
11 0 153
11 1 153
11 2 153
11 3 153
11 4 153
11 5 153
11 6 153
11 7 153
11 8 153
11 9 153
11 10 153
11 11 153
11 12 153
11 13 153
11 14 153
11 15 153
11 16 153
11 17 153
11 18 153
11 19 153
11 20 153
11 21 153
11 22 153
11 23 153
11 24 153
11 25 153
11 26 153
11 27 153
11 28 153
11 29 153
11 30 153
11 31 153
11 32 153
11 33 153
11 34 153
11 35 153
11 36 153
11 37 153
11 38 153
11 39 153
11 40 153
11 41 153
11 42 153
11 43 153
11 44 153
11 45 153
11 46 153
11 47 153
11 48 153
11 49 153
11 50 153
11 51 153
11 52 153
11 53 153
11 54 153
11 55 153
11 56 153
11 57 153
11 58 153
11 59 153
11 60 153
11 61 153
11 62 153
11 63 153
11 64 153
11 65 153
11 66 153
11 67 153
11 68 153
11 69 153
11 70 153
11 71 153
11 72 153
11 73 153
11 74 153
11 75 153
11 76 153
11 77 153
11 78 153
11 79 153
11 80 153
11 81 153
11 82 153
11 83 153
11 84 153
11 85 153
11 86 153
11 87 153
11 88 153
11 89 153
11 90 153
11 91 153
11 92 153
11 93 153
11 94 153
11 95 153
11 96 153
11 97 153
11 98 153
11 99 153
11 100 153
11 101 153
11 102 153
11 103 153
11 104 153
11 105 153
11 106 153
11 107 153
11 108 153
11 109 153
11 110 153
11 111 153
11 112 153
11 113 153
11 114 153
11 115 153
11 116 153
11 117 153
11 118 153
11 119 153
11 120 153
11 121 153
11 122 153
11 123 153
11 124 153
11 125 153
11 126 153
11 127 153
11 128 153
11 129 153
11 130 153
11 131 153
11 132 153
11 133 153
11 134 153
11 135 153
11 136 153
11 137 153
11 138 153
11 139 153
11 140 153
11 141 153
11 142 153
11 143 153
11 144 153
11 145 153
11 146 153
11 147 153
11 148 153
11 149 153
11 150 153
11 151 153
11 152 153
11 153 153
11 154 153
11 155 153
11 156 153
11 157 153
11 158 153
11 159 153
11 160 153
11 161 153
11 162 153
11 163 153
11 164 153
11 165 153
11 166 153
11 167 153
11 168 153
11 169 153
11 170 153
11 171 153
11 172 153
11 173 153
11 174 153
11 175 153
11 176 153
11 177 153
11 178 153
11 179 153
11 180 153
11 181 153
11 182 153
11 183 153
11 184 153
11 185 153
11 186 153
11 187 153
11 188 153
11 189 153
11 190 153
11 191 153
11 192 153
11 193 153
11 194 153
11 195 153
11 196 153
11 197 153
11 198 153
11 199 153
11 200 153
11 201 153
11 202 153
11 203 153
11 204 153
11 205 153
11 206 153
11 207 153
11 208 153
11 209 153
11 210 153
11 211 153
11 212 153
11 213 153
11 214 153
11 215 153
11 216 153
11 217 153
11 218 153
11 219 153
11 220 153
11 221 153
11 222 153
11 223 153
11 224 153
11 225 153
11 226 153
11 227 153
11 228 153
11 229 153
11 230 153
11 231 153
11 232 153
11 233 153
11 234 153
11 235 153
11 236 153
11 237 153
11 238 153
11 239 153
11 240 153
11 241 153
11 242 153
11 243 153
11 244 153
11 245 153
11 246 153
11 247 153
11 248 153
11 249 153
11 250 153
11 251 153
11 252 153
11 253 153
11 254 153
11 255 153
12 0 153
12 1 153
12 2 153
12 3 153
12 4 153
12 5 153
12 6 153
12 7 153
12 8 153
12 9 153
12 10 153
12 11 153
12 12 153
12 13 153
12 14 153
12 15 153
12 16 153
12 17 153
12 18 153
12 19 153
12 20 153
12 21 153
12 22 153
12 23 153
12 24 153
12 25 153
12 26 153
12 27 153
12 28 153
12 29 153
12 30 153
12 31 153
12 32 153
12 33 153
12 34 153
12 35 153
12 36 153
12 37 153
12 38 153
12 39 153
12 40 153
12 41 153
12 42 153
12 43 153
12 44 153
12 45 153
12 46 153
12 47 153
12 48 153
12 49 153
12 50 153
12 51 153
12 52 153
12 53 153
12 54 153
12 55 153
12 56 153
12 57 153
12 58 153
12 59 153
12 60 153
12 61 153
12 62 153
12 63 153
12 64 153
12 65 153
12 66 153
12 67 153
12 68 153
12 69 153
12 70 153
12 71 153
12 72 153
12 73 153
12 74 153
12 75 153
12 76 153
12 77 153
12 78 153
12 79 153
12 80 153
12 81 153
12 82 153
12 83 153
12 84 153
12 85 153
12 86 153
12 87 153
12 88 153
12 89 153
12 90 153
12 91 153
12 92 153
12 93 153
12 94 153
12 95 153
12 96 153
12 97 153
12 98 153
12 99 153
12 100 153
12 101 153
12 102 153
12 103 153
12 104 153
12 105 153
12 106 153
12 107 153
12 108 153
12 109 153
12 110 153
12 111 153
12 112 153
12 113 153
12 114 153
12 115 153
12 116 153
12 117 153
12 118 153
12 119 153
12 120 153
12 121 153
12 122 153
12 123 153
12 124 153
12 125 153
12 126 153
12 127 153
12 128 153
12 129 153
12 130 153
12 131 153
12 132 153
12 133 153
12 134 153
12 135 153
12 136 153
12 137 153
12 138 153
12 139 153
12 140 153
12 141 153
12 142 153
12 143 153
12 144 153
12 145 153
12 146 153
12 147 153
12 148 153
12 149 153
12 150 153
12 151 153
12 152 153
12 153 153
12 154 153
12 155 153
12 156 153
12 157 153
12 158 153
12 159 153
12 160 153
12 161 153
12 162 153
12 163 153
12 164 153
12 165 153
12 166 153
12 167 153
12 168 153
12 169 153
12 170 153
12 171 153
12 172 153
12 173 153
12 174 153
12 175 153
12 176 153
12 177 153
12 178 153
12 179 153
12 180 153
12 181 153
12 182 153
12 183 153
12 184 153
12 185 153
12 186 153
12 187 153
12 188 153
12 189 153
12 190 153
12 191 153
12 192 153
12 193 153
12 194 153
12 195 153
12 196 153
12 197 153
12 198 153
12 199 153
12 200 153
12 201 153
12 202 153
12 203 153
12 204 153
12 205 153
12 206 153
12 207 153
12 208 153
12 209 153
12 210 153
12 211 153
12 212 153
12 213 153
12 214 153
12 215 153
12 216 153
12 217 153
12 218 153
12 219 153
12 220 153
12 221 153
12 222 153
12 223 153
12 224 153
12 225 153
12 226 153
12 227 153
12 228 153
12 229 153
12 230 153
12 231 153
12 232 153
12 233 153
12 234 153
12 235 153
12 236 153
12 237 153
12 238 153
12 239 153
12 240 153
12 241 153
12 242 153
12 243 153
12 244 153
12 245 153
12 246 153
12 247 153
12 248 153
12 249 153
12 250 153
12 251 153
12 252 153
12 253 153
12 254 153
12 255 153
13 0 153
13 1 153
13 2 153
13 3 153
13 4 153
13 5 153
13 6 153
13 7 153
13 8 153
13 9 153
13 10 153
13 11 153
13 12 153
13 13 153
13 14 153
13 15 153
13 16 153
13 17 153
13 18 153
13 19 153
13 20 153
13 21 153
13 22 153
13 23 153
13 24 153
13 25 153
13 26 153
13 27 153
13 28 153
13 29 153
13 30 153
13 31 153
13 32 153
13 33 153
13 34 153
13 35 153
13 36 153
13 37 153
13 38 153
13 39 153
13 40 153
13 41 153
13 42 153
13 43 153
13 44 153
13 45 153
13 46 153
13 47 153
13 48 153
13 49 153
13 50 153
13 51 153
13 52 153
13 53 153
13 54 153
13 55 153
13 56 153
13 57 153
13 58 153
13 59 153
13 60 153
13 61 153
13 62 153
13 63 153
13 64 153
13 65 153
13 66 153
13 67 153
13 68 153
13 69 153
13 70 153
13 71 153
13 72 153
13 73 153
13 74 153
13 75 153
13 76 153
13 77 153
13 78 153
13 79 153
13 80 153
13 81 153
13 82 153
13 83 153
13 84 153
13 85 153
13 86 153
13 87 153
13 88 153
13 89 153
13 90 153
13 91 153
13 92 153
13 93 153
13 94 153
13 95 153
13 96 153
13 97 153
13 98 153
13 99 153
13 100 153
13 101 153
13 102 153
13 103 153
13 104 153
13 105 153
13 106 153
13 107 153
13 108 153
13 109 153
13 110 153
13 111 153
13 112 153
13 113 153
13 114 153
13 115 153
13 116 153
13 117 153
13 118 153
13 119 153
13 120 153
13 121 153
13 122 153
13 123 153
13 124 153
13 125 153
13 126 153
13 127 153
13 128 153
13 129 153
13 130 153
13 131 153
13 132 153
13 133 153
13 134 153
13 135 153
13 136 153
13 137 153
13 138 153
13 139 153
13 140 153
13 141 153
13 142 153
13 143 153
13 144 153
13 145 153
13 146 153
13 147 153
13 148 153
13 149 153
13 150 153
13 151 153
13 152 153
13 153 153
13 154 153
13 155 153
13 156 153
13 157 153
13 158 153
13 159 153
13 160 153
13 161 153
13 162 153
13 163 153
13 164 153
13 165 153
13 166 153
13 167 153
13 168 153
13 169 153
13 170 153
13 171 153
13 172 153
13 173 153
13 174 153
13 175 153
13 176 153
13 177 153
13 178 153
13 179 153
13 180 153
13 181 153
13 182 153
13 183 153
13 184 153
13 185 153
13 186 153
13 187 153
13 188 153
13 189 153
13 190 153
13 191 153
13 192 153
13 193 153
13 194 153
13 195 153
13 196 153
13 197 153
13 198 153
13 199 153
13 200 153
13 201 153
13 202 153
13 203 153
13 204 153
13 205 153
13 206 153
13 207 153
13 208 153
13 209 153
13 210 153
13 211 153
13 212 153
13 213 153
13 214 153
13 215 153
13 216 153
13 217 153
13 218 153
13 219 153
13 220 153
13 221 153
13 222 153
13 223 153
13 224 153
13 225 153
13 226 153
13 227 153
13 228 153
13 229 153
13 230 153
13 231 153
13 232 153
13 233 153
13 234 153
13 235 153
13 236 153
13 237 153
13 238 153
13 239 153
13 240 153
13 241 153
13 242 153
13 243 153
13 244 153
13 245 153
13 246 153
13 247 153
13 248 153
13 249 153
13 250 153
13 251 153
13 252 153
13 253 153
13 254 153
13 255 153
14 0 153
14 1 153
14 2 153
14 3 153
14 4 153
14 5 153
14 6 153
14 7 153
14 8 153
14 9 153
14 10 153
14 11 153
14 12 153
14 13 153
14 14 153
14 15 153
14 16 153
14 17 153
14 18 153
14 19 153
14 20 153
14 21 153
14 22 153
14 23 153
14 24 153
14 25 153
14 26 153
14 27 153
14 28 153
14 29 153
14 30 153
14 31 153
14 32 153
14 33 153
14 34 153
14 35 153
14 36 153
14 37 153
14 38 153
14 39 153
14 40 153
14 41 153
14 42 153
14 43 153
14 44 153
14 45 153
14 46 153
14 47 153
14 48 153
14 49 153
14 50 153
14 51 153
14 52 153
14 53 153
14 54 153
14 55 153
14 56 153
14 57 153
14 58 153
14 59 153
14 60 153
14 61 153
14 62 153
14 63 153
14 64 153
14 65 153
14 66 153
14 67 153
14 68 153
14 69 153
14 70 153
14 71 153
14 72 153
14 73 153
14 74 153
14 75 153
14 76 153
14 77 153
14 78 153
14 79 153
14 80 153
14 81 153
14 82 153
14 83 153
14 84 153
14 85 153
14 86 153
14 87 153
14 88 153
14 89 153
14 90 153
14 91 153
14 92 153
14 93 153
14 94 153
14 95 153
14 96 153
14 97 153
14 98 153
14 99 153
14 100 153
14 101 153
14 102 153
14 103 153
14 104 153
14 105 153
14 106 153
14 107 153
14 108 153
14 109 153
14 110 153
14 111 153
14 112 153
14 113 153
14 114 153
14 115 153
14 116 153
14 117 153
14 118 153
14 119 153
14 120 153
14 121 153
14 122 153
14 123 153
14 124 153
14 125 153
14 126 153
14 127 153
14 128 153
14 129 153
14 130 153
14 131 153
14 132 153
14 133 153
14 134 153
14 135 153
14 136 153
14 137 153
14 138 153
14 139 153
14 140 153
14 141 153
14 142 153
14 143 153
14 144 153
14 145 153
14 146 153
14 147 153
14 148 153
14 149 153
14 150 153
14 151 153
14 152 153
14 153 153
14 154 153
14 155 153
14 156 153
14 157 153
14 158 153
14 159 153
14 160 153
14 161 153
14 162 153
14 163 153
14 164 153
14 165 153
14 166 153
14 167 153
14 168 153
14 169 153
14 170 153
14 171 153
14 172 153
14 173 153
14 174 153
14 175 153
14 176 153
14 177 153
14 178 153
14 179 153
14 180 153
14 181 153
14 182 153
14 183 153
14 184 153
14 185 153
14 186 153
14 187 153
14 188 153
14 189 153
14 190 153
14 191 153
14 192 153
14 193 153
14 194 153
14 195 153
14 196 153
14 197 153
14 198 153
14 199 153
14 200 153
14 201 153
14 202 153
14 203 153
14 204 153
14 205 153
14 206 153
14 207 153
14 208 153
14 209 153
14 210 153
14 211 153
14 212 153
14 213 153
14 214 153
14 215 153
14 216 153
14 217 153
14 218 153
14 219 153
14 220 153
14 221 153
14 222 153
14 223 153
14 224 153
14 225 153
14 226 153
14 227 153
14 228 153
14 229 153
14 230 153
14 231 153
14 232 153
14 233 153
14 234 153
14 235 153
14 236 153
14 237 153
14 238 153
14 239 153
14 240 153
14 241 153
14 242 153
14 243 153
14 244 153
14 245 153
14 246 153
14 247 153
14 248 153
14 249 153
14 250 153
14 251 153
14 252 153
14 253 153
14 254 153
14 255 153
15 0 153
15 1 153
15 2 153
15 3 153
15 4 153
15 5 153
15 6 153
15 7 153
15 8 153
15 9 153
15 10 153
15 11 153
15 12 153
15 13 153
15 14 153
15 15 153
15 16 153
15 17 153
15 18 153
15 19 153
15 20 153
15 21 153
15 22 153
15 23 153
15 24 153
15 25 153
15 26 153
15 27 153
15 28 153
15 29 153
15 30 153
15 31 153
15 32 153
15 33 153
15 34 153
15 35 153
15 36 153
15 37 153
15 38 153
15 39 153
15 40 153
15 41 153
15 42 153
15 43 153
15 44 153
15 45 153
15 46 153
15 47 153
15 48 153
15 49 153
15 50 153
15 51 153
15 52 153
15 53 153
15 54 153
15 55 153
15 56 153
15 57 153
15 58 153
15 59 153
15 60 153
15 61 153
15 62 153
15 63 153
15 64 153
15 65 153
15 66 153
15 67 153
15 68 153
15 69 153
15 70 153
15 71 153
15 72 153
15 73 153
15 74 153
15 75 153
15 76 153
15 77 153
15 78 153
15 79 153
15 80 153
15 81 153
15 82 153
15 83 153
15 84 153
15 85 153
15 86 153
15 87 153
15 88 153
15 89 153
15 90 153
15 91 153
15 92 153
15 93 153
15 94 153
15 95 153
15 96 153
15 97 153
15 98 153
15 99 153
15 100 153
15 101 153
15 102 153
15 103 153
15 104 153
15 105 153
15 106 153
15 107 153
15 108 153
15 109 153
15 110 153
15 111 153
15 112 153
15 113 153
15 114 153
15 115 153
15 116 153
15 117 153
15 118 153
15 119 153
15 120 153
15 121 153
15 122 153
15 123 153
15 124 153
15 125 153
15 126 153
15 127 153
15 128 153
15 129 153
15 130 153
15 131 153
15 132 153
15 133 153
15 134 153
15 135 153
15 136 153
15 137 153
15 138 153
15 139 153
15 140 153
15 141 153
15 142 153
15 143 153
15 144 153
15 145 153
15 146 153
15 147 153
15 148 153
15 149 153
15 150 153
15 151 153
15 152 153
15 153 153
15 154 153
15 155 153
15 156 153
15 157 153
15 158 153
15 159 153
15 160 153
15 161 153
15 162 153
15 163 153
15 164 153
15 165 153
15 166 153
15 167 153
15 168 153
15 169 153
15 170 153
15 171 153
15 172 153
15 173 153
15 174 153
15 175 153
15 176 153
15 177 153
15 178 153
15 179 153
15 180 153
15 181 153
15 182 153
15 183 153
15 184 153
15 185 153
15 186 153
15 187 153
15 188 153
15 189 153
15 190 153
15 191 153
15 192 153
15 193 153
15 194 153
15 195 153
15 196 153
15 197 153
15 198 153
15 199 153
15 200 153
15 201 153
15 202 153
15 203 153
15 204 153
15 205 153
15 206 153
15 207 153
15 208 153
15 209 153
15 210 153
15 211 153
15 212 153
15 213 153
15 214 153
15 215 153
15 216 153
15 217 153
15 218 153
15 219 153
15 220 153
15 221 153
15 222 153
15 223 153
15 224 153
15 225 153
15 226 153
15 227 153
15 228 153
15 229 153
15 230 153
15 231 153
15 232 153
15 233 153
15 234 153
15 235 153
15 236 153
15 237 153
15 238 153
15 239 153
15 240 153
15 241 153
15 242 153
15 243 153
15 244 153
15 245 153
15 246 153
15 247 153
15 248 153
15 249 153
15 250 153
15 251 153
15 252 153
15 253 153
15 254 153
15 255 153
16 0 153
16 1 153
16 2 153
16 3 153
16 4 153
16 5 153
16 6 153
16 7 153
16 8 153
16 9 153
16 10 153
16 11 153
16 12 153
16 13 153
16 14 153
16 15 153
16 16 153
16 17 153
16 18 153
16 19 153
16 20 153
16 21 153
16 22 153
16 23 153
16 24 153
16 25 153
16 26 153
16 27 153
16 28 153
16 29 153
16 30 153
16 31 153
16 32 153
16 33 153
16 34 153
16 35 153
16 36 153
16 37 153
16 38 153
16 39 153
16 40 153
16 41 153
16 42 153
16 43 153
16 44 153
16 45 153
16 46 153
16 47 153
16 48 153
16 49 153
16 50 153
16 51 153
16 52 153
16 53 153
16 54 153
16 55 153
16 56 153
16 57 153
16 58 153
16 59 153
16 60 153
16 61 153
16 62 153
16 63 153
16 64 153
16 65 153
16 66 153
16 67 153
16 68 153
16 69 153
16 70 153
16 71 153
16 72 153
16 73 153
16 74 153
16 75 153
16 76 153
16 77 153
16 78 153
16 79 153
16 80 153
16 81 153
16 82 153
16 83 153
16 84 153
16 85 153
16 86 153
16 87 153
16 88 153
16 89 153
16 90 153
16 91 153
16 92 153
16 93 153
16 94 153
16 95 153
16 96 153
16 97 153
16 98 153
16 99 153
16 100 153
16 101 153
16 102 153
16 103 153
16 104 153
16 105 153
16 106 153
16 107 153
16 108 153
16 109 153
16 110 153
16 111 153
16 112 153
16 113 153
16 114 153
16 115 153
16 116 153
16 117 153
16 118 153
16 119 153
16 120 153
16 121 153
16 122 153
16 123 153
16 124 153
16 125 153
16 126 153
16 127 153
16 128 153
16 129 153
16 130 153
16 131 153
16 132 153
16 133 153
16 134 153
16 135 153
16 136 153
16 137 153
16 138 153
16 139 153
16 140 153
16 141 153
16 142 153
16 143 153
16 144 153
16 145 153
16 146 153
16 147 153
16 148 153
16 149 153
16 150 153
16 151 153
16 152 153
16 153 153
16 154 153
16 155 153
16 156 153
16 157 153
16 158 153
16 159 153
16 160 153
16 161 153
16 162 153
16 163 153
16 164 153
16 165 153
16 166 153
16 167 153
16 168 153
16 169 153
16 170 153
16 171 153
16 172 153
16 173 153
16 174 153
16 175 153
16 176 153
16 177 153
16 178 153
16 179 153
16 180 153
16 181 153
16 182 153
16 183 153
16 184 153
16 185 153
16 186 153
16 187 153
16 188 153
16 189 153
16 190 153
16 191 153
16 192 153
16 193 153
16 194 153
16 195 153
16 196 153
16 197 153
16 198 153
16 199 153
16 200 153
16 201 153
16 202 153
16 203 153
16 204 153
16 205 153
16 206 153
16 207 153
16 208 153
16 209 153
16 210 153
16 211 153
16 212 153
16 213 153
16 214 153
16 215 153
16 216 153
16 217 153
16 218 153
16 219 153
16 220 153
16 221 153
16 222 153
16 223 153
16 224 153
16 225 153
16 226 153
16 227 153
16 228 153
16 229 153
16 230 153
16 231 153
16 232 153
16 233 153
16 234 153
16 235 153
16 236 153
16 237 153
16 238 153
16 239 153
16 240 153
16 241 153
16 242 153
16 243 153
16 244 153
16 245 153
16 246 153
16 247 153
16 248 153
16 249 153
16 250 153
16 251 153
16 252 153
16 253 153
16 254 153
16 255 153
17 0 153
17 1 153
17 2 153
17 3 153
17 4 153
17 5 153
17 6 153
17 7 153
17 8 153
17 9 153
17 10 153
17 11 153
17 12 153
17 13 153
17 14 153
17 15 153
17 16 153
17 17 153
17 18 153
17 19 153
17 20 153
17 21 153
17 22 153
17 23 153
17 24 153
17 25 153
17 26 153
17 27 153
17 28 153
17 29 153
17 30 153
17 31 153
17 32 153
17 33 153
17 34 153
17 35 153
17 36 153
17 37 153
17 38 153
17 39 153
17 40 153
17 41 153
17 42 153
17 43 153
17 44 153
17 45 153
17 46 153
17 47 153
17 48 153
17 49 153
17 50 153
17 51 153
17 52 153
17 53 153
17 54 153
17 55 153
17 56 153
17 57 153
17 58 153
17 59 153
17 60 153
17 61 153
17 62 153
17 63 153
17 64 153
17 65 153
17 66 153
17 67 153
17 68 153
17 69 153
17 70 153
17 71 153
17 72 153
17 73 153
17 74 153
17 75 153
17 76 153
17 77 153
17 78 153
17 79 153
17 80 153
17 81 153
17 82 153
17 83 153
17 84 153
17 85 153
17 86 153
17 87 153
17 88 153
17 89 153
17 90 153
17 91 153
17 92 153
17 93 153
17 94 153
17 95 153
17 96 153
17 97 153
17 98 153
17 99 153
17 100 153
17 101 153
17 102 153
17 103 153
17 104 153
17 105 153
17 106 153
17 107 153
17 108 153
17 109 153
17 110 153
17 111 153
17 112 153
17 113 153
17 114 153
17 115 153
17 116 153
17 117 153
17 118 153
17 119 153
17 120 153
17 121 153
17 122 153
17 123 153
17 124 153
17 125 153
17 126 153
17 127 153
17 128 153
17 129 153
17 130 153
17 131 153
17 132 153
17 133 153
17 134 153
17 135 153
17 136 153
17 137 153
17 138 153
17 139 153
17 140 153
17 141 153
17 142 153
17 143 153
17 144 153
17 145 153
17 146 153
17 147 153
17 148 153
17 149 153
17 150 153
17 151 153
17 152 153
17 153 153
17 154 153
17 155 153
17 156 153
17 157 153
17 158 153
17 159 153
17 160 153
17 161 153
17 162 153
17 163 153
17 164 153
17 165 153
17 166 153
17 167 153
17 168 153
17 169 153
17 170 153
17 171 153
17 172 153
17 173 153
17 174 153
17 175 153
17 176 153
17 177 153
17 178 153
17 179 153
17 180 153
17 181 153
17 182 153
17 183 153
17 184 153
17 185 153
17 186 153
17 187 153
17 188 153
17 189 153
17 190 153
17 191 153
17 192 153
17 193 153
17 194 153
17 195 153
17 196 153
17 197 153
17 198 153
17 199 153
17 200 153
17 201 153
17 202 153
17 203 153
17 204 153
17 205 153
17 206 153
17 207 153
17 208 153
17 209 153
17 210 153
17 211 153
17 212 153
17 213 153
17 214 153
17 215 153
17 216 153
17 217 153
17 218 153
17 219 153
17 220 153
17 221 153
17 222 153
17 223 153
17 224 153
17 225 153
17 226 153
17 227 153
17 228 153
17 229 153
17 230 153
17 231 153
17 232 153
17 233 153
17 234 153
17 235 153
17 236 153
17 237 153
17 238 153
17 239 153
17 240 153
17 241 153
17 242 153
17 243 153
17 244 153
17 245 153
17 246 153
17 247 153
17 248 153
17 249 153
17 250 153
17 251 153
17 252 153
17 253 153
17 254 153
17 255 153
18 0 153
18 1 153
18 2 153
18 3 153
18 4 153
18 5 153
18 6 153
18 7 153
18 8 153
18 9 153
18 10 153
18 11 153
18 12 153
18 13 153
18 14 153
18 15 153
18 16 153
18 17 153
18 18 153
18 19 153
18 20 153
18 21 153
18 22 153
18 23 153
18 24 153
18 25 153
18 26 153
18 27 153
18 28 153
18 29 153
18 30 153
18 31 153
18 32 153
18 33 153
18 34 153
18 35 153
18 36 153
18 37 153
18 38 153
18 39 153
18 40 153
18 41 153
18 42 153
18 43 153
18 44 153
18 45 153
18 46 153
18 47 153
18 48 153
18 49 153
18 50 153
18 51 153
18 52 153
18 53 153
18 54 153
18 55 153
18 56 153
18 57 153
18 58 153
18 59 153
18 60 153
18 61 153
18 62 153
18 63 153
18 64 153
18 65 153
18 66 153
18 67 153
18 68 153
18 69 153
18 70 153
18 71 153
18 72 153
18 73 153
18 74 153
18 75 153
18 76 153
18 77 153
18 78 153
18 79 153
18 80 153
18 81 153
18 82 153
18 83 153
18 84 153
18 85 153
18 86 153
18 87 153
18 88 153
18 89 153
18 90 153
18 91 153
18 92 153
18 93 153
18 94 153
18 95 153
18 96 153
18 97 153
18 98 153
18 99 153
18 100 153
18 101 153
18 102 153
18 103 153
18 104 153
18 105 153
18 106 153
18 107 153
18 108 153
18 109 153
18 110 153
18 111 153
18 112 153
18 113 153
18 114 153
18 115 153
18 116 153
18 117 153
18 118 153
18 119 153
18 120 153
18 121 153
18 122 153
18 123 153
18 124 153
18 125 153
18 126 153
18 127 153
18 128 153
18 129 153
18 130 153
18 131 153
18 132 153
18 133 153
18 134 153
18 135 153
18 136 153
18 137 153
18 138 153
18 139 153
18 140 153
18 141 153
18 142 153
18 143 153
18 144 153
18 145 153
18 146 153
18 147 153
18 148 153
18 149 153
18 150 153
18 151 153
18 152 153
18 153 153
18 154 153
18 155 153
18 156 153
18 157 153
18 158 153
18 159 153
18 160 153
18 161 153
18 162 153
18 163 153
18 164 153
18 165 153
18 166 153
18 167 153
18 168 153
18 169 153
18 170 153
18 171 153
18 172 153
18 173 153
18 174 153
18 175 153
18 176 153
18 177 153
18 178 153
18 179 153
18 180 153
18 181 153
18 182 153
18 183 153
18 184 153
18 185 153
18 186 153
18 187 153
18 188 153
18 189 153
18 190 153
18 191 153
18 192 153
18 193 153
18 194 153
18 195 153
18 196 153
18 197 153
18 198 153
18 199 153
18 200 153
18 201 153
18 202 153
18 203 153
18 204 153
18 205 153
18 206 153
18 207 153
18 208 153
18 209 153
18 210 153
18 211 153
18 212 153
18 213 153
18 214 153
18 215 153
18 216 153
18 217 153
18 218 153
18 219 153
18 220 153
18 221 153
18 222 153
18 223 153
18 224 153
18 225 153
18 226 153
18 227 153
18 228 153
18 229 153
18 230 153
18 231 153
18 232 153
18 233 153
18 234 153
18 235 153
18 236 153
18 237 153
18 238 153
18 239 153
18 240 153
18 241 153
18 242 153
18 243 153
18 244 153
18 245 153
18 246 153
18 247 153
18 248 153
18 249 153
18 250 153
18 251 153
18 252 153
18 253 153
18 254 153
18 255 153
19 0 153
19 1 153
19 2 153
19 3 153
19 4 153
19 5 153
19 6 153
19 7 153
19 8 153
19 9 153
19 10 153
19 11 153
19 12 153
19 13 153
19 14 153
19 15 153
19 16 153
19 17 153
19 18 153
19 19 153
19 20 153
19 21 153
19 22 153
19 23 153
19 24 153
19 25 153
19 26 153
19 27 153
19 28 153
19 29 153
19 30 153
19 31 153
19 32 153
19 33 153
19 34 153
19 35 153
19 36 153
19 37 153
19 38 153
19 39 153
19 40 153
19 41 153
19 42 153
19 43 153
19 44 153
19 45 153
19 46 153
19 47 153
19 48 153
19 49 153
19 50 153
19 51 153
19 52 153
19 53 153
19 54 153
19 55 153
19 56 153
19 57 153
19 58 153
19 59 153
19 60 153
19 61 153
19 62 153
19 63 153
19 64 153
19 65 153
19 66 153
19 67 153
19 68 153
19 69 153
19 70 153
19 71 153
19 72 153
19 73 153
19 74 153
19 75 153
19 76 153
19 77 153
19 78 153
19 79 153
19 80 153
19 81 153
19 82 153
19 83 153
19 84 153
19 85 153
19 86 153
19 87 153
19 88 153
19 89 153
19 90 153
19 91 153
19 92 153
19 93 153
19 94 153
19 95 153
19 96 153
19 97 153
19 98 153
19 99 153
19 100 153
19 101 153
19 102 153
19 103 153
19 104 153
19 105 153
19 106 153
19 107 153
19 108 153
19 109 153
19 110 153
19 111 153
19 112 153
19 113 153
19 114 153
19 115 153
19 116 153
19 117 153
19 118 153
19 119 153
19 120 153
19 121 153
19 122 153
19 123 153
19 124 153
19 125 153
19 126 153
19 127 153
19 128 153
19 129 153
19 130 153
19 131 153
19 132 153
19 133 153
19 134 153
19 135 153
19 136 153
19 137 153
19 138 153
19 139 153
19 140 153
19 141 153
19 142 153
19 143 153
19 144 153
19 145 153
19 146 153
19 147 153
19 148 153
19 149 153
19 150 153
19 151 153
19 152 153
19 153 153
19 154 153
19 155 153
19 156 153
19 157 153
19 158 153
19 159 153
19 160 153
19 161 153
19 162 153
19 163 153
19 164 153
19 165 153
19 166 153
19 167 153
19 168 153
19 169 153
19 170 153
19 171 153
19 172 153
19 173 153
19 174 153
19 175 153
19 176 153
19 177 153
19 178 153
19 179 153
19 180 153
19 181 153
19 182 153
19 183 153
19 184 153
19 185 153
19 186 153
19 187 153
19 188 153
19 189 153
19 190 153
19 191 153
19 192 153
19 193 153
19 194 153
19 195 153
19 196 153
19 197 153
19 198 153
19 199 153
19 200 153
19 201 153
19 202 153
19 203 153
19 204 153
19 205 153
19 206 153
19 207 153
19 208 153
19 209 153
19 210 153
19 211 153
19 212 153
19 213 153
19 214 153
19 215 153
19 216 153
19 217 153
19 218 153
19 219 153
19 220 153
19 221 153
19 222 153
19 223 153
19 224 153
19 225 153
19 226 153
19 227 153
19 228 153
19 229 153
19 230 153
19 231 153
19 232 153
19 233 153
19 234 153
19 235 153
19 236 153
19 237 153
19 238 153
19 239 153
19 240 153
19 241 153
19 242 153
19 243 153
19 244 153
19 245 153
19 246 153
19 247 153
19 248 153
19 249 153
19 250 153
19 251 153
19 252 153
19 253 153
19 254 153
19 255 153
20 0 153
20 1 153
20 2 153
20 3 153
20 4 153
20 5 153
20 6 153
20 7 153
20 8 153
20 9 153
20 10 153
20 11 153
20 12 153
20 13 153
20 14 153
20 15 153
20 16 153
20 17 153
20 18 153
20 19 153
20 20 153
20 21 153
20 22 153
20 23 153
20 24 153
20 25 153
20 26 153
20 27 153
20 28 153
20 29 153
20 30 153
20 31 153
20 32 153
20 33 153
20 34 153
20 35 153
20 36 153
20 37 153
20 38 153
20 39 153
20 40 153
20 41 153
20 42 153
20 43 153
20 44 153
20 45 153
20 46 153
20 47 153
20 48 153
20 49 153
20 50 153
20 51 153
20 52 153
20 53 153
20 54 153
20 55 153
20 56 153
20 57 153
20 58 153
20 59 153
20 60 153
20 61 153
20 62 153
20 63 153
20 64 153
20 65 153
20 66 153
20 67 153
20 68 153
20 69 153
20 70 153
20 71 153
20 72 153
20 73 153
20 74 153
20 75 153
20 76 153
20 77 153
20 78 153
20 79 153
20 80 153
20 81 153
20 82 153
20 83 153
20 84 153
20 85 153
20 86 153
20 87 153
20 88 153
20 89 153
20 90 153
20 91 153
20 92 153
20 93 153
20 94 153
20 95 153
20 96 153
20 97 153
20 98 153
20 99 153
20 100 153
20 101 153
20 102 153
20 103 153
20 104 153
20 105 153
20 106 153
20 107 153
20 108 153
20 109 153
20 110 153
20 111 153
20 112 153
20 113 153
20 114 153
20 115 153
20 116 153
20 117 153
20 118 153
20 119 153
20 120 153
20 121 153
20 122 153
20 123 153
20 124 153
20 125 153
20 126 153
20 127 153
20 128 153
20 129 153
20 130 153
20 131 153
20 132 153
20 133 153
20 134 153
20 135 153
20 136 153
20 137 153
20 138 153
20 139 153
20 140 153
20 141 153
20 142 153
20 143 153
20 144 153
20 145 153
20 146 153
20 147 153
20 148 153
20 149 153
20 150 153
20 151 153
20 152 153
20 153 153
20 154 153
20 155 153
20 156 153
20 157 153
20 158 153
20 159 153
20 160 153
20 161 153
20 162 153
20 163 153
20 164 153
20 165 153
20 166 153
20 167 153
20 168 153
20 169 153
20 170 153
20 171 153
20 172 153
20 173 153
20 174 153
20 175 153
20 176 153
20 177 153
20 178 153
20 179 153
20 180 153
20 181 153
20 182 153
20 183 153
20 184 153
20 185 153
20 186 153
20 187 153
20 188 153
20 189 153
20 190 153
20 191 153
20 192 153
20 193 153
20 194 153
20 195 153
20 196 153
20 197 153
20 198 153
20 199 153
20 200 153
20 201 153
20 202 153
20 203 153
20 204 153
20 205 153
20 206 153
20 207 153
20 208 153
20 209 153
20 210 153
20 211 153
20 212 153
20 213 153
20 214 153
20 215 153
20 216 153
20 217 153
20 218 153
20 219 153
20 220 153
20 221 153
20 222 153
20 223 153
20 224 153
20 225 153
20 226 153
20 227 153
20 228 153
20 229 153
20 230 153
20 231 153
20 232 153
20 233 153
20 234 153
20 235 153
20 236 153
20 237 153
20 238 153
20 239 153
20 240 153
20 241 153
20 242 153
20 243 153
20 244 153
20 245 153
20 246 153
20 247 153
20 248 153
20 249 153
20 250 153
20 251 153
20 252 153
20 253 153
20 254 153
20 255 153
21 0 153
21 1 153
21 2 153
21 3 153
21 4 153
21 5 153
21 6 153
21 7 153
21 8 153
21 9 153
21 10 153
21 11 153
21 12 153
21 13 153
21 14 153
21 15 153
21 16 153
21 17 153
21 18 153
21 19 153
21 20 153
21 21 153
21 22 153
21 23 153
21 24 153
21 25 153
21 26 153
21 27 153
21 28 153
21 29 153
21 30 153
21 31 153
21 32 153
21 33 153
21 34 153
21 35 153
21 36 153
21 37 153
21 38 153
21 39 153
21 40 153
21 41 153
21 42 153
21 43 153
21 44 153
21 45 153
21 46 153
21 47 153
21 48 153
21 49 153
21 50 153
21 51 153
21 52 153
21 53 153
21 54 153
21 55 153
21 56 153
21 57 153
21 58 153
21 59 153
21 60 153
21 61 153
21 62 153
21 63 153
21 64 153
21 65 153
21 66 153
21 67 153
21 68 153
21 69 153
21 70 153
21 71 153
21 72 153
21 73 153
21 74 153
21 75 153
21 76 153
21 77 153
21 78 153
21 79 153
21 80 153
21 81 153
21 82 153
21 83 153
21 84 153
21 85 153
21 86 153
21 87 153
21 88 153
21 89 153
21 90 153
21 91 153
21 92 153
21 93 153
21 94 153
21 95 153
21 96 153
21 97 153
21 98 153
21 99 153
21 100 153
21 101 153
21 102 153
21 103 153
21 104 153
21 105 153
21 106 153
21 107 153
21 108 153
21 109 153
21 110 153
21 111 153
21 112 153
21 113 153
21 114 153
21 115 153
21 116 153
21 117 153
21 118 153
21 119 153
21 120 153
21 121 153
21 122 153
21 123 153
21 124 153
21 125 153
21 126 153
21 127 153
21 128 153
21 129 153
21 130 153
21 131 153
21 132 153
21 133 153
21 134 153
21 135 153
21 136 153
21 137 153
21 138 153
21 139 153
21 140 153
21 141 153
21 142 153
21 143 153
21 144 153
21 145 153
21 146 153
21 147 153
21 148 153
21 149 153
21 150 153
21 151 153
21 152 153
21 153 153
21 154 153
21 155 153
21 156 153
21 157 153
21 158 153
21 159 153
21 160 153
21 161 153
21 162 153
21 163 153
21 164 153
21 165 153
21 166 153
21 167 153
21 168 153
21 169 153
21 170 153
21 171 153
21 172 153
21 173 153
21 174 153
21 175 153
21 176 153
21 177 153
21 178 153
21 179 153
21 180 153
21 181 153
21 182 153
21 183 153
21 184 153
21 185 153
21 186 153
21 187 153
21 188 153
21 189 153
21 190 153
21 191 153
21 192 153
21 193 153
21 194 153
21 195 153
21 196 153
21 197 153
21 198 153
21 199 153
21 200 153
21 201 153
21 202 153
21 203 153
21 204 153
21 205 153
21 206 153
21 207 153
21 208 153
21 209 153
21 210 153
21 211 153
21 212 153
21 213 153
21 214 153
21 215 153
21 216 153
21 217 153
21 218 153
21 219 153
21 220 153
21 221 153
21 222 153
21 223 153
21 224 153
21 225 153
21 226 153
21 227 153
21 228 153
21 229 153
21 230 153
21 231 153
21 232 153
21 233 153
21 234 153
21 235 153
21 236 153
21 237 153
21 238 153
21 239 153
21 240 153
21 241 153
21 242 153
21 243 153
21 244 153
21 245 153
21 246 153
21 247 153
21 248 153
21 249 153
21 250 153
21 251 153
21 252 153
21 253 153
21 254 153
21 255 153
22 0 153
22 1 153
22 2 153
22 3 153
22 4 153
22 5 153
22 6 153
22 7 153
22 8 153
22 9 153
22 10 153
22 11 153
22 12 153
22 13 153
22 14 153
22 15 153
22 16 153
22 17 153
22 18 153
22 19 153
22 20 153
22 21 153
22 22 153
22 23 153
22 24 153
22 25 153
22 26 153
22 27 153
22 28 153
22 29 153
22 30 153
22 31 153
22 32 153
22 33 153
22 34 153
22 35 153
22 36 153
22 37 153
22 38 153
22 39 153
22 40 153
22 41 153
22 42 153
22 43 153
22 44 153
22 45 153
22 46 153
22 47 153
22 48 153
22 49 153
22 50 153
22 51 153
22 52 153
22 53 153
22 54 153
22 55 153
22 56 153
22 57 153
22 58 153
22 59 153
22 60 153
22 61 153
22 62 153
22 63 153
22 64 153
22 65 153
22 66 153
22 67 153
22 68 153
22 69 153
22 70 153
22 71 153
22 72 153
22 73 153
22 74 153
22 75 153
22 76 153
22 77 153
22 78 153
22 79 153
22 80 153
22 81 153
22 82 153
22 83 153
22 84 153
22 85 153
22 86 153
22 87 153
22 88 153
22 89 153
22 90 153
22 91 153
22 92 153
22 93 153
22 94 153
22 95 153
22 96 153
22 97 153
22 98 153
22 99 153
22 100 153
22 101 153
22 102 153
22 103 153
22 104 153
22 105 153
22 106 153
22 107 153
22 108 153
22 109 153
22 110 153
22 111 153
22 112 153
22 113 153
22 114 153
22 115 153
22 116 153
22 117 153
22 118 153
22 119 153
22 120 153
22 121 153
22 122 153
22 123 153
22 124 153
22 125 153
22 126 153
22 127 153
22 128 153
22 129 153
22 130 153
22 131 153
22 132 153
22 133 153
22 134 153
22 135 153
22 136 153
22 137 153
22 138 153
22 139 153
22 140 153
22 141 153
22 142 153
22 143 153
22 144 153
22 145 153
22 146 153
22 147 153
22 148 153
22 149 153
22 150 153
22 151 153
22 152 153
22 153 153
22 154 153
22 155 153
22 156 153
22 157 153
22 158 153
22 159 153
22 160 153
22 161 153
22 162 153
22 163 153
22 164 153
22 165 153
22 166 153
22 167 153
22 168 153
22 169 153
22 170 153
22 171 153
22 172 153
22 173 153
22 174 153
22 175 153
22 176 153
22 177 153
22 178 153
22 179 153
22 180 153
22 181 153
22 182 153
22 183 153
22 184 153
22 185 153
22 186 153
22 187 153
22 188 153
22 189 153
22 190 153
22 191 153
22 192 153
22 193 153
22 194 153
22 195 153
22 196 153
22 197 153
22 198 153
22 199 153
22 200 153
22 201 153
22 202 153
22 203 153
22 204 153
22 205 153
22 206 153
22 207 153
22 208 153
22 209 153
22 210 153
22 211 153
22 212 153
22 213 153
22 214 153
22 215 153
22 216 153
22 217 153
22 218 153
22 219 153
22 220 153
22 221 153
22 222 153
22 223 153
22 224 153
22 225 153
22 226 153
22 227 153
22 228 153
22 229 153
22 230 153
22 231 153
22 232 153
22 233 153
22 234 153
22 235 153
22 236 153
22 237 153
22 238 153
22 239 153
22 240 153
22 241 153
22 242 153
22 243 153
22 244 153
22 245 153
22 246 153
22 247 153
22 248 153
22 249 153
22 250 153
22 251 153
22 252 153
22 253 153
22 254 153
22 255 153
23 0 153
23 1 153
23 2 153
23 3 153
23 4 153
23 5 153
23 6 153
23 7 153
23 8 153
23 9 153
23 10 153
23 11 153
23 12 153
23 13 153
23 14 153
23 15 153
23 16 153
23 17 153
23 18 153
23 19 153
23 20 153
23 21 153
23 22 153
23 23 153
23 24 153
23 25 153
23 26 153
23 27 153
23 28 153
23 29 153
23 30 153
23 31 153
23 32 153
23 33 153
23 34 153
23 35 153
23 36 153
23 37 153
23 38 153
23 39 153
23 40 153
23 41 153
23 42 153
23 43 153
23 44 153
23 45 153
23 46 153
23 47 153
23 48 153
23 49 153
23 50 153
23 51 153
23 52 153
23 53 153
23 54 153
23 55 153
23 56 153
23 57 153
23 58 153
23 59 153
23 60 153
23 61 153
23 62 153
23 63 153
23 64 153
23 65 153
23 66 153
23 67 153
23 68 153
23 69 153
23 70 153
23 71 153
23 72 153
23 73 153
23 74 153
23 75 153
23 76 153
23 77 153
23 78 153
23 79 153
23 80 153
23 81 153
23 82 153
23 83 153
23 84 153
23 85 153
23 86 153
23 87 153
23 88 153
23 89 153
23 90 153
23 91 153
23 92 153
23 93 153
23 94 153
23 95 153
23 96 153
23 97 153
23 98 153
23 99 153
23 100 153
23 101 153
23 102 153
23 103 153
23 104 153
23 105 153
23 106 153
23 107 153
23 108 153
23 109 153
23 110 153
23 111 153
23 112 153
23 113 153
23 114 153
23 115 153
23 116 153
23 117 153
23 118 153
23 119 153
23 120 153
23 121 153
23 122 153
23 123 153
23 124 153
23 125 153
23 126 153
23 127 153
23 128 153
23 129 153
23 130 153
23 131 153
23 132 153
23 133 153
23 134 153
23 135 153
23 136 153
23 137 153
23 138 153
23 139 153
23 140 153
23 141 153
23 142 153
23 143 153
23 144 153
23 145 153
23 146 153
23 147 153
23 148 153
23 149 153
23 150 153
23 151 153
23 152 153
23 153 153
23 154 153
23 155 153
23 156 153
23 157 153
23 158 153
23 159 153
23 160 153
23 161 153
23 162 153
23 163 153
23 164 153
23 165 153
23 166 153
23 167 153
23 168 153
23 169 153
23 170 153
23 171 153
23 172 153
23 173 153
23 174 153
23 175 153
23 176 153
23 177 153
23 178 153
23 179 153
23 180 153
23 181 153
23 182 153
23 183 153
23 184 153
23 185 153
23 186 153
23 187 153
23 188 153
23 189 153
23 190 153
23 191 153
23 192 153
23 193 153
23 194 153
23 195 153
23 196 153
23 197 153
23 198 153
23 199 153
23 200 153
23 201 153
23 202 153
23 203 153
23 204 153
23 205 153
23 206 153
23 207 153
23 208 153
23 209 153
23 210 153
23 211 153
23 212 153
23 213 153
23 214 153
23 215 153
23 216 153
23 217 153
23 218 153
23 219 153
23 220 153
23 221 153
23 222 153
23 223 153
23 224 153
23 225 153
23 226 153
23 227 153
23 228 153
23 229 153
23 230 153
23 231 153
23 232 153
23 233 153
23 234 153
23 235 153
23 236 153
23 237 153
23 238 153
23 239 153
23 240 153
23 241 153
23 242 153
23 243 153
23 244 153
23 245 153
23 246 153
23 247 153
23 248 153
23 249 153
23 250 153
23 251 153
23 252 153
23 253 153
23 254 153
23 255 153
24 0 153
24 1 153
24 2 153
24 3 153
24 4 153
24 5 153
24 6 153
24 7 153
24 8 153
24 9 153
24 10 153
24 11 153
24 12 153
24 13 153
24 14 153
24 15 153
24 16 153
24 17 153
24 18 153
24 19 153
24 20 153
24 21 153
24 22 153
24 23 153
24 24 153
24 25 153
24 26 153
24 27 153
24 28 153
24 29 153
24 30 153
24 31 153
24 32 153
24 33 153
24 34 153
24 35 153
24 36 153
24 37 153
24 38 153
24 39 153
24 40 153
24 41 153
24 42 153
24 43 153
24 44 153
24 45 153
24 46 153
24 47 153
24 48 153
24 49 153
24 50 153
24 51 153
24 52 153
24 53 153
24 54 153
24 55 153
24 56 153
24 57 153
24 58 153
24 59 153
24 60 153
24 61 153
24 62 153
24 63 153
24 64 153
24 65 153
24 66 153
24 67 153
24 68 153
24 69 153
24 70 153
24 71 153
24 72 153
24 73 153
24 74 153
24 75 153
24 76 153
24 77 153
24 78 153
24 79 153
24 80 153
24 81 153
24 82 153
24 83 153
24 84 153
24 85 153
24 86 153
24 87 153
24 88 153
24 89 153
24 90 153
24 91 153
24 92 153
24 93 153
24 94 153
24 95 153
24 96 153
24 97 153
24 98 153
24 99 153
24 100 153
24 101 153
24 102 153
24 103 153
24 104 153
24 105 153
24 106 153
24 107 153
24 108 153
24 109 153
24 110 153
24 111 153
24 112 153
24 113 153
24 114 153
24 115 153
24 116 153
24 117 153
24 118 153
24 119 153
24 120 153
24 121 153
24 122 153
24 123 153
24 124 153
24 125 153
24 126 153
24 127 153
24 128 153
24 129 153
24 130 153
24 131 153
24 132 153
24 133 153
24 134 153
24 135 153
24 136 153
24 137 153
24 138 153
24 139 153
24 140 153
24 141 153
24 142 153
24 143 153
24 144 153
24 145 153
24 146 153
24 147 153
24 148 153
24 149 153
24 150 153
24 151 153
24 152 153
24 153 153
24 154 153
24 155 153
24 156 153
24 157 153
24 158 153
24 159 153
24 160 153
24 161 153
24 162 153
24 163 153
24 164 153
24 165 153
24 166 153
24 167 153
24 168 153
24 169 153
24 170 153
24 171 153
24 172 153
24 173 153
24 174 153
24 175 153
24 176 153
24 177 153
24 178 153
24 179 153
24 180 153
24 181 153
24 182 153
24 183 153
24 184 153
24 185 153
24 186 153
24 187 153
24 188 153
24 189 153
24 190 153
24 191 153
24 192 153
24 193 153
24 194 153
24 195 153
24 196 153
24 197 153
24 198 153
24 199 153
24 200 153
24 201 153
24 202 153
24 203 153
24 204 153
24 205 153
24 206 153
24 207 153
24 208 153
24 209 153
24 210 153
24 211 153
24 212 153
24 213 153
24 214 153
24 215 153
24 216 153
24 217 153
24 218 153
24 219 153
24 220 153
24 221 153
24 222 153
24 223 153
24 224 153
24 225 153
24 226 153
24 227 153
24 228 153
24 229 153
24 230 153
24 231 153
24 232 153
24 233 153
24 234 153
24 235 153
24 236 153
24 237 153
24 238 153
24 239 153
24 240 153
24 241 153
24 242 153
24 243 153
24 244 153
24 245 153
24 246 153
24 247 153
24 248 153
24 249 153
24 250 153
24 251 153
24 252 153
24 253 153
24 254 153
24 255 153
25 0 153
25 1 153
25 2 153
25 3 153
25 4 153
25 5 153
25 6 153
25 7 153
25 8 153
25 9 153
25 10 153
25 11 153
25 12 153
25 13 153
25 14 153
25 15 153
25 16 153
25 17 153
25 18 153
25 19 153
25 20 153
25 21 153
25 22 153
25 23 153
25 24 153
25 25 153
25 26 153
25 27 153
25 28 153
25 29 153
25 30 153
25 31 153
25 32 153
25 33 153
25 34 153
25 35 153
25 36 153
25 37 153
25 38 153
25 39 153
25 40 153
25 41 153
25 42 153
25 43 153
25 44 153
25 45 153
25 46 153
25 47 153
25 48 153
25 49 153
25 50 153
25 51 153
25 52 153
25 53 153
25 54 153
25 55 153
25 56 153
25 57 153
25 58 153
25 59 153
25 60 153
25 61 153
25 62 153
25 63 153
25 64 153
25 65 153
25 66 153
25 67 153
25 68 153
25 69 153
25 70 153
25 71 153
25 72 153
25 73 153
25 74 153
25 75 153
25 76 153
25 77 153
25 78 153
25 79 153
25 80 153
25 81 153
25 82 153
25 83 153
25 84 153
25 85 153
25 86 153
25 87 153
25 88 153
25 89 153
25 90 153
25 91 153
25 92 153
25 93 153
25 94 153
25 95 153
25 96 153
25 97 153
25 98 153
25 99 153
25 100 153
25 101 153
25 102 153
25 103 153
25 104 153
25 105 153
25 106 153
25 107 153
25 108 153
25 109 153
25 110 153
25 111 153
25 112 153
25 113 153
25 114 153
25 115 153
25 116 153
25 117 153
25 118 153
25 119 153
25 120 153
25 121 153
25 122 153
25 123 153
25 124 153
25 125 153
25 126 153
25 127 153
25 128 153
25 129 153
25 130 153
25 131 153
25 132 153
25 133 153
25 134 153
25 135 153
25 136 153
25 137 153
25 138 153
25 139 153
25 140 153
25 141 153
25 142 153
25 143 153
25 144 153
25 145 153
25 146 153
25 147 153
25 148 153
25 149 153
25 150 153
25 151 153
25 152 153
25 153 153
25 154 153
25 155 153
25 156 153
25 157 153
25 158 153
25 159 153
25 160 153
25 161 153
25 162 153
25 163 153
25 164 153
25 165 153
25 166 153
25 167 153
25 168 153
25 169 153
25 170 153
25 171 153
25 172 153
25 173 153
25 174 153
25 175 153
25 176 153
25 177 153
25 178 153
25 179 153
25 180 153
25 181 153
25 182 153
25 183 153
25 184 153
25 185 153
25 186 153
25 187 153
25 188 153
25 189 153
25 190 153
25 191 153
25 192 153
25 193 153
25 194 153
25 195 153
25 196 153
25 197 153
25 198 153
25 199 153
25 200 153
25 201 153
25 202 153
25 203 153
25 204 153
25 205 153
25 206 153
25 207 153
25 208 153
25 209 153
25 210 153
25 211 153
25 212 153
25 213 153
25 214 153
25 215 153
25 216 153
25 217 153
25 218 153
25 219 153
25 220 153
25 221 153
25 222 153
25 223 153
25 224 153
25 225 153
25 226 153
25 227 153
25 228 153
25 229 153
25 230 153
25 231 153
25 232 153
25 233 153
25 234 153
25 235 153
25 236 153
25 237 153
25 238 153
25 239 153
25 240 153
25 241 153
25 242 153
25 243 153
25 244 153
25 245 153
25 246 153
25 247 153
25 248 153
25 249 153
25 250 153
25 251 153
25 252 153
25 253 153
25 254 153
25 255 153
26 0 153
26 1 153
26 2 153
26 3 153
26 4 153
26 5 153
26 6 153
26 7 153
26 8 153
26 9 153
26 10 153
26 11 153
26 12 153
26 13 153
26 14 153
26 15 153
26 16 153
26 17 153
26 18 153
26 19 153
26 20 153
26 21 153
26 22 153
26 23 153
26 24 153
26 25 153
26 26 153
26 27 153
26 28 153
26 29 153
26 30 153
26 31 153
26 32 153
26 33 153
26 34 153
26 35 153
26 36 153
26 37 153
26 38 153
26 39 153
26 40 153
26 41 153
26 42 153
26 43 153
26 44 153
26 45 153
26 46 153
26 47 153
26 48 153
26 49 153
26 50 153
26 51 153
26 52 153
26 53 153
26 54 153
26 55 153
26 56 153
26 57 153
26 58 153
26 59 153
26 60 153
26 61 153
26 62 153
26 63 153
26 64 153
26 65 153
26 66 153
26 67 153
26 68 153
26 69 153
26 70 153
26 71 153
26 72 153
26 73 153
26 74 153
26 75 153
26 76 153
26 77 153
26 78 153
26 79 153
26 80 153
26 81 153
26 82 153
26 83 153
26 84 153
26 85 153
26 86 153
26 87 153
26 88 153
26 89 153
26 90 153
26 91 153
26 92 153
26 93 153
26 94 153
26 95 153
26 96 153
26 97 153
26 98 153
26 99 153
26 100 153
26 101 153
26 102 153
26 103 153
26 104 153
26 105 153
26 106 153
26 107 153
26 108 153
26 109 153
26 110 153
26 111 153
26 112 153
26 113 153
26 114 153
26 115 153
26 116 153
26 117 153
26 118 153
26 119 153
26 120 153
26 121 153
26 122 153
26 123 153
26 124 153
26 125 153
26 126 153
26 127 153
26 128 153
26 129 153
26 130 153
26 131 153
26 132 153
26 133 153
26 134 153
26 135 153
26 136 153
26 137 153
26 138 153
26 139 153
26 140 153
26 141 153
26 142 153
26 143 153
26 144 153
26 145 153
26 146 153
26 147 153
26 148 153
26 149 153
26 150 153
26 151 153
26 152 153
26 153 153
26 154 153
26 155 153
26 156 153
26 157 153
26 158 153
26 159 153
26 160 153
26 161 153
26 162 153
26 163 153
26 164 153
26 165 153
26 166 153
26 167 153
26 168 153
26 169 153
26 170 153
26 171 153
26 172 153
26 173 153
26 174 153
26 175 153
26 176 153
26 177 153
26 178 153
26 179 153
26 180 153
26 181 153
26 182 153
26 183 153
26 184 153
26 185 153
26 186 153
26 187 153
26 188 153
26 189 153
26 190 153
26 191 153
26 192 153
26 193 153
26 194 153
26 195 153
26 196 153
26 197 153
26 198 153
26 199 153
26 200 153
26 201 153
26 202 153
26 203 153
26 204 153
26 205 153
26 206 153
26 207 153
26 208 153
26 209 153
26 210 153
26 211 153
26 212 153
26 213 153
26 214 153
26 215 153
26 216 153
26 217 153
26 218 153
26 219 153
26 220 153
26 221 153
26 222 153
26 223 153
26 224 153
26 225 153
26 226 153
26 227 153
26 228 153
26 229 153
26 230 153
26 231 153
26 232 153
26 233 153
26 234 153
26 235 153
26 236 153
26 237 153
26 238 153
26 239 153
26 240 153
26 241 153
26 242 153
26 243 153
26 244 153
26 245 153
26 246 153
26 247 153
26 248 153
26 249 153
26 250 153
26 251 153
26 252 153
26 253 153
26 254 153
26 255 153
27 0 153
27 1 153
27 2 153
27 3 153
27 4 153
27 5 153
27 6 153
27 7 153
27 8 153
27 9 153
27 10 153
27 11 153
27 12 153
27 13 153
27 14 153
27 15 153
27 16 153
27 17 153
27 18 153
27 19 153
27 20 153
27 21 153
27 22 153
27 23 153
27 24 153
27 25 153
27 26 153
27 27 153
27 28 153
27 29 153
27 30 153
27 31 153
27 32 153
27 33 153
27 34 153
27 35 153
27 36 153
27 37 153
27 38 153
27 39 153
27 40 153
27 41 153
27 42 153
27 43 153
27 44 153
27 45 153
27 46 153
27 47 153
27 48 153
27 49 153
27 50 153
27 51 153
27 52 153
27 53 153
27 54 153
27 55 153
27 56 153
27 57 153
27 58 153
27 59 153
27 60 153
27 61 153
27 62 153
27 63 153
27 64 153
27 65 153
27 66 153
27 67 153
27 68 153
27 69 153
27 70 153
27 71 153
27 72 153
27 73 153
27 74 153
27 75 153
27 76 153
27 77 153
27 78 153
27 79 153
27 80 153
27 81 153
27 82 153
27 83 153
27 84 153
27 85 153
27 86 153
27 87 153
27 88 153
27 89 153
27 90 153
27 91 153
27 92 153
27 93 153
27 94 153
27 95 153
27 96 153
27 97 153
27 98 153
27 99 153
27 100 153
27 101 153
27 102 153
27 103 153
27 104 153
27 105 153
27 106 153
27 107 153
27 108 153
27 109 153
27 110 153
27 111 153
27 112 153
27 113 153
27 114 153
27 115 153
27 116 153
27 117 153
27 118 153
27 119 153
27 120 153
27 121 153
27 122 153
27 123 153
27 124 153
27 125 153
27 126 153
27 127 153
27 128 153
27 129 153
27 130 153
27 131 153
27 132 153
27 133 153
27 134 153
27 135 153
27 136 153
27 137 153
27 138 153
27 139 153
27 140 153
27 141 153
27 142 153
27 143 153
27 144 153
27 145 153
27 146 153
27 147 153
27 148 153
27 149 153
27 150 153
27 151 153
27 152 153
27 153 153
27 154 153
27 155 153
27 156 153
27 157 153
27 158 153
27 159 153
27 160 153
27 161 153
27 162 153
27 163 153
27 164 153
27 165 153
27 166 153
27 167 153
27 168 153
27 169 153
27 170 153
27 171 153
27 172 153
27 173 153
27 174 153
27 175 153
27 176 153
27 177 153
27 178 153
27 179 153
27 180 153
27 181 153
27 182 153
27 183 153
27 184 153
27 185 153
27 186 153
27 187 153
27 188 153
27 189 153
27 190 153
27 191 153
27 192 153
27 193 153
27 194 153
27 195 153
27 196 153
27 197 153
27 198 153
27 199 153
27 200 153
27 201 153
27 202 153
27 203 153
27 204 153
27 205 153
27 206 153
27 207 153
27 208 153
27 209 153
27 210 153
27 211 153
27 212 153
27 213 153
27 214 153
27 215 153
27 216 153
27 217 153
27 218 153
27 219 153
27 220 153
27 221 153
27 222 153
27 223 153
27 224 153
27 225 153
27 226 153
27 227 153
27 228 153
27 229 153
27 230 153
27 231 153
27 232 153
27 233 153
27 234 153
27 235 153
27 236 153
27 237 153
27 238 153
27 239 153
27 240 153
27 241 153
27 242 153
27 243 153
27 244 153
27 245 153
27 246 153
27 247 153
27 248 153
27 249 153
27 250 153
27 251 153
27 252 153
27 253 153
27 254 153
27 255 153
28 0 153
28 1 153
28 2 153
28 3 153
28 4 153
28 5 153
28 6 153
28 7 153
28 8 153
28 9 153
28 10 153
28 11 153
28 12 153
28 13 153
28 14 153
28 15 153
28 16 153
28 17 153
28 18 153
28 19 153
28 20 153
28 21 153
28 22 153
28 23 153
28 24 153
28 25 153
28 26 153
28 27 153
28 28 153
28 29 153
28 30 153
28 31 153
28 32 153
28 33 153
28 34 153
28 35 153
28 36 153
28 37 153
28 38 153
28 39 153
28 40 153
28 41 153
28 42 153
28 43 153
28 44 153
28 45 153
28 46 153
28 47 153
28 48 153
28 49 153
28 50 153
28 51 153
28 52 153
28 53 153
28 54 153
28 55 153
28 56 153
28 57 153
28 58 153
28 59 153
28 60 153
28 61 153
28 62 153
28 63 153
28 64 153
28 65 153
28 66 153
28 67 153
28 68 153
28 69 153
28 70 153
28 71 153
28 72 153
28 73 153
28 74 153
28 75 153
28 76 153
28 77 153
28 78 153
28 79 153
28 80 153
28 81 153
28 82 153
28 83 153
28 84 153
28 85 153
28 86 153
28 87 153
28 88 153
28 89 153
28 90 153
28 91 153
28 92 153
28 93 153
28 94 153
28 95 153
28 96 153
28 97 153
28 98 153
28 99 153
28 100 153
28 101 153
28 102 153
28 103 153
28 104 153
28 105 153
28 106 153
28 107 153
28 108 153
28 109 153
28 110 153
28 111 153
28 112 153
28 113 153
28 114 153
28 115 153
28 116 153
28 117 153
28 118 153
28 119 153
28 120 153
28 121 153
28 122 153
28 123 153
28 124 153
28 125 153
28 126 153
28 127 153
28 128 153
28 129 153
28 130 153
28 131 153
28 132 153
28 133 153
28 134 153
28 135 153
28 136 153
28 137 153
28 138 153
28 139 153
28 140 153
28 141 153
28 142 153
28 143 153
28 144 153
28 145 153
28 146 153
28 147 153
28 148 153
28 149 153
28 150 153
28 151 153
28 152 153
28 153 153
28 154 153
28 155 153
28 156 153
28 157 153
28 158 153
28 159 153
28 160 153
28 161 153
28 162 153
28 163 153
28 164 153
28 165 153
28 166 153
28 167 153
28 168 153
28 169 153
28 170 153
28 171 153
28 172 153
28 173 153
28 174 153
28 175 153
28 176 153
28 177 153
28 178 153
28 179 153
28 180 153
28 181 153
28 182 153
28 183 153
28 184 153
28 185 153
28 186 153
28 187 153
28 188 153
28 189 153
28 190 153
28 191 153
28 192 153
28 193 153
28 194 153
28 195 153
28 196 153
28 197 153
28 198 153
28 199 153
28 200 153
28 201 153
28 202 153
28 203 153
28 204 153
28 205 153
28 206 153
28 207 153
28 208 153
28 209 153
28 210 153
28 211 153
28 212 153
28 213 153
28 214 153
28 215 153
28 216 153
28 217 153
28 218 153
28 219 153
28 220 153
28 221 153
28 222 153
28 223 153
28 224 153
28 225 153
28 226 153
28 227 153
28 228 153
28 229 153
28 230 153
28 231 153
28 232 153
28 233 153
28 234 153
28 235 153
28 236 153
28 237 153
28 238 153
28 239 153
28 240 153
28 241 153
28 242 153
28 243 153
28 244 153
28 245 153
28 246 153
28 247 153
28 248 153
28 249 153
28 250 153
28 251 153
28 252 153
28 253 153
28 254 153
28 255 153
29 0 153
29 1 153
29 2 153
29 3 153
29 4 153
29 5 153
29 6 153
29 7 153
29 8 153
29 9 153
29 10 153
29 11 153
29 12 153
29 13 153
29 14 153
29 15 153
29 16 153
29 17 153
29 18 153
29 19 153
29 20 153
29 21 153
29 22 153
29 23 153
29 24 153
29 25 153
29 26 153
29 27 153
29 28 153
29 29 153
29 30 153
29 31 153
29 32 153
29 33 153
29 34 153
29 35 153
29 36 153
29 37 153
29 38 153
29 39 153
29 40 153
29 41 153
29 42 153
29 43 153
29 44 153
29 45 153
29 46 153
29 47 153
29 48 153
29 49 153
29 50 153
29 51 153
29 52 153
29 53 153
29 54 153
29 55 153
29 56 153
29 57 153
29 58 153
29 59 153
29 60 153
29 61 153
29 62 153
29 63 153
29 64 153
29 65 153
29 66 153
29 67 153
29 68 153
29 69 153
29 70 153
29 71 153
29 72 153
29 73 153
29 74 153
29 75 153
29 76 153
29 77 153
29 78 153
29 79 153
29 80 153
29 81 153
29 82 153
29 83 153
29 84 153
29 85 153
29 86 153
29 87 153
29 88 153
29 89 153
29 90 153
29 91 153
29 92 153
29 93 153
29 94 153
29 95 153
29 96 153
29 97 153
29 98 153
29 99 153
29 100 153
29 101 153
29 102 153
29 103 153
29 104 153
29 105 153
29 106 153
29 107 153
29 108 153
29 109 153
29 110 153
29 111 153
29 112 153
29 113 153
29 114 153
29 115 153
29 116 153
29 117 153
29 118 153
29 119 153
29 120 153
29 121 153
29 122 153
29 123 153
29 124 153
29 125 153
29 126 153
29 127 153
29 128 153
29 129 153
29 130 153
29 131 153
29 132 153
29 133 153
29 134 153
29 135 153
29 136 153
29 137 153
29 138 153
29 139 153
29 140 153
29 141 153
29 142 153
29 143 153
29 144 153
29 145 153
29 146 153
29 147 153
29 148 153
29 149 153
29 150 153
29 151 153
29 152 153
29 153 153
29 154 153
29 155 153
29 156 153
29 157 153
29 158 153
29 159 153
29 160 153
29 161 153
29 162 153
29 163 153
29 164 153
29 165 153
29 166 153
29 167 153
29 168 153
29 169 153
29 170 153
29 171 153
29 172 153
29 173 153
29 174 153
29 175 153
29 176 153
29 177 153
29 178 153
29 179 153
29 180 153
29 181 153
29 182 153
29 183 153
29 184 153
29 185 153
29 186 153
29 187 153
29 188 153
29 189 153
29 190 153
29 191 153
29 192 153
29 193 153
29 194 153
29 195 153
29 196 153
29 197 153
29 198 153
29 199 153
29 200 153
29 201 153
29 202 153
29 203 153
29 204 153
29 205 153
29 206 153
29 207 153
29 208 153
29 209 153
29 210 153
29 211 153
29 212 153
29 213 153
29 214 153
29 215 153
29 216 153
29 217 153
29 218 153
29 219 153
29 220 153
29 221 153
29 222 153
29 223 153
29 224 153
29 225 153
29 226 153
29 227 153
29 228 153
29 229 153
29 230 153
29 231 153
29 232 153
29 233 153
29 234 153
29 235 153
29 236 153
29 237 153
29 238 153
29 239 153
29 240 153
29 241 153
29 242 153
29 243 153
29 244 153
29 245 153
29 246 153
29 247 153
29 248 153
29 249 153
29 250 153
29 251 153
29 252 153
29 253 153
29 254 153
29 255 153
30 0 153
30 1 153
30 2 153
30 3 153
30 4 153
30 5 153
30 6 153
30 7 153
30 8 153
30 9 153
30 10 153
30 11 153
30 12 153
30 13 153
30 14 153
30 15 153
30 16 153
30 17 153
30 18 153
30 19 153
30 20 153
30 21 153
30 22 153
30 23 153
30 24 153
30 25 153
30 26 153
30 27 153
30 28 153
30 29 153
30 30 153
30 31 153
30 32 153
30 33 153
30 34 153
30 35 153
30 36 153
30 37 153
30 38 153
30 39 153
30 40 153
30 41 153
30 42 153
30 43 153
30 44 153
30 45 153
30 46 153
30 47 153
30 48 153
30 49 153
30 50 153
30 51 153
30 52 153
30 53 153
30 54 153
30 55 153
30 56 153
30 57 153
30 58 153
30 59 153
30 60 153
30 61 153
30 62 153
30 63 153
30 64 153
30 65 153
30 66 153
30 67 153
30 68 153
30 69 153
30 70 153
30 71 153
30 72 153
30 73 153
30 74 153
30 75 153
30 76 153
30 77 153
30 78 153
30 79 153
30 80 153
30 81 153
30 82 153
30 83 153
30 84 153
30 85 153
30 86 153
30 87 153
30 88 153
30 89 153
30 90 153
30 91 153
30 92 153
30 93 153
30 94 153
30 95 153
30 96 153
30 97 153
30 98 153
30 99 153
30 100 153
30 101 153
30 102 153
30 103 153
30 104 153
30 105 153
30 106 153
30 107 153
30 108 153
30 109 153
30 110 153
30 111 153
30 112 153
30 113 153
30 114 153
30 115 153
30 116 153
30 117 153
30 118 153
30 119 153
30 120 153
30 121 153
30 122 153
30 123 153
30 124 153
30 125 153
30 126 153
30 127 153
30 128 153
30 129 153
30 130 153
30 131 153
30 132 153
30 133 153
30 134 153
30 135 153
30 136 153
30 137 153
30 138 153
30 139 153
30 140 153
30 141 153
30 142 153
30 143 153
30 144 153
30 145 153
30 146 153
30 147 153
30 148 153
30 149 153
30 150 153
30 151 153
30 152 153
30 153 153
30 154 153
30 155 153
30 156 153
30 157 153
30 158 153
30 159 153
30 160 153
30 161 153
30 162 153
30 163 153
30 164 153
30 165 153
30 166 153
30 167 153
30 168 153
30 169 153
30 170 153
30 171 153
30 172 153
30 173 153
30 174 153
30 175 153
30 176 153
30 177 153
30 178 153
30 179 153
30 180 153
30 181 153
30 182 153
30 183 153
30 184 153
30 185 153
30 186 153
30 187 153
30 188 153
30 189 153
30 190 153
30 191 153
30 192 153
30 193 153
30 194 153
30 195 153
30 196 153
30 197 153
30 198 153
30 199 153
30 200 153
30 201 153
30 202 153
30 203 153
30 204 153
30 205 153
30 206 153
30 207 153
30 208 153
30 209 153
30 210 153
30 211 153
30 212 153
30 213 153
30 214 153
30 215 153
30 216 153
30 217 153
30 218 153
30 219 153
30 220 153
30 221 153
30 222 153
30 223 153
30 224 153
30 225 153
30 226 153
30 227 153
30 228 153
30 229 153
30 230 153
30 231 153
30 232 153
30 233 153
30 234 153
30 235 153
30 236 153
30 237 153
30 238 153
30 239 153
30 240 153
30 241 153
30 242 153
30 243 153
30 244 153
30 245 153
30 246 153
30 247 153
30 248 153
30 249 153
30 250 153
30 251 153
30 252 153
30 253 153
30 254 153
30 255 153
31 0 153
31 1 153
31 2 153
31 3 153
31 4 153
31 5 153
31 6 153
31 7 153
31 8 153
31 9 153
31 10 153
31 11 153
31 12 153
31 13 153
31 14 153
31 15 153
31 16 153
31 17 153
31 18 153
31 19 153
31 20 153
31 21 153
31 22 153
31 23 153
31 24 153
31 25 153
31 26 153
31 27 153
31 28 153
31 29 153
31 30 153
31 31 153
31 32 153
31 33 153
31 34 153
31 35 153
31 36 153
31 37 153
31 38 153
31 39 153
31 40 153
31 41 153
31 42 153
31 43 153
31 44 153
31 45 153
31 46 153
31 47 153
31 48 153
31 49 153
31 50 153
31 51 153
31 52 153
31 53 153
31 54 153
31 55 153
31 56 153
31 57 153
31 58 153
31 59 153
31 60 153
31 61 153
31 62 153
31 63 153
31 64 153
31 65 153
31 66 153
31 67 153
31 68 153
31 69 153
31 70 153
31 71 153
31 72 153
31 73 153
31 74 153
31 75 153
31 76 153
31 77 153
31 78 153
31 79 153
31 80 153
31 81 153
31 82 153
31 83 153
31 84 153
31 85 153
31 86 153
31 87 153
31 88 153
31 89 153
31 90 153
31 91 153
31 92 153
31 93 153
31 94 153
31 95 153
31 96 153
31 97 153
31 98 153
31 99 153
31 100 153
31 101 153
31 102 153
31 103 153
31 104 153
31 105 153
31 106 153
31 107 153
31 108 153
31 109 153
31 110 153
31 111 153
31 112 153
31 113 153
31 114 153
31 115 153
31 116 153
31 117 153
31 118 153
31 119 153
31 120 153
31 121 153
31 122 153
31 123 153
31 124 153
31 125 153
31 126 153
31 127 153
31 128 153
31 129 153
31 130 153
31 131 153
31 132 153
31 133 153
31 134 153
31 135 153
31 136 153
31 137 153
31 138 153
31 139 153
31 140 153
31 141 153
31 142 153
31 143 153
31 144 153
31 145 153
31 146 153
31 147 153
31 148 153
31 149 153
31 150 153
31 151 153
31 152 153
31 153 153
31 154 153
31 155 153
31 156 153
31 157 153
31 158 153
31 159 153
31 160 153
31 161 153
31 162 153
31 163 153
31 164 153
31 165 153
31 166 153
31 167 153
31 168 153
31 169 153
31 170 153
31 171 153
31 172 153
31 173 153
31 174 153
31 175 153
31 176 153
31 177 153
31 178 153
31 179 153
31 180 153
31 181 153
31 182 153
31 183 153
31 184 153
31 185 153
31 186 153
31 187 153
31 188 153
31 189 153
31 190 153
31 191 153
31 192 153
31 193 153
31 194 153
31 195 153
31 196 153
31 197 153
31 198 153
31 199 153
31 200 153
31 201 153
31 202 153
31 203 153
31 204 153
31 205 153
31 206 153
31 207 153
31 208 153
31 209 153
31 210 153
31 211 153
31 212 153
31 213 153
31 214 153
31 215 153
31 216 153
31 217 153
31 218 153
31 219 153
31 220 153
31 221 153
31 222 153
31 223 153
31 224 153
31 225 153
31 226 153
31 227 153
31 228 153
31 229 153
31 230 153
31 231 153
31 232 153
31 233 153
31 234 153
31 235 153
31 236 153
31 237 153
31 238 153
31 239 153
31 240 153
31 241 153
31 242 153
31 243 153
31 244 153
31 245 153
31 246 153
31 247 153
31 248 153
31 249 153
31 250 153
31 251 153
31 252 153
31 253 153
31 254 153
31 255 153
32 0 153
32 1 153
32 2 153
32 3 153
32 4 153
32 5 153
32 6 153
32 7 153
32 8 153
32 9 153
32 10 153
32 11 153
32 12 153
32 13 153
32 14 153
32 15 153
32 16 153
32 17 153
32 18 153
32 19 153
32 20 153
32 21 153
32 22 153
32 23 153
32 24 153
32 25 153
32 26 153
32 27 153
32 28 153
32 29 153
32 30 153
32 31 153
32 32 153
32 33 153
32 34 153
32 35 153
32 36 153
32 37 153
32 38 153
32 39 153
32 40 153
32 41 153
32 42 153
32 43 153
32 44 153
32 45 153
32 46 153
32 47 153
32 48 153
32 49 153
32 50 153
32 51 153
32 52 153
32 53 153
32 54 153
32 55 153
32 56 153
32 57 153
32 58 153
32 59 153
32 60 153
32 61 153
32 62 153
32 63 153
32 64 153
32 65 153
32 66 153
32 67 153
32 68 153
32 69 153
32 70 153
32 71 153
32 72 153
32 73 153
32 74 153
32 75 153
32 76 153
32 77 153
32 78 153
32 79 153
32 80 153
32 81 153
32 82 153
32 83 153
32 84 153
32 85 153
32 86 153
32 87 153
32 88 153
32 89 153
32 90 153
32 91 153
32 92 153
32 93 153
32 94 153
32 95 153
32 96 153
32 97 153
32 98 153
32 99 153
32 100 153
32 101 153
32 102 153
32 103 153
32 104 153
32 105 153
32 106 153
32 107 153
32 108 153
32 109 153
32 110 153
32 111 153
32 112 153
32 113 153
32 114 153
32 115 153
32 116 153
32 117 153
32 118 153
32 119 153
32 120 153
32 121 153
32 122 153
32 123 153
32 124 153
32 125 153
32 126 153
32 127 153
32 128 153
32 129 153
32 130 153
32 131 153
32 132 153
32 133 153
32 134 153
32 135 153
32 136 153
32 137 153
32 138 153
32 139 153
32 140 153
32 141 153
32 142 153
32 143 153
32 144 153
32 145 153
32 146 153
32 147 153
32 148 153
32 149 153
32 150 153
32 151 153
32 152 153
32 153 153
32 154 153
32 155 153
32 156 153
32 157 153
32 158 153
32 159 153
32 160 153
32 161 153
32 162 153
32 163 153
32 164 153
32 165 153
32 166 153
32 167 153
32 168 153
32 169 153
32 170 153
32 171 153
32 172 153
32 173 153
32 174 153
32 175 153
32 176 153
32 177 153
32 178 153
32 179 153
32 180 153
32 181 153
32 182 153
32 183 153
32 184 153
32 185 153
32 186 153
32 187 153
32 188 153
32 189 153
32 190 153
32 191 153
32 192 153
32 193 153
32 194 153
32 195 153
32 196 153
32 197 153
32 198 153
32 199 153
32 200 153
32 201 153
32 202 153
32 203 153
32 204 153
32 205 153
32 206 153
32 207 153
32 208 153
32 209 153
32 210 153
32 211 153
32 212 153
32 213 153
32 214 153
32 215 153
32 216 153
32 217 153
32 218 153
32 219 153
32 220 153
32 221 153
32 222 153
32 223 153
32 224 153
32 225 153
32 226 153
32 227 153
32 228 153
32 229 153
32 230 153
32 231 153
32 232 153
32 233 153
32 234 153
32 235 153
32 236 153
32 237 153
32 238 153
32 239 153
32 240 153
32 241 153
32 242 153
32 243 153
32 244 153
32 245 153
32 246 153
32 247 153
32 248 153
32 249 153
32 250 153
32 251 153
32 252 153
32 253 153
32 254 153
32 255 153
33 0 153
33 1 153
33 2 153
33 3 153
33 4 153
33 5 153
33 6 153
33 7 153
33 8 153
33 9 153
33 10 153
33 11 153
33 12 153
33 13 153
33 14 153
33 15 153
33 16 153
33 17 153
33 18 153
33 19 153
33 20 153
33 21 153
33 22 153
33 23 153
33 24 153
33 25 153
33 26 153
33 27 153
33 28 153
33 29 153
33 30 153
33 31 153
33 32 153
33 33 153
33 34 153
33 35 153
33 36 153
33 37 153
33 38 153
33 39 153
33 40 153
33 41 153
33 42 153
33 43 153
33 44 153
33 45 153
33 46 153
33 47 153
33 48 153
33 49 153
33 50 153
33 51 153
33 52 153
33 53 153
33 54 153
33 55 153
33 56 153
33 57 153
33 58 153
33 59 153
33 60 153
33 61 153
33 62 153
33 63 153
33 64 153
33 65 153
33 66 153
33 67 153
33 68 153
33 69 153
33 70 153
33 71 153
33 72 153
33 73 153
33 74 153
33 75 153
33 76 153
33 77 153
33 78 153
33 79 153
33 80 153
33 81 153
33 82 153
33 83 153
33 84 153
33 85 153
33 86 153
33 87 153
33 88 153
33 89 153
33 90 153
33 91 153
33 92 153
33 93 153
33 94 153
33 95 153
33 96 153
33 97 153
33 98 153
33 99 153
33 100 153
33 101 153
33 102 153
33 103 153
33 104 153
33 105 153
33 106 153
33 107 153
33 108 153
33 109 153
33 110 153
33 111 153
33 112 153
33 113 153
33 114 153
33 115 153
33 116 153
33 117 153
33 118 153
33 119 153
33 120 153
33 121 153
33 122 153
33 123 153
33 124 153
33 125 153
33 126 153
33 127 153
33 128 153
33 129 153
33 130 153
33 131 153
33 132 153
33 133 153
33 134 153
33 135 153
33 136 153
33 137 153
33 138 153
33 139 153
33 140 153
33 141 153
33 142 153
33 143 153
33 144 153
33 145 153
33 146 153
33 147 153
33 148 153
33 149 153
33 150 153
33 151 153
33 152 153
33 153 153
33 154 153
33 155 153
33 156 153
33 157 153
33 158 153
33 159 153
33 160 153
33 161 153
33 162 153
33 163 153
33 164 153
33 165 153
33 166 153
33 167 153
33 168 153
33 169 153
33 170 153
33 171 153
33 172 153
33 173 153
33 174 153
33 175 153
33 176 153
33 177 153
33 178 153
33 179 153
33 180 153
33 181 153
33 182 153
33 183 153
33 184 153
33 185 153
33 186 153
33 187 153
33 188 153
33 189 153
33 190 153
33 191 153
33 192 153
33 193 153
33 194 153
33 195 153
33 196 153
33 197 153
33 198 153
33 199 153
33 200 153
33 201 153
33 202 153
33 203 153
33 204 153
33 205 153
33 206 153
33 207 153
33 208 153
33 209 153
33 210 153
33 211 153
33 212 153
33 213 153
33 214 153
33 215 153
33 216 153
33 217 153
33 218 153
33 219 153
33 220 153
33 221 153
33 222 153
33 223 153
33 224 153
33 225 153
33 226 153
33 227 153
33 228 153
33 229 153
33 230 153
33 231 153
33 232 153
33 233 153
33 234 153
33 235 153
33 236 153
33 237 153
33 238 153
33 239 153
33 240 153
33 241 153
33 242 153
33 243 153
33 244 153
33 245 153
33 246 153
33 247 153
33 248 153
33 249 153
33 250 153
33 251 153
33 252 153
33 253 153
33 254 153
33 255 153
34 0 153
34 1 153
34 2 153
34 3 153
34 4 153
34 5 153
34 6 153
34 7 153
34 8 153
34 9 153
34 10 153
34 11 153
34 12 153
34 13 153
34 14 153
34 15 153
34 16 153
34 17 153
34 18 153
34 19 153
34 20 153
34 21 153
34 22 153
34 23 153
34 24 153
34 25 153
34 26 153
34 27 153
34 28 153
34 29 153
34 30 153
34 31 153
34 32 153
34 33 153
34 34 153
34 35 153
34 36 153
34 37 153
34 38 153
34 39 153
34 40 153
34 41 153
34 42 153
34 43 153
34 44 153
34 45 153
34 46 153
34 47 153
34 48 153
34 49 153
34 50 153
34 51 153
34 52 153
34 53 153
34 54 153
34 55 153
34 56 153
34 57 153
34 58 153
34 59 153
34 60 153
34 61 153
34 62 153
34 63 153
34 64 153
34 65 153
34 66 153
34 67 153
34 68 153
34 69 153
34 70 153
34 71 153
34 72 153
34 73 153
34 74 153
34 75 153
34 76 153
34 77 153
34 78 153
34 79 153
34 80 153
34 81 153
34 82 153
34 83 153
34 84 153
34 85 153
34 86 153
34 87 153
34 88 153
34 89 153
34 90 153
34 91 153
34 92 153
34 93 153
34 94 153
34 95 153
34 96 153
34 97 153
34 98 153
34 99 153
34 100 153
34 101 153
34 102 153
34 103 153
34 104 153
34 105 153
34 106 153
34 107 153
34 108 153
34 109 153
34 110 153
34 111 153
34 112 153
34 113 153
34 114 153
34 115 153
34 116 153
34 117 153
34 118 153
34 119 153
34 120 153
34 121 153
34 122 153
34 123 153
34 124 153
34 125 153
34 126 153
34 127 153
34 128 153
34 129 153
34 130 153
34 131 153
34 132 153
34 133 153
34 134 153
34 135 153
34 136 153
34 137 153
34 138 153
34 139 153
34 140 153
34 141 153
34 142 153
34 143 153
34 144 153
34 145 153
34 146 153
34 147 153
34 148 153
34 149 153
34 150 153
34 151 153
34 152 153
34 153 153
34 154 153
34 155 153
34 156 153
34 157 153
34 158 153
34 159 153
34 160 153
34 161 153
34 162 153
34 163 153
34 164 153
34 165 153
34 166 153
34 167 153
34 168 153
34 169 153
34 170 153
34 171 153
34 172 153
34 173 153
34 174 153
34 175 153
34 176 153
34 177 153
34 178 153
34 179 153
34 180 153
34 181 153
34 182 153
34 183 153
34 184 153
34 185 153
34 186 153
34 187 153
34 188 153
34 189 153
34 190 153
34 191 153
34 192 153
34 193 153
34 194 153
34 195 153
34 196 153
34 197 153
34 198 153
34 199 153
34 200 153
34 201 153
34 202 153
34 203 153
34 204 153
34 205 153
34 206 153
34 207 153
34 208 153
34 209 153
34 210 153
34 211 153
34 212 153
34 213 153
34 214 153
34 215 153
34 216 153
34 217 153
34 218 153
34 219 153
34 220 153
34 221 153
34 222 153
34 223 153
34 224 153
34 225 153
34 226 153
34 227 153
34 228 153
34 229 153
34 230 153
34 231 153
34 232 153
34 233 153
34 234 153
34 235 153
34 236 153
34 237 153
34 238 153
34 239 153
34 240 153
34 241 153
34 242 153
34 243 153
34 244 153
34 245 153
34 246 153
34 247 153
34 248 153
34 249 153
34 250 153
34 251 153
34 252 153
34 253 153
34 254 153
34 255 153
35 0 153
35 1 153
35 2 153
35 3 153
35 4 153
35 5 153
35 6 153
35 7 153
35 8 153
35 9 153
35 10 153
35 11 153
35 12 153
35 13 153
35 14 153
35 15 153
35 16 153
35 17 153
35 18 153
35 19 153
35 20 153
35 21 153
35 22 153
35 23 153
35 24 153
35 25 153
35 26 153
35 27 153
35 28 153
35 29 153
35 30 153
35 31 153
35 32 153
35 33 153
35 34 153
35 35 153
35 36 153
35 37 153
35 38 153
35 39 153
35 40 153
35 41 153
35 42 153
35 43 153
35 44 153
35 45 153
35 46 153
35 47 153
35 48 153
35 49 153
35 50 153
35 51 153
35 52 153
35 53 153
35 54 153
35 55 153
35 56 153
35 57 153
35 58 153
35 59 153
35 60 153
35 61 153
35 62 153
35 63 153
35 64 153
35 65 153
35 66 153
35 67 153
35 68 153
35 69 153
35 70 153
35 71 153
35 72 153
35 73 153
35 74 153
35 75 153
35 76 153
35 77 153
35 78 153
35 79 153
35 80 153
35 81 153
35 82 153
35 83 153
35 84 153
35 85 153
35 86 153
35 87 153
35 88 153
35 89 153
35 90 153
35 91 153
35 92 153
35 93 153
35 94 153
35 95 153
35 96 153
35 97 153
35 98 153
35 99 153
35 100 153
35 101 153
35 102 153
35 103 153
35 104 153
35 105 153
35 106 153
35 107 153
35 108 153
35 109 153
35 110 153
35 111 153
35 112 153
35 113 153
35 114 153
35 115 153
35 116 153
35 117 153
35 118 153
35 119 153
35 120 153
35 121 153
35 122 153
35 123 153
35 124 153
35 125 153
35 126 153
35 127 153
35 128 153
35 129 153
35 130 153
35 131 153
35 132 153
35 133 153
35 134 153
35 135 153
35 136 153
35 137 153
35 138 153
35 139 153
35 140 153
35 141 153
35 142 153
35 143 153
35 144 153
35 145 153
35 146 153
35 147 153
35 148 153
35 149 153
35 150 153
35 151 153
35 152 153
35 153 153
35 154 153
35 155 153
35 156 153
35 157 153
35 158 153
35 159 153
35 160 153
35 161 153
35 162 153
35 163 153
35 164 153
35 165 153
35 166 153
35 167 153
35 168 153
35 169 153
35 170 153
35 171 153
35 172 153
35 173 153
35 174 153
35 175 153
35 176 153
35 177 153
35 178 153
35 179 153
35 180 153
35 181 153
35 182 153
35 183 153
35 184 153
35 185 153
35 186 153
35 187 153
35 188 153
35 189 153
35 190 153
35 191 153
35 192 153
35 193 153
35 194 153
35 195 153
35 196 153
35 197 153
35 198 153
35 199 153
35 200 153
35 201 153
35 202 153
35 203 153
35 204 153
35 205 153
35 206 153
35 207 153
35 208 153
35 209 153
35 210 153
35 211 153
35 212 153
35 213 153
35 214 153
35 215 153
35 216 153
35 217 153
35 218 153
35 219 153
35 220 153
35 221 153
35 222 153
35 223 153
35 224 153
35 225 153
35 226 153
35 227 153
35 228 153
35 229 153
35 230 153
35 231 153
35 232 153
35 233 153
35 234 153
35 235 153
35 236 153
35 237 153
35 238 153
35 239 153
35 240 153
35 241 153
35 242 153
35 243 153
35 244 153
35 245 153
35 246 153
35 247 153
35 248 153
35 249 153
35 250 153
35 251 153
35 252 153
35 253 153
35 254 153
35 255 153
36 0 153
36 1 153
36 2 153
36 3 153
36 4 153
36 5 153
36 6 153
36 7 153
36 8 153
36 9 153
36 10 153
36 11 153
36 12 153
36 13 153
36 14 153
36 15 153
36 16 153
36 17 153
36 18 153
36 19 153
36 20 153
36 21 153
36 22 153
36 23 153
36 24 153
36 25 153
36 26 153
36 27 153
36 28 153
36 29 153
36 30 153
36 31 153
36 32 153
36 33 153
36 34 153
36 35 153
36 36 153
36 37 153
36 38 153
36 39 153
36 40 153
36 41 153
36 42 153
36 43 153
36 44 153
36 45 153
36 46 153
36 47 153
36 48 153
36 49 153
36 50 153
36 51 153
36 52 153
36 53 153
36 54 153
36 55 153
36 56 153
36 57 153
36 58 153
36 59 153
36 60 153
36 61 153
36 62 153
36 63 153
36 64 153
36 65 153
36 66 153
36 67 153
36 68 153
36 69 153
36 70 153
36 71 153
36 72 153
36 73 153
36 74 153
36 75 153
36 76 153
36 77 153
36 78 153
36 79 153
36 80 153
36 81 153
36 82 153
36 83 153
36 84 153
36 85 153
36 86 153
36 87 153
36 88 153
36 89 153
36 90 153
36 91 153
36 92 153
36 93 153
36 94 153
36 95 153
36 96 153
36 97 153
36 98 153
36 99 153
36 100 153
36 101 153
36 102 153
36 103 153
36 104 153
36 105 153
36 106 153
36 107 153
36 108 153
36 109 153
36 110 153
36 111 153
36 112 153
36 113 153
36 114 153
36 115 153
36 116 153
36 117 153
36 118 153
36 119 153
36 120 153
36 121 153
36 122 153
36 123 153
36 124 153
36 125 153
36 126 153
36 127 153
36 128 153
36 129 153
36 130 153
36 131 153
36 132 153
36 133 153
36 134 153
36 135 153
36 136 153
36 137 153
36 138 153
36 139 153
36 140 153
36 141 153
36 142 153
36 143 153
36 144 153
36 145 153
36 146 153
36 147 153
36 148 153
36 149 153
36 150 153
36 151 153
36 152 153
36 153 153
36 154 153
36 155 153
36 156 153
36 157 153
36 158 153
36 159 153
36 160 153
36 161 153
36 162 153
36 163 153
36 164 153
36 165 153
36 166 153
36 167 153
36 168 153
36 169 153
36 170 153
36 171 153
36 172 153
36 173 153
36 174 153
36 175 153
36 176 153
36 177 153
36 178 153
36 179 153
36 180 153
36 181 153
36 182 153
36 183 153
36 184 153
36 185 153
36 186 153
36 187 153
36 188 153
36 189 153
36 190 153
36 191 153
36 192 153
36 193 153
36 194 153
36 195 153
36 196 153
36 197 153
36 198 153
36 199 153
36 200 153
36 201 153
36 202 153
36 203 153
36 204 153
36 205 153
36 206 153
36 207 153
36 208 153
36 209 153
36 210 153
36 211 153
36 212 153
36 213 153
36 214 153
36 215 153
36 216 153
36 217 153
36 218 153
36 219 153
36 220 153
36 221 153
36 222 153
36 223 153
36 224 153
36 225 153
36 226 153
36 227 153
36 228 153
36 229 153
36 230 153
36 231 153
36 232 153
36 233 153
36 234 153
36 235 153
36 236 153
36 237 153
36 238 153
36 239 153
36 240 153
36 241 153
36 242 153
36 243 153
36 244 153
36 245 153
36 246 153
36 247 153
36 248 153
36 249 153
36 250 153
36 251 153
36 252 153
36 253 153
36 254 153
36 255 153
37 0 153
37 1 153
37 2 153
37 3 153
37 4 153
37 5 153
37 6 153
37 7 153
37 8 153
37 9 153
37 10 153
37 11 153
37 12 153
37 13 153
37 14 153
37 15 153
37 16 153
37 17 153
37 18 153
37 19 153
37 20 153
37 21 153
37 22 153
37 23 153
37 24 153
37 25 153
37 26 153
37 27 153
37 28 153
37 29 153
37 30 153
37 31 153
37 32 153
37 33 153
37 34 153
37 35 153
37 36 153
37 37 153
37 38 153
37 39 153
37 40 153
37 41 153
37 42 153
37 43 153
37 44 153
37 45 153
37 46 153
37 47 153
37 48 153
37 49 153
37 50 153
37 51 153
37 52 153
37 53 153
37 54 153
37 55 153
37 56 153
37 57 153
37 58 153
37 59 153
37 60 153
37 61 153
37 62 153
37 63 153
37 64 153
37 65 153
37 66 153
37 67 153
37 68 153
37 69 153
37 70 153
37 71 153
37 72 153
37 73 153
37 74 153
37 75 153
37 76 153
37 77 153
37 78 153
37 79 153
37 80 153
37 81 153
37 82 153
37 83 153
37 84 153
37 85 153
37 86 153
37 87 153
37 88 153
37 89 153
37 90 153
37 91 153
37 92 153
37 93 153
37 94 153
37 95 153
37 96 153
37 97 153
37 98 153
37 99 153
37 100 153
37 101 153
37 102 153
37 103 153
37 104 153
37 105 153
37 106 153
37 107 153
37 108 153
37 109 153
37 110 153
37 111 153
37 112 153
37 113 153
37 114 153
37 115 153
37 116 153
37 117 153
37 118 153
37 119 153
37 120 153
37 121 153
37 122 153
37 123 153
37 124 153
37 125 153
37 126 153
37 127 153
37 128 153
37 129 153
37 130 153
37 131 153
37 132 153
37 133 153
37 134 153
37 135 153
37 136 153
37 137 153
37 138 153
37 139 153
37 140 153
37 141 153
37 142 153
37 143 153
37 144 153
37 145 153
37 146 153
37 147 153
37 148 153
37 149 153
37 150 153
37 151 153
37 152 153
37 153 153
37 154 153
37 155 153
37 156 153
37 157 153
37 158 153
37 159 153
37 160 153
37 161 153
37 162 153
37 163 153
37 164 153
37 165 153
37 166 153
37 167 153
37 168 153
37 169 153
37 170 153
37 171 153
37 172 153
37 173 153
37 174 153
37 175 153
37 176 153
37 177 153
37 178 153
37 179 153
37 180 153
37 181 153
37 182 153
37 183 153
37 184 153
37 185 153
37 186 153
37 187 153
37 188 153
37 189 153
37 190 153
37 191 153
37 192 153
37 193 153
37 194 153
37 195 153
37 196 153
37 197 153
37 198 153
37 199 153
37 200 153
37 201 153
37 202 153
37 203 153
37 204 153
37 205 153
37 206 153
37 207 153
37 208 153
37 209 153
37 210 153
37 211 153
37 212 153
37 213 153
37 214 153
37 215 153
37 216 153
37 217 153
37 218 153
37 219 153
37 220 153
37 221 153
37 222 153
37 223 153
37 224 153
37 225 153
37 226 153
37 227 153
37 228 153
37 229 153
37 230 153
37 231 153
37 232 153
37 233 153
37 234 153
37 235 153
37 236 153
37 237 153
37 238 153
37 239 153
37 240 153
37 241 153
37 242 153
37 243 153
37 244 153
37 245 153
37 246 153
37 247 153
37 248 153
37 249 153
37 250 153
37 251 153
37 252 153
37 253 153
37 254 153
37 255 153
38 0 153
38 1 153
38 2 153
38 3 153
38 4 153
38 5 153
38 6 153
38 7 153
38 8 153
38 9 153
38 10 153
38 11 153
38 12 153
38 13 153
38 14 153
38 15 153
38 16 153
38 17 153
38 18 153
38 19 153
38 20 153
38 21 153
38 22 153
38 23 153
38 24 153
38 25 153
38 26 153
38 27 153
38 28 153
38 29 153
38 30 153
38 31 153
38 32 153
38 33 153
38 34 153
38 35 153
38 36 153
38 37 153
38 38 153
38 39 153
38 40 153
38 41 153
38 42 153
38 43 153
38 44 153
38 45 153
38 46 153
38 47 153
38 48 153
38 49 153
38 50 153
38 51 153
38 52 153
38 53 153
38 54 153
38 55 153
38 56 153
38 57 153
38 58 153
38 59 153
38 60 153
38 61 153
38 62 153
38 63 153
38 64 153
38 65 153
38 66 153
38 67 153
38 68 153
38 69 153
38 70 153
38 71 153
38 72 153
38 73 153
38 74 153
38 75 153
38 76 153
38 77 153
38 78 153
38 79 153
38 80 153
38 81 153
38 82 153
38 83 153
38 84 153
38 85 153
38 86 153
38 87 153
38 88 153
38 89 153
38 90 153
38 91 153
38 92 153
38 93 153
38 94 153
38 95 153
38 96 153
38 97 153
38 98 153
38 99 153
38 100 153
38 101 153
38 102 153
38 103 153
38 104 153
38 105 153
38 106 153
38 107 153
38 108 153
38 109 153
38 110 153
38 111 153
38 112 153
38 113 153
38 114 153
38 115 153
38 116 153
38 117 153
38 118 153
38 119 153
38 120 153
38 121 153
38 122 153
38 123 153
38 124 153
38 125 153
38 126 153
38 127 153
38 128 153
38 129 153
38 130 153
38 131 153
38 132 153
38 133 153
38 134 153
38 135 153
38 136 153
38 137 153
38 138 153
38 139 153
38 140 153
38 141 153
38 142 153
38 143 153
38 144 153
38 145 153
38 146 153
38 147 153
38 148 153
38 149 153
38 150 153
38 151 153
38 152 153
38 153 153
38 154 153
38 155 153
38 156 153
38 157 153
38 158 153
38 159 153
38 160 153
38 161 153
38 162 153
38 163 153
38 164 153
38 165 153
38 166 153
38 167 153
38 168 153
38 169 153
38 170 153
38 171 153
38 172 153
38 173 153
38 174 153
38 175 153
38 176 153
38 177 153
38 178 153
38 179 153
38 180 153
38 181 153
38 182 153
38 183 153
38 184 153
38 185 153
38 186 153
38 187 153
38 188 153
38 189 153
38 190 153
38 191 153
38 192 153
38 193 153
38 194 153
38 195 153
38 196 153
38 197 153
38 198 153
38 199 153
38 200 153
38 201 153
38 202 153
38 203 153
38 204 153
38 205 153
38 206 153
38 207 153
38 208 153
38 209 153
38 210 153
38 211 153
38 212 153
38 213 153
38 214 153
38 215 153
38 216 153
38 217 153
38 218 153
38 219 153
38 220 153
38 221 153
38 222 153
38 223 153
38 224 153
38 225 153
38 226 153
38 227 153
38 228 153
38 229 153
38 230 153
38 231 153
38 232 153
38 233 153
38 234 153
38 235 153
38 236 153
38 237 153
38 238 153
38 239 153
38 240 153
38 241 153
38 242 153
38 243 153
38 244 153
38 245 153
38 246 153
38 247 153
38 248 153
38 249 153
38 250 153
38 251 153
38 252 153
38 253 153
38 254 153
38 255 153
39 0 153
39 1 153
39 2 153
39 3 153
39 4 153
39 5 153
39 6 153
39 7 153
39 8 153
39 9 153
39 10 153
39 11 153
39 12 153
39 13 153
39 14 153
39 15 153
39 16 153
39 17 153
39 18 153
39 19 153
39 20 153
39 21 153
39 22 153
39 23 153
39 24 153
39 25 153
39 26 153
39 27 153
39 28 153
39 29 153
39 30 153
39 31 153
39 32 153
39 33 153
39 34 153
39 35 153
39 36 153
39 37 153
39 38 153
39 39 153
39 40 153
39 41 153
39 42 153
39 43 153
39 44 153
39 45 153
39 46 153
39 47 153
39 48 153
39 49 153
39 50 153
39 51 153
39 52 153
39 53 153
39 54 153
39 55 153
39 56 153
39 57 153
39 58 153
39 59 153
39 60 153
39 61 153
39 62 153
39 63 153
39 64 153
39 65 153
39 66 153
39 67 153
39 68 153
39 69 153
39 70 153
39 71 153
39 72 153
39 73 153
39 74 153
39 75 153
39 76 153
39 77 153
39 78 153
39 79 153
39 80 153
39 81 153
39 82 153
39 83 153
39 84 153
39 85 153
39 86 153
39 87 153
39 88 153
39 89 153
39 90 153
39 91 153
39 92 153
39 93 153
39 94 153
39 95 153
39 96 153
39 97 153
39 98 153
39 99 153
39 100 153
39 101 153
39 102 153
39 103 153
39 104 153
39 105 153
39 106 153
39 107 153
39 108 153
39 109 153
39 110 153
39 111 153
39 112 153
39 113 153
39 114 153
39 115 153
39 116 153
39 117 153
39 118 153
39 119 153
39 120 153
39 121 153
39 122 153
39 123 153
39 124 153
39 125 153
39 126 153
39 127 153
39 128 153
39 129 153
39 130 153
39 131 153
39 132 153
39 133 153
39 134 153
39 135 153
39 136 153
39 137 153
39 138 153
39 139 153
39 140 153
39 141 153
39 142 153
39 143 153
39 144 153
39 145 153
39 146 153
39 147 153
39 148 153
39 149 153
39 150 153
39 151 153
39 152 153
39 153 153
39 154 153
39 155 153
39 156 153
39 157 153
39 158 153
39 159 153
39 160 153
39 161 153
39 162 153
39 163 153
39 164 153
39 165 153
39 166 153
39 167 153
39 168 153
39 169 153
39 170 153
39 171 153
39 172 153
39 173 153
39 174 153
39 175 153
39 176 153
39 177 153
39 178 153
39 179 153
39 180 153
39 181 153
39 182 153
39 183 153
39 184 153
39 185 153
39 186 153
39 187 153
39 188 153
39 189 153
39 190 153
39 191 153
39 192 153
39 193 153
39 194 153
39 195 153
39 196 153
39 197 153
39 198 153
39 199 153
39 200 153
39 201 153
39 202 153
39 203 153
39 204 153
39 205 153
39 206 153
39 207 153
39 208 153
39 209 153
39 210 153
39 211 153
39 212 153
39 213 153
39 214 153
39 215 153
39 216 153
39 217 153
39 218 153
39 219 153
39 220 153
39 221 153
39 222 153
39 223 153
39 224 153
39 225 153
39 226 153
39 227 153
39 228 153
39 229 153
39 230 153
39 231 153
39 232 153
39 233 153
39 234 153
39 235 153
39 236 153
39 237 153
39 238 153
39 239 153
39 240 153
39 241 153
39 242 153
39 243 153
39 244 153
39 245 153
39 246 153
39 247 153
39 248 153
39 249 153
39 250 153
39 251 153
39 252 153
39 253 153
39 254 153
39 255 153
40 0 153
40 1 153
40 2 153
40 3 153
40 4 153
40 5 153
40 6 153
40 7 153
40 8 153
40 9 153
40 10 153
40 11 153
40 12 153
40 13 153
40 14 153
40 15 153
40 16 153
40 17 153
40 18 153
40 19 153
40 20 153
40 21 153
40 22 153
40 23 153
40 24 153
40 25 153
40 26 153
40 27 153
40 28 153
40 29 153
40 30 153
40 31 153
40 32 153
40 33 153
40 34 153
40 35 153
40 36 153
40 37 153
40 38 153
40 39 153
40 40 153
40 41 153
40 42 153
40 43 153
40 44 153
40 45 153
40 46 153
40 47 153
40 48 153
40 49 153
40 50 153
40 51 153
40 52 153
40 53 153
40 54 153
40 55 153
40 56 153
40 57 153
40 58 153
40 59 153
40 60 153
40 61 153
40 62 153
40 63 153
40 64 153
40 65 153
40 66 153
40 67 153
40 68 153
40 69 153
40 70 153
40 71 153
40 72 153
40 73 153
40 74 153
40 75 153
40 76 153
40 77 153
40 78 153
40 79 153
40 80 153
40 81 153
40 82 153
40 83 153
40 84 153
40 85 153
40 86 153
40 87 153
40 88 153
40 89 153
40 90 153
40 91 153
40 92 153
40 93 153
40 94 153
40 95 153
40 96 153
40 97 153
40 98 153
40 99 153
40 100 153
40 101 153
40 102 153
40 103 153
40 104 153
40 105 153
40 106 153
40 107 153
40 108 153
40 109 153
40 110 153
40 111 153
40 112 153
40 113 153
40 114 153
40 115 153
40 116 153
40 117 153
40 118 153
40 119 153
40 120 153
40 121 153
40 122 153
40 123 153
40 124 153
40 125 153
40 126 153
40 127 153
40 128 153
40 129 153
40 130 153
40 131 153
40 132 153
40 133 153
40 134 153
40 135 153
40 136 153
40 137 153
40 138 153
40 139 153
40 140 153
40 141 153
40 142 153
40 143 153
40 144 153
40 145 153
40 146 153
40 147 153
40 148 153
40 149 153
40 150 153
40 151 153
40 152 153
40 153 153
40 154 153
40 155 153
40 156 153
40 157 153
40 158 153
40 159 153
40 160 153
40 161 153
40 162 153
40 163 153
40 164 153
40 165 153
40 166 153
40 167 153
40 168 153
40 169 153
40 170 153
40 171 153
40 172 153
40 173 153
40 174 153
40 175 153
40 176 153
40 177 153
40 178 153
40 179 153
40 180 153
40 181 153
40 182 153
40 183 153
40 184 153
40 185 153
40 186 153
40 187 153
40 188 153
40 189 153
40 190 153
40 191 153
40 192 153
40 193 153
40 194 153
40 195 153
40 196 153
40 197 153
40 198 153
40 199 153
40 200 153
40 201 153
40 202 153
40 203 153
40 204 153
40 205 153
40 206 153
40 207 153
40 208 153
40 209 153
40 210 153
40 211 153
40 212 153
40 213 153
40 214 153
40 215 153
40 216 153
40 217 153
40 218 153
40 219 153
40 220 153
40 221 153
40 222 153
40 223 153
40 224 153
40 225 153
40 226 153
40 227 153
40 228 153
40 229 153
40 230 153
40 231 153
40 232 153
40 233 153
40 234 153
40 235 153
40 236 153
40 237 153
40 238 153
40 239 153
40 240 153
40 241 153
40 242 153
40 243 153
40 244 153
40 245 153
40 246 153
40 247 153
40 248 153
40 249 153
40 250 153
40 251 153
40 252 153
40 253 153
40 254 153
40 255 153
41 0 153
41 1 153
41 2 153
41 3 153
41 4 153
41 5 153
41 6 153
41 7 153
41 8 153
41 9 153
41 10 153
41 11 153
41 12 153
41 13 153
41 14 153
41 15 153
41 16 153
41 17 153
41 18 153
41 19 153
41 20 153
41 21 153
41 22 153
41 23 153
41 24 153
41 25 153
41 26 153
41 27 153
41 28 153
41 29 153
41 30 153
41 31 153
41 32 153
41 33 153
41 34 153
41 35 153
41 36 153
41 37 153
41 38 153
41 39 153
41 40 153
41 41 153
41 42 153
41 43 153
41 44 153
41 45 153
41 46 153
41 47 153
41 48 153
41 49 153
41 50 153
41 51 153
41 52 153
41 53 153
41 54 153
41 55 153
41 56 153
41 57 153
41 58 153
41 59 153
41 60 153
41 61 153
41 62 153
41 63 153
41 64 153
41 65 153
41 66 153
41 67 153
41 68 153
41 69 153
41 70 153
41 71 153
41 72 153
41 73 153
41 74 153
41 75 153
41 76 153
41 77 153
41 78 153
41 79 153
41 80 153
41 81 153
41 82 153
41 83 153
41 84 153
41 85 153
41 86 153
41 87 153
41 88 153
41 89 153
41 90 153
41 91 153
41 92 153
41 93 153
41 94 153
41 95 153
41 96 153
41 97 153
41 98 153
41 99 153
41 100 153
41 101 153
41 102 153
41 103 153
41 104 153
41 105 153
41 106 153
41 107 153
41 108 153
41 109 153
41 110 153
41 111 153
41 112 153
41 113 153
41 114 153
41 115 153
41 116 153
41 117 153
41 118 153
41 119 153
41 120 153
41 121 153
41 122 153
41 123 153
41 124 153
41 125 153
41 126 153
41 127 153
41 128 153
41 129 153
41 130 153
41 131 153
41 132 153
41 133 153
41 134 153
41 135 153
41 136 153
41 137 153
41 138 153
41 139 153
41 140 153
41 141 153
41 142 153
41 143 153
41 144 153
41 145 153
41 146 153
41 147 153
41 148 153
41 149 153
41 150 153
41 151 153
41 152 153
41 153 153
41 154 153
41 155 153
41 156 153
41 157 153
41 158 153
41 159 153
41 160 153
41 161 153
41 162 153
41 163 153
41 164 153
41 165 153
41 166 153
41 167 153
41 168 153
41 169 153
41 170 153
41 171 153
41 172 153
41 173 153
41 174 153
41 175 153
41 176 153
41 177 153
41 178 153
41 179 153
41 180 153
41 181 153
41 182 153
41 183 153
41 184 153
41 185 153
41 186 153
41 187 153
41 188 153
41 189 153
41 190 153
41 191 153
41 192 153
41 193 153
41 194 153
41 195 153
41 196 153
41 197 153
41 198 153
41 199 153
41 200 153
41 201 153
41 202 153
41 203 153
41 204 153
41 205 153
41 206 153
41 207 153
41 208 153
41 209 153
41 210 153
41 211 153
41 212 153
41 213 153
41 214 153
41 215 153
41 216 153
41 217 153
41 218 153
41 219 153
41 220 153
41 221 153
41 222 153
41 223 153
41 224 153
41 225 153
41 226 153
41 227 153
41 228 153
41 229 153
41 230 153
41 231 153
41 232 153
41 233 153
41 234 153
41 235 153
41 236 153
41 237 153
41 238 153
41 239 153
41 240 153
41 241 153
41 242 153
41 243 153
41 244 153
41 245 153
41 246 153
41 247 153
41 248 153
41 249 153
41 250 153
41 251 153
41 252 153
41 253 153
41 254 153
41 255 153
42 0 153
42 1 153
42 2 153
42 3 153
42 4 153
42 5 153
42 6 153
42 7 153
42 8 153
42 9 153
42 10 153
42 11 153
42 12 153
42 13 153
42 14 153
42 15 153
42 16 153
42 17 153
42 18 153
42 19 153
42 20 153
42 21 153
42 22 153
42 23 153
42 24 153
42 25 153
42 26 153
42 27 153
42 28 153
42 29 153
42 30 153
42 31 153
42 32 153
42 33 153
42 34 153
42 35 153
42 36 153
42 37 153
42 38 153
42 39 153
42 40 153
42 41 153
42 42 153
42 43 153
42 44 153
42 45 153
42 46 153
42 47 153
42 48 153
42 49 153
42 50 153
42 51 153
42 52 153
42 53 153
42 54 153
42 55 153
42 56 153
42 57 153
42 58 153
42 59 153
42 60 153
42 61 153
42 62 153
42 63 153
42 64 153
42 65 153
42 66 153
42 67 153
42 68 153
42 69 153
42 70 153
42 71 153
42 72 153
42 73 153
42 74 153
42 75 153
42 76 153
42 77 153
42 78 153
42 79 153
42 80 153
42 81 153
42 82 153
42 83 153
42 84 153
42 85 153
42 86 153
42 87 153
42 88 153
42 89 153
42 90 153
42 91 153
42 92 153
42 93 153
42 94 153
42 95 153
42 96 153
42 97 153
42 98 153
42 99 153
42 100 153
42 101 153
42 102 153
42 103 153
42 104 153
42 105 153
42 106 153
42 107 153
42 108 153
42 109 153
42 110 153
42 111 153
42 112 153
42 113 153
42 114 153
42 115 153
42 116 153
42 117 153
42 118 153
42 119 153
42 120 153
42 121 153
42 122 153
42 123 153
42 124 153
42 125 153
42 126 153
42 127 153
42 128 153
42 129 153
42 130 153
42 131 153
42 132 153
42 133 153
42 134 153
42 135 153
42 136 153
42 137 153
42 138 153
42 139 153
42 140 153
42 141 153
42 142 153
42 143 153
42 144 153
42 145 153
42 146 153
42 147 153
42 148 153
42 149 153
42 150 153
42 151 153
42 152 153
42 153 153
42 154 153
42 155 153
42 156 153
42 157 153
42 158 153
42 159 153
42 160 153
42 161 153
42 162 153
42 163 153
42 164 153
42 165 153
42 166 153
42 167 153
42 168 153
42 169 153
42 170 153
42 171 153
42 172 153
42 173 153
42 174 153
42 175 153
42 176 153
42 177 153
42 178 153
42 179 153
42 180 153
42 181 153
42 182 153
42 183 153
42 184 153
42 185 153
42 186 153
42 187 153
42 188 153
42 189 153
42 190 153
42 191 153
42 192 153
42 193 153
42 194 153
42 195 153
42 196 153
42 197 153
42 198 153
42 199 153
42 200 153
42 201 153
42 202 153
42 203 153
42 204 153
42 205 153
42 206 153
42 207 153
42 208 153
42 209 153
42 210 153
42 211 153
42 212 153
42 213 153
42 214 153
42 215 153
42 216 153
42 217 153
42 218 153
42 219 153
42 220 153
42 221 153
42 222 153
42 223 153
42 224 153
42 225 153
42 226 153
42 227 153
42 228 153
42 229 153
42 230 153
42 231 153
42 232 153
42 233 153
42 234 153
42 235 153
42 236 153
42 237 153
42 238 153
42 239 153
42 240 153
42 241 153
42 242 153
42 243 153
42 244 153
42 245 153
42 246 153
42 247 153
42 248 153
42 249 153
42 250 153
42 251 153
42 252 153
42 253 153
42 254 153
42 255 153
43 0 153
43 1 153
43 2 153
43 3 153
43 4 153
43 5 153
43 6 153
43 7 153
43 8 153
43 9 153
43 10 153
43 11 153
43 12 153
43 13 153
43 14 153
43 15 153
43 16 153
43 17 153
43 18 153
43 19 153
43 20 153
43 21 153
43 22 153
43 23 153
43 24 153
43 25 153
43 26 153
43 27 153
43 28 153
43 29 153
43 30 153
43 31 153
43 32 153
43 33 153
43 34 153
43 35 153
43 36 153
43 37 153
43 38 153
43 39 153
43 40 153
43 41 153
43 42 153
43 43 153
43 44 153
43 45 153
43 46 153
43 47 153
43 48 153
43 49 153
43 50 153
43 51 153
43 52 153
43 53 153
43 54 153
43 55 153
43 56 153
43 57 153
43 58 153
43 59 153
43 60 153
43 61 153
43 62 153
43 63 153
43 64 153
43 65 153
43 66 153
43 67 153
43 68 153
43 69 153
43 70 153
43 71 153
43 72 153
43 73 153
43 74 153
43 75 153
43 76 153
43 77 153
43 78 153
43 79 153
43 80 153
43 81 153
43 82 153
43 83 153
43 84 153
43 85 153
43 86 153
43 87 153
43 88 153
43 89 153
43 90 153
43 91 153
43 92 153
43 93 153
43 94 153
43 95 153
43 96 153
43 97 153
43 98 153
43 99 153
43 100 153
43 101 153
43 102 153
43 103 153
43 104 153
43 105 153
43 106 153
43 107 153
43 108 153
43 109 153
43 110 153
43 111 153
43 112 153
43 113 153
43 114 153
43 115 153
43 116 153
43 117 153
43 118 153
43 119 153
43 120 153
43 121 153
43 122 153
43 123 153
43 124 153
43 125 153
43 126 153
43 127 153
43 128 153
43 129 153
43 130 153
43 131 153
43 132 153
43 133 153
43 134 153
43 135 153
43 136 153
43 137 153
43 138 153
43 139 153
43 140 153
43 141 153
43 142 153
43 143 153
43 144 153
43 145 153
43 146 153
43 147 153
43 148 153
43 149 153
43 150 153
43 151 153
43 152 153
43 153 153
43 154 153
43 155 153
43 156 153
43 157 153
43 158 153
43 159 153
43 160 153
43 161 153
43 162 153
43 163 153
43 164 153
43 165 153
43 166 153
43 167 153
43 168 153
43 169 153
43 170 153
43 171 153
43 172 153
43 173 153
43 174 153
43 175 153
43 176 153
43 177 153
43 178 153
43 179 153
43 180 153
43 181 153
43 182 153
43 183 153
43 184 153
43 185 153
43 186 153
43 187 153
43 188 153
43 189 153
43 190 153
43 191 153
43 192 153
43 193 153
43 194 153
43 195 153
43 196 153
43 197 153
43 198 153
43 199 153
43 200 153
43 201 153
43 202 153
43 203 153
43 204 153
43 205 153
43 206 153
43 207 153
43 208 153
43 209 153
43 210 153
43 211 153
43 212 153
43 213 153
43 214 153
43 215 153
43 216 153
43 217 153
43 218 153
43 219 153
43 220 153
43 221 153
43 222 153
43 223 153
43 224 153
43 225 153
43 226 153
43 227 153
43 228 153
43 229 153
43 230 153
43 231 153
43 232 153
43 233 153
43 234 153
43 235 153
43 236 153
43 237 153
43 238 153
43 239 153
43 240 153
43 241 153
43 242 153
43 243 153
43 244 153
43 245 153
43 246 153
43 247 153
43 248 153
43 249 153
43 250 153
43 251 153
43 252 153
43 253 153
43 254 153
43 255 153
44 0 153
44 1 153
44 2 153
44 3 153
44 4 153
44 5 153
44 6 153
44 7 153
44 8 153
44 9 153
44 10 153
44 11 153
44 12 153
44 13 153
44 14 153
44 15 153
44 16 153
44 17 153
44 18 153
44 19 153
44 20 153
44 21 153
44 22 153
44 23 153
44 24 153
44 25 153
44 26 153
44 27 153
44 28 153
44 29 153
44 30 153
44 31 153
44 32 153
44 33 153
44 34 153
44 35 153
44 36 153
44 37 153
44 38 153
44 39 153
44 40 153
44 41 153
44 42 153
44 43 153
44 44 153
44 45 153
44 46 153
44 47 153
44 48 153
44 49 153
44 50 153
44 51 153
44 52 153
44 53 153
44 54 153
44 55 153
44 56 153
44 57 153
44 58 153
44 59 153
44 60 153
44 61 153
44 62 153
44 63 153
44 64 153
44 65 153
44 66 153
44 67 153
44 68 153
44 69 153
44 70 153
44 71 153
44 72 153
44 73 153
44 74 153
44 75 153
44 76 153
44 77 153
44 78 153
44 79 153
44 80 153
44 81 153
44 82 153
44 83 153
44 84 153
44 85 153
44 86 153
44 87 153
44 88 153
44 89 153
44 90 153
44 91 153
44 92 153
44 93 153
44 94 153
44 95 153
44 96 153
44 97 153
44 98 153
44 99 153
44 100 153
44 101 153
44 102 153
44 103 153
44 104 153
44 105 153
44 106 153
44 107 153
44 108 153
44 109 153
44 110 153
44 111 153
44 112 153
44 113 153
44 114 153
44 115 153
44 116 153
44 117 153
44 118 153
44 119 153
44 120 153
44 121 153
44 122 153
44 123 153
44 124 153
44 125 153
44 126 153
44 127 153
44 128 153
44 129 153
44 130 153
44 131 153
44 132 153
44 133 153
44 134 153
44 135 153
44 136 153
44 137 153
44 138 153
44 139 153
44 140 153
44 141 153
44 142 153
44 143 153
44 144 153
44 145 153
44 146 153
44 147 153
44 148 153
44 149 153
44 150 153
44 151 153
44 152 153
44 153 153
44 154 153
44 155 153
44 156 153
44 157 153
44 158 153
44 159 153
44 160 153
44 161 153
44 162 153
44 163 153
44 164 153
44 165 153
44 166 153
44 167 153
44 168 153
44 169 153
44 170 153
44 171 153
44 172 153
44 173 153
44 174 153
44 175 153
44 176 153
44 177 153
44 178 153
44 179 153
44 180 153
44 181 153
44 182 153
44 183 153
44 184 153
44 185 153
44 186 153
44 187 153
44 188 153
44 189 153
44 190 153
44 191 153
44 192 153
44 193 153
44 194 153
44 195 153
44 196 153
44 197 153
44 198 153
44 199 153
44 200 153
44 201 153
44 202 153
44 203 153
44 204 153
44 205 153
44 206 153
44 207 153
44 208 153
44 209 153
44 210 153
44 211 153
44 212 153
44 213 153
44 214 153
44 215 153
44 216 153
44 217 153
44 218 153
44 219 153
44 220 153
44 221 153
44 222 153
44 223 153
44 224 153
44 225 153
44 226 153
44 227 153
44 228 153
44 229 153
44 230 153
44 231 153
44 232 153
44 233 153
44 234 153
44 235 153
44 236 153
44 237 153
44 238 153
44 239 153
44 240 153
44 241 153
44 242 153
44 243 153
44 244 153
44 245 153
44 246 153
44 247 153
44 248 153
44 249 153
44 250 153
44 251 153
44 252 153
44 253 153
44 254 153
44 255 153
45 0 153
45 1 153
45 2 153
45 3 153
45 4 153
45 5 153
45 6 153
45 7 153
45 8 153
45 9 153
45 10 153
45 11 153
45 12 153
45 13 153
45 14 153
45 15 153
45 16 153
45 17 153
45 18 153
45 19 153
45 20 153
45 21 153
45 22 153
45 23 153
45 24 153
45 25 153
45 26 153
45 27 153
45 28 153
45 29 153
45 30 153
45 31 153
45 32 153
45 33 153
45 34 153
45 35 153
45 36 153
45 37 153
45 38 153
45 39 153
45 40 153
45 41 153
45 42 153
45 43 153
45 44 153
45 45 153
45 46 153
45 47 153
45 48 153
45 49 153
45 50 153
45 51 153
45 52 153
45 53 153
45 54 153
45 55 153
45 56 153
45 57 153
45 58 153
45 59 153
45 60 153
45 61 153
45 62 153
45 63 153
45 64 153
45 65 153
45 66 153
45 67 153
45 68 153
45 69 153
45 70 153
45 71 153
45 72 153
45 73 153
45 74 153
45 75 153
45 76 153
45 77 153
45 78 153
45 79 153
45 80 153
45 81 153
45 82 153
45 83 153
45 84 153
45 85 153
45 86 153
45 87 153
45 88 153
45 89 153
45 90 153
45 91 153
45 92 153
45 93 153
45 94 153
45 95 153
45 96 153
45 97 153
45 98 153
45 99 153
45 100 153
45 101 153
45 102 153
45 103 153
45 104 153
45 105 153
45 106 153
45 107 153
45 108 153
45 109 153
45 110 153
45 111 153
45 112 153
45 113 153
45 114 153
45 115 153
45 116 153
45 117 153
45 118 153
45 119 153
45 120 153
45 121 153
45 122 153
45 123 153
45 124 153
45 125 153
45 126 153
45 127 153
45 128 153
45 129 153
45 130 153
45 131 153
45 132 153
45 133 153
45 134 153
45 135 153
45 136 153
45 137 153
45 138 153
45 139 153
45 140 153
45 141 153
45 142 153
45 143 153
45 144 153
45 145 153
45 146 153
45 147 153
45 148 153
45 149 153
45 150 153
45 151 153
45 152 153
45 153 153
45 154 153
45 155 153
45 156 153
45 157 153
45 158 153
45 159 153
45 160 153
45 161 153
45 162 153
45 163 153
45 164 153
45 165 153
45 166 153
45 167 153
45 168 153
45 169 153
45 170 153
45 171 153
45 172 153
45 173 153
45 174 153
45 175 153
45 176 153
45 177 153
45 178 153
45 179 153
45 180 153
45 181 153
45 182 153
45 183 153
45 184 153
45 185 153
45 186 153
45 187 153
45 188 153
45 189 153
45 190 153
45 191 153
45 192 153
45 193 153
45 194 153
45 195 153
45 196 153
45 197 153
45 198 153
45 199 153
45 200 153
45 201 153
45 202 153
45 203 153
45 204 153
45 205 153
45 206 153
45 207 153
45 208 153
45 209 153
45 210 153
45 211 153
45 212 153
45 213 153
45 214 153
45 215 153
45 216 153
45 217 153
45 218 153
45 219 153
45 220 153
45 221 153
45 222 153
45 223 153
45 224 153
45 225 153
45 226 153
45 227 153
45 228 153
45 229 153
45 230 153
45 231 153
45 232 153
45 233 153
45 234 153
45 235 153
45 236 153
45 237 153
45 238 153
45 239 153
45 240 153
45 241 153
45 242 153
45 243 153
45 244 153
45 245 153
45 246 153
45 247 153
45 248 153
45 249 153
45 250 153
45 251 153
45 252 153
45 253 153
45 254 153
45 255 153
46 0 153
46 1 153
46 2 153
46 3 153
46 4 153
46 5 153
46 6 153
46 7 153
46 8 153
46 9 153
46 10 153
46 11 153
46 12 153
46 13 153
46 14 153
46 15 153
46 16 153
46 17 153
46 18 153
46 19 153
46 20 153
46 21 153
46 22 153
46 23 153
46 24 153
46 25 153
46 26 153
46 27 153
46 28 153
46 29 153
46 30 153
46 31 153
46 32 153
46 33 153
46 34 153
46 35 153
46 36 153
46 37 153
46 38 153
46 39 153
46 40 153
46 41 153
46 42 153
46 43 153
46 44 153
46 45 153
46 46 153
46 47 153
46 48 153
46 49 153
46 50 153
46 51 153
46 52 153
46 53 153
46 54 153
46 55 153
46 56 153
46 57 153
46 58 153
46 59 153
46 60 153
46 61 153
46 62 153
46 63 153
46 64 153
46 65 153
46 66 153
46 67 153
46 68 153
46 69 153
46 70 153
46 71 153
46 72 153
46 73 153
46 74 153
46 75 153
46 76 153
46 77 153
46 78 153
46 79 153
46 80 153
46 81 153
46 82 153
46 83 153
46 84 153
46 85 153
46 86 153
46 87 153
46 88 153
46 89 153
46 90 153
46 91 153
46 92 153
46 93 153
46 94 153
46 95 153
46 96 153
46 97 153
46 98 153
46 99 153
46 100 153
46 101 153
46 102 153
46 103 153
46 104 153
46 105 153
46 106 153
46 107 153
46 108 153
46 109 153
46 110 153
46 111 153
46 112 153
46 113 153
46 114 153
46 115 153
46 116 153
46 117 153
46 118 153
46 119 153
46 120 153
46 121 153
46 122 153
46 123 153
46 124 153
46 125 153
46 126 153
46 127 153
46 128 153
46 129 153
46 130 153
46 131 153
46 132 153
46 133 153
46 134 153
46 135 153
46 136 153
46 137 153
46 138 153
46 139 153
46 140 153
46 141 153
46 142 153
46 143 153
46 144 153
46 145 153
46 146 153
46 147 153
46 148 153
46 149 153
46 150 153
46 151 153
46 152 153
46 153 153
46 154 153
46 155 153
46 156 153
46 157 153
46 158 153
46 159 153
46 160 153
46 161 153
46 162 153
46 163 153
46 164 153
46 165 153
46 166 153
46 167 153
46 168 153
46 169 153
46 170 153
46 171 153
46 172 153
46 173 153
46 174 153
46 175 153
46 176 153
46 177 153
46 178 153
46 179 153
46 180 153
46 181 153
46 182 153
46 183 153
46 184 153
46 185 153
46 186 153
46 187 153
46 188 153
46 189 153
46 190 153
46 191 153
46 192 153
46 193 153
46 194 153
46 195 153
46 196 153
46 197 153
46 198 153
46 199 153
46 200 153
46 201 153
46 202 153
46 203 153
46 204 153
46 205 153
46 206 153
46 207 153
46 208 153
46 209 153
46 210 153
46 211 153
46 212 153
46 213 153
46 214 153
46 215 153
46 216 153
46 217 153
46 218 153
46 219 153
46 220 153
46 221 153
46 222 153
46 223 153
46 224 153
46 225 153
46 226 153
46 227 153
46 228 153
46 229 153
46 230 153
46 231 153
46 232 153
46 233 153
46 234 153
46 235 153
46 236 153
46 237 153
46 238 153
46 239 153
46 240 153
46 241 153
46 242 153
46 243 153
46 244 153
46 245 153
46 246 153
46 247 153
46 248 153
46 249 153
46 250 153
46 251 153
46 252 153
46 253 153
46 254 153
46 255 153
47 0 153
47 1 153
47 2 153
47 3 153
47 4 153
47 5 153
47 6 153
47 7 153
47 8 153
47 9 153
47 10 153
47 11 153
47 12 153
47 13 153
47 14 153
47 15 153
47 16 153
47 17 153
47 18 153
47 19 153
47 20 153
47 21 153
47 22 153
47 23 153
47 24 153
47 25 153
47 26 153
47 27 153
47 28 153
47 29 153
47 30 153
47 31 153
47 32 153
47 33 153
47 34 153
47 35 153
47 36 153
47 37 153
47 38 153
47 39 153
47 40 153
47 41 153
47 42 153
47 43 153
47 44 153
47 45 153
47 46 153
47 47 153
47 48 153
47 49 153
47 50 153
47 51 153
47 52 153
47 53 153
47 54 153
47 55 153
47 56 153
47 57 153
47 58 153
47 59 153
47 60 153
47 61 153
47 62 153
47 63 153
47 64 153
47 65 153
47 66 153
47 67 153
47 68 153
47 69 153
47 70 153
47 71 153
47 72 153
47 73 153
47 74 153
47 75 153
47 76 153
47 77 153
47 78 153
47 79 153
47 80 153
47 81 153
47 82 153
47 83 153
47 84 153
47 85 153
47 86 153
47 87 153
47 88 153
47 89 153
47 90 153
47 91 153
47 92 153
47 93 153
47 94 153
47 95 153
47 96 153
47 97 153
47 98 153
47 99 153
47 100 153
47 101 153
47 102 153
47 103 153
47 104 153
47 105 153
47 106 153
47 107 153
47 108 153
47 109 153
47 110 153
47 111 153
47 112 153
47 113 153
47 114 153
47 115 153
47 116 153
47 117 153
47 118 153
47 119 153
47 120 153
47 121 153
47 122 153
47 123 153
47 124 153
47 125 153
47 126 153
47 127 153
47 128 153
47 129 153
47 130 153
47 131 153
47 132 153
47 133 153
47 134 153
47 135 153
47 136 153
47 137 153
47 138 153
47 139 153
47 140 153
47 141 153
47 142 153
47 143 153
47 144 153
47 145 153
47 146 153
47 147 153
47 148 153
47 149 153
47 150 153
47 151 153
47 152 153
47 153 153
47 154 153
47 155 153
47 156 153
47 157 153
47 158 153
47 159 153
47 160 153
47 161 153
47 162 153
47 163 153
47 164 153
47 165 153
47 166 153
47 167 153
47 168 153
47 169 153
47 170 153
47 171 153
47 172 153
47 173 153
47 174 153
47 175 153
47 176 153
47 177 153
47 178 153
47 179 153
47 180 153
47 181 153
47 182 153
47 183 153
47 184 153
47 185 153
47 186 153
47 187 153
47 188 153
47 189 153
47 190 153
47 191 153
47 192 153
47 193 153
47 194 153
47 195 153
47 196 153
47 197 153
47 198 153
47 199 153
47 200 153
47 201 153
47 202 153
47 203 153
47 204 153
47 205 153
47 206 153
47 207 153
47 208 153
47 209 153
47 210 153
47 211 153
47 212 153
47 213 153
47 214 153
47 215 153
47 216 153
47 217 153
47 218 153
47 219 153
47 220 153
47 221 153
47 222 153
47 223 153
47 224 153
47 225 153
47 226 153
47 227 153
47 228 153
47 229 153
47 230 153
47 231 153
47 232 153
47 233 153
47 234 153
47 235 153
47 236 153
47 237 153
47 238 153
47 239 153
47 240 153
47 241 153
47 242 153
47 243 153
47 244 153
47 245 153
47 246 153
47 247 153
47 248 153
47 249 153
47 250 153
47 251 153
47 252 153
47 253 153
47 254 153
47 255 153
48 0 153
48 1 153
48 2 153
48 3 153
48 4 153
48 5 153
48 6 153
48 7 153
48 8 153
48 9 153
48 10 153
48 11 153
48 12 153
48 13 153
48 14 153
48 15 153
48 16 153
48 17 153
48 18 153
48 19 153
48 20 153
48 21 153
48 22 153
48 23 153
48 24 153
48 25 153
48 26 153
48 27 153
48 28 153
48 29 153
48 30 153
48 31 153
48 32 153
48 33 153
48 34 153
48 35 153
48 36 153
48 37 153
48 38 153
48 39 153
48 40 153
48 41 153
48 42 153
48 43 153
48 44 153
48 45 153
48 46 153
48 47 153
48 48 153
48 49 153
48 50 153
48 51 153
48 52 153
48 53 153
48 54 153
48 55 153
48 56 153
48 57 153
48 58 153
48 59 153
48 60 153
48 61 153
48 62 153
48 63 153
48 64 153
48 65 153
48 66 153
48 67 153
48 68 153
48 69 153
48 70 153
48 71 153
48 72 153
48 73 153
48 74 153
48 75 153
48 76 153
48 77 153
48 78 153
48 79 153
48 80 153
48 81 153
48 82 153
48 83 153
48 84 153
48 85 153
48 86 153
48 87 153
48 88 153
48 89 153
48 90 153
48 91 153
48 92 153
48 93 153
48 94 153
48 95 153
48 96 153
48 97 153
48 98 153
48 99 153
48 100 153
48 101 153
48 102 153
48 103 153
48 104 153
48 105 153
48 106 153
48 107 153
48 108 153
48 109 153
48 110 153
48 111 153
48 112 153
48 113 153
48 114 153
48 115 153
48 116 153
48 117 153
48 118 153
48 119 153
48 120 153
48 121 153
48 122 153
48 123 153
48 124 153
48 125 153
48 126 153
48 127 153
48 128 153
48 129 153
48 130 153
48 131 153
48 132 153
48 133 153
48 134 153
48 135 153
48 136 153
48 137 153
48 138 153
48 139 153
48 140 153
48 141 153
48 142 153
48 143 153
48 144 153
48 145 153
48 146 153
48 147 153
48 148 153
48 149 153
48 150 153
48 151 153
48 152 153
48 153 153
48 154 153
48 155 153
48 156 153
48 157 153
48 158 153
48 159 153
48 160 153
48 161 153
48 162 153
48 163 153
48 164 153
48 165 153
48 166 153
48 167 153
48 168 153
48 169 153
48 170 153
48 171 153
48 172 153
48 173 153
48 174 153
48 175 153
48 176 153
48 177 153
48 178 153
48 179 153
48 180 153
48 181 153
48 182 153
48 183 153
48 184 153
48 185 153
48 186 153
48 187 153
48 188 153
48 189 153
48 190 153
48 191 153
48 192 153
48 193 153
48 194 153
48 195 153
48 196 153
48 197 153
48 198 153
48 199 153
48 200 153
48 201 153
48 202 153
48 203 153
48 204 153
48 205 153
48 206 153
48 207 153
48 208 153
48 209 153
48 210 153
48 211 153
48 212 153
48 213 153
48 214 153
48 215 153
48 216 153
48 217 153
48 218 153
48 219 153
48 220 153
48 221 153
48 222 153
48 223 153
48 224 153
48 225 153
48 226 153
48 227 153
48 228 153
48 229 153
48 230 153
48 231 153
48 232 153
48 233 153
48 234 153
48 235 153
48 236 153
48 237 153
48 238 153
48 239 153
48 240 153
48 241 153
48 242 153
48 243 153
48 244 153
48 245 153
48 246 153
48 247 153
48 248 153
48 249 153
48 250 153
48 251 153
48 252 153
48 253 153
48 254 153
48 255 153
49 0 153
49 1 153
49 2 153
49 3 153
49 4 153
49 5 153
49 6 153
49 7 153
49 8 153
49 9 153
49 10 153
49 11 153
49 12 153
49 13 153
49 14 153
49 15 153
49 16 153
49 17 153
49 18 153
49 19 153
49 20 153
49 21 153
49 22 153
49 23 153
49 24 153
49 25 153
49 26 153
49 27 153
49 28 153
49 29 153
49 30 153
49 31 153
49 32 153
49 33 153
49 34 153
49 35 153
49 36 153
49 37 153
49 38 153
49 39 153
49 40 153
49 41 153
49 42 153
49 43 153
49 44 153
49 45 153
49 46 153
49 47 153
49 48 153
49 49 153
49 50 153
49 51 153
49 52 153
49 53 153
49 54 153
49 55 153
49 56 153
49 57 153
49 58 153
49 59 153
49 60 153
49 61 153
49 62 153
49 63 153
49 64 153
49 65 153
49 66 153
49 67 153
49 68 153
49 69 153
49 70 153
49 71 153
49 72 153
49 73 153
49 74 153
49 75 153
49 76 153
49 77 153
49 78 153
49 79 153
49 80 153
49 81 153
49 82 153
49 83 153
49 84 153
49 85 153
49 86 153
49 87 153
49 88 153
49 89 153
49 90 153
49 91 153
49 92 153
49 93 153
49 94 153
49 95 153
49 96 153
49 97 153
49 98 153
49 99 153
49 100 153
49 101 153
49 102 153
49 103 153
49 104 153
49 105 153
49 106 153
49 107 153
49 108 153
49 109 153
49 110 153
49 111 153
49 112 153
49 113 153
49 114 153
49 115 153
49 116 153
49 117 153
49 118 153
49 119 153
49 120 153
49 121 153
49 122 153
49 123 153
49 124 153
49 125 153
49 126 153
49 127 153
49 128 153
49 129 153
49 130 153
49 131 153
49 132 153
49 133 153
49 134 153
49 135 153
49 136 153
49 137 153
49 138 153
49 139 153
49 140 153
49 141 153
49 142 153
49 143 153
49 144 153
49 145 153
49 146 153
49 147 153
49 148 153
49 149 153
49 150 153
49 151 153
49 152 153
49 153 153
49 154 153
49 155 153
49 156 153
49 157 153
49 158 153
49 159 153
49 160 153
49 161 153
49 162 153
49 163 153
49 164 153
49 165 153
49 166 153
49 167 153
49 168 153
49 169 153
49 170 153
49 171 153
49 172 153
49 173 153
49 174 153
49 175 153
49 176 153
49 177 153
49 178 153
49 179 153
49 180 153
49 181 153
49 182 153
49 183 153
49 184 153
49 185 153
49 186 153
49 187 153
49 188 153
49 189 153
49 190 153
49 191 153
49 192 153
49 193 153
49 194 153
49 195 153
49 196 153
49 197 153
49 198 153
49 199 153
49 200 153
49 201 153
49 202 153
49 203 153
49 204 153
49 205 153
49 206 153
49 207 153
49 208 153
49 209 153
49 210 153
49 211 153
49 212 153
49 213 153
49 214 153
49 215 153
49 216 153
49 217 153
49 218 153
49 219 153
49 220 153
49 221 153
49 222 153
49 223 153
49 224 153
49 225 153
49 226 153
49 227 153
49 228 153
49 229 153
49 230 153
49 231 153
49 232 153
49 233 153
49 234 153
49 235 153
49 236 153
49 237 153
49 238 153
49 239 153
49 240 153
49 241 153
49 242 153
49 243 153
49 244 153
49 245 153
49 246 153
49 247 153
49 248 153
49 249 153
49 250 153
49 251 153
49 252 153
49 253 153
49 254 153
49 255 153
50 0 153
50 1 153
50 2 153
50 3 153
50 4 153
50 5 153
50 6 153
50 7 153
50 8 153
50 9 153
50 10 153
50 11 153
50 12 153
50 13 153
50 14 153
50 15 153
50 16 153
50 17 153
50 18 153
50 19 153
50 20 153
50 21 153
50 22 153
50 23 153
50 24 153
50 25 153
50 26 153
50 27 153
50 28 153
50 29 153
50 30 153
50 31 153
50 32 153
50 33 153
50 34 153
50 35 153
50 36 153
50 37 153
50 38 153
50 39 153
50 40 153
50 41 153
50 42 153
50 43 153
50 44 153
50 45 153
50 46 153
50 47 153
50 48 153
50 49 153
50 50 153
50 51 153
50 52 153
50 53 153
50 54 153
50 55 153
50 56 153
50 57 153
50 58 153
50 59 153
50 60 153
50 61 153
50 62 153
50 63 153
50 64 153
50 65 153
50 66 153
50 67 153
50 68 153
50 69 153
50 70 153
50 71 153
50 72 153
50 73 153
50 74 153
50 75 153
50 76 153
50 77 153
50 78 153
50 79 153
50 80 153
50 81 153
50 82 153
50 83 153
50 84 153
50 85 153
50 86 153
50 87 153
50 88 153
50 89 153
50 90 153
50 91 153
50 92 153
50 93 153
50 94 153
50 95 153
50 96 153
50 97 153
50 98 153
50 99 153
50 100 153
50 101 153
50 102 153
50 103 153
50 104 153
50 105 153
50 106 153
50 107 153
50 108 153
50 109 153
50 110 153
50 111 153
50 112 153
50 113 153
50 114 153
50 115 153
50 116 153
50 117 153
50 118 153
50 119 153
50 120 153
50 121 153
50 122 153
50 123 153
50 124 153
50 125 153
50 126 153
50 127 153
50 128 153
50 129 153
50 130 153
50 131 153
50 132 153
50 133 153
50 134 153
50 135 153
50 136 153
50 137 153
50 138 153
50 139 153
50 140 153
50 141 153
50 142 153
50 143 153
50 144 153
50 145 153
50 146 153
50 147 153
50 148 153
50 149 153
50 150 153
50 151 153
50 152 153
50 153 153
50 154 153
50 155 153
50 156 153
50 157 153
50 158 153
50 159 153
50 160 153
50 161 153
50 162 153
50 163 153
50 164 153
50 165 153
50 166 153
50 167 153
50 168 153
50 169 153
50 170 153
50 171 153
50 172 153
50 173 153
50 174 153
50 175 153
50 176 153
50 177 153
50 178 153
50 179 153
50 180 153
50 181 153
50 182 153
50 183 153
50 184 153
50 185 153
50 186 153
50 187 153
50 188 153
50 189 153
50 190 153
50 191 153
50 192 153
50 193 153
50 194 153
50 195 153
50 196 153
50 197 153
50 198 153
50 199 153
50 200 153
50 201 153
50 202 153
50 203 153
50 204 153
50 205 153
50 206 153
50 207 153
50 208 153
50 209 153
50 210 153
50 211 153
50 212 153
50 213 153
50 214 153
50 215 153
50 216 153
50 217 153
50 218 153
50 219 153
50 220 153
50 221 153
50 222 153
50 223 153
50 224 153
50 225 153
50 226 153
50 227 153
50 228 153
50 229 153
50 230 153
50 231 153
50 232 153
50 233 153
50 234 153
50 235 153
50 236 153
50 237 153
50 238 153
50 239 153
50 240 153
50 241 153
50 242 153
50 243 153
50 244 153
50 245 153
50 246 153
50 247 153
50 248 153
50 249 153
50 250 153
50 251 153
50 252 153
50 253 153
50 254 153
50 255 153
51 0 153
51 1 153
51 2 153
51 3 153
51 4 153
51 5 153
51 6 153
51 7 153
51 8 153
51 9 153
51 10 153
51 11 153
51 12 153
51 13 153
51 14 153
51 15 153
51 16 153
51 17 153
51 18 153
51 19 153
51 20 153
51 21 153
51 22 153
51 23 153
51 24 153
51 25 153
51 26 153
51 27 153
51 28 153
51 29 153
51 30 153
51 31 153
51 32 153
51 33 153
51 34 153
51 35 153
51 36 153
51 37 153
51 38 153
51 39 153
51 40 153
51 41 153
51 42 153
51 43 153
51 44 153
51 45 153
51 46 153
51 47 153
51 48 153
51 49 153
51 50 153
51 51 153
51 52 153
51 53 153
51 54 153
51 55 153
51 56 153
51 57 153
51 58 153
51 59 153
51 60 153
51 61 153
51 62 153
51 63 153
51 64 153
51 65 153
51 66 153
51 67 153
51 68 153
51 69 153
51 70 153
51 71 153
51 72 153
51 73 153
51 74 153
51 75 153
51 76 153
51 77 153
51 78 153
51 79 153
51 80 153
51 81 153
51 82 153
51 83 153
51 84 153
51 85 153
51 86 153
51 87 153
51 88 153
51 89 153
51 90 153
51 91 153
51 92 153
51 93 153
51 94 153
51 95 153
51 96 153
51 97 153
51 98 153
51 99 153
51 100 153
51 101 153
51 102 153
51 103 153
51 104 153
51 105 153
51 106 153
51 107 153
51 108 153
51 109 153
51 110 153
51 111 153
51 112 153
51 113 153
51 114 153
51 115 153
51 116 153
51 117 153
51 118 153
51 119 153
51 120 153
51 121 153
51 122 153
51 123 153
51 124 153
51 125 153
51 126 153
51 127 153
51 128 153
51 129 153
51 130 153
51 131 153
51 132 153
51 133 153
51 134 153
51 135 153
51 136 153
51 137 153
51 138 153
51 139 153
51 140 153
51 141 153
51 142 153
51 143 153
51 144 153
51 145 153
51 146 153
51 147 153
51 148 153
51 149 153
51 150 153
51 151 153
51 152 153
51 153 153
51 154 153
51 155 153
51 156 153
51 157 153
51 158 153
51 159 153
51 160 153
51 161 153
51 162 153
51 163 153
51 164 153
51 165 153
51 166 153
51 167 153
51 168 153
51 169 153
51 170 153
51 171 153
51 172 153
51 173 153
51 174 153
51 175 153
51 176 153
51 177 153
51 178 153
51 179 153
51 180 153
51 181 153
51 182 153
51 183 153
51 184 153
51 185 153
51 186 153
51 187 153
51 188 153
51 189 153
51 190 153
51 191 153
51 192 153
51 193 153
51 194 153
51 195 153
51 196 153
51 197 153
51 198 153
51 199 153
51 200 153
51 201 153
51 202 153
51 203 153
51 204 153
51 205 153
51 206 153
51 207 153
51 208 153
51 209 153
51 210 153
51 211 153
51 212 153
51 213 153
51 214 153
51 215 153
51 216 153
51 217 153
51 218 153
51 219 153
51 220 153
51 221 153
51 222 153
51 223 153
51 224 153
51 225 153
51 226 153
51 227 153
51 228 153
51 229 153
51 230 153
51 231 153
51 232 153
51 233 153
51 234 153
51 235 153
51 236 153
51 237 153
51 238 153
51 239 153
51 240 153
51 241 153
51 242 153
51 243 153
51 244 153
51 245 153
51 246 153
51 247 153
51 248 153
51 249 153
51 250 153
51 251 153
51 252 153
51 253 153
51 254 153
51 255 153
52 0 153
52 1 153
52 2 153
52 3 153
52 4 153
52 5 153
52 6 153
52 7 153
52 8 153
52 9 153
52 10 153
52 11 153
52 12 153
52 13 153
52 14 153
52 15 153
52 16 153
52 17 153
52 18 153
52 19 153
52 20 153
52 21 153
52 22 153
52 23 153
52 24 153
52 25 153
52 26 153
52 27 153
52 28 153
52 29 153
52 30 153
52 31 153
52 32 153
52 33 153
52 34 153
52 35 153
52 36 153
52 37 153
52 38 153
52 39 153
52 40 153
52 41 153
52 42 153
52 43 153
52 44 153
52 45 153
52 46 153
52 47 153
52 48 153
52 49 153
52 50 153
52 51 153
52 52 153
52 53 153
52 54 153
52 55 153
52 56 153
52 57 153
52 58 153
52 59 153
52 60 153
52 61 153
52 62 153
52 63 153
52 64 153
52 65 153
52 66 153
52 67 153
52 68 153
52 69 153
52 70 153
52 71 153
52 72 153
52 73 153
52 74 153
52 75 153
52 76 153
52 77 153
52 78 153
52 79 153
52 80 153
52 81 153
52 82 153
52 83 153
52 84 153
52 85 153
52 86 153
52 87 153
52 88 153
52 89 153
52 90 153
52 91 153
52 92 153
52 93 153
52 94 153
52 95 153
52 96 153
52 97 153
52 98 153
52 99 153
52 100 153
52 101 153
52 102 153
52 103 153
52 104 153
52 105 153
52 106 153
52 107 153
52 108 153
52 109 153
52 110 153
52 111 153
52 112 153
52 113 153
52 114 153
52 115 153
52 116 153
52 117 153
52 118 153
52 119 153
52 120 153
52 121 153
52 122 153
52 123 153
52 124 153
52 125 153
52 126 153
52 127 153
52 128 153
52 129 153
52 130 153
52 131 153
52 132 153
52 133 153
52 134 153
52 135 153
52 136 153
52 137 153
52 138 153
52 139 153
52 140 153
52 141 153
52 142 153
52 143 153
52 144 153
52 145 153
52 146 153
52 147 153
52 148 153
52 149 153
52 150 153
52 151 153
52 152 153
52 153 153
52 154 153
52 155 153
52 156 153
52 157 153
52 158 153
52 159 153
52 160 153
52 161 153
52 162 153
52 163 153
52 164 153
52 165 153
52 166 153
52 167 153
52 168 153
52 169 153
52 170 153
52 171 153
52 172 153
52 173 153
52 174 153
52 175 153
52 176 153
52 177 153
52 178 153
52 179 153
52 180 153
52 181 153
52 182 153
52 183 153
52 184 153
52 185 153
52 186 153
52 187 153
52 188 153
52 189 153
52 190 153
52 191 153
52 192 153
52 193 153
52 194 153
52 195 153
52 196 153
52 197 153
52 198 153
52 199 153
52 200 153
52 201 153
52 202 153
52 203 153
52 204 153
52 205 153
52 206 153
52 207 153
52 208 153
52 209 153
52 210 153
52 211 153
52 212 153
52 213 153
52 214 153
52 215 153
52 216 153
52 217 153
52 218 153
52 219 153
52 220 153
52 221 153
52 222 153
52 223 153
52 224 153
52 225 153
52 226 153
52 227 153
52 228 153
52 229 153
52 230 153
52 231 153
52 232 153
52 233 153
52 234 153
52 235 153
52 236 153
52 237 153
52 238 153
52 239 153
52 240 153
52 241 153
52 242 153
52 243 153
52 244 153
52 245 153
52 246 153
52 247 153
52 248 153
52 249 153
52 250 153
52 251 153
52 252 153
52 253 153
52 254 153
52 255 153
53 0 153
53 1 153
53 2 153
53 3 153
53 4 153
53 5 153
53 6 153
53 7 153
53 8 153
53 9 153
53 10 153
53 11 153
53 12 153
53 13 153
53 14 153
53 15 153
53 16 153
53 17 153
53 18 153
53 19 153
53 20 153
53 21 153
53 22 153
53 23 153
53 24 153
53 25 153
53 26 153
53 27 153
53 28 153
53 29 153
53 30 153
53 31 153
53 32 153
53 33 153
53 34 153
53 35 153
53 36 153
53 37 153
53 38 153
53 39 153
53 40 153
53 41 153
53 42 153
53 43 153
53 44 153
53 45 153
53 46 153
53 47 153
53 48 153
53 49 153
53 50 153
53 51 153
53 52 153
53 53 153
53 54 153
53 55 153
53 56 153
53 57 153
53 58 153
53 59 153
53 60 153
53 61 153
53 62 153
53 63 153
53 64 153
53 65 153
53 66 153
53 67 153
53 68 153
53 69 153
53 70 153
53 71 153
53 72 153
53 73 153
53 74 153
53 75 153
53 76 153
53 77 153
53 78 153
53 79 153
53 80 153
53 81 153
53 82 153
53 83 153
53 84 153
53 85 153
53 86 153
53 87 153
53 88 153
53 89 153
53 90 153
53 91 153
53 92 153
53 93 153
53 94 153
53 95 153
53 96 153
53 97 153
53 98 153
53 99 153
53 100 153
53 101 153
53 102 153
53 103 153
53 104 153
53 105 153
53 106 153
53 107 153
53 108 153
53 109 153
53 110 153
53 111 153
53 112 153
53 113 153
53 114 153
53 115 153
53 116 153
53 117 153
53 118 153
53 119 153
53 120 153
53 121 153
53 122 153
53 123 153
53 124 153
53 125 153
53 126 153
53 127 153
53 128 153
53 129 153
53 130 153
53 131 153
53 132 153
53 133 153
53 134 153
53 135 153
53 136 153
53 137 153
53 138 153
53 139 153
53 140 153
53 141 153
53 142 153
53 143 153
53 144 153
53 145 153
53 146 153
53 147 153
53 148 153
53 149 153
53 150 153
53 151 153
53 152 153
53 153 153
53 154 153
53 155 153
53 156 153
53 157 153
53 158 153
53 159 153
53 160 153
53 161 153
53 162 153
53 163 153
53 164 153
53 165 153
53 166 153
53 167 153
53 168 153
53 169 153
53 170 153
53 171 153
53 172 153
53 173 153
53 174 153
53 175 153
53 176 153
53 177 153
53 178 153
53 179 153
53 180 153
53 181 153
53 182 153
53 183 153
53 184 153
53 185 153
53 186 153
53 187 153
53 188 153
53 189 153
53 190 153
53 191 153
53 192 153
53 193 153
53 194 153
53 195 153
53 196 153
53 197 153
53 198 153
53 199 153
53 200 153
53 201 153
53 202 153
53 203 153
53 204 153
53 205 153
53 206 153
53 207 153
53 208 153
53 209 153
53 210 153
53 211 153
53 212 153
53 213 153
53 214 153
53 215 153
53 216 153
53 217 153
53 218 153
53 219 153
53 220 153
53 221 153
53 222 153
53 223 153
53 224 153
53 225 153
53 226 153
53 227 153
53 228 153
53 229 153
53 230 153
53 231 153
53 232 153
53 233 153
53 234 153
53 235 153
53 236 153
53 237 153
53 238 153
53 239 153
53 240 153
53 241 153
53 242 153
53 243 153
53 244 153
53 245 153
53 246 153
53 247 153
53 248 153
53 249 153
53 250 153
53 251 153
53 252 153
53 253 153
53 254 153
53 255 153
54 0 153
54 1 153
54 2 153
54 3 153
54 4 153
54 5 153
54 6 153
54 7 153
54 8 153
54 9 153
54 10 153
54 11 153
54 12 153
54 13 153
54 14 153
54 15 153
54 16 153
54 17 153
54 18 153
54 19 153
54 20 153
54 21 153
54 22 153
54 23 153
54 24 153
54 25 153
54 26 153
54 27 153
54 28 153
54 29 153
54 30 153
54 31 153
54 32 153
54 33 153
54 34 153
54 35 153
54 36 153
54 37 153
54 38 153
54 39 153
54 40 153
54 41 153
54 42 153
54 43 153
54 44 153
54 45 153
54 46 153
54 47 153
54 48 153
54 49 153
54 50 153
54 51 153
54 52 153
54 53 153
54 54 153
54 55 153
54 56 153
54 57 153
54 58 153
54 59 153
54 60 153
54 61 153
54 62 153
54 63 153
54 64 153
54 65 153
54 66 153
54 67 153
54 68 153
54 69 153
54 70 153
54 71 153
54 72 153
54 73 153
54 74 153
54 75 153
54 76 153
54 77 153
54 78 153
54 79 153
54 80 153
54 81 153
54 82 153
54 83 153
54 84 153
54 85 153
54 86 153
54 87 153
54 88 153
54 89 153
54 90 153
54 91 153
54 92 153
54 93 153
54 94 153
54 95 153
54 96 153
54 97 153
54 98 153
54 99 153
54 100 153
54 101 153
54 102 153
54 103 153
54 104 153
54 105 153
54 106 153
54 107 153
54 108 153
54 109 153
54 110 153
54 111 153
54 112 153
54 113 153
54 114 153
54 115 153
54 116 153
54 117 153
54 118 153
54 119 153
54 120 153
54 121 153
54 122 153
54 123 153
54 124 153
54 125 153
54 126 153
54 127 153
54 128 153
54 129 153
54 130 153
54 131 153
54 132 153
54 133 153
54 134 153
54 135 153
54 136 153
54 137 153
54 138 153
54 139 153
54 140 153
54 141 153
54 142 153
54 143 153
54 144 153
54 145 153
54 146 153
54 147 153
54 148 153
54 149 153
54 150 153
54 151 153
54 152 153
54 153 153
54 154 153
54 155 153
54 156 153
54 157 153
54 158 153
54 159 153
54 160 153
54 161 153
54 162 153
54 163 153
54 164 153
54 165 153
54 166 153
54 167 153
54 168 153
54 169 153
54 170 153
54 171 153
54 172 153
54 173 153
54 174 153
54 175 153
54 176 153
54 177 153
54 178 153
54 179 153
54 180 153
54 181 153
54 182 153
54 183 153
54 184 153
54 185 153
54 186 153
54 187 153
54 188 153
54 189 153
54 190 153
54 191 153
54 192 153
54 193 153
54 194 153
54 195 153
54 196 153
54 197 153
54 198 153
54 199 153
54 200 153
54 201 153
54 202 153
54 203 153
54 204 153
54 205 153
54 206 153
54 207 153
54 208 153
54 209 153
54 210 153
54 211 153
54 212 153
54 213 153
54 214 153
54 215 153
54 216 153
54 217 153
54 218 153
54 219 153
54 220 153
54 221 153
54 222 153
54 223 153
54 224 153
54 225 153
54 226 153
54 227 153
54 228 153
54 229 153
54 230 153
54 231 153
54 232 153
54 233 153
54 234 153
54 235 153
54 236 153
54 237 153
54 238 153
54 239 153
54 240 153
54 241 153
54 242 153
54 243 153
54 244 153
54 245 153
54 246 153
54 247 153
54 248 153
54 249 153
54 250 153
54 251 153
54 252 153
54 253 153
54 254 153
54 255 153
55 0 153
55 1 153
55 2 153
55 3 153
55 4 153
55 5 153
55 6 153
55 7 153
55 8 153
55 9 153
55 10 153
55 11 153
55 12 153
55 13 153
55 14 153
55 15 153
55 16 153
55 17 153
55 18 153
55 19 153
55 20 153
55 21 153
55 22 153
55 23 153
55 24 153
55 25 153
55 26 153
55 27 153
55 28 153
55 29 153
55 30 153
55 31 153
55 32 153
55 33 153
55 34 153
55 35 153
55 36 153
55 37 153
55 38 153
55 39 153
55 40 153
55 41 153
55 42 153
55 43 153
55 44 153
55 45 153
55 46 153
55 47 153
55 48 153
55 49 153
55 50 153
55 51 153
55 52 153
55 53 153
55 54 153
55 55 153
55 56 153
55 57 153
55 58 153
55 59 153
55 60 153
55 61 153
55 62 153
55 63 153
55 64 153
55 65 153
55 66 153
55 67 153
55 68 153
55 69 153
55 70 153
55 71 153
55 72 153
55 73 153
55 74 153
55 75 153
55 76 153
55 77 153
55 78 153
55 79 153
55 80 153
55 81 153
55 82 153
55 83 153
55 84 153
55 85 153
55 86 153
55 87 153
55 88 153
55 89 153
55 90 153
55 91 153
55 92 153
55 93 153
55 94 153
55 95 153
55 96 153
55 97 153
55 98 153
55 99 153
55 100 153
55 101 153
55 102 153
55 103 153
55 104 153
55 105 153
55 106 153
55 107 153
55 108 153
55 109 153
55 110 153
55 111 153
55 112 153
55 113 153
55 114 153
55 115 153
55 116 153
55 117 153
55 118 153
55 119 153
55 120 153
55 121 153
55 122 153
55 123 153
55 124 153
55 125 153
55 126 153
55 127 153
55 128 153
55 129 153
55 130 153
55 131 153
55 132 153
55 133 153
55 134 153
55 135 153
55 136 153
55 137 153
55 138 153
55 139 153
55 140 153
55 141 153
55 142 153
55 143 153
55 144 153
55 145 153
55 146 153
55 147 153
55 148 153
55 149 153
55 150 153
55 151 153
55 152 153
55 153 153
55 154 153
55 155 153
55 156 153
55 157 153
55 158 153
55 159 153
55 160 153
55 161 153
55 162 153
55 163 153
55 164 153
55 165 153
55 166 153
55 167 153
55 168 153
55 169 153
55 170 153
55 171 153
55 172 153
55 173 153
55 174 153
55 175 153
55 176 153
55 177 153
55 178 153
55 179 153
55 180 153
55 181 153
55 182 153
55 183 153
55 184 153
55 185 153
55 186 153
55 187 153
55 188 153
55 189 153
55 190 153
55 191 153
55 192 153
55 193 153
55 194 153
55 195 153
55 196 153
55 197 153
55 198 153
55 199 153
55 200 153
55 201 153
55 202 153
55 203 153
55 204 153
55 205 153
55 206 153
55 207 153
55 208 153
55 209 153
55 210 153
55 211 153
55 212 153
55 213 153
55 214 153
55 215 153
55 216 153
55 217 153
55 218 153
55 219 153
55 220 153
55 221 153
55 222 153
55 223 153
55 224 153
55 225 153
55 226 153
55 227 153
55 228 153
55 229 153
55 230 153
55 231 153
55 232 153
55 233 153
55 234 153
55 235 153
55 236 153
55 237 153
55 238 153
55 239 153
55 240 153
55 241 153
55 242 153
55 243 153
55 244 153
55 245 153
55 246 153
55 247 153
55 248 153
55 249 153
55 250 153
55 251 153
55 252 153
55 253 153
55 254 153
55 255 153
56 0 153
56 1 153
56 2 153
56 3 153
56 4 153
56 5 153
56 6 153
56 7 153
56 8 153
56 9 153
56 10 153
56 11 153
56 12 153
56 13 153
56 14 153
56 15 153
56 16 153
56 17 153
56 18 153
56 19 153
56 20 153
56 21 153
56 22 153
56 23 153
56 24 153
56 25 153
56 26 153
56 27 153
56 28 153
56 29 153
56 30 153
56 31 153
56 32 153
56 33 153
56 34 153
56 35 153
56 36 153
56 37 153
56 38 153
56 39 153
56 40 153
56 41 153
56 42 153
56 43 153
56 44 153
56 45 153
56 46 153
56 47 153
56 48 153
56 49 153
56 50 153
56 51 153
56 52 153
56 53 153
56 54 153
56 55 153
56 56 153
56 57 153
56 58 153
56 59 153
56 60 153
56 61 153
56 62 153
56 63 153
56 64 153
56 65 153
56 66 153
56 67 153
56 68 153
56 69 153
56 70 153
56 71 153
56 72 153
56 73 153
56 74 153
56 75 153
56 76 153
56 77 153
56 78 153
56 79 153
56 80 153
56 81 153
56 82 153
56 83 153
56 84 153
56 85 153
56 86 153
56 87 153
56 88 153
56 89 153
56 90 153
56 91 153
56 92 153
56 93 153
56 94 153
56 95 153
56 96 153
56 97 153
56 98 153
56 99 153
56 100 153
56 101 153
56 102 153
56 103 153
56 104 153
56 105 153
56 106 153
56 107 153
56 108 153
56 109 153
56 110 153
56 111 153
56 112 153
56 113 153
56 114 153
56 115 153
56 116 153
56 117 153
56 118 153
56 119 153
56 120 153
56 121 153
56 122 153
56 123 153
56 124 153
56 125 153
56 126 153
56 127 153
56 128 153
56 129 153
56 130 153
56 131 153
56 132 153
56 133 153
56 134 153
56 135 153
56 136 153
56 137 153
56 138 153
56 139 153
56 140 153
56 141 153
56 142 153
56 143 153
56 144 153
56 145 153
56 146 153
56 147 153
56 148 153
56 149 153
56 150 153
56 151 153
56 152 153
56 153 153
56 154 153
56 155 153
56 156 153
56 157 153
56 158 153
56 159 153
56 160 153
56 161 153
56 162 153
56 163 153
56 164 153
56 165 153
56 166 153
56 167 153
56 168 153
56 169 153
56 170 153
56 171 153
56 172 153
56 173 153
56 174 153
56 175 153
56 176 153
56 177 153
56 178 153
56 179 153
56 180 153
56 181 153
56 182 153
56 183 153
56 184 153
56 185 153
56 186 153
56 187 153
56 188 153
56 189 153
56 190 153
56 191 153
56 192 153
56 193 153
56 194 153
56 195 153
56 196 153
56 197 153
56 198 153
56 199 153
56 200 153
56 201 153
56 202 153
56 203 153
56 204 153
56 205 153
56 206 153
56 207 153
56 208 153
56 209 153
56 210 153
56 211 153
56 212 153
56 213 153
56 214 153
56 215 153
56 216 153
56 217 153
56 218 153
56 219 153
56 220 153
56 221 153
56 222 153
56 223 153
56 224 153
56 225 153
56 226 153
56 227 153
56 228 153
56 229 153
56 230 153
56 231 153
56 232 153
56 233 153
56 234 153
56 235 153
56 236 153
56 237 153
56 238 153
56 239 153
56 240 153
56 241 153
56 242 153
56 243 153
56 244 153
56 245 153
56 246 153
56 247 153
56 248 153
56 249 153
56 250 153
56 251 153
56 252 153
56 253 153
56 254 153
56 255 153
57 0 153
57 1 153
57 2 153
57 3 153
57 4 153
57 5 153
57 6 153
57 7 153
57 8 153
57 9 153
57 10 153
57 11 153
57 12 153
57 13 153
57 14 153
57 15 153
57 16 153
57 17 153
57 18 153
57 19 153
57 20 153
57 21 153
57 22 153
57 23 153
57 24 153
57 25 153
57 26 153
57 27 153
57 28 153
57 29 153
57 30 153
57 31 153
57 32 153
57 33 153
57 34 153
57 35 153
57 36 153
57 37 153
57 38 153
57 39 153
57 40 153
57 41 153
57 42 153
57 43 153
57 44 153
57 45 153
57 46 153
57 47 153
57 48 153
57 49 153
57 50 153
57 51 153
57 52 153
57 53 153
57 54 153
57 55 153
57 56 153
57 57 153
57 58 153
57 59 153
57 60 153
57 61 153
57 62 153
57 63 153
57 64 153
57 65 153
57 66 153
57 67 153
57 68 153
57 69 153
57 70 153
57 71 153
57 72 153
57 73 153
57 74 153
57 75 153
57 76 153
57 77 153
57 78 153
57 79 153
57 80 153
57 81 153
57 82 153
57 83 153
57 84 153
57 85 153
57 86 153
57 87 153
57 88 153
57 89 153
57 90 153
57 91 153
57 92 153
57 93 153
57 94 153
57 95 153
57 96 153
57 97 153
57 98 153
57 99 153
57 100 153
57 101 153
57 102 153
57 103 153
57 104 153
57 105 153
57 106 153
57 107 153
57 108 153
57 109 153
57 110 153
57 111 153
57 112 153
57 113 153
57 114 153
57 115 153
57 116 153
57 117 153
57 118 153
57 119 153
57 120 153
57 121 153
57 122 153
57 123 153
57 124 153
57 125 153
57 126 153
57 127 153
57 128 153
57 129 153
57 130 153
57 131 153
57 132 153
57 133 153
57 134 153
57 135 153
57 136 153
57 137 153
57 138 153
57 139 153
57 140 153
57 141 153
57 142 153
57 143 153
57 144 153
57 145 153
57 146 153
57 147 153
57 148 153
57 149 153
57 150 153
57 151 153
57 152 153
57 153 153
57 154 153
57 155 153
57 156 153
57 157 153
57 158 153
57 159 153
57 160 153
57 161 153
57 162 153
57 163 153
57 164 153
57 165 153
57 166 153
57 167 153
57 168 153
57 169 153
57 170 153
57 171 153
57 172 153
57 173 153
57 174 153
57 175 153
57 176 153
57 177 153
57 178 153
57 179 153
57 180 153
57 181 153
57 182 153
57 183 153
57 184 153
57 185 153
57 186 153
57 187 153
57 188 153
57 189 153
57 190 153
57 191 153
57 192 153
57 193 153
57 194 153
57 195 153
57 196 153
57 197 153
57 198 153
57 199 153
57 200 153
57 201 153
57 202 153
57 203 153
57 204 153
57 205 153
57 206 153
57 207 153
57 208 153
57 209 153
57 210 153
57 211 153
57 212 153
57 213 153
57 214 153
57 215 153
57 216 153
57 217 153
57 218 153
57 219 153
57 220 153
57 221 153
57 222 153
57 223 153
57 224 153
57 225 153
57 226 153
57 227 153
57 228 153
57 229 153
57 230 153
57 231 153
57 232 153
57 233 153
57 234 153
57 235 153
57 236 153
57 237 153
57 238 153
57 239 153
57 240 153
57 241 153
57 242 153
57 243 153
57 244 153
57 245 153
57 246 153
57 247 153
57 248 153
57 249 153
57 250 153
57 251 153
57 252 153
57 253 153
57 254 153
57 255 153
58 0 153
58 1 153
58 2 153
58 3 153
58 4 153
58 5 153
58 6 153
58 7 153
58 8 153
58 9 153
58 10 153
58 11 153
58 12 153
58 13 153
58 14 153
58 15 153
58 16 153
58 17 153
58 18 153
58 19 153
58 20 153
58 21 153
58 22 153
58 23 153
58 24 153
58 25 153
58 26 153
58 27 153
58 28 153
58 29 153
58 30 153
58 31 153
58 32 153
58 33 153
58 34 153
58 35 153
58 36 153
58 37 153
58 38 153
58 39 153
58 40 153
58 41 153
58 42 153
58 43 153
58 44 153
58 45 153
58 46 153
58 47 153
58 48 153
58 49 153
58 50 153
58 51 153
58 52 153
58 53 153
58 54 153
58 55 153
58 56 153
58 57 153
58 58 153
58 59 153
58 60 153
58 61 153
58 62 153
58 63 153
58 64 153
58 65 153
58 66 153
58 67 153
58 68 153
58 69 153
58 70 153
58 71 153
58 72 153
58 73 153
58 74 153
58 75 153
58 76 153
58 77 153
58 78 153
58 79 153
58 80 153
58 81 153
58 82 153
58 83 153
58 84 153
58 85 153
58 86 153
58 87 153
58 88 153
58 89 153
58 90 153
58 91 153
58 92 153
58 93 153
58 94 153
58 95 153
58 96 153
58 97 153
58 98 153
58 99 153
58 100 153
58 101 153
58 102 153
58 103 153
58 104 153
58 105 153
58 106 153
58 107 153
58 108 153
58 109 153
58 110 153
58 111 153
58 112 153
58 113 153
58 114 153
58 115 153
58 116 153
58 117 153
58 118 153
58 119 153
58 120 153
58 121 153
58 122 153
58 123 153
58 124 153
58 125 153
58 126 153
58 127 153
58 128 153
58 129 153
58 130 153
58 131 153
58 132 153
58 133 153
58 134 153
58 135 153
58 136 153
58 137 153
58 138 153
58 139 153
58 140 153
58 141 153
58 142 153
58 143 153
58 144 153
58 145 153
58 146 153
58 147 153
58 148 153
58 149 153
58 150 153
58 151 153
58 152 153
58 153 153
58 154 153
58 155 153
58 156 153
58 157 153
58 158 153
58 159 153
58 160 153
58 161 153
58 162 153
58 163 153
58 164 153
58 165 153
58 166 153
58 167 153
58 168 153
58 169 153
58 170 153
58 171 153
58 172 153
58 173 153
58 174 153
58 175 153
58 176 153
58 177 153
58 178 153
58 179 153
58 180 153
58 181 153
58 182 153
58 183 153
58 184 153
58 185 153
58 186 153
58 187 153
58 188 153
58 189 153
58 190 153
58 191 153
58 192 153
58 193 153
58 194 153
58 195 153
58 196 153
58 197 153
58 198 153
58 199 153
58 200 153
58 201 153
58 202 153
58 203 153
58 204 153
58 205 153
58 206 153
58 207 153
58 208 153
58 209 153
58 210 153
58 211 153
58 212 153
58 213 153
58 214 153
58 215 153
58 216 153
58 217 153
58 218 153
58 219 153
58 220 153
58 221 153
58 222 153
58 223 153
58 224 153
58 225 153
58 226 153
58 227 153
58 228 153
58 229 153
58 230 153
58 231 153
58 232 153
58 233 153
58 234 153
58 235 153
58 236 153
58 237 153
58 238 153
58 239 153
58 240 153
58 241 153
58 242 153
58 243 153
58 244 153
58 245 153
58 246 153
58 247 153
58 248 153
58 249 153
58 250 153
58 251 153
58 252 153
58 253 153
58 254 153
58 255 153
59 0 153
59 1 153
59 2 153
59 3 153
59 4 153
59 5 153
59 6 153
59 7 153
59 8 153
59 9 153
59 10 153
59 11 153
59 12 153
59 13 153
59 14 153
59 15 153
59 16 153
59 17 153
59 18 153
59 19 153
59 20 153
59 21 153
59 22 153
59 23 153
59 24 153
59 25 153
59 26 153
59 27 153
59 28 153
59 29 153
59 30 153
59 31 153
59 32 153
59 33 153
59 34 153
59 35 153
59 36 153
59 37 153
59 38 153
59 39 153
59 40 153
59 41 153
59 42 153
59 43 153
59 44 153
59 45 153
59 46 153
59 47 153
59 48 153
59 49 153
59 50 153
59 51 153
59 52 153
59 53 153
59 54 153
59 55 153
59 56 153
59 57 153
59 58 153
59 59 153
59 60 153
59 61 153
59 62 153
59 63 153
59 64 153
59 65 153
59 66 153
59 67 153
59 68 153
59 69 153
59 70 153
59 71 153
59 72 153
59 73 153
59 74 153
59 75 153
59 76 153
59 77 153
59 78 153
59 79 153
59 80 153
59 81 153
59 82 153
59 83 153
59 84 153
59 85 153
59 86 153
59 87 153
59 88 153
59 89 153
59 90 153
59 91 153
59 92 153
59 93 153
59 94 153
59 95 153
59 96 153
59 97 153
59 98 153
59 99 153
59 100 153
59 101 153
59 102 153
59 103 153
59 104 153
59 105 153
59 106 153
59 107 153
59 108 153
59 109 153
59 110 153
59 111 153
59 112 153
59 113 153
59 114 153
59 115 153
59 116 153
59 117 153
59 118 153
59 119 153
59 120 153
59 121 153
59 122 153
59 123 153
59 124 153
59 125 153
59 126 153
59 127 153
59 128 153
59 129 153
59 130 153
59 131 153
59 132 153
59 133 153
59 134 153
59 135 153
59 136 153
59 137 153
59 138 153
59 139 153
59 140 153
59 141 153
59 142 153
59 143 153
59 144 153
59 145 153
59 146 153
59 147 153
59 148 153
59 149 153
59 150 153
59 151 153
59 152 153
59 153 153
59 154 153
59 155 153
59 156 153
59 157 153
59 158 153
59 159 153
59 160 153
59 161 153
59 162 153
59 163 153
59 164 153
59 165 153
59 166 153
59 167 153
59 168 153
59 169 153
59 170 153
59 171 153
59 172 153
59 173 153
59 174 153
59 175 153
59 176 153
59 177 153
59 178 153
59 179 153
59 180 153
59 181 153
59 182 153
59 183 153
59 184 153
59 185 153
59 186 153
59 187 153
59 188 153
59 189 153
59 190 153
59 191 153
59 192 153
59 193 153
59 194 153
59 195 153
59 196 153
59 197 153
59 198 153
59 199 153
59 200 153
59 201 153
59 202 153
59 203 153
59 204 153
59 205 153
59 206 153
59 207 153
59 208 153
59 209 153
59 210 153
59 211 153
59 212 153
59 213 153
59 214 153
59 215 153
59 216 153
59 217 153
59 218 153
59 219 153
59 220 153
59 221 153
59 222 153
59 223 153
59 224 153
59 225 153
59 226 153
59 227 153
59 228 153
59 229 153
59 230 153
59 231 153
59 232 153
59 233 153
59 234 153
59 235 153
59 236 153
59 237 153
59 238 153
59 239 153
59 240 153
59 241 153
59 242 153
59 243 153
59 244 153
59 245 153
59 246 153
59 247 153
59 248 153
59 249 153
59 250 153
59 251 153
59 252 153
59 253 153
59 254 153
59 255 153
60 0 153
60 1 153
60 2 153
60 3 153
60 4 153
60 5 153
60 6 153
60 7 153
60 8 153
60 9 153
60 10 153
60 11 153
60 12 153
60 13 153
60 14 153
60 15 153
60 16 153
60 17 153
60 18 153
60 19 153
60 20 153
60 21 153
60 22 153
60 23 153
60 24 153
60 25 153
60 26 153
60 27 153
60 28 153
60 29 153
60 30 153
60 31 153
60 32 153
60 33 153
60 34 153
60 35 153
60 36 153
60 37 153
60 38 153
60 39 153
60 40 153
60 41 153
60 42 153
60 43 153
60 44 153
60 45 153
60 46 153
60 47 153
60 48 153
60 49 153
60 50 153
60 51 153
60 52 153
60 53 153
60 54 153
60 55 153
60 56 153
60 57 153
60 58 153
60 59 153
60 60 153
60 61 153
60 62 153
60 63 153
60 64 153
60 65 153
60 66 153
60 67 153
60 68 153
60 69 153
60 70 153
60 71 153
60 72 153
60 73 153
60 74 153
60 75 153
60 76 153
60 77 153
60 78 153
60 79 153
60 80 153
60 81 153
60 82 153
60 83 153
60 84 153
60 85 153
60 86 153
60 87 153
60 88 153
60 89 153
60 90 153
60 91 153
60 92 153
60 93 153
60 94 153
60 95 153
60 96 153
60 97 153
60 98 153
60 99 153
60 100 153
60 101 153
60 102 153
60 103 153
60 104 153
60 105 153
60 106 153
60 107 153
60 108 153
60 109 153
60 110 153
60 111 153
60 112 153
60 113 153
60 114 153
60 115 153
60 116 153
60 117 153
60 118 153
60 119 153
60 120 153
60 121 153
60 122 153
60 123 153
60 124 153
60 125 153
60 126 153
60 127 153
60 128 153
60 129 153
60 130 153
60 131 153
60 132 153
60 133 153
60 134 153
60 135 153
60 136 153
60 137 153
60 138 153
60 139 153
60 140 153
60 141 153
60 142 153
60 143 153
60 144 153
60 145 153
60 146 153
60 147 153
60 148 153
60 149 153
60 150 153
60 151 153
60 152 153
60 153 153
60 154 153
60 155 153
60 156 153
60 157 153
60 158 153
60 159 153
60 160 153
60 161 153
60 162 153
60 163 153
60 164 153
60 165 153
60 166 153
60 167 153
60 168 153
60 169 153
60 170 153
60 171 153
60 172 153
60 173 153
60 174 153
60 175 153
60 176 153
60 177 153
60 178 153
60 179 153
60 180 153
60 181 153
60 182 153
60 183 153
60 184 153
60 185 153
60 186 153
60 187 153
60 188 153
60 189 153
60 190 153
60 191 153
60 192 153
60 193 153
60 194 153
60 195 153
60 196 153
60 197 153
60 198 153
60 199 153
60 200 153
60 201 153
60 202 153
60 203 153
60 204 153
60 205 153
60 206 153
60 207 153
60 208 153
60 209 153
60 210 153
60 211 153
60 212 153
60 213 153
60 214 153
60 215 153
60 216 153
60 217 153
60 218 153
60 219 153
60 220 153
60 221 153
60 222 153
60 223 153
60 224 153
60 225 153
60 226 153
60 227 153
60 228 153
60 229 153
60 230 153
60 231 153
60 232 153
60 233 153
60 234 153
60 235 153
60 236 153
60 237 153
60 238 153
60 239 153
60 240 153
60 241 153
60 242 153
60 243 153
60 244 153
60 245 153
60 246 153
60 247 153
60 248 153
60 249 153
60 250 153
60 251 153
60 252 153
60 253 153
60 254 153
60 255 153
61 0 153
61 1 153
61 2 153
61 3 153
61 4 153
61 5 153
61 6 153
61 7 153
61 8 153
61 9 153
61 10 153
61 11 153
61 12 153
61 13 153
61 14 153
61 15 153
61 16 153
61 17 153
61 18 153
61 19 153
61 20 153
61 21 153
61 22 153
61 23 153
61 24 153
61 25 153
61 26 153
61 27 153
61 28 153
61 29 153
61 30 153
61 31 153
61 32 153
61 33 153
61 34 153
61 35 153
61 36 153
61 37 153
61 38 153
61 39 153
61 40 153
61 41 153
61 42 153
61 43 153
61 44 153
61 45 153
61 46 153
61 47 153
61 48 153
61 49 153
61 50 153
61 51 153
61 52 153
61 53 153
61 54 153
61 55 153
61 56 153
61 57 153
61 58 153
61 59 153
61 60 153
61 61 153
61 62 153
61 63 153
61 64 153
61 65 153
61 66 153
61 67 153
61 68 153
61 69 153
61 70 153
61 71 153
61 72 153
61 73 153
61 74 153
61 75 153
61 76 153
61 77 153
61 78 153
61 79 153
61 80 153
61 81 153
61 82 153
61 83 153
61 84 153
61 85 153
61 86 153
61 87 153
61 88 153
61 89 153
61 90 153
61 91 153
61 92 153
61 93 153
61 94 153
61 95 153
61 96 153
61 97 153
61 98 153
61 99 153
61 100 153
61 101 153
61 102 153
61 103 153
61 104 153
61 105 153
61 106 153
61 107 153
61 108 153
61 109 153
61 110 153
61 111 153
61 112 153
61 113 153
61 114 153
61 115 153
61 116 153
61 117 153
61 118 153
61 119 153
61 120 153
61 121 153
61 122 153
61 123 153
61 124 153
61 125 153
61 126 153
61 127 153
61 128 153
61 129 153
61 130 153
61 131 153
61 132 153
61 133 153
61 134 153
61 135 153
61 136 153
61 137 153
61 138 153
61 139 153
61 140 153
61 141 153
61 142 153
61 143 153
61 144 153
61 145 153
61 146 153
61 147 153
61 148 153
61 149 153
61 150 153
61 151 153
61 152 153
61 153 153
61 154 153
61 155 153
61 156 153
61 157 153
61 158 153
61 159 153
61 160 153
61 161 153
61 162 153
61 163 153
61 164 153
61 165 153
61 166 153
61 167 153
61 168 153
61 169 153
61 170 153
61 171 153
61 172 153
61 173 153
61 174 153
61 175 153
61 176 153
61 177 153
61 178 153
61 179 153
61 180 153
61 181 153
61 182 153
61 183 153
61 184 153
61 185 153
61 186 153
61 187 153
61 188 153
61 189 153
61 190 153
61 191 153
61 192 153
61 193 153
61 194 153
61 195 153
61 196 153
61 197 153
61 198 153
61 199 153
61 200 153
61 201 153
61 202 153
61 203 153
61 204 153
61 205 153
61 206 153
61 207 153
61 208 153
61 209 153
61 210 153
61 211 153
61 212 153
61 213 153
61 214 153
61 215 153
61 216 153
61 217 153
61 218 153
61 219 153
61 220 153
61 221 153
61 222 153
61 223 153
61 224 153
61 225 153
61 226 153
61 227 153
61 228 153
61 229 153
61 230 153
61 231 153
61 232 153
61 233 153
61 234 153
61 235 153
61 236 153
61 237 153
61 238 153
61 239 153
61 240 153
61 241 153
61 242 153
61 243 153
61 244 153
61 245 153
61 246 153
61 247 153
61 248 153
61 249 153
61 250 153
61 251 153
61 252 153
61 253 153
61 254 153
61 255 153
62 0 153
62 1 153
62 2 153
62 3 153
62 4 153
62 5 153
62 6 153
62 7 153
62 8 153
62 9 153
62 10 153
62 11 153
62 12 153
62 13 153
62 14 153
62 15 153
62 16 153
62 17 153
62 18 153
62 19 153
62 20 153
62 21 153
62 22 153
62 23 153
62 24 153
62 25 153
62 26 153
62 27 153
62 28 153
62 29 153
62 30 153
62 31 153
62 32 153
62 33 153
62 34 153
62 35 153
62 36 153
62 37 153
62 38 153
62 39 153
62 40 153
62 41 153
62 42 153
62 43 153
62 44 153
62 45 153
62 46 153
62 47 153
62 48 153
62 49 153
62 50 153
62 51 153
62 52 153
62 53 153
62 54 153
62 55 153
62 56 153
62 57 153
62 58 153
62 59 153
62 60 153
62 61 153
62 62 153
62 63 153
62 64 153
62 65 153
62 66 153
62 67 153
62 68 153
62 69 153
62 70 153
62 71 153
62 72 153
62 73 153
62 74 153
62 75 153
62 76 153
62 77 153
62 78 153
62 79 153
62 80 153
62 81 153
62 82 153
62 83 153
62 84 153
62 85 153
62 86 153
62 87 153
62 88 153
62 89 153
62 90 153
62 91 153
62 92 153
62 93 153
62 94 153
62 95 153
62 96 153
62 97 153
62 98 153
62 99 153
62 100 153
62 101 153
62 102 153
62 103 153
62 104 153
62 105 153
62 106 153
62 107 153
62 108 153
62 109 153
62 110 153
62 111 153
62 112 153
62 113 153
62 114 153
62 115 153
62 116 153
62 117 153
62 118 153
62 119 153
62 120 153
62 121 153
62 122 153
62 123 153
62 124 153
62 125 153
62 126 153
62 127 153
62 128 153
62 129 153
62 130 153
62 131 153
62 132 153
62 133 153
62 134 153
62 135 153
62 136 153
62 137 153
62 138 153
62 139 153
62 140 153
62 141 153
62 142 153
62 143 153
62 144 153
62 145 153
62 146 153
62 147 153
62 148 153
62 149 153
62 150 153
62 151 153
62 152 153
62 153 153
62 154 153
62 155 153
62 156 153
62 157 153
62 158 153
62 159 153
62 160 153
62 161 153
62 162 153
62 163 153
62 164 153
62 165 153
62 166 153
62 167 153
62 168 153
62 169 153
62 170 153
62 171 153
62 172 153
62 173 153
62 174 153
62 175 153
62 176 153
62 177 153
62 178 153
62 179 153
62 180 153
62 181 153
62 182 153
62 183 153
62 184 153
62 185 153
62 186 153
62 187 153
62 188 153
62 189 153
62 190 153
62 191 153
62 192 153
62 193 153
62 194 153
62 195 153
62 196 153
62 197 153
62 198 153
62 199 153
62 200 153
62 201 153
62 202 153
62 203 153
62 204 153
62 205 153
62 206 153
62 207 153
62 208 153
62 209 153
62 210 153
62 211 153
62 212 153
62 213 153
62 214 153
62 215 153
62 216 153
62 217 153
62 218 153
62 219 153
62 220 153
62 221 153
62 222 153
62 223 153
62 224 153
62 225 153
62 226 153
62 227 153
62 228 153
62 229 153
62 230 153
62 231 153
62 232 153
62 233 153
62 234 153
62 235 153
62 236 153
62 237 153
62 238 153
62 239 153
62 240 153
62 241 153
62 242 153
62 243 153
62 244 153
62 245 153
62 246 153
62 247 153
62 248 153
62 249 153
62 250 153
62 251 153
62 252 153
62 253 153
62 254 153
62 255 153
63 0 153
63 1 153
63 2 153
63 3 153
63 4 153
63 5 153
63 6 153
63 7 153
63 8 153
63 9 153
63 10 153
63 11 153
63 12 153
63 13 153
63 14 153
63 15 153
63 16 153
63 17 153
63 18 153
63 19 153
63 20 153
63 21 153
63 22 153
63 23 153
63 24 153
63 25 153
63 26 153
63 27 153
63 28 153
63 29 153
63 30 153
63 31 153
63 32 153
63 33 153
63 34 153
63 35 153
63 36 153
63 37 153
63 38 153
63 39 153
63 40 153
63 41 153
63 42 153
63 43 153
63 44 153
63 45 153
63 46 153
63 47 153
63 48 153
63 49 153
63 50 153
63 51 153
63 52 153
63 53 153
63 54 153
63 55 153
63 56 153
63 57 153
63 58 153
63 59 153
63 60 153
63 61 153
63 62 153
63 63 153
63 64 153
63 65 153
63 66 153
63 67 153
63 68 153
63 69 153
63 70 153
63 71 153
63 72 153
63 73 153
63 74 153
63 75 153
63 76 153
63 77 153
63 78 153
63 79 153
63 80 153
63 81 153
63 82 153
63 83 153
63 84 153
63 85 153
63 86 153
63 87 153
63 88 153
63 89 153
63 90 153
63 91 153
63 92 153
63 93 153
63 94 153
63 95 153
63 96 153
63 97 153
63 98 153
63 99 153
63 100 153
63 101 153
63 102 153
63 103 153
63 104 153
63 105 153
63 106 153
63 107 153
63 108 153
63 109 153
63 110 153
63 111 153
63 112 153
63 113 153
63 114 153
63 115 153
63 116 153
63 117 153
63 118 153
63 119 153
63 120 153
63 121 153
63 122 153
63 123 153
63 124 153
63 125 153
63 126 153
63 127 153
63 128 153
63 129 153
63 130 153
63 131 153
63 132 153
63 133 153
63 134 153
63 135 153
63 136 153
63 137 153
63 138 153
63 139 153
63 140 153
63 141 153
63 142 153
63 143 153
63 144 153
63 145 153
63 146 153
63 147 153
63 148 153
63 149 153
63 150 153
63 151 153
63 152 153
63 153 153
63 154 153
63 155 153
63 156 153
63 157 153
63 158 153
63 159 153
63 160 153
63 161 153
63 162 153
63 163 153
63 164 153
63 165 153
63 166 153
63 167 153
63 168 153
63 169 153
63 170 153
63 171 153
63 172 153
63 173 153
63 174 153
63 175 153
63 176 153
63 177 153
63 178 153
63 179 153
63 180 153
63 181 153
63 182 153
63 183 153
63 184 153
63 185 153
63 186 153
63 187 153
63 188 153
63 189 153
63 190 153
63 191 153
63 192 153
63 193 153
63 194 153
63 195 153
63 196 153
63 197 153
63 198 153
63 199 153
63 200 153
63 201 153
63 202 153
63 203 153
63 204 153
63 205 153
63 206 153
63 207 153
63 208 153
63 209 153
63 210 153
63 211 153
63 212 153
63 213 153
63 214 153
63 215 153
63 216 153
63 217 153
63 218 153
63 219 153
63 220 153
63 221 153
63 222 153
63 223 153
63 224 153
63 225 153
63 226 153
63 227 153
63 228 153
63 229 153
63 230 153
63 231 153
63 232 153
63 233 153
63 234 153
63 235 153
63 236 153
63 237 153
63 238 153
63 239 153
63 240 153
63 241 153
63 242 153
63 243 153
63 244 153
63 245 153
63 246 153
63 247 153
63 248 153
63 249 153
63 250 153
63 251 153
63 252 153
63 253 153
63 254 153
63 255 153
64 0 153
64 1 153
64 2 153
64 3 153
64 4 153
64 5 153
64 6 153
64 7 153
64 8 153
64 9 153
64 10 153
64 11 153
64 12 153
64 13 153
64 14 153
64 15 153
64 16 153
64 17 153
64 18 153
64 19 153
64 20 153
64 21 153
64 22 153
64 23 153
64 24 153
64 25 153
64 26 153
64 27 153
64 28 153
64 29 153
64 30 153
64 31 153
64 32 153
64 33 153
64 34 153
64 35 153
64 36 153
64 37 153
64 38 153
64 39 153
64 40 153
64 41 153
64 42 153
64 43 153
64 44 153
64 45 153
64 46 153
64 47 153
64 48 153
64 49 153
64 50 153
64 51 153
64 52 153
64 53 153
64 54 153
64 55 153
64 56 153
64 57 153
64 58 153
64 59 153
64 60 153
64 61 153
64 62 153
64 63 153
64 64 153
64 65 153
64 66 153
64 67 153
64 68 153
64 69 153
64 70 153
64 71 153
64 72 153
64 73 153
64 74 153
64 75 153
64 76 153
64 77 153
64 78 153
64 79 153
64 80 153
64 81 153
64 82 153
64 83 153
64 84 153
64 85 153
64 86 153
64 87 153
64 88 153
64 89 153
64 90 153
64 91 153
64 92 153
64 93 153
64 94 153
64 95 153
64 96 153
64 97 153
64 98 153
64 99 153
64 100 153
64 101 153
64 102 153
64 103 153
64 104 153
64 105 153
64 106 153
64 107 153
64 108 153
64 109 153
64 110 153
64 111 153
64 112 153
64 113 153
64 114 153
64 115 153
64 116 153
64 117 153
64 118 153
64 119 153
64 120 153
64 121 153
64 122 153
64 123 153
64 124 153
64 125 153
64 126 153
64 127 153
64 128 153
64 129 153
64 130 153
64 131 153
64 132 153
64 133 153
64 134 153
64 135 153
64 136 153
64 137 153
64 138 153
64 139 153
64 140 153
64 141 153
64 142 153
64 143 153
64 144 153
64 145 153
64 146 153
64 147 153
64 148 153
64 149 153
64 150 153
64 151 153
64 152 153
64 153 153
64 154 153
64 155 153
64 156 153
64 157 153
64 158 153
64 159 153
64 160 153
64 161 153
64 162 153
64 163 153
64 164 153
64 165 153
64 166 153
64 167 153
64 168 153
64 169 153
64 170 153
64 171 153
64 172 153
64 173 153
64 174 153
64 175 153
64 176 153
64 177 153
64 178 153
64 179 153
64 180 153
64 181 153
64 182 153
64 183 153
64 184 153
64 185 153
64 186 153
64 187 153
64 188 153
64 189 153
64 190 153
64 191 153
64 192 153
64 193 153
64 194 153
64 195 153
64 196 153
64 197 153
64 198 153
64 199 153
64 200 153
64 201 153
64 202 153
64 203 153
64 204 153
64 205 153
64 206 153
64 207 153
64 208 153
64 209 153
64 210 153
64 211 153
64 212 153
64 213 153
64 214 153
64 215 153
64 216 153
64 217 153
64 218 153
64 219 153
64 220 153
64 221 153
64 222 153
64 223 153
64 224 153
64 225 153
64 226 153
64 227 153
64 228 153
64 229 153
64 230 153
64 231 153
64 232 153
64 233 153
64 234 153
64 235 153
64 236 153
64 237 153
64 238 153
64 239 153
64 240 153
64 241 153
64 242 153
64 243 153
64 244 153
64 245 153
64 246 153
64 247 153
64 248 153
64 249 153
64 250 153
64 251 153
64 252 153
64 253 153
64 254 153
64 255 153
65 0 153
65 1 153
65 2 153
65 3 153
65 4 153
65 5 153
65 6 153
65 7 153
65 8 153
65 9 153
65 10 153
65 11 153
65 12 153
65 13 153
65 14 153
65 15 153
65 16 153
65 17 153
65 18 153
65 19 153
65 20 153
65 21 153
65 22 153
65 23 153
65 24 153
65 25 153
65 26 153
65 27 153
65 28 153
65 29 153
65 30 153
65 31 153
65 32 153
65 33 153
65 34 153
65 35 153
65 36 153
65 37 153
65 38 153
65 39 153
65 40 153
65 41 153
65 42 153
65 43 153
65 44 153
65 45 153
65 46 153
65 47 153
65 48 153
65 49 153
65 50 153
65 51 153
65 52 153
65 53 153
65 54 153
65 55 153
65 56 153
65 57 153
65 58 153
65 59 153
65 60 153
65 61 153
65 62 153
65 63 153
65 64 153
65 65 153
65 66 153
65 67 153
65 68 153
65 69 153
65 70 153
65 71 153
65 72 153
65 73 153
65 74 153
65 75 153
65 76 153
65 77 153
65 78 153
65 79 153
65 80 153
65 81 153
65 82 153
65 83 153
65 84 153
65 85 153
65 86 153
65 87 153
65 88 153
65 89 153
65 90 153
65 91 153
65 92 153
65 93 153
65 94 153
65 95 153
65 96 153
65 97 153
65 98 153
65 99 153
65 100 153
65 101 153
65 102 153
65 103 153
65 104 153
65 105 153
65 106 153
65 107 153
65 108 153
65 109 153
65 110 153
65 111 153
65 112 153
65 113 153
65 114 153
65 115 153
65 116 153
65 117 153
65 118 153
65 119 153
65 120 153
65 121 153
65 122 153
65 123 153
65 124 153
65 125 153
65 126 153
65 127 153
65 128 153
65 129 153
65 130 153
65 131 153
65 132 153
65 133 153
65 134 153
65 135 153
65 136 153
65 137 153
65 138 153
65 139 153
65 140 153
65 141 153
65 142 153
65 143 153
65 144 153
65 145 153
65 146 153
65 147 153
65 148 153
65 149 153
65 150 153
65 151 153
65 152 153
65 153 153
65 154 153
65 155 153
65 156 153
65 157 153
65 158 153
65 159 153
65 160 153
65 161 153
65 162 153
65 163 153
65 164 153
65 165 153
65 166 153
65 167 153
65 168 153
65 169 153
65 170 153
65 171 153
65 172 153
65 173 153
65 174 153
65 175 153
65 176 153
65 177 153
65 178 153
65 179 153
65 180 153
65 181 153
65 182 153
65 183 153
65 184 153
65 185 153
65 186 153
65 187 153
65 188 153
65 189 153
65 190 153
65 191 153
65 192 153
65 193 153
65 194 153
65 195 153
65 196 153
65 197 153
65 198 153
65 199 153
65 200 153
65 201 153
65 202 153
65 203 153
65 204 153
65 205 153
65 206 153
65 207 153
65 208 153
65 209 153
65 210 153
65 211 153
65 212 153
65 213 153
65 214 153
65 215 153
65 216 153
65 217 153
65 218 153
65 219 153
65 220 153
65 221 153
65 222 153
65 223 153
65 224 153
65 225 153
65 226 153
65 227 153
65 228 153
65 229 153
65 230 153
65 231 153
65 232 153
65 233 153
65 234 153
65 235 153
65 236 153
65 237 153
65 238 153
65 239 153
65 240 153
65 241 153
65 242 153
65 243 153
65 244 153
65 245 153
65 246 153
65 247 153
65 248 153
65 249 153
65 250 153
65 251 153
65 252 153
65 253 153
65 254 153
65 255 153
66 0 153
66 1 153
66 2 153
66 3 153
66 4 153
66 5 153
66 6 153
66 7 153
66 8 153
66 9 153
66 10 153
66 11 153
66 12 153
66 13 153
66 14 153
66 15 153
66 16 153
66 17 153
66 18 153
66 19 153
66 20 153
66 21 153
66 22 153
66 23 153
66 24 153
66 25 153
66 26 153
66 27 153
66 28 153
66 29 153
66 30 153
66 31 153
66 32 153
66 33 153
66 34 153
66 35 153
66 36 153
66 37 153
66 38 153
66 39 153
66 40 153
66 41 153
66 42 153
66 43 153
66 44 153
66 45 153
66 46 153
66 47 153
66 48 153
66 49 153
66 50 153
66 51 153
66 52 153
66 53 153
66 54 153
66 55 153
66 56 153
66 57 153
66 58 153
66 59 153
66 60 153
66 61 153
66 62 153
66 63 153
66 64 153
66 65 153
66 66 153
66 67 153
66 68 153
66 69 153
66 70 153
66 71 153
66 72 153
66 73 153
66 74 153
66 75 153
66 76 153
66 77 153
66 78 153
66 79 153
66 80 153
66 81 153
66 82 153
66 83 153
66 84 153
66 85 153
66 86 153
66 87 153
66 88 153
66 89 153
66 90 153
66 91 153
66 92 153
66 93 153
66 94 153
66 95 153
66 96 153
66 97 153
66 98 153
66 99 153
66 100 153
66 101 153
66 102 153
66 103 153
66 104 153
66 105 153
66 106 153
66 107 153
66 108 153
66 109 153
66 110 153
66 111 153
66 112 153
66 113 153
66 114 153
66 115 153
66 116 153
66 117 153
66 118 153
66 119 153
66 120 153
66 121 153
66 122 153
66 123 153
66 124 153
66 125 153
66 126 153
66 127 153
66 128 153
66 129 153
66 130 153
66 131 153
66 132 153
66 133 153
66 134 153
66 135 153
66 136 153
66 137 153
66 138 153
66 139 153
66 140 153
66 141 153
66 142 153
66 143 153
66 144 153
66 145 153
66 146 153
66 147 153
66 148 153
66 149 153
66 150 153
66 151 153
66 152 153
66 153 153
66 154 153
66 155 153
66 156 153
66 157 153
66 158 153
66 159 153
66 160 153
66 161 153
66 162 153
66 163 153
66 164 153
66 165 153
66 166 153
66 167 153
66 168 153
66 169 153
66 170 153
66 171 153
66 172 153
66 173 153
66 174 153
66 175 153
66 176 153
66 177 153
66 178 153
66 179 153
66 180 153
66 181 153
66 182 153
66 183 153
66 184 153
66 185 153
66 186 153
66 187 153
66 188 153
66 189 153
66 190 153
66 191 153
66 192 153
66 193 153
66 194 153
66 195 153
66 196 153
66 197 153
66 198 153
66 199 153
66 200 153
66 201 153
66 202 153
66 203 153
66 204 153
66 205 153
66 206 153
66 207 153
66 208 153
66 209 153
66 210 153
66 211 153
66 212 153
66 213 153
66 214 153
66 215 153
66 216 153
66 217 153
66 218 153
66 219 153
66 220 153
66 221 153
66 222 153
66 223 153
66 224 153
66 225 153
66 226 153
66 227 153
66 228 153
66 229 153
66 230 153
66 231 153
66 232 153
66 233 153
66 234 153
66 235 153
66 236 153
66 237 153
66 238 153
66 239 153
66 240 153
66 241 153
66 242 153
66 243 153
66 244 153
66 245 153
66 246 153
66 247 153
66 248 153
66 249 153
66 250 153
66 251 153
66 252 153
66 253 153
66 254 153
66 255 153
67 0 153
67 1 153
67 2 153
67 3 153
67 4 153
67 5 153
67 6 153
67 7 153
67 8 153
67 9 153
67 10 153
67 11 153
67 12 153
67 13 153
67 14 153
67 15 153
67 16 153
67 17 153
67 18 153
67 19 153
67 20 153
67 21 153
67 22 153
67 23 153
67 24 153
67 25 153
67 26 153
67 27 153
67 28 153
67 29 153
67 30 153
67 31 153
67 32 153
67 33 153
67 34 153
67 35 153
67 36 153
67 37 153
67 38 153
67 39 153
67 40 153
67 41 153
67 42 153
67 43 153
67 44 153
67 45 153
67 46 153
67 47 153
67 48 153
67 49 153
67 50 153
67 51 153
67 52 153
67 53 153
67 54 153
67 55 153
67 56 153
67 57 153
67 58 153
67 59 153
67 60 153
67 61 153
67 62 153
67 63 153
67 64 153
67 65 153
67 66 153
67 67 153
67 68 153
67 69 153
67 70 153
67 71 153
67 72 153
67 73 153
67 74 153
67 75 153
67 76 153
67 77 153
67 78 153
67 79 153
67 80 153
67 81 153
67 82 153
67 83 153
67 84 153
67 85 153
67 86 153
67 87 153
67 88 153
67 89 153
67 90 153
67 91 153
67 92 153
67 93 153
67 94 153
67 95 153
67 96 153
67 97 153
67 98 153
67 99 153
67 100 153
67 101 153
67 102 153
67 103 153
67 104 153
67 105 153
67 106 153
67 107 153
67 108 153
67 109 153
67 110 153
67 111 153
67 112 153
67 113 153
67 114 153
67 115 153
67 116 153
67 117 153
67 118 153
67 119 153
67 120 153
67 121 153
67 122 153
67 123 153
67 124 153
67 125 153
67 126 153
67 127 153
67 128 153
67 129 153
67 130 153
67 131 153
67 132 153
67 133 153
67 134 153
67 135 153
67 136 153
67 137 153
67 138 153
67 139 153
67 140 153
67 141 153
67 142 153
67 143 153
67 144 153
67 145 153
67 146 153
67 147 153
67 148 153
67 149 153
67 150 153
67 151 153
67 152 153
67 153 153
67 154 153
67 155 153
67 156 153
67 157 153
67 158 153
67 159 153
67 160 153
67 161 153
67 162 153
67 163 153
67 164 153
67 165 153
67 166 153
67 167 153
67 168 153
67 169 153
67 170 153
67 171 153
67 172 153
67 173 153
67 174 153
67 175 153
67 176 153
67 177 153
67 178 153
67 179 153
67 180 153
67 181 153
67 182 153
67 183 153
67 184 153
67 185 153
67 186 153
67 187 153
67 188 153
67 189 153
67 190 153
67 191 153
67 192 153
67 193 153
67 194 153
67 195 153
67 196 153
67 197 153
67 198 153
67 199 153
67 200 153
67 201 153
67 202 153
67 203 153
67 204 153
67 205 153
67 206 153
67 207 153
67 208 153
67 209 153
67 210 153
67 211 153
67 212 153
67 213 153
67 214 153
67 215 153
67 216 153
67 217 153
67 218 153
67 219 153
67 220 153
67 221 153
67 222 153
67 223 153
67 224 153
67 225 153
67 226 153
67 227 153
67 228 153
67 229 153
67 230 153
67 231 153
67 232 153
67 233 153
67 234 153
67 235 153
67 236 153
67 237 153
67 238 153
67 239 153
67 240 153
67 241 153
67 242 153
67 243 153
67 244 153
67 245 153
67 246 153
67 247 153
67 248 153
67 249 153
67 250 153
67 251 153
67 252 153
67 253 153
67 254 153
67 255 153
68 0 153
68 1 153
68 2 153
68 3 153
68 4 153
68 5 153
68 6 153
68 7 153
68 8 153
68 9 153
68 10 153
68 11 153
68 12 153
68 13 153
68 14 153
68 15 153
68 16 153
68 17 153
68 18 153
68 19 153
68 20 153
68 21 153
68 22 153
68 23 153
68 24 153
68 25 153
68 26 153
68 27 153
68 28 153
68 29 153
68 30 153
68 31 153
68 32 153
68 33 153
68 34 153
68 35 153
68 36 153
68 37 153
68 38 153
68 39 153
68 40 153
68 41 153
68 42 153
68 43 153
68 44 153
68 45 153
68 46 153
68 47 153
68 48 153
68 49 153
68 50 153
68 51 153
68 52 153
68 53 153
68 54 153
68 55 153
68 56 153
68 57 153
68 58 153
68 59 153
68 60 153
68 61 153
68 62 153
68 63 153
68 64 153
68 65 153
68 66 153
68 67 153
68 68 153
68 69 153
68 70 153
68 71 153
68 72 153
68 73 153
68 74 153
68 75 153
68 76 153
68 77 153
68 78 153
68 79 153
68 80 153
68 81 153
68 82 153
68 83 153
68 84 153
68 85 153
68 86 153
68 87 153
68 88 153
68 89 153
68 90 153
68 91 153
68 92 153
68 93 153
68 94 153
68 95 153
68 96 153
68 97 153
68 98 153
68 99 153
68 100 153
68 101 153
68 102 153
68 103 153
68 104 153
68 105 153
68 106 153
68 107 153
68 108 153
68 109 153
68 110 153
68 111 153
68 112 153
68 113 153
68 114 153
68 115 153
68 116 153
68 117 153
68 118 153
68 119 153
68 120 153
68 121 153
68 122 153
68 123 153
68 124 153
68 125 153
68 126 153
68 127 153
68 128 153
68 129 153
68 130 153
68 131 153
68 132 153
68 133 153
68 134 153
68 135 153
68 136 153
68 137 153
68 138 153
68 139 153
68 140 153
68 141 153
68 142 153
68 143 153
68 144 153
68 145 153
68 146 153
68 147 153
68 148 153
68 149 153
68 150 153
68 151 153
68 152 153
68 153 153
68 154 153
68 155 153
68 156 153
68 157 153
68 158 153
68 159 153
68 160 153
68 161 153
68 162 153
68 163 153
68 164 153
68 165 153
68 166 153
68 167 153
68 168 153
68 169 153
68 170 153
68 171 153
68 172 153
68 173 153
68 174 153
68 175 153
68 176 153
68 177 153
68 178 153
68 179 153
68 180 153
68 181 153
68 182 153
68 183 153
68 184 153
68 185 153
68 186 153
68 187 153
68 188 153
68 189 153
68 190 153
68 191 153
68 192 153
68 193 153
68 194 153
68 195 153
68 196 153
68 197 153
68 198 153
68 199 153
68 200 153
68 201 153
68 202 153
68 203 153
68 204 153
68 205 153
68 206 153
68 207 153
68 208 153
68 209 153
68 210 153
68 211 153
68 212 153
68 213 153
68 214 153
68 215 153
68 216 153
68 217 153
68 218 153
68 219 153
68 220 153
68 221 153
68 222 153
68 223 153
68 224 153
68 225 153
68 226 153
68 227 153
68 228 153
68 229 153
68 230 153
68 231 153
68 232 153
68 233 153
68 234 153
68 235 153
68 236 153
68 237 153
68 238 153
68 239 153
68 240 153
68 241 153
68 242 153
68 243 153
68 244 153
68 245 153
68 246 153
68 247 153
68 248 153
68 249 153
68 250 153
68 251 153
68 252 153
68 253 153
68 254 153
68 255 153
69 0 153
69 1 153
69 2 153
69 3 153
69 4 153
69 5 153
69 6 153
69 7 153
69 8 153
69 9 153
69 10 153
69 11 153
69 12 153
69 13 153
69 14 153
69 15 153
69 16 153
69 17 153
69 18 153
69 19 153
69 20 153
69 21 153
69 22 153
69 23 153
69 24 153
69 25 153
69 26 153
69 27 153
69 28 153
69 29 153
69 30 153
69 31 153
69 32 153
69 33 153
69 34 153
69 35 153
69 36 153
69 37 153
69 38 153
69 39 153
69 40 153
69 41 153
69 42 153
69 43 153
69 44 153
69 45 153
69 46 153
69 47 153
69 48 153
69 49 153
69 50 153
69 51 153
69 52 153
69 53 153
69 54 153
69 55 153
69 56 153
69 57 153
69 58 153
69 59 153
69 60 153
69 61 153
69 62 153
69 63 153
69 64 153
69 65 153
69 66 153
69 67 153
69 68 153
69 69 153
69 70 153
69 71 153
69 72 153
69 73 153
69 74 153
69 75 153
69 76 153
69 77 153
69 78 153
69 79 153
69 80 153
69 81 153
69 82 153
69 83 153
69 84 153
69 85 153
69 86 153
69 87 153
69 88 153
69 89 153
69 90 153
69 91 153
69 92 153
69 93 153
69 94 153
69 95 153
69 96 153
69 97 153
69 98 153
69 99 153
69 100 153
69 101 153
69 102 153
69 103 153
69 104 153
69 105 153
69 106 153
69 107 153
69 108 153
69 109 153
69 110 153
69 111 153
69 112 153
69 113 153
69 114 153
69 115 153
69 116 153
69 117 153
69 118 153
69 119 153
69 120 153
69 121 153
69 122 153
69 123 153
69 124 153
69 125 153
69 126 153
69 127 153
69 128 153
69 129 153
69 130 153
69 131 153
69 132 153
69 133 153
69 134 153
69 135 153
69 136 153
69 137 153
69 138 153
69 139 153
69 140 153
69 141 153
69 142 153
69 143 153
69 144 153
69 145 153
69 146 153
69 147 153
69 148 153
69 149 153
69 150 153
69 151 153
69 152 153
69 153 153
69 154 153
69 155 153
69 156 153
69 157 153
69 158 153
69 159 153
69 160 153
69 161 153
69 162 153
69 163 153
69 164 153
69 165 153
69 166 153
69 167 153
69 168 153
69 169 153
69 170 153
69 171 153
69 172 153
69 173 153
69 174 153
69 175 153
69 176 153
69 177 153
69 178 153
69 179 153
69 180 153
69 181 153
69 182 153
69 183 153
69 184 153
69 185 153
69 186 153
69 187 153
69 188 153
69 189 153
69 190 153
69 191 153
69 192 153
69 193 153
69 194 153
69 195 153
69 196 153
69 197 153
69 198 153
69 199 153
69 200 153
69 201 153
69 202 153
69 203 153
69 204 153
69 205 153
69 206 153
69 207 153
69 208 153
69 209 153
69 210 153
69 211 153
69 212 153
69 213 153
69 214 153
69 215 153
69 216 153
69 217 153
69 218 153
69 219 153
69 220 153
69 221 153
69 222 153
69 223 153
69 224 153
69 225 153
69 226 153
69 227 153
69 228 153
69 229 153
69 230 153
69 231 153
69 232 153
69 233 153
69 234 153
69 235 153
69 236 153
69 237 153
69 238 153
69 239 153
69 240 153
69 241 153
69 242 153
69 243 153
69 244 153
69 245 153
69 246 153
69 247 153
69 248 153
69 249 153
69 250 153
69 251 153
69 252 153
69 253 153
69 254 153
69 255 153
70 0 153
70 1 153
70 2 153
70 3 153
70 4 153
70 5 153
70 6 153
70 7 153
70 8 153
70 9 153
70 10 153
70 11 153
70 12 153
70 13 153
70 14 153
70 15 153
70 16 153
70 17 153
70 18 153
70 19 153
70 20 153
70 21 153
70 22 153
70 23 153
70 24 153
70 25 153
70 26 153
70 27 153
70 28 153
70 29 153
70 30 153
70 31 153
70 32 153
70 33 153
70 34 153
70 35 153
70 36 153
70 37 153
70 38 153
70 39 153
70 40 153
70 41 153
70 42 153
70 43 153
70 44 153
70 45 153
70 46 153
70 47 153
70 48 153
70 49 153
70 50 153
70 51 153
70 52 153
70 53 153
70 54 153
70 55 153
70 56 153
70 57 153
70 58 153
70 59 153
70 60 153
70 61 153
70 62 153
70 63 153
70 64 153
70 65 153
70 66 153
70 67 153
70 68 153
70 69 153
70 70 153
70 71 153
70 72 153
70 73 153
70 74 153
70 75 153
70 76 153
70 77 153
70 78 153
70 79 153
70 80 153
70 81 153
70 82 153
70 83 153
70 84 153
70 85 153
70 86 153
70 87 153
70 88 153
70 89 153
70 90 153
70 91 153
70 92 153
70 93 153
70 94 153
70 95 153
70 96 153
70 97 153
70 98 153
70 99 153
70 100 153
70 101 153
70 102 153
70 103 153
70 104 153
70 105 153
70 106 153
70 107 153
70 108 153
70 109 153
70 110 153
70 111 153
70 112 153
70 113 153
70 114 153
70 115 153
70 116 153
70 117 153
70 118 153
70 119 153
70 120 153
70 121 153
70 122 153
70 123 153
70 124 153
70 125 153
70 126 153
70 127 153
70 128 153
70 129 153
70 130 153
70 131 153
70 132 153
70 133 153
70 134 153
70 135 153
70 136 153
70 137 153
70 138 153
70 139 153
70 140 153
70 141 153
70 142 153
70 143 153
70 144 153
70 145 153
70 146 153
70 147 153
70 148 153
70 149 153
70 150 153
70 151 153
70 152 153
70 153 153
70 154 153
70 155 153
70 156 153
70 157 153
70 158 153
70 159 153
70 160 153
70 161 153
70 162 153
70 163 153
70 164 153
70 165 153
70 166 153
70 167 153
70 168 153
70 169 153
70 170 153
70 171 153
70 172 153
70 173 153
70 174 153
70 175 153
70 176 153
70 177 153
70 178 153
70 179 153
70 180 153
70 181 153
70 182 153
70 183 153
70 184 153
70 185 153
70 186 153
70 187 153
70 188 153
70 189 153
70 190 153
70 191 153
70 192 153
70 193 153
70 194 153
70 195 153
70 196 153
70 197 153
70 198 153
70 199 153
70 200 153
70 201 153
70 202 153
70 203 153
70 204 153
70 205 153
70 206 153
70 207 153
70 208 153
70 209 153
70 210 153
70 211 153
70 212 153
70 213 153
70 214 153
70 215 153
70 216 153
70 217 153
70 218 153
70 219 153
70 220 153
70 221 153
70 222 153
70 223 153
70 224 153
70 225 153
70 226 153
70 227 153
70 228 153
70 229 153
70 230 153
70 231 153
70 232 153
70 233 153
70 234 153
70 235 153
70 236 153
70 237 153
70 238 153
70 239 153
70 240 153
70 241 153
70 242 153
70 243 153
70 244 153
70 245 153
70 246 153
70 247 153
70 248 153
70 249 153
70 250 153
70 251 153
70 252 153
70 253 153
70 254 153
70 255 153
71 0 153
71 1 153
71 2 153
71 3 153
71 4 153
71 5 153
71 6 153
71 7 153
71 8 153
71 9 153
71 10 153
71 11 153
71 12 153
71 13 153
71 14 153
71 15 153
71 16 153
71 17 153
71 18 153
71 19 153
71 20 153
71 21 153
71 22 153
71 23 153
71 24 153
71 25 153
71 26 153
71 27 153
71 28 153
71 29 153
71 30 153
71 31 153
71 32 153
71 33 153
71 34 153
71 35 153
71 36 153
71 37 153
71 38 153
71 39 153
71 40 153
71 41 153
71 42 153
71 43 153
71 44 153
71 45 153
71 46 153
71 47 153
71 48 153
71 49 153
71 50 153
71 51 153
71 52 153
71 53 153
71 54 153
71 55 153
71 56 153
71 57 153
71 58 153
71 59 153
71 60 153
71 61 153
71 62 153
71 63 153
71 64 153
71 65 153
71 66 153
71 67 153
71 68 153
71 69 153
71 70 153
71 71 153
71 72 153
71 73 153
71 74 153
71 75 153
71 76 153
71 77 153
71 78 153
71 79 153
71 80 153
71 81 153
71 82 153
71 83 153
71 84 153
71 85 153
71 86 153
71 87 153
71 88 153
71 89 153
71 90 153
71 91 153
71 92 153
71 93 153
71 94 153
71 95 153
71 96 153
71 97 153
71 98 153
71 99 153
71 100 153
71 101 153
71 102 153
71 103 153
71 104 153
71 105 153
71 106 153
71 107 153
71 108 153
71 109 153
71 110 153
71 111 153
71 112 153
71 113 153
71 114 153
71 115 153
71 116 153
71 117 153
71 118 153
71 119 153
71 120 153
71 121 153
71 122 153
71 123 153
71 124 153
71 125 153
71 126 153
71 127 153
71 128 153
71 129 153
71 130 153
71 131 153
71 132 153
71 133 153
71 134 153
71 135 153
71 136 153
71 137 153
71 138 153
71 139 153
71 140 153
71 141 153
71 142 153
71 143 153
71 144 153
71 145 153
71 146 153
71 147 153
71 148 153
71 149 153
71 150 153
71 151 153
71 152 153
71 153 153
71 154 153
71 155 153
71 156 153
71 157 153
71 158 153
71 159 153
71 160 153
71 161 153
71 162 153
71 163 153
71 164 153
71 165 153
71 166 153
71 167 153
71 168 153
71 169 153
71 170 153
71 171 153
71 172 153
71 173 153
71 174 153
71 175 153
71 176 153
71 177 153
71 178 153
71 179 153
71 180 153
71 181 153
71 182 153
71 183 153
71 184 153
71 185 153
71 186 153
71 187 153
71 188 153
71 189 153
71 190 153
71 191 153
71 192 153
71 193 153
71 194 153
71 195 153
71 196 153
71 197 153
71 198 153
71 199 153
71 200 153
71 201 153
71 202 153
71 203 153
71 204 153
71 205 153
71 206 153
71 207 153
71 208 153
71 209 153
71 210 153
71 211 153
71 212 153
71 213 153
71 214 153
71 215 153
71 216 153
71 217 153
71 218 153
71 219 153
71 220 153
71 221 153
71 222 153
71 223 153
71 224 153
71 225 153
71 226 153
71 227 153
71 228 153
71 229 153
71 230 153
71 231 153
71 232 153
71 233 153
71 234 153
71 235 153
71 236 153
71 237 153
71 238 153
71 239 153
71 240 153
71 241 153
71 242 153
71 243 153
71 244 153
71 245 153
71 246 153
71 247 153
71 248 153
71 249 153
71 250 153
71 251 153
71 252 153
71 253 153
71 254 153
71 255 153
72 0 153
72 1 153
72 2 153
72 3 153
72 4 153
72 5 153
72 6 153
72 7 153
72 8 153
72 9 153
72 10 153
72 11 153
72 12 153
72 13 153
72 14 153
72 15 153
72 16 153
72 17 153
72 18 153
72 19 153
72 20 153
72 21 153
72 22 153
72 23 153
72 24 153
72 25 153
72 26 153
72 27 153
72 28 153
72 29 153
72 30 153
72 31 153
72 32 153
72 33 153
72 34 153
72 35 153
72 36 153
72 37 153
72 38 153
72 39 153
72 40 153
72 41 153
72 42 153
72 43 153
72 44 153
72 45 153
72 46 153
72 47 153
72 48 153
72 49 153
72 50 153
72 51 153
72 52 153
72 53 153
72 54 153
72 55 153
72 56 153
72 57 153
72 58 153
72 59 153
72 60 153
72 61 153
72 62 153
72 63 153
72 64 153
72 65 153
72 66 153
72 67 153
72 68 153
72 69 153
72 70 153
72 71 153
72 72 153
72 73 153
72 74 153
72 75 153
72 76 153
72 77 153
72 78 153
72 79 153
72 80 153
72 81 153
72 82 153
72 83 153
72 84 153
72 85 153
72 86 153
72 87 153
72 88 153
72 89 153
72 90 153
72 91 153
72 92 153
72 93 153
72 94 153
72 95 153
72 96 153
72 97 153
72 98 153
72 99 153
72 100 153
72 101 153
72 102 153
72 103 153
72 104 153
72 105 153
72 106 153
72 107 153
72 108 153
72 109 153
72 110 153
72 111 153
72 112 153
72 113 153
72 114 153
72 115 153
72 116 153
72 117 153
72 118 153
72 119 153
72 120 153
72 121 153
72 122 153
72 123 153
72 124 153
72 125 153
72 126 153
72 127 153
72 128 153
72 129 153
72 130 153
72 131 153
72 132 153
72 133 153
72 134 153
72 135 153
72 136 153
72 137 153
72 138 153
72 139 153
72 140 153
72 141 153
72 142 153
72 143 153
72 144 153
72 145 153
72 146 153
72 147 153
72 148 153
72 149 153
72 150 153
72 151 153
72 152 153
72 153 153
72 154 153
72 155 153
72 156 153
72 157 153
72 158 153
72 159 153
72 160 153
72 161 153
72 162 153
72 163 153
72 164 153
72 165 153
72 166 153
72 167 153
72 168 153
72 169 153
72 170 153
72 171 153
72 172 153
72 173 153
72 174 153
72 175 153
72 176 153
72 177 153
72 178 153
72 179 153
72 180 153
72 181 153
72 182 153
72 183 153
72 184 153
72 185 153
72 186 153
72 187 153
72 188 153
72 189 153
72 190 153
72 191 153
72 192 153
72 193 153
72 194 153
72 195 153
72 196 153
72 197 153
72 198 153
72 199 153
72 200 153
72 201 153
72 202 153
72 203 153
72 204 153
72 205 153
72 206 153
72 207 153
72 208 153
72 209 153
72 210 153
72 211 153
72 212 153
72 213 153
72 214 153
72 215 153
72 216 153
72 217 153
72 218 153
72 219 153
72 220 153
72 221 153
72 222 153
72 223 153
72 224 153
72 225 153
72 226 153
72 227 153
72 228 153
72 229 153
72 230 153
72 231 153
72 232 153
72 233 153
72 234 153
72 235 153
72 236 153
72 237 153
72 238 153
72 239 153
72 240 153
72 241 153
72 242 153
72 243 153
72 244 153
72 245 153
72 246 153
72 247 153
72 248 153
72 249 153
72 250 153
72 251 153
72 252 153
72 253 153
72 254 153
72 255 153
73 0 153
73 1 153
73 2 153
73 3 153
73 4 153
73 5 153
73 6 153
73 7 153
73 8 153
73 9 153
73 10 153
73 11 153
73 12 153
73 13 153
73 14 153
73 15 153
73 16 153
73 17 153
73 18 153
73 19 153
73 20 153
73 21 153
73 22 153
73 23 153
73 24 153
73 25 153
73 26 153
73 27 153
73 28 153
73 29 153
73 30 153
73 31 153
73 32 153
73 33 153
73 34 153
73 35 153
73 36 153
73 37 153
73 38 153
73 39 153
73 40 153
73 41 153
73 42 153
73 43 153
73 44 153
73 45 153
73 46 153
73 47 153
73 48 153
73 49 153
73 50 153
73 51 153
73 52 153
73 53 153
73 54 153
73 55 153
73 56 153
73 57 153
73 58 153
73 59 153
73 60 153
73 61 153
73 62 153
73 63 153
73 64 153
73 65 153
73 66 153
73 67 153
73 68 153
73 69 153
73 70 153
73 71 153
73 72 153
73 73 153
73 74 153
73 75 153
73 76 153
73 77 153
73 78 153
73 79 153
73 80 153
73 81 153
73 82 153
73 83 153
73 84 153
73 85 153
73 86 153
73 87 153
73 88 153
73 89 153
73 90 153
73 91 153
73 92 153
73 93 153
73 94 153
73 95 153
73 96 153
73 97 153
73 98 153
73 99 153
73 100 153
73 101 153
73 102 153
73 103 153
73 104 153
73 105 153
73 106 153
73 107 153
73 108 153
73 109 153
73 110 153
73 111 153
73 112 153
73 113 153
73 114 153
73 115 153
73 116 153
73 117 153
73 118 153
73 119 153
73 120 153
73 121 153
73 122 153
73 123 153
73 124 153
73 125 153
73 126 153
73 127 153
73 128 153
73 129 153
73 130 153
73 131 153
73 132 153
73 133 153
73 134 153
73 135 153
73 136 153
73 137 153
73 138 153
73 139 153
73 140 153
73 141 153
73 142 153
73 143 153
73 144 153
73 145 153
73 146 153
73 147 153
73 148 153
73 149 153
73 150 153
73 151 153
73 152 153
73 153 153
73 154 153
73 155 153
73 156 153
73 157 153
73 158 153
73 159 153
73 160 153
73 161 153
73 162 153
73 163 153
73 164 153
73 165 153
73 166 153
73 167 153
73 168 153
73 169 153
73 170 153
73 171 153
73 172 153
73 173 153
73 174 153
73 175 153
73 176 153
73 177 153
73 178 153
73 179 153
73 180 153
73 181 153
73 182 153
73 183 153
73 184 153
73 185 153
73 186 153
73 187 153
73 188 153
73 189 153
73 190 153
73 191 153
73 192 153
73 193 153
73 194 153
73 195 153
73 196 153
73 197 153
73 198 153
73 199 153
73 200 153
73 201 153
73 202 153
73 203 153
73 204 153
73 205 153
73 206 153
73 207 153
73 208 153
73 209 153
73 210 153
73 211 153
73 212 153
73 213 153
73 214 153
73 215 153
73 216 153
73 217 153
73 218 153
73 219 153
73 220 153
73 221 153
73 222 153
73 223 153
73 224 153
73 225 153
73 226 153
73 227 153
73 228 153
73 229 153
73 230 153
73 231 153
73 232 153
73 233 153
73 234 153
73 235 153
73 236 153
73 237 153
73 238 153
73 239 153
73 240 153
73 241 153
73 242 153
73 243 153
73 244 153
73 245 153
73 246 153
73 247 153
73 248 153
73 249 153
73 250 153
73 251 153
73 252 153
73 253 153
73 254 153
73 255 153
74 0 153
74 1 153
74 2 153
74 3 153
74 4 153
74 5 153
74 6 153
74 7 153
74 8 153
74 9 153
74 10 153
74 11 153
74 12 153
74 13 153
74 14 153
74 15 153
74 16 153
74 17 153
74 18 153
74 19 153
74 20 153
74 21 153
74 22 153
74 23 153
74 24 153
74 25 153
74 26 153
74 27 153
74 28 153
74 29 153
74 30 153
74 31 153
74 32 153
74 33 153
74 34 153
74 35 153
74 36 153
74 37 153
74 38 153
74 39 153
74 40 153
74 41 153
74 42 153
74 43 153
74 44 153
74 45 153
74 46 153
74 47 153
74 48 153
74 49 153
74 50 153
74 51 153
74 52 153
74 53 153
74 54 153
74 55 153
74 56 153
74 57 153
74 58 153
74 59 153
74 60 153
74 61 153
74 62 153
74 63 153
74 64 153
74 65 153
74 66 153
74 67 153
74 68 153
74 69 153
74 70 153
74 71 153
74 72 153
74 73 153
74 74 153
74 75 153
74 76 153
74 77 153
74 78 153
74 79 153
74 80 153
74 81 153
74 82 153
74 83 153
74 84 153
74 85 153
74 86 153
74 87 153
74 88 153
74 89 153
74 90 153
74 91 153
74 92 153
74 93 153
74 94 153
74 95 153
74 96 153
74 97 153
74 98 153
74 99 153
74 100 153
74 101 153
74 102 153
74 103 153
74 104 153
74 105 153
74 106 153
74 107 153
74 108 153
74 109 153
74 110 153
74 111 153
74 112 153
74 113 153
74 114 153
74 115 153
74 116 153
74 117 153
74 118 153
74 119 153
74 120 153
74 121 153
74 122 153
74 123 153
74 124 153
74 125 153
74 126 153
74 127 153
74 128 153
74 129 153
74 130 153
74 131 153
74 132 153
74 133 153
74 134 153
74 135 153
74 136 153
74 137 153
74 138 153
74 139 153
74 140 153
74 141 153
74 142 153
74 143 153
74 144 153
74 145 153
74 146 153
74 147 153
74 148 153
74 149 153
74 150 153
74 151 153
74 152 153
74 153 153
74 154 153
74 155 153
74 156 153
74 157 153
74 158 153
74 159 153
74 160 153
74 161 153
74 162 153
74 163 153
74 164 153
74 165 153
74 166 153
74 167 153
74 168 153
74 169 153
74 170 153
74 171 153
74 172 153
74 173 153
74 174 153
74 175 153
74 176 153
74 177 153
74 178 153
74 179 153
74 180 153
74 181 153
74 182 153
74 183 153
74 184 153
74 185 153
74 186 153
74 187 153
74 188 153
74 189 153
74 190 153
74 191 153
74 192 153
74 193 153
74 194 153
74 195 153
74 196 153
74 197 153
74 198 153
74 199 153
74 200 153
74 201 153
74 202 153
74 203 153
74 204 153
74 205 153
74 206 153
74 207 153
74 208 153
74 209 153
74 210 153
74 211 153
74 212 153
74 213 153
74 214 153
74 215 153
74 216 153
74 217 153
74 218 153
74 219 153
74 220 153
74 221 153
74 222 153
74 223 153
74 224 153
74 225 153
74 226 153
74 227 153
74 228 153
74 229 153
74 230 153
74 231 153
74 232 153
74 233 153
74 234 153
74 235 153
74 236 153
74 237 153
74 238 153
74 239 153
74 240 153
74 241 153
74 242 153
74 243 153
74 244 153
74 245 153
74 246 153
74 247 153
74 248 153
74 249 153
74 250 153
74 251 153
74 252 153
74 253 153
74 254 153
74 255 153
75 0 153
75 1 153
75 2 153
75 3 153
75 4 153
75 5 153
75 6 153
75 7 153
75 8 153
75 9 153
75 10 153
75 11 153
75 12 153
75 13 153
75 14 153
75 15 153
75 16 153
75 17 153
75 18 153
75 19 153
75 20 153
75 21 153
75 22 153
75 23 153
75 24 153
75 25 153
75 26 153
75 27 153
75 28 153
75 29 153
75 30 153
75 31 153
75 32 153
75 33 153
75 34 153
75 35 153
75 36 153
75 37 153
75 38 153
75 39 153
75 40 153
75 41 153
75 42 153
75 43 153
75 44 153
75 45 153
75 46 153
75 47 153
75 48 153
75 49 153
75 50 153
75 51 153
75 52 153
75 53 153
75 54 153
75 55 153
75 56 153
75 57 153
75 58 153
75 59 153
75 60 153
75 61 153
75 62 153
75 63 153
75 64 153
75 65 153
75 66 153
75 67 153
75 68 153
75 69 153
75 70 153
75 71 153
75 72 153
75 73 153
75 74 153
75 75 153
75 76 153
75 77 153
75 78 153
75 79 153
75 80 153
75 81 153
75 82 153
75 83 153
75 84 153
75 85 153
75 86 153
75 87 153
75 88 153
75 89 153
75 90 153
75 91 153
75 92 153
75 93 153
75 94 153
75 95 153
75 96 153
75 97 153
75 98 153
75 99 153
75 100 153
75 101 153
75 102 153
75 103 153
75 104 153
75 105 153
75 106 153
75 107 153
75 108 153
75 109 153
75 110 153
75 111 153
75 112 153
75 113 153
75 114 153
75 115 153
75 116 153
75 117 153
75 118 153
75 119 153
75 120 153
75 121 153
75 122 153
75 123 153
75 124 153
75 125 153
75 126 153
75 127 153
75 128 153
75 129 153
75 130 153
75 131 153
75 132 153
75 133 153
75 134 153
75 135 153
75 136 153
75 137 153
75 138 153
75 139 153
75 140 153
75 141 153
75 142 153
75 143 153
75 144 153
75 145 153
75 146 153
75 147 153
75 148 153
75 149 153
75 150 153
75 151 153
75 152 153
75 153 153
75 154 153
75 155 153
75 156 153
75 157 153
75 158 153
75 159 153
75 160 153
75 161 153
75 162 153
75 163 153
75 164 153
75 165 153
75 166 153
75 167 153
75 168 153
75 169 153
75 170 153
75 171 153
75 172 153
75 173 153
75 174 153
75 175 153
75 176 153
75 177 153
75 178 153
75 179 153
75 180 153
75 181 153
75 182 153
75 183 153
75 184 153
75 185 153
75 186 153
75 187 153
75 188 153
75 189 153
75 190 153
75 191 153
75 192 153
75 193 153
75 194 153
75 195 153
75 196 153
75 197 153
75 198 153
75 199 153
75 200 153
75 201 153
75 202 153
75 203 153
75 204 153
75 205 153
75 206 153
75 207 153
75 208 153
75 209 153
75 210 153
75 211 153
75 212 153
75 213 153
75 214 153
75 215 153
75 216 153
75 217 153
75 218 153
75 219 153
75 220 153
75 221 153
75 222 153
75 223 153
75 224 153
75 225 153
75 226 153
75 227 153
75 228 153
75 229 153
75 230 153
75 231 153
75 232 153
75 233 153
75 234 153
75 235 153
75 236 153
75 237 153
75 238 153
75 239 153
75 240 153
75 241 153
75 242 153
75 243 153
75 244 153
75 245 153
75 246 153
75 247 153
75 248 153
75 249 153
75 250 153
75 251 153
75 252 153
75 253 153
75 254 153
75 255 153
76 0 153
76 1 153
76 2 153
76 3 153
76 4 153
76 5 153
76 6 153
76 7 153
76 8 153
76 9 153
76 10 153
76 11 153
76 12 153
76 13 153
76 14 153
76 15 153
76 16 153
76 17 153
76 18 153
76 19 153
76 20 153
76 21 153
76 22 153
76 23 153
76 24 153
76 25 153
76 26 153
76 27 153
76 28 153
76 29 153
76 30 153
76 31 153
76 32 153
76 33 153
76 34 153
76 35 153
76 36 153
76 37 153
76 38 153
76 39 153
76 40 153
76 41 153
76 42 153
76 43 153
76 44 153
76 45 153
76 46 153
76 47 153
76 48 153
76 49 153
76 50 153
76 51 153
76 52 153
76 53 153
76 54 153
76 55 153
76 56 153
76 57 153
76 58 153
76 59 153
76 60 153
76 61 153
76 62 153
76 63 153
76 64 153
76 65 153
76 66 153
76 67 153
76 68 153
76 69 153
76 70 153
76 71 153
76 72 153
76 73 153
76 74 153
76 75 153
76 76 153
76 77 153
76 78 153
76 79 153
76 80 153
76 81 153
76 82 153
76 83 153
76 84 153
76 85 153
76 86 153
76 87 153
76 88 153
76 89 153
76 90 153
76 91 153
76 92 153
76 93 153
76 94 153
76 95 153
76 96 153
76 97 153
76 98 153
76 99 153
76 100 153
76 101 153
76 102 153
76 103 153
76 104 153
76 105 153
76 106 153
76 107 153
76 108 153
76 109 153
76 110 153
76 111 153
76 112 153
76 113 153
76 114 153
76 115 153
76 116 153
76 117 153
76 118 153
76 119 153
76 120 153
76 121 153
76 122 153
76 123 153
76 124 153
76 125 153
76 126 153
76 127 153
76 128 153
76 129 153
76 130 153
76 131 153
76 132 153
76 133 153
76 134 153
76 135 153
76 136 153
76 137 153
76 138 153
76 139 153
76 140 153
76 141 153
76 142 153
76 143 153
76 144 153
76 145 153
76 146 153
76 147 153
76 148 153
76 149 153
76 150 153
76 151 153
76 152 153
76 153 153
76 154 153
76 155 153
76 156 153
76 157 153
76 158 153
76 159 153
76 160 153
76 161 153
76 162 153
76 163 153
76 164 153
76 165 153
76 166 153
76 167 153
76 168 153
76 169 153
76 170 153
76 171 153
76 172 153
76 173 153
76 174 153
76 175 153
76 176 153
76 177 153
76 178 153
76 179 153
76 180 153
76 181 153
76 182 153
76 183 153
76 184 153
76 185 153
76 186 153
76 187 153
76 188 153
76 189 153
76 190 153
76 191 153
76 192 153
76 193 153
76 194 153
76 195 153
76 196 153
76 197 153
76 198 153
76 199 153
76 200 153
76 201 153
76 202 153
76 203 153
76 204 153
76 205 153
76 206 153
76 207 153
76 208 153
76 209 153
76 210 153
76 211 153
76 212 153
76 213 153
76 214 153
76 215 153
76 216 153
76 217 153
76 218 153
76 219 153
76 220 153
76 221 153
76 222 153
76 223 153
76 224 153
76 225 153
76 226 153
76 227 153
76 228 153
76 229 153
76 230 153
76 231 153
76 232 153
76 233 153
76 234 153
76 235 153
76 236 153
76 237 153
76 238 153
76 239 153
76 240 153
76 241 153
76 242 153
76 243 153
76 244 153
76 245 153
76 246 153
76 247 153
76 248 153
76 249 153
76 250 153
76 251 153
76 252 153
76 253 153
76 254 153
76 255 153
77 0 153
77 1 153
77 2 153
77 3 153
77 4 153
77 5 153
77 6 153
77 7 153
77 8 153
77 9 153
77 10 153
77 11 153
77 12 153
77 13 153
77 14 153
77 15 153
77 16 153
77 17 153
77 18 153
77 19 153
77 20 153
77 21 153
77 22 153
77 23 153
77 24 153
77 25 153
77 26 153
77 27 153
77 28 153
77 29 153
77 30 153
77 31 153
77 32 153
77 33 153
77 34 153
77 35 153
77 36 153
77 37 153
77 38 153
77 39 153
77 40 153
77 41 153
77 42 153
77 43 153
77 44 153
77 45 153
77 46 153
77 47 153
77 48 153
77 49 153
77 50 153
77 51 153
77 52 153
77 53 153
77 54 153
77 55 153
77 56 153
77 57 153
77 58 153
77 59 153
77 60 153
77 61 153
77 62 153
77 63 153
77 64 153
77 65 153
77 66 153
77 67 153
77 68 153
77 69 153
77 70 153
77 71 153
77 72 153
77 73 153
77 74 153
77 75 153
77 76 153
77 77 153
77 78 153
77 79 153
77 80 153
77 81 153
77 82 153
77 83 153
77 84 153
77 85 153
77 86 153
77 87 153
77 88 153
77 89 153
77 90 153
77 91 153
77 92 153
77 93 153
77 94 153
77 95 153
77 96 153
77 97 153
77 98 153
77 99 153
77 100 153
77 101 153
77 102 153
77 103 153
77 104 153
77 105 153
77 106 153
77 107 153
77 108 153
77 109 153
77 110 153
77 111 153
77 112 153
77 113 153
77 114 153
77 115 153
77 116 153
77 117 153
77 118 153
77 119 153
77 120 153
77 121 153
77 122 153
77 123 153
77 124 153
77 125 153
77 126 153
77 127 153
77 128 153
77 129 153
77 130 153
77 131 153
77 132 153
77 133 153
77 134 153
77 135 153
77 136 153
77 137 153
77 138 153
77 139 153
77 140 153
77 141 153
77 142 153
77 143 153
77 144 153
77 145 153
77 146 153
77 147 153
77 148 153
77 149 153
77 150 153
77 151 153
77 152 153
77 153 153
77 154 153
77 155 153
77 156 153
77 157 153
77 158 153
77 159 153
77 160 153
77 161 153
77 162 153
77 163 153
77 164 153
77 165 153
77 166 153
77 167 153
77 168 153
77 169 153
77 170 153
77 171 153
77 172 153
77 173 153
77 174 153
77 175 153
77 176 153
77 177 153
77 178 153
77 179 153
77 180 153
77 181 153
77 182 153
77 183 153
77 184 153
77 185 153
77 186 153
77 187 153
77 188 153
77 189 153
77 190 153
77 191 153
77 192 153
77 193 153
77 194 153
77 195 153
77 196 153
77 197 153
77 198 153
77 199 153
77 200 153
77 201 153
77 202 153
77 203 153
77 204 153
77 205 153
77 206 153
77 207 153
77 208 153
77 209 153
77 210 153
77 211 153
77 212 153
77 213 153
77 214 153
77 215 153
77 216 153
77 217 153
77 218 153
77 219 153
77 220 153
77 221 153
77 222 153
77 223 153
77 224 153
77 225 153
77 226 153
77 227 153
77 228 153
77 229 153
77 230 153
77 231 153
77 232 153
77 233 153
77 234 153
77 235 153
77 236 153
77 237 153
77 238 153
77 239 153
77 240 153
77 241 153
77 242 153
77 243 153
77 244 153
77 245 153
77 246 153
77 247 153
77 248 153
77 249 153
77 250 153
77 251 153
77 252 153
77 253 153
77 254 153
77 255 153
78 0 153
78 1 153
78 2 153
78 3 153
78 4 153
78 5 153
78 6 153
78 7 153
78 8 153
78 9 153
78 10 153
78 11 153
78 12 153
78 13 153
78 14 153
78 15 153
78 16 153
78 17 153
78 18 153
78 19 153
78 20 153
78 21 153
78 22 153
78 23 153
78 24 153
78 25 153
78 26 153
78 27 153
78 28 153
78 29 153
78 30 153
78 31 153
78 32 153
78 33 153
78 34 153
78 35 153
78 36 153
78 37 153
78 38 153
78 39 153
78 40 153
78 41 153
78 42 153
78 43 153
78 44 153
78 45 153
78 46 153
78 47 153
78 48 153
78 49 153
78 50 153
78 51 153
78 52 153
78 53 153
78 54 153
78 55 153
78 56 153
78 57 153
78 58 153
78 59 153
78 60 153
78 61 153
78 62 153
78 63 153
78 64 153
78 65 153
78 66 153
78 67 153
78 68 153
78 69 153
78 70 153
78 71 153
78 72 153
78 73 153
78 74 153
78 75 153
78 76 153
78 77 153
78 78 153
78 79 153
78 80 153
78 81 153
78 82 153
78 83 153
78 84 153
78 85 153
78 86 153
78 87 153
78 88 153
78 89 153
78 90 153
78 91 153
78 92 153
78 93 153
78 94 153
78 95 153
78 96 153
78 97 153
78 98 153
78 99 153
78 100 153
78 101 153
78 102 153
78 103 153
78 104 153
78 105 153
78 106 153
78 107 153
78 108 153
78 109 153
78 110 153
78 111 153
78 112 153
78 113 153
78 114 153
78 115 153
78 116 153
78 117 153
78 118 153
78 119 153
78 120 153
78 121 153
78 122 153
78 123 153
78 124 153
78 125 153
78 126 153
78 127 153
78 128 153
78 129 153
78 130 153
78 131 153
78 132 153
78 133 153
78 134 153
78 135 153
78 136 153
78 137 153
78 138 153
78 139 153
78 140 153
78 141 153
78 142 153
78 143 153
78 144 153
78 145 153
78 146 153
78 147 153
78 148 153
78 149 153
78 150 153
78 151 153
78 152 153
78 153 153
78 154 153
78 155 153
78 156 153
78 157 153
78 158 153
78 159 153
78 160 153
78 161 153
78 162 153
78 163 153
78 164 153
78 165 153
78 166 153
78 167 153
78 168 153
78 169 153
78 170 153
78 171 153
78 172 153
78 173 153
78 174 153
78 175 153
78 176 153
78 177 153
78 178 153
78 179 153
78 180 153
78 181 153
78 182 153
78 183 153
78 184 153
78 185 153
78 186 153
78 187 153
78 188 153
78 189 153
78 190 153
78 191 153
78 192 153
78 193 153
78 194 153
78 195 153
78 196 153
78 197 153
78 198 153
78 199 153
78 200 153
78 201 153
78 202 153
78 203 153
78 204 153
78 205 153
78 206 153
78 207 153
78 208 153
78 209 153
78 210 153
78 211 153
78 212 153
78 213 153
78 214 153
78 215 153
78 216 153
78 217 153
78 218 153
78 219 153
78 220 153
78 221 153
78 222 153
78 223 153
78 224 153
78 225 153
78 226 153
78 227 153
78 228 153
78 229 153
78 230 153
78 231 153
78 232 153
78 233 153
78 234 153
78 235 153
78 236 153
78 237 153
78 238 153
78 239 153
78 240 153
78 241 153
78 242 153
78 243 153
78 244 153
78 245 153
78 246 153
78 247 153
78 248 153
78 249 153
78 250 153
78 251 153
78 252 153
78 253 153
78 254 153
78 255 153
79 0 153
79 1 153
79 2 153
79 3 153
79 4 153
79 5 153
79 6 153
79 7 153
79 8 153
79 9 153
79 10 153
79 11 153
79 12 153
79 13 153
79 14 153
79 15 153
79 16 153
79 17 153
79 18 153
79 19 153
79 20 153
79 21 153
79 22 153
79 23 153
79 24 153
79 25 153
79 26 153
79 27 153
79 28 153
79 29 153
79 30 153
79 31 153
79 32 153
79 33 153
79 34 153
79 35 153
79 36 153
79 37 153
79 38 153
79 39 153
79 40 153
79 41 153
79 42 153
79 43 153
79 44 153
79 45 153
79 46 153
79 47 153
79 48 153
79 49 153
79 50 153
79 51 153
79 52 153
79 53 153
79 54 153
79 55 153
79 56 153
79 57 153
79 58 153
79 59 153
79 60 153
79 61 153
79 62 153
79 63 153
79 64 153
79 65 153
79 66 153
79 67 153
79 68 153
79 69 153
79 70 153
79 71 153
79 72 153
79 73 153
79 74 153
79 75 153
79 76 153
79 77 153
79 78 153
79 79 153
79 80 153
79 81 153
79 82 153
79 83 153
79 84 153
79 85 153
79 86 153
79 87 153
79 88 153
79 89 153
79 90 153
79 91 153
79 92 153
79 93 153
79 94 153
79 95 153
79 96 153
79 97 153
79 98 153
79 99 153
79 100 153
79 101 153
79 102 153
79 103 153
79 104 153
79 105 153
79 106 153
79 107 153
79 108 153
79 109 153
79 110 153
79 111 153
79 112 153
79 113 153
79 114 153
79 115 153
79 116 153
79 117 153
79 118 153
79 119 153
79 120 153
79 121 153
79 122 153
79 123 153
79 124 153
79 125 153
79 126 153
79 127 153
79 128 153
79 129 153
79 130 153
79 131 153
79 132 153
79 133 153
79 134 153
79 135 153
79 136 153
79 137 153
79 138 153
79 139 153
79 140 153
79 141 153
79 142 153
79 143 153
79 144 153
79 145 153
79 146 153
79 147 153
79 148 153
79 149 153
79 150 153
79 151 153
79 152 153
79 153 153
79 154 153
79 155 153
79 156 153
79 157 153
79 158 153
79 159 153
79 160 153
79 161 153
79 162 153
79 163 153
79 164 153
79 165 153
79 166 153
79 167 153
79 168 153
79 169 153
79 170 153
79 171 153
79 172 153
79 173 153
79 174 153
79 175 153
79 176 153
79 177 153
79 178 153
79 179 153
79 180 153
79 181 153
79 182 153
79 183 153
79 184 153
79 185 153
79 186 153
79 187 153
79 188 153
79 189 153
79 190 153
79 191 153
79 192 153
79 193 153
79 194 153
79 195 153
79 196 153
79 197 153
79 198 153
79 199 153
79 200 153
79 201 153
79 202 153
79 203 153
79 204 153
79 205 153
79 206 153
79 207 153
79 208 153
79 209 153
79 210 153
79 211 153
79 212 153
79 213 153
79 214 153
79 215 153
79 216 153
79 217 153
79 218 153
79 219 153
79 220 153
79 221 153
79 222 153
79 223 153
79 224 153
79 225 153
79 226 153
79 227 153
79 228 153
79 229 153
79 230 153
79 231 153
79 232 153
79 233 153
79 234 153
79 235 153
79 236 153
79 237 153
79 238 153
79 239 153
79 240 153
79 241 153
79 242 153
79 243 153
79 244 153
79 245 153
79 246 153
79 247 153
79 248 153
79 249 153
79 250 153
79 251 153
79 252 153
79 253 153
79 254 153
79 255 153
80 0 153
80 1 153
80 2 153
80 3 153
80 4 153
80 5 153
80 6 153
80 7 153
80 8 153
80 9 153
80 10 153
80 11 153
80 12 153
80 13 153
80 14 153
80 15 153
80 16 153
80 17 153
80 18 153
80 19 153
80 20 153
80 21 153
80 22 153
80 23 153
80 24 153
80 25 153
80 26 153
80 27 153
80 28 153
80 29 153
80 30 153
80 31 153
80 32 153
80 33 153
80 34 153
80 35 153
80 36 153
80 37 153
80 38 153
80 39 153
80 40 153
80 41 153
80 42 153
80 43 153
80 44 153
80 45 153
80 46 153
80 47 153
80 48 153
80 49 153
80 50 153
80 51 153
80 52 153
80 53 153
80 54 153
80 55 153
80 56 153
80 57 153
80 58 153
80 59 153
80 60 153
80 61 153
80 62 153
80 63 153
80 64 153
80 65 153
80 66 153
80 67 153
80 68 153
80 69 153
80 70 153
80 71 153
80 72 153
80 73 153
80 74 153
80 75 153
80 76 153
80 77 153
80 78 153
80 79 153
80 80 153
80 81 153
80 82 153
80 83 153
80 84 153
80 85 153
80 86 153
80 87 153
80 88 153
80 89 153
80 90 153
80 91 153
80 92 153
80 93 153
80 94 153
80 95 153
80 96 153
80 97 153
80 98 153
80 99 153
80 100 153
80 101 153
80 102 153
80 103 153
80 104 153
80 105 153
80 106 153
80 107 153
80 108 153
80 109 153
80 110 153
80 111 153
80 112 153
80 113 153
80 114 153
80 115 153
80 116 153
80 117 153
80 118 153
80 119 153
80 120 153
80 121 153
80 122 153
80 123 153
80 124 153
80 125 153
80 126 153
80 127 153
80 128 153
80 129 153
80 130 153
80 131 153
80 132 153
80 133 153
80 134 153
80 135 153
80 136 153
80 137 153
80 138 153
80 139 153
80 140 153
80 141 153
80 142 153
80 143 153
80 144 153
80 145 153
80 146 153
80 147 153
80 148 153
80 149 153
80 150 153
80 151 153
80 152 153
80 153 153
80 154 153
80 155 153
80 156 153
80 157 153
80 158 153
80 159 153
80 160 153
80 161 153
80 162 153
80 163 153
80 164 153
80 165 153
80 166 153
80 167 153
80 168 153
80 169 153
80 170 153
80 171 153
80 172 153
80 173 153
80 174 153
80 175 153
80 176 153
80 177 153
80 178 153
80 179 153
80 180 153
80 181 153
80 182 153
80 183 153
80 184 153
80 185 153
80 186 153
80 187 153
80 188 153
80 189 153
80 190 153
80 191 153
80 192 153
80 193 153
80 194 153
80 195 153
80 196 153
80 197 153
80 198 153
80 199 153
80 200 153
80 201 153
80 202 153
80 203 153
80 204 153
80 205 153
80 206 153
80 207 153
80 208 153
80 209 153
80 210 153
80 211 153
80 212 153
80 213 153
80 214 153
80 215 153
80 216 153
80 217 153
80 218 153
80 219 153
80 220 153
80 221 153
80 222 153
80 223 153
80 224 153
80 225 153
80 226 153
80 227 153
80 228 153
80 229 153
80 230 153
80 231 153
80 232 153
80 233 153
80 234 153
80 235 153
80 236 153
80 237 153
80 238 153
80 239 153
80 240 153
80 241 153
80 242 153
80 243 153
80 244 153
80 245 153
80 246 153
80 247 153
80 248 153
80 249 153
80 250 153
80 251 153
80 252 153
80 253 153
80 254 153
80 255 153
81 0 153
81 1 153
81 2 153
81 3 153
81 4 153
81 5 153
81 6 153
81 7 153
81 8 153
81 9 153
81 10 153
81 11 153
81 12 153
81 13 153
81 14 153
81 15 153
81 16 153
81 17 153
81 18 153
81 19 153
81 20 153
81 21 153
81 22 153
81 23 153
81 24 153
81 25 153
81 26 153
81 27 153
81 28 153
81 29 153
81 30 153
81 31 153
81 32 153
81 33 153
81 34 153
81 35 153
81 36 153
81 37 153
81 38 153
81 39 153
81 40 153
81 41 153
81 42 153
81 43 153
81 44 153
81 45 153
81 46 153
81 47 153
81 48 153
81 49 153
81 50 153
81 51 153
81 52 153
81 53 153
81 54 153
81 55 153
81 56 153
81 57 153
81 58 153
81 59 153
81 60 153
81 61 153
81 62 153
81 63 153
81 64 153
81 65 153
81 66 153
81 67 153
81 68 153
81 69 153
81 70 153
81 71 153
81 72 153
81 73 153
81 74 153
81 75 153
81 76 153
81 77 153
81 78 153
81 79 153
81 80 153
81 81 153
81 82 153
81 83 153
81 84 153
81 85 153
81 86 153
81 87 153
81 88 153
81 89 153
81 90 153
81 91 153
81 92 153
81 93 153
81 94 153
81 95 153
81 96 153
81 97 153
81 98 153
81 99 153
81 100 153
81 101 153
81 102 153
81 103 153
81 104 153
81 105 153
81 106 153
81 107 153
81 108 153
81 109 153
81 110 153
81 111 153
81 112 153
81 113 153
81 114 153
81 115 153
81 116 153
81 117 153
81 118 153
81 119 153
81 120 153
81 121 153
81 122 153
81 123 153
81 124 153
81 125 153
81 126 153
81 127 153
81 128 153
81 129 153
81 130 153
81 131 153
81 132 153
81 133 153
81 134 153
81 135 153
81 136 153
81 137 153
81 138 153
81 139 153
81 140 153
81 141 153
81 142 153
81 143 153
81 144 153
81 145 153
81 146 153
81 147 153
81 148 153
81 149 153
81 150 153
81 151 153
81 152 153
81 153 153
81 154 153
81 155 153
81 156 153
81 157 153
81 158 153
81 159 153
81 160 153
81 161 153
81 162 153
81 163 153
81 164 153
81 165 153
81 166 153
81 167 153
81 168 153
81 169 153
81 170 153
81 171 153
81 172 153
81 173 153
81 174 153
81 175 153
81 176 153
81 177 153
81 178 153
81 179 153
81 180 153
81 181 153
81 182 153
81 183 153
81 184 153
81 185 153
81 186 153
81 187 153
81 188 153
81 189 153
81 190 153
81 191 153
81 192 153
81 193 153
81 194 153
81 195 153
81 196 153
81 197 153
81 198 153
81 199 153
81 200 153
81 201 153
81 202 153
81 203 153
81 204 153
81 205 153
81 206 153
81 207 153
81 208 153
81 209 153
81 210 153
81 211 153
81 212 153
81 213 153
81 214 153
81 215 153
81 216 153
81 217 153
81 218 153
81 219 153
81 220 153
81 221 153
81 222 153
81 223 153
81 224 153
81 225 153
81 226 153
81 227 153
81 228 153
81 229 153
81 230 153
81 231 153
81 232 153
81 233 153
81 234 153
81 235 153
81 236 153
81 237 153
81 238 153
81 239 153
81 240 153
81 241 153
81 242 153
81 243 153
81 244 153
81 245 153
81 246 153
81 247 153
81 248 153
81 249 153
81 250 153
81 251 153
81 252 153
81 253 153
81 254 153
81 255 153
82 0 153
82 1 153
82 2 153
82 3 153
82 4 153
82 5 153
82 6 153
82 7 153
82 8 153
82 9 153
82 10 153
82 11 153
82 12 153
82 13 153
82 14 153
82 15 153
82 16 153
82 17 153
82 18 153
82 19 153
82 20 153
82 21 153
82 22 153
82 23 153
82 24 153
82 25 153
82 26 153
82 27 153
82 28 153
82 29 153
82 30 153
82 31 153
82 32 153
82 33 153
82 34 153
82 35 153
82 36 153
82 37 153
82 38 153
82 39 153
82 40 153
82 41 153
82 42 153
82 43 153
82 44 153
82 45 153
82 46 153
82 47 153
82 48 153
82 49 153
82 50 153
82 51 153
82 52 153
82 53 153
82 54 153
82 55 153
82 56 153
82 57 153
82 58 153
82 59 153
82 60 153
82 61 153
82 62 153
82 63 153
82 64 153
82 65 153
82 66 153
82 67 153
82 68 153
82 69 153
82 70 153
82 71 153
82 72 153
82 73 153
82 74 153
82 75 153
82 76 153
82 77 153
82 78 153
82 79 153
82 80 153
82 81 153
82 82 153
82 83 153
82 84 153
82 85 153
82 86 153
82 87 153
82 88 153
82 89 153
82 90 153
82 91 153
82 92 153
82 93 153
82 94 153
82 95 153
82 96 153
82 97 153
82 98 153
82 99 153
82 100 153
82 101 153
82 102 153
82 103 153
82 104 153
82 105 153
82 106 153
82 107 153
82 108 153
82 109 153
82 110 153
82 111 153
82 112 153
82 113 153
82 114 153
82 115 153
82 116 153
82 117 153
82 118 153
82 119 153
82 120 153
82 121 153
82 122 153
82 123 153
82 124 153
82 125 153
82 126 153
82 127 153
82 128 153
82 129 153
82 130 153
82 131 153
82 132 153
82 133 153
82 134 153
82 135 153
82 136 153
82 137 153
82 138 153
82 139 153
82 140 153
82 141 153
82 142 153
82 143 153
82 144 153
82 145 153
82 146 153
82 147 153
82 148 153
82 149 153
82 150 153
82 151 153
82 152 153
82 153 153
82 154 153
82 155 153
82 156 153
82 157 153
82 158 153
82 159 153
82 160 153
82 161 153
82 162 153
82 163 153
82 164 153
82 165 153
82 166 153
82 167 153
82 168 153
82 169 153
82 170 153
82 171 153
82 172 153
82 173 153
82 174 153
82 175 153
82 176 153
82 177 153
82 178 153
82 179 153
82 180 153
82 181 153
82 182 153
82 183 153
82 184 153
82 185 153
82 186 153
82 187 153
82 188 153
82 189 153
82 190 153
82 191 153
82 192 153
82 193 153
82 194 153
82 195 153
82 196 153
82 197 153
82 198 153
82 199 153
82 200 153
82 201 153
82 202 153
82 203 153
82 204 153
82 205 153
82 206 153
82 207 153
82 208 153
82 209 153
82 210 153
82 211 153
82 212 153
82 213 153
82 214 153
82 215 153
82 216 153
82 217 153
82 218 153
82 219 153
82 220 153
82 221 153
82 222 153
82 223 153
82 224 153
82 225 153
82 226 153
82 227 153
82 228 153
82 229 153
82 230 153
82 231 153
82 232 153
82 233 153
82 234 153
82 235 153
82 236 153
82 237 153
82 238 153
82 239 153
82 240 153
82 241 153
82 242 153
82 243 153
82 244 153
82 245 153
82 246 153
82 247 153
82 248 153
82 249 153
82 250 153
82 251 153
82 252 153
82 253 153
82 254 153
82 255 153
83 0 153
83 1 153
83 2 153
83 3 153
83 4 153
83 5 153
83 6 153
83 7 153
83 8 153
83 9 153
83 10 153
83 11 153
83 12 153
83 13 153
83 14 153
83 15 153
83 16 153
83 17 153
83 18 153
83 19 153
83 20 153
83 21 153
83 22 153
83 23 153
83 24 153
83 25 153
83 26 153
83 27 153
83 28 153
83 29 153
83 30 153
83 31 153
83 32 153
83 33 153
83 34 153
83 35 153
83 36 153
83 37 153
83 38 153
83 39 153
83 40 153
83 41 153
83 42 153
83 43 153
83 44 153
83 45 153
83 46 153
83 47 153
83 48 153
83 49 153
83 50 153
83 51 153
83 52 153
83 53 153
83 54 153
83 55 153
83 56 153
83 57 153
83 58 153
83 59 153
83 60 153
83 61 153
83 62 153
83 63 153
83 64 153
83 65 153
83 66 153
83 67 153
83 68 153
83 69 153
83 70 153
83 71 153
83 72 153
83 73 153
83 74 153
83 75 153
83 76 153
83 77 153
83 78 153
83 79 153
83 80 153
83 81 153
83 82 153
83 83 153
83 84 153
83 85 153
83 86 153
83 87 153
83 88 153
83 89 153
83 90 153
83 91 153
83 92 153
83 93 153
83 94 153
83 95 153
83 96 153
83 97 153
83 98 153
83 99 153
83 100 153
83 101 153
83 102 153
83 103 153
83 104 153
83 105 153
83 106 153
83 107 153
83 108 153
83 109 153
83 110 153
83 111 153
83 112 153
83 113 153
83 114 153
83 115 153
83 116 153
83 117 153
83 118 153
83 119 153
83 120 153
83 121 153
83 122 153
83 123 153
83 124 153
83 125 153
83 126 153
83 127 153
83 128 153
83 129 153
83 130 153
83 131 153
83 132 153
83 133 153
83 134 153
83 135 153
83 136 153
83 137 153
83 138 153
83 139 153
83 140 153
83 141 153
83 142 153
83 143 153
83 144 153
83 145 153
83 146 153
83 147 153
83 148 153
83 149 153
83 150 153
83 151 153
83 152 153
83 153 153
83 154 153
83 155 153
83 156 153
83 157 153
83 158 153
83 159 153
83 160 153
83 161 153
83 162 153
83 163 153
83 164 153
83 165 153
83 166 153
83 167 153
83 168 153
83 169 153
83 170 153
83 171 153
83 172 153
83 173 153
83 174 153
83 175 153
83 176 153
83 177 153
83 178 153
83 179 153
83 180 153
83 181 153
83 182 153
83 183 153
83 184 153
83 185 153
83 186 153
83 187 153
83 188 153
83 189 153
83 190 153
83 191 153
83 192 153
83 193 153
83 194 153
83 195 153
83 196 153
83 197 153
83 198 153
83 199 153
83 200 153
83 201 153
83 202 153
83 203 153
83 204 153
83 205 153
83 206 153
83 207 153
83 208 153
83 209 153
83 210 153
83 211 153
83 212 153
83 213 153
83 214 153
83 215 153
83 216 153
83 217 153
83 218 153
83 219 153
83 220 153
83 221 153
83 222 153
83 223 153
83 224 153
83 225 153
83 226 153
83 227 153
83 228 153
83 229 153
83 230 153
83 231 153
83 232 153
83 233 153
83 234 153
83 235 153
83 236 153
83 237 153
83 238 153
83 239 153
83 240 153
83 241 153
83 242 153
83 243 153
83 244 153
83 245 153
83 246 153
83 247 153
83 248 153
83 249 153
83 250 153
83 251 153
83 252 153
83 253 153
83 254 153
83 255 153
84 0 153
84 1 153
84 2 153
84 3 153
84 4 153
84 5 153
84 6 153
84 7 153
84 8 153
84 9 153
84 10 153
84 11 153
84 12 153
84 13 153
84 14 153
84 15 153
84 16 153
84 17 153
84 18 153
84 19 153
84 20 153
84 21 153
84 22 153
84 23 153
84 24 153
84 25 153
84 26 153
84 27 153
84 28 153
84 29 153
84 30 153
84 31 153
84 32 153
84 33 153
84 34 153
84 35 153
84 36 153
84 37 153
84 38 153
84 39 153
84 40 153
84 41 153
84 42 153
84 43 153
84 44 153
84 45 153
84 46 153
84 47 153
84 48 153
84 49 153
84 50 153
84 51 153
84 52 153
84 53 153
84 54 153
84 55 153
84 56 153
84 57 153
84 58 153
84 59 153
84 60 153
84 61 153
84 62 153
84 63 153
84 64 153
84 65 153
84 66 153
84 67 153
84 68 153
84 69 153
84 70 153
84 71 153
84 72 153
84 73 153
84 74 153
84 75 153
84 76 153
84 77 153
84 78 153
84 79 153
84 80 153
84 81 153
84 82 153
84 83 153
84 84 153
84 85 153
84 86 153
84 87 153
84 88 153
84 89 153
84 90 153
84 91 153
84 92 153
84 93 153
84 94 153
84 95 153
84 96 153
84 97 153
84 98 153
84 99 153
84 100 153
84 101 153
84 102 153
84 103 153
84 104 153
84 105 153
84 106 153
84 107 153
84 108 153
84 109 153
84 110 153
84 111 153
84 112 153
84 113 153
84 114 153
84 115 153
84 116 153
84 117 153
84 118 153
84 119 153
84 120 153
84 121 153
84 122 153
84 123 153
84 124 153
84 125 153
84 126 153
84 127 153
84 128 153
84 129 153
84 130 153
84 131 153
84 132 153
84 133 153
84 134 153
84 135 153
84 136 153
84 137 153
84 138 153
84 139 153
84 140 153
84 141 153
84 142 153
84 143 153
84 144 153
84 145 153
84 146 153
84 147 153
84 148 153
84 149 153
84 150 153
84 151 153
84 152 153
84 153 153
84 154 153
84 155 153
84 156 153
84 157 153
84 158 153
84 159 153
84 160 153
84 161 153
84 162 153
84 163 153
84 164 153
84 165 153
84 166 153
84 167 153
84 168 153
84 169 153
84 170 153
84 171 153
84 172 153
84 173 153
84 174 153
84 175 153
84 176 153
84 177 153
84 178 153
84 179 153
84 180 153
84 181 153
84 182 153
84 183 153
84 184 153
84 185 153
84 186 153
84 187 153
84 188 153
84 189 153
84 190 153
84 191 153
84 192 153
84 193 153
84 194 153
84 195 153
84 196 153
84 197 153
84 198 153
84 199 153
84 200 153
84 201 153
84 202 153
84 203 153
84 204 153
84 205 153
84 206 153
84 207 153
84 208 153
84 209 153
84 210 153
84 211 153
84 212 153
84 213 153
84 214 153
84 215 153
84 216 153
84 217 153
84 218 153
84 219 153
84 220 153
84 221 153
84 222 153
84 223 153
84 224 153
84 225 153
84 226 153
84 227 153
84 228 153
84 229 153
84 230 153
84 231 153
84 232 153
84 233 153
84 234 153
84 235 153
84 236 153
84 237 153
84 238 153
84 239 153
84 240 153
84 241 153
84 242 153
84 243 153
84 244 153
84 245 153
84 246 153
84 247 153
84 248 153
84 249 153
84 250 153
84 251 153
84 252 153
84 253 153
84 254 153
84 255 153
85 0 153
85 1 153
85 2 153
85 3 153
85 4 153
85 5 153
85 6 153
85 7 153
85 8 153
85 9 153
85 10 153
85 11 153
85 12 153
85 13 153
85 14 153
85 15 153
85 16 153
85 17 153
85 18 153
85 19 153
85 20 153
85 21 153
85 22 153
85 23 153
85 24 153
85 25 153
85 26 153
85 27 153
85 28 153
85 29 153
85 30 153
85 31 153
85 32 153
85 33 153
85 34 153
85 35 153
85 36 153
85 37 153
85 38 153
85 39 153
85 40 153
85 41 153
85 42 153
85 43 153
85 44 153
85 45 153
85 46 153
85 47 153
85 48 153
85 49 153
85 50 153
85 51 153
85 52 153
85 53 153
85 54 153
85 55 153
85 56 153
85 57 153
85 58 153
85 59 153
85 60 153
85 61 153
85 62 153
85 63 153
85 64 153
85 65 153
85 66 153
85 67 153
85 68 153
85 69 153
85 70 153
85 71 153
85 72 153
85 73 153
85 74 153
85 75 153
85 76 153
85 77 153
85 78 153
85 79 153
85 80 153
85 81 153
85 82 153
85 83 153
85 84 153
85 85 153
85 86 153
85 87 153
85 88 153
85 89 153
85 90 153
85 91 153
85 92 153
85 93 153
85 94 153
85 95 153
85 96 153
85 97 153
85 98 153
85 99 153
85 100 153
85 101 153
85 102 153
85 103 153
85 104 153
85 105 153
85 106 153
85 107 153
85 108 153
85 109 153
85 110 153
85 111 153
85 112 153
85 113 153
85 114 153
85 115 153
85 116 153
85 117 153
85 118 153
85 119 153
85 120 153
85 121 153
85 122 153
85 123 153
85 124 153
85 125 153
85 126 153
85 127 153
85 128 153
85 129 153
85 130 153
85 131 153
85 132 153
85 133 153
85 134 153
85 135 153
85 136 153
85 137 153
85 138 153
85 139 153
85 140 153
85 141 153
85 142 153
85 143 153
85 144 153
85 145 153
85 146 153
85 147 153
85 148 153
85 149 153
85 150 153
85 151 153
85 152 153
85 153 153
85 154 153
85 155 153
85 156 153
85 157 153
85 158 153
85 159 153
85 160 153
85 161 153
85 162 153
85 163 153
85 164 153
85 165 153
85 166 153
85 167 153
85 168 153
85 169 153
85 170 153
85 171 153
85 172 153
85 173 153
85 174 153
85 175 153
85 176 153
85 177 153
85 178 153
85 179 153
85 180 153
85 181 153
85 182 153
85 183 153
85 184 153
85 185 153
85 186 153
85 187 153
85 188 153
85 189 153
85 190 153
85 191 153
85 192 153
85 193 153
85 194 153
85 195 153
85 196 153
85 197 153
85 198 153
85 199 153
85 200 153
85 201 153
85 202 153
85 203 153
85 204 153
85 205 153
85 206 153
85 207 153
85 208 153
85 209 153
85 210 153
85 211 153
85 212 153
85 213 153
85 214 153
85 215 153
85 216 153
85 217 153
85 218 153
85 219 153
85 220 153
85 221 153
85 222 153
85 223 153
85 224 153
85 225 153
85 226 153
85 227 153
85 228 153
85 229 153
85 230 153
85 231 153
85 232 153
85 233 153
85 234 153
85 235 153
85 236 153
85 237 153
85 238 153
85 239 153
85 240 153
85 241 153
85 242 153
85 243 153
85 244 153
85 245 153
85 246 153
85 247 153
85 248 153
85 249 153
85 250 153
85 251 153
85 252 153
85 253 153
85 254 153
85 255 153
86 0 153
86 1 153
86 2 153
86 3 153
86 4 153
86 5 153
86 6 153
86 7 153
86 8 153
86 9 153
86 10 153
86 11 153
86 12 153
86 13 153
86 14 153
86 15 153
86 16 153
86 17 153
86 18 153
86 19 153
86 20 153
86 21 153
86 22 153
86 23 153
86 24 153
86 25 153
86 26 153
86 27 153
86 28 153
86 29 153
86 30 153
86 31 153
86 32 153
86 33 153
86 34 153
86 35 153
86 36 153
86 37 153
86 38 153
86 39 153
86 40 153
86 41 153
86 42 153
86 43 153
86 44 153
86 45 153
86 46 153
86 47 153
86 48 153
86 49 153
86 50 153
86 51 153
86 52 153
86 53 153
86 54 153
86 55 153
86 56 153
86 57 153
86 58 153
86 59 153
86 60 153
86 61 153
86 62 153
86 63 153
86 64 153
86 65 153
86 66 153
86 67 153
86 68 153
86 69 153
86 70 153
86 71 153
86 72 153
86 73 153
86 74 153
86 75 153
86 76 153
86 77 153
86 78 153
86 79 153
86 80 153
86 81 153
86 82 153
86 83 153
86 84 153
86 85 153
86 86 153
86 87 153
86 88 153
86 89 153
86 90 153
86 91 153
86 92 153
86 93 153
86 94 153
86 95 153
86 96 153
86 97 153
86 98 153
86 99 153
86 100 153
86 101 153
86 102 153
86 103 153
86 104 153
86 105 153
86 106 153
86 107 153
86 108 153
86 109 153
86 110 153
86 111 153
86 112 153
86 113 153
86 114 153
86 115 153
86 116 153
86 117 153
86 118 153
86 119 153
86 120 153
86 121 153
86 122 153
86 123 153
86 124 153
86 125 153
86 126 153
86 127 153
86 128 153
86 129 153
86 130 153
86 131 153
86 132 153
86 133 153
86 134 153
86 135 153
86 136 153
86 137 153
86 138 153
86 139 153
86 140 153
86 141 153
86 142 153
86 143 153
86 144 153
86 145 153
86 146 153
86 147 153
86 148 153
86 149 153
86 150 153
86 151 153
86 152 153
86 153 153
86 154 153
86 155 153
86 156 153
86 157 153
86 158 153
86 159 153
86 160 153
86 161 153
86 162 153
86 163 153
86 164 153
86 165 153
86 166 153
86 167 153
86 168 153
86 169 153
86 170 153
86 171 153
86 172 153
86 173 153
86 174 153
86 175 153
86 176 153
86 177 153
86 178 153
86 179 153
86 180 153
86 181 153
86 182 153
86 183 153
86 184 153
86 185 153
86 186 153
86 187 153
86 188 153
86 189 153
86 190 153
86 191 153
86 192 153
86 193 153
86 194 153
86 195 153
86 196 153
86 197 153
86 198 153
86 199 153
86 200 153
86 201 153
86 202 153
86 203 153
86 204 153
86 205 153
86 206 153
86 207 153
86 208 153
86 209 153
86 210 153
86 211 153
86 212 153
86 213 153
86 214 153
86 215 153
86 216 153
86 217 153
86 218 153
86 219 153
86 220 153
86 221 153
86 222 153
86 223 153
86 224 153
86 225 153
86 226 153
86 227 153
86 228 153
86 229 153
86 230 153
86 231 153
86 232 153
86 233 153
86 234 153
86 235 153
86 236 153
86 237 153
86 238 153
86 239 153
86 240 153
86 241 153
86 242 153
86 243 153
86 244 153
86 245 153
86 246 153
86 247 153
86 248 153
86 249 153
86 250 153
86 251 153
86 252 153
86 253 153
86 254 153
86 255 153
87 0 153
87 1 153
87 2 153
87 3 153
87 4 153
87 5 153
87 6 153
87 7 153
87 8 153
87 9 153
87 10 153
87 11 153
87 12 153
87 13 153
87 14 153
87 15 153
87 16 153
87 17 153
87 18 153
87 19 153
87 20 153
87 21 153
87 22 153
87 23 153
87 24 153
87 25 153
87 26 153
87 27 153
87 28 153
87 29 153
87 30 153
87 31 153
87 32 153
87 33 153
87 34 153
87 35 153
87 36 153
87 37 153
87 38 153
87 39 153
87 40 153
87 41 153
87 42 153
87 43 153
87 44 153
87 45 153
87 46 153
87 47 153
87 48 153
87 49 153
87 50 153
87 51 153
87 52 153
87 53 153
87 54 153
87 55 153
87 56 153
87 57 153
87 58 153
87 59 153
87 60 153
87 61 153
87 62 153
87 63 153
87 64 153
87 65 153
87 66 153
87 67 153
87 68 153
87 69 153
87 70 153
87 71 153
87 72 153
87 73 153
87 74 153
87 75 153
87 76 153
87 77 153
87 78 153
87 79 153
87 80 153
87 81 153
87 82 153
87 83 153
87 84 153
87 85 153
87 86 153
87 87 153
87 88 153
87 89 153
87 90 153
87 91 153
87 92 153
87 93 153
87 94 153
87 95 153
87 96 153
87 97 153
87 98 153
87 99 153
87 100 153
87 101 153
87 102 153
87 103 153
87 104 153
87 105 153
87 106 153
87 107 153
87 108 153
87 109 153
87 110 153
87 111 153
87 112 153
87 113 153
87 114 153
87 115 153
87 116 153
87 117 153
87 118 153
87 119 153
87 120 153
87 121 153
87 122 153
87 123 153
87 124 153
87 125 153
87 126 153
87 127 153
87 128 153
87 129 153
87 130 153
87 131 153
87 132 153
87 133 153
87 134 153
87 135 153
87 136 153
87 137 153
87 138 153
87 139 153
87 140 153
87 141 153
87 142 153
87 143 153
87 144 153
87 145 153
87 146 153
87 147 153
87 148 153
87 149 153
87 150 153
87 151 153
87 152 153
87 153 153
87 154 153
87 155 153
87 156 153
87 157 153
87 158 153
87 159 153
87 160 153
87 161 153
87 162 153
87 163 153
87 164 153
87 165 153
87 166 153
87 167 153
87 168 153
87 169 153
87 170 153
87 171 153
87 172 153
87 173 153
87 174 153
87 175 153
87 176 153
87 177 153
87 178 153
87 179 153
87 180 153
87 181 153
87 182 153
87 183 153
87 184 153
87 185 153
87 186 153
87 187 153
87 188 153
87 189 153
87 190 153
87 191 153
87 192 153
87 193 153
87 194 153
87 195 153
87 196 153
87 197 153
87 198 153
87 199 153
87 200 153
87 201 153
87 202 153
87 203 153
87 204 153
87 205 153
87 206 153
87 207 153
87 208 153
87 209 153
87 210 153
87 211 153
87 212 153
87 213 153
87 214 153
87 215 153
87 216 153
87 217 153
87 218 153
87 219 153
87 220 153
87 221 153
87 222 153
87 223 153
87 224 153
87 225 153
87 226 153
87 227 153
87 228 153
87 229 153
87 230 153
87 231 153
87 232 153
87 233 153
87 234 153
87 235 153
87 236 153
87 237 153
87 238 153
87 239 153
87 240 153
87 241 153
87 242 153
87 243 153
87 244 153
87 245 153
87 246 153
87 247 153
87 248 153
87 249 153
87 250 153
87 251 153
87 252 153
87 253 153
87 254 153
87 255 153
88 0 153
88 1 153
88 2 153
88 3 153
88 4 153
88 5 153
88 6 153
88 7 153
88 8 153
88 9 153
88 10 153
88 11 153
88 12 153
88 13 153
88 14 153
88 15 153
88 16 153
88 17 153
88 18 153
88 19 153
88 20 153
88 21 153
88 22 153
88 23 153
88 24 153
88 25 153
88 26 153
88 27 153
88 28 153
88 29 153
88 30 153
88 31 153
88 32 153
88 33 153
88 34 153
88 35 153
88 36 153
88 37 153
88 38 153
88 39 153
88 40 153
88 41 153
88 42 153
88 43 153
88 44 153
88 45 153
88 46 153
88 47 153
88 48 153
88 49 153
88 50 153
88 51 153
88 52 153
88 53 153
88 54 153
88 55 153
88 56 153
88 57 153
88 58 153
88 59 153
88 60 153
88 61 153
88 62 153
88 63 153
88 64 153
88 65 153
88 66 153
88 67 153
88 68 153
88 69 153
88 70 153
88 71 153
88 72 153
88 73 153
88 74 153
88 75 153
88 76 153
88 77 153
88 78 153
88 79 153
88 80 153
88 81 153
88 82 153
88 83 153
88 84 153
88 85 153
88 86 153
88 87 153
88 88 153
88 89 153
88 90 153
88 91 153
88 92 153
88 93 153
88 94 153
88 95 153
88 96 153
88 97 153
88 98 153
88 99 153
88 100 153
88 101 153
88 102 153
88 103 153
88 104 153
88 105 153
88 106 153
88 107 153
88 108 153
88 109 153
88 110 153
88 111 153
88 112 153
88 113 153
88 114 153
88 115 153
88 116 153
88 117 153
88 118 153
88 119 153
88 120 153
88 121 153
88 122 153
88 123 153
88 124 153
88 125 153
88 126 153
88 127 153
88 128 153
88 129 153
88 130 153
88 131 153
88 132 153
88 133 153
88 134 153
88 135 153
88 136 153
88 137 153
88 138 153
88 139 153
88 140 153
88 141 153
88 142 153
88 143 153
88 144 153
88 145 153
88 146 153
88 147 153
88 148 153
88 149 153
88 150 153
88 151 153
88 152 153
88 153 153
88 154 153
88 155 153
88 156 153
88 157 153
88 158 153
88 159 153
88 160 153
88 161 153
88 162 153
88 163 153
88 164 153
88 165 153
88 166 153
88 167 153
88 168 153
88 169 153
88 170 153
88 171 153
88 172 153
88 173 153
88 174 153
88 175 153
88 176 153
88 177 153
88 178 153
88 179 153
88 180 153
88 181 153
88 182 153
88 183 153
88 184 153
88 185 153
88 186 153
88 187 153
88 188 153
88 189 153
88 190 153
88 191 153
88 192 153
88 193 153
88 194 153
88 195 153
88 196 153
88 197 153
88 198 153
88 199 153
88 200 153
88 201 153
88 202 153
88 203 153
88 204 153
88 205 153
88 206 153
88 207 153
88 208 153
88 209 153
88 210 153
88 211 153
88 212 153
88 213 153
88 214 153
88 215 153
88 216 153
88 217 153
88 218 153
88 219 153
88 220 153
88 221 153
88 222 153
88 223 153
88 224 153
88 225 153
88 226 153
88 227 153
88 228 153
88 229 153
88 230 153
88 231 153
88 232 153
88 233 153
88 234 153
88 235 153
88 236 153
88 237 153
88 238 153
88 239 153
88 240 153
88 241 153
88 242 153
88 243 153
88 244 153
88 245 153
88 246 153
88 247 153
88 248 153
88 249 153
88 250 153
88 251 153
88 252 153
88 253 153
88 254 153
88 255 153
89 0 153
89 1 153
89 2 153
89 3 153
89 4 153
89 5 153
89 6 153
89 7 153
89 8 153
89 9 153
89 10 153
89 11 153
89 12 153
89 13 153
89 14 153
89 15 153
89 16 153
89 17 153
89 18 153
89 19 153
89 20 153
89 21 153
89 22 153
89 23 153
89 24 153
89 25 153
89 26 153
89 27 153
89 28 153
89 29 153
89 30 153
89 31 153
89 32 153
89 33 153
89 34 153
89 35 153
89 36 153
89 37 153
89 38 153
89 39 153
89 40 153
89 41 153
89 42 153
89 43 153
89 44 153
89 45 153
89 46 153
89 47 153
89 48 153
89 49 153
89 50 153
89 51 153
89 52 153
89 53 153
89 54 153
89 55 153
89 56 153
89 57 153
89 58 153
89 59 153
89 60 153
89 61 153
89 62 153
89 63 153
89 64 153
89 65 153
89 66 153
89 67 153
89 68 153
89 69 153
89 70 153
89 71 153
89 72 153
89 73 153
89 74 153
89 75 153
89 76 153
89 77 153
89 78 153
89 79 153
89 80 153
89 81 153
89 82 153
89 83 153
89 84 153
89 85 153
89 86 153
89 87 153
89 88 153
89 89 153
89 90 153
89 91 153
89 92 153
89 93 153
89 94 153
89 95 153
89 96 153
89 97 153
89 98 153
89 99 153
89 100 153
89 101 153
89 102 153
89 103 153
89 104 153
89 105 153
89 106 153
89 107 153
89 108 153
89 109 153
89 110 153
89 111 153
89 112 153
89 113 153
89 114 153
89 115 153
89 116 153
89 117 153
89 118 153
89 119 153
89 120 153
89 121 153
89 122 153
89 123 153
89 124 153
89 125 153
89 126 153
89 127 153
89 128 153
89 129 153
89 130 153
89 131 153
89 132 153
89 133 153
89 134 153
89 135 153
89 136 153
89 137 153
89 138 153
89 139 153
89 140 153
89 141 153
89 142 153
89 143 153
89 144 153
89 145 153
89 146 153
89 147 153
89 148 153
89 149 153
89 150 153
89 151 153
89 152 153
89 153 153
89 154 153
89 155 153
89 156 153
89 157 153
89 158 153
89 159 153
89 160 153
89 161 153
89 162 153
89 163 153
89 164 153
89 165 153
89 166 153
89 167 153
89 168 153
89 169 153
89 170 153
89 171 153
89 172 153
89 173 153
89 174 153
89 175 153
89 176 153
89 177 153
89 178 153
89 179 153
89 180 153
89 181 153
89 182 153
89 183 153
89 184 153
89 185 153
89 186 153
89 187 153
89 188 153
89 189 153
89 190 153
89 191 153
89 192 153
89 193 153
89 194 153
89 195 153
89 196 153
89 197 153
89 198 153
89 199 153
89 200 153
89 201 153
89 202 153
89 203 153
89 204 153
89 205 153
89 206 153
89 207 153
89 208 153
89 209 153
89 210 153
89 211 153
89 212 153
89 213 153
89 214 153
89 215 153
89 216 153
89 217 153
89 218 153
89 219 153
89 220 153
89 221 153
89 222 153
89 223 153
89 224 153
89 225 153
89 226 153
89 227 153
89 228 153
89 229 153
89 230 153
89 231 153
89 232 153
89 233 153
89 234 153
89 235 153
89 236 153
89 237 153
89 238 153
89 239 153
89 240 153
89 241 153
89 242 153
89 243 153
89 244 153
89 245 153
89 246 153
89 247 153
89 248 153
89 249 153
89 250 153
89 251 153
89 252 153
89 253 153
89 254 153
89 255 153
90 0 153
90 1 153
90 2 153
90 3 153
90 4 153
90 5 153
90 6 153
90 7 153
90 8 153
90 9 153
90 10 153
90 11 153
90 12 153
90 13 153
90 14 153
90 15 153
90 16 153
90 17 153
90 18 153
90 19 153
90 20 153
90 21 153
90 22 153
90 23 153
90 24 153
90 25 153
90 26 153
90 27 153
90 28 153
90 29 153
90 30 153
90 31 153
90 32 153
90 33 153
90 34 153
90 35 153
90 36 153
90 37 153
90 38 153
90 39 153
90 40 153
90 41 153
90 42 153
90 43 153
90 44 153
90 45 153
90 46 153
90 47 153
90 48 153
90 49 153
90 50 153
90 51 153
90 52 153
90 53 153
90 54 153
90 55 153
90 56 153
90 57 153
90 58 153
90 59 153
90 60 153
90 61 153
90 62 153
90 63 153
90 64 153
90 65 153
90 66 153
90 67 153
90 68 153
90 69 153
90 70 153
90 71 153
90 72 153
90 73 153
90 74 153
90 75 153
90 76 153
90 77 153
90 78 153
90 79 153
90 80 153
90 81 153
90 82 153
90 83 153
90 84 153
90 85 153
90 86 153
90 87 153
90 88 153
90 89 153
90 90 153
90 91 153
90 92 153
90 93 153
90 94 153
90 95 153
90 96 153
90 97 153
90 98 153
90 99 153
90 100 153
90 101 153
90 102 153
90 103 153
90 104 153
90 105 153
90 106 153
90 107 153
90 108 153
90 109 153
90 110 153
90 111 153
90 112 153
90 113 153
90 114 153
90 115 153
90 116 153
90 117 153
90 118 153
90 119 153
90 120 153
90 121 153
90 122 153
90 123 153
90 124 153
90 125 153
90 126 153
90 127 153
90 128 153
90 129 153
90 130 153
90 131 153
90 132 153
90 133 153
90 134 153
90 135 153
90 136 153
90 137 153
90 138 153
90 139 153
90 140 153
90 141 153
90 142 153
90 143 153
90 144 153
90 145 153
90 146 153
90 147 153
90 148 153
90 149 153
90 150 153
90 151 153
90 152 153
90 153 153
90 154 153
90 155 153
90 156 153
90 157 153
90 158 153
90 159 153
90 160 153
90 161 153
90 162 153
90 163 153
90 164 153
90 165 153
90 166 153
90 167 153
90 168 153
90 169 153
90 170 153
90 171 153
90 172 153
90 173 153
90 174 153
90 175 153
90 176 153
90 177 153
90 178 153
90 179 153
90 180 153
90 181 153
90 182 153
90 183 153
90 184 153
90 185 153
90 186 153
90 187 153
90 188 153
90 189 153
90 190 153
90 191 153
90 192 153
90 193 153
90 194 153
90 195 153
90 196 153
90 197 153
90 198 153
90 199 153
90 200 153
90 201 153
90 202 153
90 203 153
90 204 153
90 205 153
90 206 153
90 207 153
90 208 153
90 209 153
90 210 153
90 211 153
90 212 153
90 213 153
90 214 153
90 215 153
90 216 153
90 217 153
90 218 153
90 219 153
90 220 153
90 221 153
90 222 153
90 223 153
90 224 153
90 225 153
90 226 153
90 227 153
90 228 153
90 229 153
90 230 153
90 231 153
90 232 153
90 233 153
90 234 153
90 235 153
90 236 153
90 237 153
90 238 153
90 239 153
90 240 153
90 241 153
90 242 153
90 243 153
90 244 153
90 245 153
90 246 153
90 247 153
90 248 153
90 249 153
90 250 153
90 251 153
90 252 153
90 253 153
90 254 153
90 255 153
91 0 153
91 1 153
91 2 153
91 3 153
91 4 153
91 5 153
91 6 153
91 7 153
91 8 153
91 9 153
91 10 153
91 11 153
91 12 153
91 13 153
91 14 153
91 15 153
91 16 153
91 17 153
91 18 153
91 19 153
91 20 153
91 21 153
91 22 153
91 23 153
91 24 153
91 25 153
91 26 153
91 27 153
91 28 153
91 29 153
91 30 153
91 31 153
91 32 153
91 33 153
91 34 153
91 35 153
91 36 153
91 37 153
91 38 153
91 39 153
91 40 153
91 41 153
91 42 153
91 43 153
91 44 153
91 45 153
91 46 153
91 47 153
91 48 153
91 49 153
91 50 153
91 51 153
91 52 153
91 53 153
91 54 153
91 55 153
91 56 153
91 57 153
91 58 153
91 59 153
91 60 153
91 61 153
91 62 153
91 63 153
91 64 153
91 65 153
91 66 153
91 67 153
91 68 153
91 69 153
91 70 153
91 71 153
91 72 153
91 73 153
91 74 153
91 75 153
91 76 153
91 77 153
91 78 153
91 79 153
91 80 153
91 81 153
91 82 153
91 83 153
91 84 153
91 85 153
91 86 153
91 87 153
91 88 153
91 89 153
91 90 153
91 91 153
91 92 153
91 93 153
91 94 153
91 95 153
91 96 153
91 97 153
91 98 153
91 99 153
91 100 153
91 101 153
91 102 153
91 103 153
91 104 153
91 105 153
91 106 153
91 107 153
91 108 153
91 109 153
91 110 153
91 111 153
91 112 153
91 113 153
91 114 153
91 115 153
91 116 153
91 117 153
91 118 153
91 119 153
91 120 153
91 121 153
91 122 153
91 123 153
91 124 153
91 125 153
91 126 153
91 127 153
91 128 153
91 129 153
91 130 153
91 131 153
91 132 153
91 133 153
91 134 153
91 135 153
91 136 153
91 137 153
91 138 153
91 139 153
91 140 153
91 141 153
91 142 153
91 143 153
91 144 153
91 145 153
91 146 153
91 147 153
91 148 153
91 149 153
91 150 153
91 151 153
91 152 153
91 153 153
91 154 153
91 155 153
91 156 153
91 157 153
91 158 153
91 159 153
91 160 153
91 161 153
91 162 153
91 163 153
91 164 153
91 165 153
91 166 153
91 167 153
91 168 153
91 169 153
91 170 153
91 171 153
91 172 153
91 173 153
91 174 153
91 175 153
91 176 153
91 177 153
91 178 153
91 179 153
91 180 153
91 181 153
91 182 153
91 183 153
91 184 153
91 185 153
91 186 153
91 187 153
91 188 153
91 189 153
91 190 153
91 191 153
91 192 153
91 193 153
91 194 153
91 195 153
91 196 153
91 197 153
91 198 153
91 199 153
91 200 153
91 201 153
91 202 153
91 203 153
91 204 153
91 205 153
91 206 153
91 207 153
91 208 153
91 209 153
91 210 153
91 211 153
91 212 153
91 213 153
91 214 153
91 215 153
91 216 153
91 217 153
91 218 153
91 219 153
91 220 153
91 221 153
91 222 153
91 223 153
91 224 153
91 225 153
91 226 153
91 227 153
91 228 153
91 229 153
91 230 153
91 231 153
91 232 153
91 233 153
91 234 153
91 235 153
91 236 153
91 237 153
91 238 153
91 239 153
91 240 153
91 241 153
91 242 153
91 243 153
91 244 153
91 245 153
91 246 153
91 247 153
91 248 153
91 249 153
91 250 153
91 251 153
91 252 153
91 253 153
91 254 153
91 255 153
92 0 153
92 1 153
92 2 153
92 3 153
92 4 153
92 5 153
92 6 153
92 7 153
92 8 153
92 9 153
92 10 153
92 11 153
92 12 153
92 13 153
92 14 153
92 15 153
92 16 153
92 17 153
92 18 153
92 19 153
92 20 153
92 21 153
92 22 153
92 23 153
92 24 153
92 25 153
92 26 153
92 27 153
92 28 153
92 29 153
92 30 153
92 31 153
92 32 153
92 33 153
92 34 153
92 35 153
92 36 153
92 37 153
92 38 153
92 39 153
92 40 153
92 41 153
92 42 153
92 43 153
92 44 153
92 45 153
92 46 153
92 47 153
92 48 153
92 49 153
92 50 153
92 51 153
92 52 153
92 53 153
92 54 153
92 55 153
92 56 153
92 57 153
92 58 153
92 59 153
92 60 153
92 61 153
92 62 153
92 63 153
92 64 153
92 65 153
92 66 153
92 67 153
92 68 153
92 69 153
92 70 153
92 71 153
92 72 153
92 73 153
92 74 153
92 75 153
92 76 153
92 77 153
92 78 153
92 79 153
92 80 153
92 81 153
92 82 153
92 83 153
92 84 153
92 85 153
92 86 153
92 87 153
92 88 153
92 89 153
92 90 153
92 91 153
92 92 153
92 93 153
92 94 153
92 95 153
92 96 153
92 97 153
92 98 153
92 99 153
92 100 153
92 101 153
92 102 153
92 103 153
92 104 153
92 105 153
92 106 153
92 107 153
92 108 153
92 109 153
92 110 153
92 111 153
92 112 153
92 113 153
92 114 153
92 115 153
92 116 153
92 117 153
92 118 153
92 119 153
92 120 153
92 121 153
92 122 153
92 123 153
92 124 153
92 125 153
92 126 153
92 127 153
92 128 153
92 129 153
92 130 153
92 131 153
92 132 153
92 133 153
92 134 153
92 135 153
92 136 153
92 137 153
92 138 153
92 139 153
92 140 153
92 141 153
92 142 153
92 143 153
92 144 153
92 145 153
92 146 153
92 147 153
92 148 153
92 149 153
92 150 153
92 151 153
92 152 153
92 153 153
92 154 153
92 155 153
92 156 153
92 157 153
92 158 153
92 159 153
92 160 153
92 161 153
92 162 153
92 163 153
92 164 153
92 165 153
92 166 153
92 167 153
92 168 153
92 169 153
92 170 153
92 171 153
92 172 153
92 173 153
92 174 153
92 175 153
92 176 153
92 177 153
92 178 153
92 179 153
92 180 153
92 181 153
92 182 153
92 183 153
92 184 153
92 185 153
92 186 153
92 187 153
92 188 153
92 189 153
92 190 153
92 191 153
92 192 153
92 193 153
92 194 153
92 195 153
92 196 153
92 197 153
92 198 153
92 199 153
92 200 153
92 201 153
92 202 153
92 203 153
92 204 153
92 205 153
92 206 153
92 207 153
92 208 153
92 209 153
92 210 153
92 211 153
92 212 153
92 213 153
92 214 153
92 215 153
92 216 153
92 217 153
92 218 153
92 219 153
92 220 153
92 221 153
92 222 153
92 223 153
92 224 153
92 225 153
92 226 153
92 227 153
92 228 153
92 229 153
92 230 153
92 231 153
92 232 153
92 233 153
92 234 153
92 235 153
92 236 153
92 237 153
92 238 153
92 239 153
92 240 153
92 241 153
92 242 153
92 243 153
92 244 153
92 245 153
92 246 153
92 247 153
92 248 153
92 249 153
92 250 153
92 251 153
92 252 153
92 253 153
92 254 153
92 255 153
93 0 153
93 1 153
93 2 153
93 3 153
93 4 153
93 5 153
93 6 153
93 7 153
93 8 153
93 9 153
93 10 153
93 11 153
93 12 153
93 13 153
93 14 153
93 15 153
93 16 153
93 17 153
93 18 153
93 19 153
93 20 153
93 21 153
93 22 153
93 23 153
93 24 153
93 25 153
93 26 153
93 27 153
93 28 153
93 29 153
93 30 153
93 31 153
93 32 153
93 33 153
93 34 153
93 35 153
93 36 153
93 37 153
93 38 153
93 39 153
93 40 153
93 41 153
93 42 153
93 43 153
93 44 153
93 45 153
93 46 153
93 47 153
93 48 153
93 49 153
93 50 153
93 51 153
93 52 153
93 53 153
93 54 153
93 55 153
93 56 153
93 57 153
93 58 153
93 59 153
93 60 153
93 61 153
93 62 153
93 63 153
93 64 153
93 65 153
93 66 153
93 67 153
93 68 153
93 69 153
93 70 153
93 71 153
93 72 153
93 73 153
93 74 153
93 75 153
93 76 153
93 77 153
93 78 153
93 79 153
93 80 153
93 81 153
93 82 153
93 83 153
93 84 153
93 85 153
93 86 153
93 87 153
93 88 153
93 89 153
93 90 153
93 91 153
93 92 153
93 93 153
93 94 153
93 95 153
93 96 153
93 97 153
93 98 153
93 99 153
93 100 153
93 101 153
93 102 153
93 103 153
93 104 153
93 105 153
93 106 153
93 107 153
93 108 153
93 109 153
93 110 153
93 111 153
93 112 153
93 113 153
93 114 153
93 115 153
93 116 153
93 117 153
93 118 153
93 119 153
93 120 153
93 121 153
93 122 153
93 123 153
93 124 153
93 125 153
93 126 153
93 127 153
93 128 153
93 129 153
93 130 153
93 131 153
93 132 153
93 133 153
93 134 153
93 135 153
93 136 153
93 137 153
93 138 153
93 139 153
93 140 153
93 141 153
93 142 153
93 143 153
93 144 153
93 145 153
93 146 153
93 147 153
93 148 153
93 149 153
93 150 153
93 151 153
93 152 153
93 153 153
93 154 153
93 155 153
93 156 153
93 157 153
93 158 153
93 159 153
93 160 153
93 161 153
93 162 153
93 163 153
93 164 153
93 165 153
93 166 153
93 167 153
93 168 153
93 169 153
93 170 153
93 171 153
93 172 153
93 173 153
93 174 153
93 175 153
93 176 153
93 177 153
93 178 153
93 179 153
93 180 153
93 181 153
93 182 153
93 183 153
93 184 153
93 185 153
93 186 153
93 187 153
93 188 153
93 189 153
93 190 153
93 191 153
93 192 153
93 193 153
93 194 153
93 195 153
93 196 153
93 197 153
93 198 153
93 199 153
93 200 153
93 201 153
93 202 153
93 203 153
93 204 153
93 205 153
93 206 153
93 207 153
93 208 153
93 209 153
93 210 153
93 211 153
93 212 153
93 213 153
93 214 153
93 215 153
93 216 153
93 217 153
93 218 153
93 219 153
93 220 153
93 221 153
93 222 153
93 223 153
93 224 153
93 225 153
93 226 153
93 227 153
93 228 153
93 229 153
93 230 153
93 231 153
93 232 153
93 233 153
93 234 153
93 235 153
93 236 153
93 237 153
93 238 153
93 239 153
93 240 153
93 241 153
93 242 153
93 243 153
93 244 153
93 245 153
93 246 153
93 247 153
93 248 153
93 249 153
93 250 153
93 251 153
93 252 153
93 253 153
93 254 153
93 255 153
94 0 153
94 1 153
94 2 153
94 3 153
94 4 153
94 5 153
94 6 153
94 7 153
94 8 153
94 9 153
94 10 153
94 11 153
94 12 153
94 13 153
94 14 153
94 15 153
94 16 153
94 17 153
94 18 153
94 19 153
94 20 153
94 21 153
94 22 153
94 23 153
94 24 153
94 25 153
94 26 153
94 27 153
94 28 153
94 29 153
94 30 153
94 31 153
94 32 153
94 33 153
94 34 153
94 35 153
94 36 153
94 37 153
94 38 153
94 39 153
94 40 153
94 41 153
94 42 153
94 43 153
94 44 153
94 45 153
94 46 153
94 47 153
94 48 153
94 49 153
94 50 153
94 51 153
94 52 153
94 53 153
94 54 153
94 55 153
94 56 153
94 57 153
94 58 153
94 59 153
94 60 153
94 61 153
94 62 153
94 63 153
94 64 153
94 65 153
94 66 153
94 67 153
94 68 153
94 69 153
94 70 153
94 71 153
94 72 153
94 73 153
94 74 153
94 75 153
94 76 153
94 77 153
94 78 153
94 79 153
94 80 153
94 81 153
94 82 153
94 83 153
94 84 153
94 85 153
94 86 153
94 87 153
94 88 153
94 89 153
94 90 153
94 91 153
94 92 153
94 93 153
94 94 153
94 95 153
94 96 153
94 97 153
94 98 153
94 99 153
94 100 153
94 101 153
94 102 153
94 103 153
94 104 153
94 105 153
94 106 153
94 107 153
94 108 153
94 109 153
94 110 153
94 111 153
94 112 153
94 113 153
94 114 153
94 115 153
94 116 153
94 117 153
94 118 153
94 119 153
94 120 153
94 121 153
94 122 153
94 123 153
94 124 153
94 125 153
94 126 153
94 127 153
94 128 153
94 129 153
94 130 153
94 131 153
94 132 153
94 133 153
94 134 153
94 135 153
94 136 153
94 137 153
94 138 153
94 139 153
94 140 153
94 141 153
94 142 153
94 143 153
94 144 153
94 145 153
94 146 153
94 147 153
94 148 153
94 149 153
94 150 153
94 151 153
94 152 153
94 153 153
94 154 153
94 155 153
94 156 153
94 157 153
94 158 153
94 159 153
94 160 153
94 161 153
94 162 153
94 163 153
94 164 153
94 165 153
94 166 153
94 167 153
94 168 153
94 169 153
94 170 153
94 171 153
94 172 153
94 173 153
94 174 153
94 175 153
94 176 153
94 177 153
94 178 153
94 179 153
94 180 153
94 181 153
94 182 153
94 183 153
94 184 153
94 185 153
94 186 153
94 187 153
94 188 153
94 189 153
94 190 153
94 191 153
94 192 153
94 193 153
94 194 153
94 195 153
94 196 153
94 197 153
94 198 153
94 199 153
94 200 153
94 201 153
94 202 153
94 203 153
94 204 153
94 205 153
94 206 153
94 207 153
94 208 153
94 209 153
94 210 153
94 211 153
94 212 153
94 213 153
94 214 153
94 215 153
94 216 153
94 217 153
94 218 153
94 219 153
94 220 153
94 221 153
94 222 153
94 223 153
94 224 153
94 225 153
94 226 153
94 227 153
94 228 153
94 229 153
94 230 153
94 231 153
94 232 153
94 233 153
94 234 153
94 235 153
94 236 153
94 237 153
94 238 153
94 239 153
94 240 153
94 241 153
94 242 153
94 243 153
94 244 153
94 245 153
94 246 153
94 247 153
94 248 153
94 249 153
94 250 153
94 251 153
94 252 153
94 253 153
94 254 153
94 255 153
95 0 153
95 1 153
95 2 153
95 3 153
95 4 153
95 5 153
95 6 153
95 7 153
95 8 153
95 9 153
95 10 153
95 11 153
95 12 153
95 13 153
95 14 153
95 15 153
95 16 153
95 17 153
95 18 153
95 19 153
95 20 153
95 21 153
95 22 153
95 23 153
95 24 153
95 25 153
95 26 153
95 27 153
95 28 153
95 29 153
95 30 153
95 31 153
95 32 153
95 33 153
95 34 153
95 35 153
95 36 153
95 37 153
95 38 153
95 39 153
95 40 153
95 41 153
95 42 153
95 43 153
95 44 153
95 45 153
95 46 153
95 47 153
95 48 153
95 49 153
95 50 153
95 51 153
95 52 153
95 53 153
95 54 153
95 55 153
95 56 153
95 57 153
95 58 153
95 59 153
95 60 153
95 61 153
95 62 153
95 63 153
95 64 153
95 65 153
95 66 153
95 67 153
95 68 153
95 69 153
95 70 153
95 71 153
95 72 153
95 73 153
95 74 153
95 75 153
95 76 153
95 77 153
95 78 153
95 79 153
95 80 153
95 81 153
95 82 153
95 83 153
95 84 153
95 85 153
95 86 153
95 87 153
95 88 153
95 89 153
95 90 153
95 91 153
95 92 153
95 93 153
95 94 153
95 95 153
95 96 153
95 97 153
95 98 153
95 99 153
95 100 153
95 101 153
95 102 153
95 103 153
95 104 153
95 105 153
95 106 153
95 107 153
95 108 153
95 109 153
95 110 153
95 111 153
95 112 153
95 113 153
95 114 153
95 115 153
95 116 153
95 117 153
95 118 153
95 119 153
95 120 153
95 121 153
95 122 153
95 123 153
95 124 153
95 125 153
95 126 153
95 127 153
95 128 153
95 129 153
95 130 153
95 131 153
95 132 153
95 133 153
95 134 153
95 135 153
95 136 153
95 137 153
95 138 153
95 139 153
95 140 153
95 141 153
95 142 153
95 143 153
95 144 153
95 145 153
95 146 153
95 147 153
95 148 153
95 149 153
95 150 153
95 151 153
95 152 153
95 153 153
95 154 153
95 155 153
95 156 153
95 157 153
95 158 153
95 159 153
95 160 153
95 161 153
95 162 153
95 163 153
95 164 153
95 165 153
95 166 153
95 167 153
95 168 153
95 169 153
95 170 153
95 171 153
95 172 153
95 173 153
95 174 153
95 175 153
95 176 153
95 177 153
95 178 153
95 179 153
95 180 153
95 181 153
95 182 153
95 183 153
95 184 153
95 185 153
95 186 153
95 187 153
95 188 153
95 189 153
95 190 153
95 191 153
95 192 153
95 193 153
95 194 153
95 195 153
95 196 153
95 197 153
95 198 153
95 199 153
95 200 153
95 201 153
95 202 153
95 203 153
95 204 153
95 205 153
95 206 153
95 207 153
95 208 153
95 209 153
95 210 153
95 211 153
95 212 153
95 213 153
95 214 153
95 215 153
95 216 153
95 217 153
95 218 153
95 219 153
95 220 153
95 221 153
95 222 153
95 223 153
95 224 153
95 225 153
95 226 153
95 227 153
95 228 153
95 229 153
95 230 153
95 231 153
95 232 153
95 233 153
95 234 153
95 235 153
95 236 153
95 237 153
95 238 153
95 239 153
95 240 153
95 241 153
95 242 153
95 243 153
95 244 153
95 245 153
95 246 153
95 247 153
95 248 153
95 249 153
95 250 153
95 251 153
95 252 153
95 253 153
95 254 153
95 255 153
96 0 153
96 1 153
96 2 153
96 3 153
96 4 153
96 5 153
96 6 153
96 7 153
96 8 153
96 9 153
96 10 153
96 11 153
96 12 153
96 13 153
96 14 153
96 15 153
96 16 153
96 17 153
96 18 153
96 19 153
96 20 153
96 21 153
96 22 153
96 23 153
96 24 153
96 25 153
96 26 153
96 27 153
96 28 153
96 29 153
96 30 153
96 31 153
96 32 153
96 33 153
96 34 153
96 35 153
96 36 153
96 37 153
96 38 153
96 39 153
96 40 153
96 41 153
96 42 153
96 43 153
96 44 153
96 45 153
96 46 153
96 47 153
96 48 153
96 49 153
96 50 153
96 51 153
96 52 153
96 53 153
96 54 153
96 55 153
96 56 153
96 57 153
96 58 153
96 59 153
96 60 153
96 61 153
96 62 153
96 63 153
96 64 153
96 65 153
96 66 153
96 67 153
96 68 153
96 69 153
96 70 153
96 71 153
96 72 153
96 73 153
96 74 153
96 75 153
96 76 153
96 77 153
96 78 153
96 79 153
96 80 153
96 81 153
96 82 153
96 83 153
96 84 153
96 85 153
96 86 153
96 87 153
96 88 153
96 89 153
96 90 153
96 91 153
96 92 153
96 93 153
96 94 153
96 95 153
96 96 153
96 97 153
96 98 153
96 99 153
96 100 153
96 101 153
96 102 153
96 103 153
96 104 153
96 105 153
96 106 153
96 107 153
96 108 153
96 109 153
96 110 153
96 111 153
96 112 153
96 113 153
96 114 153
96 115 153
96 116 153
96 117 153
96 118 153
96 119 153
96 120 153
96 121 153
96 122 153
96 123 153
96 124 153
96 125 153
96 126 153
96 127 153
96 128 153
96 129 153
96 130 153
96 131 153
96 132 153
96 133 153
96 134 153
96 135 153
96 136 153
96 137 153
96 138 153
96 139 153
96 140 153
96 141 153
96 142 153
96 143 153
96 144 153
96 145 153
96 146 153
96 147 153
96 148 153
96 149 153
96 150 153
96 151 153
96 152 153
96 153 153
96 154 153
96 155 153
96 156 153
96 157 153
96 158 153
96 159 153
96 160 153
96 161 153
96 162 153
96 163 153
96 164 153
96 165 153
96 166 153
96 167 153
96 168 153
96 169 153
96 170 153
96 171 153
96 172 153
96 173 153
96 174 153
96 175 153
96 176 153
96 177 153
96 178 153
96 179 153
96 180 153
96 181 153
96 182 153
96 183 153
96 184 153
96 185 153
96 186 153
96 187 153
96 188 153
96 189 153
96 190 153
96 191 153
96 192 153
96 193 153
96 194 153
96 195 153
96 196 153
96 197 153
96 198 153
96 199 153
96 200 153
96 201 153
96 202 153
96 203 153
96 204 153
96 205 153
96 206 153
96 207 153
96 208 153
96 209 153
96 210 153
96 211 153
96 212 153
96 213 153
96 214 153
96 215 153
96 216 153
96 217 153
96 218 153
96 219 153
96 220 153
96 221 153
96 222 153
96 223 153
96 224 153
96 225 153
96 226 153
96 227 153
96 228 153
96 229 153
96 230 153
96 231 153
96 232 153
96 233 153
96 234 153
96 235 153
96 236 153
96 237 153
96 238 153
96 239 153
96 240 153
96 241 153
96 242 153
96 243 153
96 244 153
96 245 153
96 246 153
96 247 153
96 248 153
96 249 153
96 250 153
96 251 153
96 252 153
96 253 153
96 254 153
96 255 153
97 0 153
97 1 153
97 2 153
97 3 153
97 4 153
97 5 153
97 6 153
97 7 153
97 8 153
97 9 153
97 10 153
97 11 153
97 12 153
97 13 153
97 14 153
97 15 153
97 16 153
97 17 153
97 18 153
97 19 153
97 20 153
97 21 153
97 22 153
97 23 153
97 24 153
97 25 153
97 26 153
97 27 153
97 28 153
97 29 153
97 30 153
97 31 153
97 32 153
97 33 153
97 34 153
97 35 153
97 36 153
97 37 153
97 38 153
97 39 153
97 40 153
97 41 153
97 42 153
97 43 153
97 44 153
97 45 153
97 46 153
97 47 153
97 48 153
97 49 153
97 50 153
97 51 153
97 52 153
97 53 153
97 54 153
97 55 153
97 56 153
97 57 153
97 58 153
97 59 153
97 60 153
97 61 153
97 62 153
97 63 153
97 64 153
97 65 153
97 66 153
97 67 153
97 68 153
97 69 153
97 70 153
97 71 153
97 72 153
97 73 153
97 74 153
97 75 153
97 76 153
97 77 153
97 78 153
97 79 153
97 80 153
97 81 153
97 82 153
97 83 153
97 84 153
97 85 153
97 86 153
97 87 153
97 88 153
97 89 153
97 90 153
97 91 153
97 92 153
97 93 153
97 94 153
97 95 153
97 96 153
97 97 153
97 98 153
97 99 153
97 100 153
97 101 153
97 102 153
97 103 153
97 104 153
97 105 153
97 106 153
97 107 153
97 108 153
97 109 153
97 110 153
97 111 153
97 112 153
97 113 153
97 114 153
97 115 153
97 116 153
97 117 153
97 118 153
97 119 153
97 120 153
97 121 153
97 122 153
97 123 153
97 124 153
97 125 153
97 126 153
97 127 153
97 128 153
97 129 153
97 130 153
97 131 153
97 132 153
97 133 153
97 134 153
97 135 153
97 136 153
97 137 153
97 138 153
97 139 153
97 140 153
97 141 153
97 142 153
97 143 153
97 144 153
97 145 153
97 146 153
97 147 153
97 148 153
97 149 153
97 150 153
97 151 153
97 152 153
97 153 153
97 154 153
97 155 153
97 156 153
97 157 153
97 158 153
97 159 153
97 160 153
97 161 153
97 162 153
97 163 153
97 164 153
97 165 153
97 166 153
97 167 153
97 168 153
97 169 153
97 170 153
97 171 153
97 172 153
97 173 153
97 174 153
97 175 153
97 176 153
97 177 153
97 178 153
97 179 153
97 180 153
97 181 153
97 182 153
97 183 153
97 184 153
97 185 153
97 186 153
97 187 153
97 188 153
97 189 153
97 190 153
97 191 153
97 192 153
97 193 153
97 194 153
97 195 153
97 196 153
97 197 153
97 198 153
97 199 153
97 200 153
97 201 153
97 202 153
97 203 153
97 204 153
97 205 153
97 206 153
97 207 153
97 208 153
97 209 153
97 210 153
97 211 153
97 212 153
97 213 153
97 214 153
97 215 153
97 216 153
97 217 153
97 218 153
97 219 153
97 220 153
97 221 153
97 222 153
97 223 153
97 224 153
97 225 153
97 226 153
97 227 153
97 228 153
97 229 153
97 230 153
97 231 153
97 232 153
97 233 153
97 234 153
97 235 153
97 236 153
97 237 153
97 238 153
97 239 153
97 240 153
97 241 153
97 242 153
97 243 153
97 244 153
97 245 153
97 246 153
97 247 153
97 248 153
97 249 153
97 250 153
97 251 153
97 252 153
97 253 153
97 254 153
97 255 153
98 0 153
98 1 153
98 2 153
98 3 153
98 4 153
98 5 153
98 6 153
98 7 153
98 8 153
98 9 153
98 10 153
98 11 153
98 12 153
98 13 153
98 14 153
98 15 153
98 16 153
98 17 153
98 18 153
98 19 153
98 20 153
98 21 153
98 22 153
98 23 153
98 24 153
98 25 153
98 26 153
98 27 153
98 28 153
98 29 153
98 30 153
98 31 153
98 32 153
98 33 153
98 34 153
98 35 153
98 36 153
98 37 153
98 38 153
98 39 153
98 40 153
98 41 153
98 42 153
98 43 153
98 44 153
98 45 153
98 46 153
98 47 153
98 48 153
98 49 153
98 50 153
98 51 153
98 52 153
98 53 153
98 54 153
98 55 153
98 56 153
98 57 153
98 58 153
98 59 153
98 60 153
98 61 153
98 62 153
98 63 153
98 64 153
98 65 153
98 66 153
98 67 153
98 68 153
98 69 153
98 70 153
98 71 153
98 72 153
98 73 153
98 74 153
98 75 153
98 76 153
98 77 153
98 78 153
98 79 153
98 80 153
98 81 153
98 82 153
98 83 153
98 84 153
98 85 153
98 86 153
98 87 153
98 88 153
98 89 153
98 90 153
98 91 153
98 92 153
98 93 153
98 94 153
98 95 153
98 96 153
98 97 153
98 98 153
98 99 153
98 100 153
98 101 153
98 102 153
98 103 153
98 104 153
98 105 153
98 106 153
98 107 153
98 108 153
98 109 153
98 110 153
98 111 153
98 112 153
98 113 153
98 114 153
98 115 153
98 116 153
98 117 153
98 118 153
98 119 153
98 120 153
98 121 153
98 122 153
98 123 153
98 124 153
98 125 153
98 126 153
98 127 153
98 128 153
98 129 153
98 130 153
98 131 153
98 132 153
98 133 153
98 134 153
98 135 153
98 136 153
98 137 153
98 138 153
98 139 153
98 140 153
98 141 153
98 142 153
98 143 153
98 144 153
98 145 153
98 146 153
98 147 153
98 148 153
98 149 153
98 150 153
98 151 153
98 152 153
98 153 153
98 154 153
98 155 153
98 156 153
98 157 153
98 158 153
98 159 153
98 160 153
98 161 153
98 162 153
98 163 153
98 164 153
98 165 153
98 166 153
98 167 153
98 168 153
98 169 153
98 170 153
98 171 153
98 172 153
98 173 153
98 174 153
98 175 153
98 176 153
98 177 153
98 178 153
98 179 153
98 180 153
98 181 153
98 182 153
98 183 153
98 184 153
98 185 153
98 186 153
98 187 153
98 188 153
98 189 153
98 190 153
98 191 153
98 192 153
98 193 153
98 194 153
98 195 153
98 196 153
98 197 153
98 198 153
98 199 153
98 200 153
98 201 153
98 202 153
98 203 153
98 204 153
98 205 153
98 206 153
98 207 153
98 208 153
98 209 153
98 210 153
98 211 153
98 212 153
98 213 153
98 214 153
98 215 153
98 216 153
98 217 153
98 218 153
98 219 153
98 220 153
98 221 153
98 222 153
98 223 153
98 224 153
98 225 153
98 226 153
98 227 153
98 228 153
98 229 153
98 230 153
98 231 153
98 232 153
98 233 153
98 234 153
98 235 153
98 236 153
98 237 153
98 238 153
98 239 153
98 240 153
98 241 153
98 242 153
98 243 153
98 244 153
98 245 153
98 246 153
98 247 153
98 248 153
98 249 153
98 250 153
98 251 153
98 252 153
98 253 153
98 254 153
98 255 153
99 0 153
99 1 153
99 2 153
99 3 153
99 4 153
99 5 153
99 6 153
99 7 153
99 8 153
99 9 153
99 10 153
99 11 153
99 12 153
99 13 153
99 14 153
99 15 153
99 16 153
99 17 153
99 18 153
99 19 153
99 20 153
99 21 153
99 22 153
99 23 153
99 24 153
99 25 153
99 26 153
99 27 153
99 28 153
99 29 153
99 30 153
99 31 153
99 32 153
99 33 153
99 34 153
99 35 153
99 36 153
99 37 153
99 38 153
99 39 153
99 40 153
99 41 153
99 42 153
99 43 153
99 44 153
99 45 153
99 46 153
99 47 153
99 48 153
99 49 153
99 50 153
99 51 153
99 52 153
99 53 153
99 54 153
99 55 153
99 56 153
99 57 153
99 58 153
99 59 153
99 60 153
99 61 153
99 62 153
99 63 153
99 64 153
99 65 153
99 66 153
99 67 153
99 68 153
99 69 153
99 70 153
99 71 153
99 72 153
99 73 153
99 74 153
99 75 153
99 76 153
99 77 153
99 78 153
99 79 153
99 80 153
99 81 153
99 82 153
99 83 153
99 84 153
99 85 153
99 86 153
99 87 153
99 88 153
99 89 153
99 90 153
99 91 153
99 92 153
99 93 153
99 94 153
99 95 153
99 96 153
99 97 153
99 98 153
99 99 153
99 100 153
99 101 153
99 102 153
99 103 153
99 104 153
99 105 153
99 106 153
99 107 153
99 108 153
99 109 153
99 110 153
99 111 153
99 112 153
99 113 153
99 114 153
99 115 153
99 116 153
99 117 153
99 118 153
99 119 153
99 120 153
99 121 153
99 122 153
99 123 153
99 124 153
99 125 153
99 126 153
99 127 153
99 128 153
99 129 153
99 130 153
99 131 153
99 132 153
99 133 153
99 134 153
99 135 153
99 136 153
99 137 153
99 138 153
99 139 153
99 140 153
99 141 153
99 142 153
99 143 153
99 144 153
99 145 153
99 146 153
99 147 153
99 148 153
99 149 153
99 150 153
99 151 153
99 152 153
99 153 153
99 154 153
99 155 153
99 156 153
99 157 153
99 158 153
99 159 153
99 160 153
99 161 153
99 162 153
99 163 153
99 164 153
99 165 153
99 166 153
99 167 153
99 168 153
99 169 153
99 170 153
99 171 153
99 172 153
99 173 153
99 174 153
99 175 153
99 176 153
99 177 153
99 178 153
99 179 153
99 180 153
99 181 153
99 182 153
99 183 153
99 184 153
99 185 153
99 186 153
99 187 153
99 188 153
99 189 153
99 190 153
99 191 153
99 192 153
99 193 153
99 194 153
99 195 153
99 196 153
99 197 153
99 198 153
99 199 153
99 200 153
99 201 153
99 202 153
99 203 153
99 204 153
99 205 153
99 206 153
99 207 153
99 208 153
99 209 153
99 210 153
99 211 153
99 212 153
99 213 153
99 214 153
99 215 153
99 216 153
99 217 153
99 218 153
99 219 153
99 220 153
99 221 153
99 222 153
99 223 153
99 224 153
99 225 153
99 226 153
99 227 153
99 228 153
99 229 153
99 230 153
99 231 153
99 232 153
99 233 153
99 234 153
99 235 153
99 236 153
99 237 153
99 238 153
99 239 153
99 240 153
99 241 153
99 242 153
99 243 153
99 244 153
99 245 153
99 246 153
99 247 153
99 248 153
99 249 153
99 250 153
99 251 153
99 252 153
99 253 153
99 254 153
99 255 153
100 0 153
100 1 153
100 2 153
100 3 153
100 4 153
100 5 153
100 6 153
100 7 153
100 8 153
100 9 153
100 10 153
100 11 153
100 12 153
100 13 153
100 14 153
100 15 153
100 16 153
100 17 153
100 18 153
100 19 153
100 20 153
100 21 153
100 22 153
100 23 153
100 24 153
100 25 153
100 26 153
100 27 153
100 28 153
100 29 153
100 30 153
100 31 153
100 32 153
100 33 153
100 34 153
100 35 153
100 36 153
100 37 153
100 38 153
100 39 153
100 40 153
100 41 153
100 42 153
100 43 153
100 44 153
100 45 153
100 46 153
100 47 153
100 48 153
100 49 153
100 50 153
100 51 153
100 52 153
100 53 153
100 54 153
100 55 153
100 56 153
100 57 153
100 58 153
100 59 153
100 60 153
100 61 153
100 62 153
100 63 153
100 64 153
100 65 153
100 66 153
100 67 153
100 68 153
100 69 153
100 70 153
100 71 153
100 72 153
100 73 153
100 74 153
100 75 153
100 76 153
100 77 153
100 78 153
100 79 153
100 80 153
100 81 153
100 82 153
100 83 153
100 84 153
100 85 153
100 86 153
100 87 153
100 88 153
100 89 153
100 90 153
100 91 153
100 92 153
100 93 153
100 94 153
100 95 153
100 96 153
100 97 153
100 98 153
100 99 153
100 100 153
100 101 153
100 102 153
100 103 153
100 104 153
100 105 153
100 106 153
100 107 153
100 108 153
100 109 153
100 110 153
100 111 153
100 112 153
100 113 153
100 114 153
100 115 153
100 116 153
100 117 153
100 118 153
100 119 153
100 120 153
100 121 153
100 122 153
100 123 153
100 124 153
100 125 153
100 126 153
100 127 153
100 128 153
100 129 153
100 130 153
100 131 153
100 132 153
100 133 153
100 134 153
100 135 153
100 136 153
100 137 153
100 138 153
100 139 153
100 140 153
100 141 153
100 142 153
100 143 153
100 144 153
100 145 153
100 146 153
100 147 153
100 148 153
100 149 153
100 150 153
100 151 153
100 152 153
100 153 153
100 154 153
100 155 153
100 156 153
100 157 153
100 158 153
100 159 153
100 160 153
100 161 153
100 162 153
100 163 153
100 164 153
100 165 153
100 166 153
100 167 153
100 168 153
100 169 153
100 170 153
100 171 153
100 172 153
100 173 153
100 174 153
100 175 153
100 176 153
100 177 153
100 178 153
100 179 153
100 180 153
100 181 153
100 182 153
100 183 153
100 184 153
100 185 153
100 186 153
100 187 153
100 188 153
100 189 153
100 190 153
100 191 153
100 192 153
100 193 153
100 194 153
100 195 153
100 196 153
100 197 153
100 198 153
100 199 153
100 200 153
100 201 153
100 202 153
100 203 153
100 204 153
100 205 153
100 206 153
100 207 153
100 208 153
100 209 153
100 210 153
100 211 153
100 212 153
100 213 153
100 214 153
100 215 153
100 216 153
100 217 153
100 218 153
100 219 153
100 220 153
100 221 153
100 222 153
100 223 153
100 224 153
100 225 153
100 226 153
100 227 153
100 228 153
100 229 153
100 230 153
100 231 153
100 232 153
100 233 153
100 234 153
100 235 153
100 236 153
100 237 153
100 238 153
100 239 153
100 240 153
100 241 153
100 242 153
100 243 153
100 244 153
100 245 153
100 246 153
100 247 153
100 248 153
100 249 153
100 250 153
100 251 153
100 252 153
100 253 153
100 254 153
100 255 153
101 0 153
101 1 153
101 2 153
101 3 153
101 4 153
101 5 153
101 6 153
101 7 153
101 8 153
101 9 153
101 10 153
101 11 153
101 12 153
101 13 153
101 14 153
101 15 153
101 16 153
101 17 153
101 18 153
101 19 153
101 20 153
101 21 153
101 22 153
101 23 153
101 24 153
101 25 153
101 26 153
101 27 153
101 28 153
101 29 153
101 30 153
101 31 153
101 32 153
101 33 153
101 34 153
101 35 153
101 36 153
101 37 153
101 38 153
101 39 153
101 40 153
101 41 153
101 42 153
101 43 153
101 44 153
101 45 153
101 46 153
101 47 153
101 48 153
101 49 153
101 50 153
101 51 153
101 52 153
101 53 153
101 54 153
101 55 153
101 56 153
101 57 153
101 58 153
101 59 153
101 60 153
101 61 153
101 62 153
101 63 153
101 64 153
101 65 153
101 66 153
101 67 153
101 68 153
101 69 153
101 70 153
101 71 153
101 72 153
101 73 153
101 74 153
101 75 153
101 76 153
101 77 153
101 78 153
101 79 153
101 80 153
101 81 153
101 82 153
101 83 153
101 84 153
101 85 153
101 86 153
101 87 153
101 88 153
101 89 153
101 90 153
101 91 153
101 92 153
101 93 153
101 94 153
101 95 153
101 96 153
101 97 153
101 98 153
101 99 153
101 100 153
101 101 153
101 102 153
101 103 153
101 104 153
101 105 153
101 106 153
101 107 153
101 108 153
101 109 153
101 110 153
101 111 153
101 112 153
101 113 153
101 114 153
101 115 153
101 116 153
101 117 153
101 118 153
101 119 153
101 120 153
101 121 153
101 122 153
101 123 153
101 124 153
101 125 153
101 126 153
101 127 153
101 128 153
101 129 153
101 130 153
101 131 153
101 132 153
101 133 153
101 134 153
101 135 153
101 136 153
101 137 153
101 138 153
101 139 153
101 140 153
101 141 153
101 142 153
101 143 153
101 144 153
101 145 153
101 146 153
101 147 153
101 148 153
101 149 153
101 150 153
101 151 153
101 152 153
101 153 153
101 154 153
101 155 153
101 156 153
101 157 153
101 158 153
101 159 153
101 160 153
101 161 153
101 162 153
101 163 153
101 164 153
101 165 153
101 166 153
101 167 153
101 168 153
101 169 153
101 170 153
101 171 153
101 172 153
101 173 153
101 174 153
101 175 153
101 176 153
101 177 153
101 178 153
101 179 153
101 180 153
101 181 153
101 182 153
101 183 153
101 184 153
101 185 153
101 186 153
101 187 153
101 188 153
101 189 153
101 190 153
101 191 153
101 192 153
101 193 153
101 194 153
101 195 153
101 196 153
101 197 153
101 198 153
101 199 153
101 200 153
101 201 153
101 202 153
101 203 153
101 204 153
101 205 153
101 206 153
101 207 153
101 208 153
101 209 153
101 210 153
101 211 153
101 212 153
101 213 153
101 214 153
101 215 153
101 216 153
101 217 153
101 218 153
101 219 153
101 220 153
101 221 153
101 222 153
101 223 153
101 224 153
101 225 153
101 226 153
101 227 153
101 228 153
101 229 153
101 230 153
101 231 153
101 232 153
101 233 153
101 234 153
101 235 153
101 236 153
101 237 153
101 238 153
101 239 153
101 240 153
101 241 153
101 242 153
101 243 153
101 244 153
101 245 153
101 246 153
101 247 153
101 248 153
101 249 153
101 250 153
101 251 153
101 252 153
101 253 153
101 254 153
101 255 153
102 0 153
102 1 153
102 2 153
102 3 153
102 4 153
102 5 153
102 6 153
102 7 153
102 8 153
102 9 153
102 10 153
102 11 153
102 12 153
102 13 153
102 14 153
102 15 153
102 16 153
102 17 153
102 18 153
102 19 153
102 20 153
102 21 153
102 22 153
102 23 153
102 24 153
102 25 153
102 26 153
102 27 153
102 28 153
102 29 153
102 30 153
102 31 153
102 32 153
102 33 153
102 34 153
102 35 153
102 36 153
102 37 153
102 38 153
102 39 153
102 40 153
102 41 153
102 42 153
102 43 153
102 44 153
102 45 153
102 46 153
102 47 153
102 48 153
102 49 153
102 50 153
102 51 153
102 52 153
102 53 153
102 54 153
102 55 153
102 56 153
102 57 153
102 58 153
102 59 153
102 60 153
102 61 153
102 62 153
102 63 153
102 64 153
102 65 153
102 66 153
102 67 153
102 68 153
102 69 153
102 70 153
102 71 153
102 72 153
102 73 153
102 74 153
102 75 153
102 76 153
102 77 153
102 78 153
102 79 153
102 80 153
102 81 153
102 82 153
102 83 153
102 84 153
102 85 153
102 86 153
102 87 153
102 88 153
102 89 153
102 90 153
102 91 153
102 92 153
102 93 153
102 94 153
102 95 153
102 96 153
102 97 153
102 98 153
102 99 153
102 100 153
102 101 153
102 102 153
102 103 153
102 104 153
102 105 153
102 106 153
102 107 153
102 108 153
102 109 153
102 110 153
102 111 153
102 112 153
102 113 153
102 114 153
102 115 153
102 116 153
102 117 153
102 118 153
102 119 153
102 120 153
102 121 153
102 122 153
102 123 153
102 124 153
102 125 153
102 126 153
102 127 153
102 128 153
102 129 153
102 130 153
102 131 153
102 132 153
102 133 153
102 134 153
102 135 153
102 136 153
102 137 153
102 138 153
102 139 153
102 140 153
102 141 153
102 142 153
102 143 153
102 144 153
102 145 153
102 146 153
102 147 153
102 148 153
102 149 153
102 150 153
102 151 153
102 152 153
102 153 153
102 154 153
102 155 153
102 156 153
102 157 153
102 158 153
102 159 153
102 160 153
102 161 153
102 162 153
102 163 153
102 164 153
102 165 153
102 166 153
102 167 153
102 168 153
102 169 153
102 170 153
102 171 153
102 172 153
102 173 153
102 174 153
102 175 153
102 176 153
102 177 153
102 178 153
102 179 153
102 180 153
102 181 153
102 182 153
102 183 153
102 184 153
102 185 153
102 186 153
102 187 153
102 188 153
102 189 153
102 190 153
102 191 153
102 192 153
102 193 153
102 194 153
102 195 153
102 196 153
102 197 153
102 198 153
102 199 153
102 200 153
102 201 153
102 202 153
102 203 153
102 204 153
102 205 153
102 206 153
102 207 153
102 208 153
102 209 153
102 210 153
102 211 153
102 212 153
102 213 153
102 214 153
102 215 153
102 216 153
102 217 153
102 218 153
102 219 153
102 220 153
102 221 153
102 222 153
102 223 153
102 224 153
102 225 153
102 226 153
102 227 153
102 228 153
102 229 153
102 230 153
102 231 153
102 232 153
102 233 153
102 234 153
102 235 153
102 236 153
102 237 153
102 238 153
102 239 153
102 240 153
102 241 153
102 242 153
102 243 153
102 244 153
102 245 153
102 246 153
102 247 153
102 248 153
102 249 153
102 250 153
102 251 153
102 252 153
102 253 153
102 254 153
102 255 153
103 0 153
103 1 153
103 2 153
103 3 153
103 4 153
103 5 153
103 6 153
103 7 153
103 8 153
103 9 153
103 10 153
103 11 153
103 12 153
103 13 153
103 14 153
103 15 153
103 16 153
103 17 153
103 18 153
103 19 153
103 20 153
103 21 153
103 22 153
103 23 153
103 24 153
103 25 153
103 26 153
103 27 153
103 28 153
103 29 153
103 30 153
103 31 153
103 32 153
103 33 153
103 34 153
103 35 153
103 36 153
103 37 153
103 38 153
103 39 153
103 40 153
103 41 153
103 42 153
103 43 153
103 44 153
103 45 153
103 46 153
103 47 153
103 48 153
103 49 153
103 50 153
103 51 153
103 52 153
103 53 153
103 54 153
103 55 153
103 56 153
103 57 153
103 58 153
103 59 153
103 60 153
103 61 153
103 62 153
103 63 153
103 64 153
103 65 153
103 66 153
103 67 153
103 68 153
103 69 153
103 70 153
103 71 153
103 72 153
103 73 153
103 74 153
103 75 153
103 76 153
103 77 153
103 78 153
103 79 153
103 80 153
103 81 153
103 82 153
103 83 153
103 84 153
103 85 153
103 86 153
103 87 153
103 88 153
103 89 153
103 90 153
103 91 153
103 92 153
103 93 153
103 94 153
103 95 153
103 96 153
103 97 153
103 98 153
103 99 153
103 100 153
103 101 153
103 102 153
103 103 153
103 104 153
103 105 153
103 106 153
103 107 153
103 108 153
103 109 153
103 110 153
103 111 153
103 112 153
103 113 153
103 114 153
103 115 153
103 116 153
103 117 153
103 118 153
103 119 153
103 120 153
103 121 153
103 122 153
103 123 153
103 124 153
103 125 153
103 126 153
103 127 153
103 128 153
103 129 153
103 130 153
103 131 153
103 132 153
103 133 153
103 134 153
103 135 153
103 136 153
103 137 153
103 138 153
103 139 153
103 140 153
103 141 153
103 142 153
103 143 153
103 144 153
103 145 153
103 146 153
103 147 153
103 148 153
103 149 153
103 150 153
103 151 153
103 152 153
103 153 153
103 154 153
103 155 153
103 156 153
103 157 153
103 158 153
103 159 153
103 160 153
103 161 153
103 162 153
103 163 153
103 164 153
103 165 153
103 166 153
103 167 153
103 168 153
103 169 153
103 170 153
103 171 153
103 172 153
103 173 153
103 174 153
103 175 153
103 176 153
103 177 153
103 178 153
103 179 153
103 180 153
103 181 153
103 182 153
103 183 153
103 184 153
103 185 153
103 186 153
103 187 153
103 188 153
103 189 153
103 190 153
103 191 153
103 192 153
103 193 153
103 194 153
103 195 153
103 196 153
103 197 153
103 198 153
103 199 153
103 200 153
103 201 153
103 202 153
103 203 153
103 204 153
103 205 153
103 206 153
103 207 153
103 208 153
103 209 153
103 210 153
103 211 153
103 212 153
103 213 153
103 214 153
103 215 153
103 216 153
103 217 153
103 218 153
103 219 153
103 220 153
103 221 153
103 222 153
103 223 153
103 224 153
103 225 153
103 226 153
103 227 153
103 228 153
103 229 153
103 230 153
103 231 153
103 232 153
103 233 153
103 234 153
103 235 153
103 236 153
103 237 153
103 238 153
103 239 153
103 240 153
103 241 153
103 242 153
103 243 153
103 244 153
103 245 153
103 246 153
103 247 153
103 248 153
103 249 153
103 250 153
103 251 153
103 252 153
103 253 153
103 254 153
103 255 153
104 0 153
104 1 153
104 2 153
104 3 153
104 4 153
104 5 153
104 6 153
104 7 153
104 8 153
104 9 153
104 10 153
104 11 153
104 12 153
104 13 153
104 14 153
104 15 153
104 16 153
104 17 153
104 18 153
104 19 153
104 20 153
104 21 153
104 22 153
104 23 153
104 24 153
104 25 153
104 26 153
104 27 153
104 28 153
104 29 153
104 30 153
104 31 153
104 32 153
104 33 153
104 34 153
104 35 153
104 36 153
104 37 153
104 38 153
104 39 153
104 40 153
104 41 153
104 42 153
104 43 153
104 44 153
104 45 153
104 46 153
104 47 153
104 48 153
104 49 153
104 50 153
104 51 153
104 52 153
104 53 153
104 54 153
104 55 153
104 56 153
104 57 153
104 58 153
104 59 153
104 60 153
104 61 153
104 62 153
104 63 153
104 64 153
104 65 153
104 66 153
104 67 153
104 68 153
104 69 153
104 70 153
104 71 153
104 72 153
104 73 153
104 74 153
104 75 153
104 76 153
104 77 153
104 78 153
104 79 153
104 80 153
104 81 153
104 82 153
104 83 153
104 84 153
104 85 153
104 86 153
104 87 153
104 88 153
104 89 153
104 90 153
104 91 153
104 92 153
104 93 153
104 94 153
104 95 153
104 96 153
104 97 153
104 98 153
104 99 153
104 100 153
104 101 153
104 102 153
104 103 153
104 104 153
104 105 153
104 106 153
104 107 153
104 108 153
104 109 153
104 110 153
104 111 153
104 112 153
104 113 153
104 114 153
104 115 153
104 116 153
104 117 153
104 118 153
104 119 153
104 120 153
104 121 153
104 122 153
104 123 153
104 124 153
104 125 153
104 126 153
104 127 153
104 128 153
104 129 153
104 130 153
104 131 153
104 132 153
104 133 153
104 134 153
104 135 153
104 136 153
104 137 153
104 138 153
104 139 153
104 140 153
104 141 153
104 142 153
104 143 153
104 144 153
104 145 153
104 146 153
104 147 153
104 148 153
104 149 153
104 150 153
104 151 153
104 152 153
104 153 153
104 154 153
104 155 153
104 156 153
104 157 153
104 158 153
104 159 153
104 160 153
104 161 153
104 162 153
104 163 153
104 164 153
104 165 153
104 166 153
104 167 153
104 168 153
104 169 153
104 170 153
104 171 153
104 172 153
104 173 153
104 174 153
104 175 153
104 176 153
104 177 153
104 178 153
104 179 153
104 180 153
104 181 153
104 182 153
104 183 153
104 184 153
104 185 153
104 186 153
104 187 153
104 188 153
104 189 153
104 190 153
104 191 153
104 192 153
104 193 153
104 194 153
104 195 153
104 196 153
104 197 153
104 198 153
104 199 153
104 200 153
104 201 153
104 202 153
104 203 153
104 204 153
104 205 153
104 206 153
104 207 153
104 208 153
104 209 153
104 210 153
104 211 153
104 212 153
104 213 153
104 214 153
104 215 153
104 216 153
104 217 153
104 218 153
104 219 153
104 220 153
104 221 153
104 222 153
104 223 153
104 224 153
104 225 153
104 226 153
104 227 153
104 228 153
104 229 153
104 230 153
104 231 153
104 232 153
104 233 153
104 234 153
104 235 153
104 236 153
104 237 153
104 238 153
104 239 153
104 240 153
104 241 153
104 242 153
104 243 153
104 244 153
104 245 153
104 246 153
104 247 153
104 248 153
104 249 153
104 250 153
104 251 153
104 252 153
104 253 153
104 254 153
104 255 153
105 0 153
105 1 153
105 2 153
105 3 153
105 4 153
105 5 153
105 6 153
105 7 153
105 8 153
105 9 153
105 10 153
105 11 153
105 12 153
105 13 153
105 14 153
105 15 153
105 16 153
105 17 153
105 18 153
105 19 153
105 20 153
105 21 153
105 22 153
105 23 153
105 24 153
105 25 153
105 26 153
105 27 153
105 28 153
105 29 153
105 30 153
105 31 153
105 32 153
105 33 153
105 34 153
105 35 153
105 36 153
105 37 153
105 38 153
105 39 153
105 40 153
105 41 153
105 42 153
105 43 153
105 44 153
105 45 153
105 46 153
105 47 153
105 48 153
105 49 153
105 50 153
105 51 153
105 52 153
105 53 153
105 54 153
105 55 153
105 56 153
105 57 153
105 58 153
105 59 153
105 60 153
105 61 153
105 62 153
105 63 153
105 64 153
105 65 153
105 66 153
105 67 153
105 68 153
105 69 153
105 70 153
105 71 153
105 72 153
105 73 153
105 74 153
105 75 153
105 76 153
105 77 153
105 78 153
105 79 153
105 80 153
105 81 153
105 82 153
105 83 153
105 84 153
105 85 153
105 86 153
105 87 153
105 88 153
105 89 153
105 90 153
105 91 153
105 92 153
105 93 153
105 94 153
105 95 153
105 96 153
105 97 153
105 98 153
105 99 153
105 100 153
105 101 153
105 102 153
105 103 153
105 104 153
105 105 153
105 106 153
105 107 153
105 108 153
105 109 153
105 110 153
105 111 153
105 112 153
105 113 153
105 114 153
105 115 153
105 116 153
105 117 153
105 118 153
105 119 153
105 120 153
105 121 153
105 122 153
105 123 153
105 124 153
105 125 153
105 126 153
105 127 153
105 128 153
105 129 153
105 130 153
105 131 153
105 132 153
105 133 153
105 134 153
105 135 153
105 136 153
105 137 153
105 138 153
105 139 153
105 140 153
105 141 153
105 142 153
105 143 153
105 144 153
105 145 153
105 146 153
105 147 153
105 148 153
105 149 153
105 150 153
105 151 153
105 152 153
105 153 153
105 154 153
105 155 153
105 156 153
105 157 153
105 158 153
105 159 153
105 160 153
105 161 153
105 162 153
105 163 153
105 164 153
105 165 153
105 166 153
105 167 153
105 168 153
105 169 153
105 170 153
105 171 153
105 172 153
105 173 153
105 174 153
105 175 153
105 176 153
105 177 153
105 178 153
105 179 153
105 180 153
105 181 153
105 182 153
105 183 153
105 184 153
105 185 153
105 186 153
105 187 153
105 188 153
105 189 153
105 190 153
105 191 153
105 192 153
105 193 153
105 194 153
105 195 153
105 196 153
105 197 153
105 198 153
105 199 153
105 200 153
105 201 153
105 202 153
105 203 153
105 204 153
105 205 153
105 206 153
105 207 153
105 208 153
105 209 153
105 210 153
105 211 153
105 212 153
105 213 153
105 214 153
105 215 153
105 216 153
105 217 153
105 218 153
105 219 153
105 220 153
105 221 153
105 222 153
105 223 153
105 224 153
105 225 153
105 226 153
105 227 153
105 228 153
105 229 153
105 230 153
105 231 153
105 232 153
105 233 153
105 234 153
105 235 153
105 236 153
105 237 153
105 238 153
105 239 153
105 240 153
105 241 153
105 242 153
105 243 153
105 244 153
105 245 153
105 246 153
105 247 153
105 248 153
105 249 153
105 250 153
105 251 153
105 252 153
105 253 153
105 254 153
105 255 153
106 0 153
106 1 153
106 2 153
106 3 153
106 4 153
106 5 153
106 6 153
106 7 153
106 8 153
106 9 153
106 10 153
106 11 153
106 12 153
106 13 153
106 14 153
106 15 153
106 16 153
106 17 153
106 18 153
106 19 153
106 20 153
106 21 153
106 22 153
106 23 153
106 24 153
106 25 153
106 26 153
106 27 153
106 28 153
106 29 153
106 30 153
106 31 153
106 32 153
106 33 153
106 34 153
106 35 153
106 36 153
106 37 153
106 38 153
106 39 153
106 40 153
106 41 153
106 42 153
106 43 153
106 44 153
106 45 153
106 46 153
106 47 153
106 48 153
106 49 153
106 50 153
106 51 153
106 52 153
106 53 153
106 54 153
106 55 153
106 56 153
106 57 153
106 58 153
106 59 153
106 60 153
106 61 153
106 62 153
106 63 153
106 64 153
106 65 153
106 66 153
106 67 153
106 68 153
106 69 153
106 70 153
106 71 153
106 72 153
106 73 153
106 74 153
106 75 153
106 76 153
106 77 153
106 78 153
106 79 153
106 80 153
106 81 153
106 82 153
106 83 153
106 84 153
106 85 153
106 86 153
106 87 153
106 88 153
106 89 153
106 90 153
106 91 153
106 92 153
106 93 153
106 94 153
106 95 153
106 96 153
106 97 153
106 98 153
106 99 153
106 100 153
106 101 153
106 102 153
106 103 153
106 104 153
106 105 153
106 106 153
106 107 153
106 108 153
106 109 153
106 110 153
106 111 153
106 112 153
106 113 153
106 114 153
106 115 153
106 116 153
106 117 153
106 118 153
106 119 153
106 120 153
106 121 153
106 122 153
106 123 153
106 124 153
106 125 153
106 126 153
106 127 153
106 128 153
106 129 153
106 130 153
106 131 153
106 132 153
106 133 153
106 134 153
106 135 153
106 136 153
106 137 153
106 138 153
106 139 153
106 140 153
106 141 153
106 142 153
106 143 153
106 144 153
106 145 153
106 146 153
106 147 153
106 148 153
106 149 153
106 150 153
106 151 153
106 152 153
106 153 153
106 154 153
106 155 153
106 156 153
106 157 153
106 158 153
106 159 153
106 160 153
106 161 153
106 162 153
106 163 153
106 164 153
106 165 153
106 166 153
106 167 153
106 168 153
106 169 153
106 170 153
106 171 153
106 172 153
106 173 153
106 174 153
106 175 153
106 176 153
106 177 153
106 178 153
106 179 153
106 180 153
106 181 153
106 182 153
106 183 153
106 184 153
106 185 153
106 186 153
106 187 153
106 188 153
106 189 153
106 190 153
106 191 153
106 192 153
106 193 153
106 194 153
106 195 153
106 196 153
106 197 153
106 198 153
106 199 153
106 200 153
106 201 153
106 202 153
106 203 153
106 204 153
106 205 153
106 206 153
106 207 153
106 208 153
106 209 153
106 210 153
106 211 153
106 212 153
106 213 153
106 214 153
106 215 153
106 216 153
106 217 153
106 218 153
106 219 153
106 220 153
106 221 153
106 222 153
106 223 153
106 224 153
106 225 153
106 226 153
106 227 153
106 228 153
106 229 153
106 230 153
106 231 153
106 232 153
106 233 153
106 234 153
106 235 153
106 236 153
106 237 153
106 238 153
106 239 153
106 240 153
106 241 153
106 242 153
106 243 153
106 244 153
106 245 153
106 246 153
106 247 153
106 248 153
106 249 153
106 250 153
106 251 153
106 252 153
106 253 153
106 254 153
106 255 153
107 0 153
107 1 153
107 2 153
107 3 153
107 4 153
107 5 153
107 6 153
107 7 153
107 8 153
107 9 153
107 10 153
107 11 153
107 12 153
107 13 153
107 14 153
107 15 153
107 16 153
107 17 153
107 18 153
107 19 153
107 20 153
107 21 153
107 22 153
107 23 153
107 24 153
107 25 153
107 26 153
107 27 153
107 28 153
107 29 153
107 30 153
107 31 153
107 32 153
107 33 153
107 34 153
107 35 153
107 36 153
107 37 153
107 38 153
107 39 153
107 40 153
107 41 153
107 42 153
107 43 153
107 44 153
107 45 153
107 46 153
107 47 153
107 48 153
107 49 153
107 50 153
107 51 153
107 52 153
107 53 153
107 54 153
107 55 153
107 56 153
107 57 153
107 58 153
107 59 153
107 60 153
107 61 153
107 62 153
107 63 153
107 64 153
107 65 153
107 66 153
107 67 153
107 68 153
107 69 153
107 70 153
107 71 153
107 72 153
107 73 153
107 74 153
107 75 153
107 76 153
107 77 153
107 78 153
107 79 153
107 80 153
107 81 153
107 82 153
107 83 153
107 84 153
107 85 153
107 86 153
107 87 153
107 88 153
107 89 153
107 90 153
107 91 153
107 92 153
107 93 153
107 94 153
107 95 153
107 96 153
107 97 153
107 98 153
107 99 153
107 100 153
107 101 153
107 102 153
107 103 153
107 104 153
107 105 153
107 106 153
107 107 153
107 108 153
107 109 153
107 110 153
107 111 153
107 112 153
107 113 153
107 114 153
107 115 153
107 116 153
107 117 153
107 118 153
107 119 153
107 120 153
107 121 153
107 122 153
107 123 153
107 124 153
107 125 153
107 126 153
107 127 153
107 128 153
107 129 153
107 130 153
107 131 153
107 132 153
107 133 153
107 134 153
107 135 153
107 136 153
107 137 153
107 138 153
107 139 153
107 140 153
107 141 153
107 142 153
107 143 153
107 144 153
107 145 153
107 146 153
107 147 153
107 148 153
107 149 153
107 150 153
107 151 153
107 152 153
107 153 153
107 154 153
107 155 153
107 156 153
107 157 153
107 158 153
107 159 153
107 160 153
107 161 153
107 162 153
107 163 153
107 164 153
107 165 153
107 166 153
107 167 153
107 168 153
107 169 153
107 170 153
107 171 153
107 172 153
107 173 153
107 174 153
107 175 153
107 176 153
107 177 153
107 178 153
107 179 153
107 180 153
107 181 153
107 182 153
107 183 153
107 184 153
107 185 153
107 186 153
107 187 153
107 188 153
107 189 153
107 190 153
107 191 153
107 192 153
107 193 153
107 194 153
107 195 153
107 196 153
107 197 153
107 198 153
107 199 153
107 200 153
107 201 153
107 202 153
107 203 153
107 204 153
107 205 153
107 206 153
107 207 153
107 208 153
107 209 153
107 210 153
107 211 153
107 212 153
107 213 153
107 214 153
107 215 153
107 216 153
107 217 153
107 218 153
107 219 153
107 220 153
107 221 153
107 222 153
107 223 153
107 224 153
107 225 153
107 226 153
107 227 153
107 228 153
107 229 153
107 230 153
107 231 153
107 232 153
107 233 153
107 234 153
107 235 153
107 236 153
107 237 153
107 238 153
107 239 153
107 240 153
107 241 153
107 242 153
107 243 153
107 244 153
107 245 153
107 246 153
107 247 153
107 248 153
107 249 153
107 250 153
107 251 153
107 252 153
107 253 153
107 254 153
107 255 153
108 0 153
108 1 153
108 2 153
108 3 153
108 4 153
108 5 153
108 6 153
108 7 153
108 8 153
108 9 153
108 10 153
108 11 153
108 12 153
108 13 153
108 14 153
108 15 153
108 16 153
108 17 153
108 18 153
108 19 153
108 20 153
108 21 153
108 22 153
108 23 153
108 24 153
108 25 153
108 26 153
108 27 153
108 28 153
108 29 153
108 30 153
108 31 153
108 32 153
108 33 153
108 34 153
108 35 153
108 36 153
108 37 153
108 38 153
108 39 153
108 40 153
108 41 153
108 42 153
108 43 153
108 44 153
108 45 153
108 46 153
108 47 153
108 48 153
108 49 153
108 50 153
108 51 153
108 52 153
108 53 153
108 54 153
108 55 153
108 56 153
108 57 153
108 58 153
108 59 153
108 60 153
108 61 153
108 62 153
108 63 153
108 64 153
108 65 153
108 66 153
108 67 153
108 68 153
108 69 153
108 70 153
108 71 153
108 72 153
108 73 153
108 74 153
108 75 153
108 76 153
108 77 153
108 78 153
108 79 153
108 80 153
108 81 153
108 82 153
108 83 153
108 84 153
108 85 153
108 86 153
108 87 153
108 88 153
108 89 153
108 90 153
108 91 153
108 92 153
108 93 153
108 94 153
108 95 153
108 96 153
108 97 153
108 98 153
108 99 153
108 100 153
108 101 153
108 102 153
108 103 153
108 104 153
108 105 153
108 106 153
108 107 153
108 108 153
108 109 153
108 110 153
108 111 153
108 112 153
108 113 153
108 114 153
108 115 153
108 116 153
108 117 153
108 118 153
108 119 153
108 120 153
108 121 153
108 122 153
108 123 153
108 124 153
108 125 153
108 126 153
108 127 153
108 128 153
108 129 153
108 130 153
108 131 153
108 132 153
108 133 153
108 134 153
108 135 153
108 136 153
108 137 153
108 138 153
108 139 153
108 140 153
108 141 153
108 142 153
108 143 153
108 144 153
108 145 153
108 146 153
108 147 153
108 148 153
108 149 153
108 150 153
108 151 153
108 152 153
108 153 153
108 154 153
108 155 153
108 156 153
108 157 153
108 158 153
108 159 153
108 160 153
108 161 153
108 162 153
108 163 153
108 164 153
108 165 153
108 166 153
108 167 153
108 168 153
108 169 153
108 170 153
108 171 153
108 172 153
108 173 153
108 174 153
108 175 153
108 176 153
108 177 153
108 178 153
108 179 153
108 180 153
108 181 153
108 182 153
108 183 153
108 184 153
108 185 153
108 186 153
108 187 153
108 188 153
108 189 153
108 190 153
108 191 153
108 192 153
108 193 153
108 194 153
108 195 153
108 196 153
108 197 153
108 198 153
108 199 153
108 200 153
108 201 153
108 202 153
108 203 153
108 204 153
108 205 153
108 206 153
108 207 153
108 208 153
108 209 153
108 210 153
108 211 153
108 212 153
108 213 153
108 214 153
108 215 153
108 216 153
108 217 153
108 218 153
108 219 153
108 220 153
108 221 153
108 222 153
108 223 153
108 224 153
108 225 153
108 226 153
108 227 153
108 228 153
108 229 153
108 230 153
108 231 153
108 232 153
108 233 153
108 234 153
108 235 153
108 236 153
108 237 153
108 238 153
108 239 153
108 240 153
108 241 153
108 242 153
108 243 153
108 244 153
108 245 153
108 246 153
108 247 153
108 248 153
108 249 153
108 250 153
108 251 153
108 252 153
108 253 153
108 254 153
108 255 153
109 0 153
109 1 153
109 2 153
109 3 153
109 4 153
109 5 153
109 6 153
109 7 153
109 8 153
109 9 153
109 10 153
109 11 153
109 12 153
109 13 153
109 14 153
109 15 153
109 16 153
109 17 153
109 18 153
109 19 153
109 20 153
109 21 153
109 22 153
109 23 153
109 24 153
109 25 153
109 26 153
109 27 153
109 28 153
109 29 153
109 30 153
109 31 153
109 32 153
109 33 153
109 34 153
109 35 153
109 36 153
109 37 153
109 38 153
109 39 153
109 40 153
109 41 153
109 42 153
109 43 153
109 44 153
109 45 153
109 46 153
109 47 153
109 48 153
109 49 153
109 50 153
109 51 153
109 52 153
109 53 153
109 54 153
109 55 153
109 56 153
109 57 153
109 58 153
109 59 153
109 60 153
109 61 153
109 62 153
109 63 153
109 64 153
109 65 153
109 66 153
109 67 153
109 68 153
109 69 153
109 70 153
109 71 153
109 72 153
109 73 153
109 74 153
109 75 153
109 76 153
109 77 153
109 78 153
109 79 153
109 80 153
109 81 153
109 82 153
109 83 153
109 84 153
109 85 153
109 86 153
109 87 153
109 88 153
109 89 153
109 90 153
109 91 153
109 92 153
109 93 153
109 94 153
109 95 153
109 96 153
109 97 153
109 98 153
109 99 153
109 100 153
109 101 153
109 102 153
109 103 153
109 104 153
109 105 153
109 106 153
109 107 153
109 108 153
109 109 153
109 110 153
109 111 153
109 112 153
109 113 153
109 114 153
109 115 153
109 116 153
109 117 153
109 118 153
109 119 153
109 120 153
109 121 153
109 122 153
109 123 153
109 124 153
109 125 153
109 126 153
109 127 153
109 128 153
109 129 153
109 130 153
109 131 153
109 132 153
109 133 153
109 134 153
109 135 153
109 136 153
109 137 153
109 138 153
109 139 153
109 140 153
109 141 153
109 142 153
109 143 153
109 144 153
109 145 153
109 146 153
109 147 153
109 148 153
109 149 153
109 150 153
109 151 153
109 152 153
109 153 153
109 154 153
109 155 153
109 156 153
109 157 153
109 158 153
109 159 153
109 160 153
109 161 153
109 162 153
109 163 153
109 164 153
109 165 153
109 166 153
109 167 153
109 168 153
109 169 153
109 170 153
109 171 153
109 172 153
109 173 153
109 174 153
109 175 153
109 176 153
109 177 153
109 178 153
109 179 153
109 180 153
109 181 153
109 182 153
109 183 153
109 184 153
109 185 153
109 186 153
109 187 153
109 188 153
109 189 153
109 190 153
109 191 153
109 192 153
109 193 153
109 194 153
109 195 153
109 196 153
109 197 153
109 198 153
109 199 153
109 200 153
109 201 153
109 202 153
109 203 153
109 204 153
109 205 153
109 206 153
109 207 153
109 208 153
109 209 153
109 210 153
109 211 153
109 212 153
109 213 153
109 214 153
109 215 153
109 216 153
109 217 153
109 218 153
109 219 153
109 220 153
109 221 153
109 222 153
109 223 153
109 224 153
109 225 153
109 226 153
109 227 153
109 228 153
109 229 153
109 230 153
109 231 153
109 232 153
109 233 153
109 234 153
109 235 153
109 236 153
109 237 153
109 238 153
109 239 153
109 240 153
109 241 153
109 242 153
109 243 153
109 244 153
109 245 153
109 246 153
109 247 153
109 248 153
109 249 153
109 250 153
109 251 153
109 252 153
109 253 153
109 254 153
109 255 153
110 0 153
110 1 153
110 2 153
110 3 153
110 4 153
110 5 153
110 6 153
110 7 153
110 8 153
110 9 153
110 10 153
110 11 153
110 12 153
110 13 153
110 14 153
110 15 153
110 16 153
110 17 153
110 18 153
110 19 153
110 20 153
110 21 153
110 22 153
110 23 153
110 24 153
110 25 153
110 26 153
110 27 153
110 28 153
110 29 153
110 30 153
110 31 153
110 32 153
110 33 153
110 34 153
110 35 153
110 36 153
110 37 153
110 38 153
110 39 153
110 40 153
110 41 153
110 42 153
110 43 153
110 44 153
110 45 153
110 46 153
110 47 153
110 48 153
110 49 153
110 50 153
110 51 153
110 52 153
110 53 153
110 54 153
110 55 153
110 56 153
110 57 153
110 58 153
110 59 153
110 60 153
110 61 153
110 62 153
110 63 153
110 64 153
110 65 153
110 66 153
110 67 153
110 68 153
110 69 153
110 70 153
110 71 153
110 72 153
110 73 153
110 74 153
110 75 153
110 76 153
110 77 153
110 78 153
110 79 153
110 80 153
110 81 153
110 82 153
110 83 153
110 84 153
110 85 153
110 86 153
110 87 153
110 88 153
110 89 153
110 90 153
110 91 153
110 92 153
110 93 153
110 94 153
110 95 153
110 96 153
110 97 153
110 98 153
110 99 153
110 100 153
110 101 153
110 102 153
110 103 153
110 104 153
110 105 153
110 106 153
110 107 153
110 108 153
110 109 153
110 110 153
110 111 153
110 112 153
110 113 153
110 114 153
110 115 153
110 116 153
110 117 153
110 118 153
110 119 153
110 120 153
110 121 153
110 122 153
110 123 153
110 124 153
110 125 153
110 126 153
110 127 153
110 128 153
110 129 153
110 130 153
110 131 153
110 132 153
110 133 153
110 134 153
110 135 153
110 136 153
110 137 153
110 138 153
110 139 153
110 140 153
110 141 153
110 142 153
110 143 153
110 144 153
110 145 153
110 146 153
110 147 153
110 148 153
110 149 153
110 150 153
110 151 153
110 152 153
110 153 153
110 154 153
110 155 153
110 156 153
110 157 153
110 158 153
110 159 153
110 160 153
110 161 153
110 162 153
110 163 153
110 164 153
110 165 153
110 166 153
110 167 153
110 168 153
110 169 153
110 170 153
110 171 153
110 172 153
110 173 153
110 174 153
110 175 153
110 176 153
110 177 153
110 178 153
110 179 153
110 180 153
110 181 153
110 182 153
110 183 153
110 184 153
110 185 153
110 186 153
110 187 153
110 188 153
110 189 153
110 190 153
110 191 153
110 192 153
110 193 153
110 194 153
110 195 153
110 196 153
110 197 153
110 198 153
110 199 153
110 200 153
110 201 153
110 202 153
110 203 153
110 204 153
110 205 153
110 206 153
110 207 153
110 208 153
110 209 153
110 210 153
110 211 153
110 212 153
110 213 153
110 214 153
110 215 153
110 216 153
110 217 153
110 218 153
110 219 153
110 220 153
110 221 153
110 222 153
110 223 153
110 224 153
110 225 153
110 226 153
110 227 153
110 228 153
110 229 153
110 230 153
110 231 153
110 232 153
110 233 153
110 234 153
110 235 153
110 236 153
110 237 153
110 238 153
110 239 153
110 240 153
110 241 153
110 242 153
110 243 153
110 244 153
110 245 153
110 246 153
110 247 153
110 248 153
110 249 153
110 250 153
110 251 153
110 252 153
110 253 153
110 254 153
110 255 153
111 0 153
111 1 153
111 2 153
111 3 153
111 4 153
111 5 153
111 6 153
111 7 153
111 8 153
111 9 153
111 10 153
111 11 153
111 12 153
111 13 153
111 14 153
111 15 153
111 16 153
111 17 153
111 18 153
111 19 153
111 20 153
111 21 153
111 22 153
111 23 153
111 24 153
111 25 153
111 26 153
111 27 153
111 28 153
111 29 153
111 30 153
111 31 153
111 32 153
111 33 153
111 34 153
111 35 153
111 36 153
111 37 153
111 38 153
111 39 153
111 40 153
111 41 153
111 42 153
111 43 153
111 44 153
111 45 153
111 46 153
111 47 153
111 48 153
111 49 153
111 50 153
111 51 153
111 52 153
111 53 153
111 54 153
111 55 153
111 56 153
111 57 153
111 58 153
111 59 153
111 60 153
111 61 153
111 62 153
111 63 153
111 64 153
111 65 153
111 66 153
111 67 153
111 68 153
111 69 153
111 70 153
111 71 153
111 72 153
111 73 153
111 74 153
111 75 153
111 76 153
111 77 153
111 78 153
111 79 153
111 80 153
111 81 153
111 82 153
111 83 153
111 84 153
111 85 153
111 86 153
111 87 153
111 88 153
111 89 153
111 90 153
111 91 153
111 92 153
111 93 153
111 94 153
111 95 153
111 96 153
111 97 153
111 98 153
111 99 153
111 100 153
111 101 153
111 102 153
111 103 153
111 104 153
111 105 153
111 106 153
111 107 153
111 108 153
111 109 153
111 110 153
111 111 153
111 112 153
111 113 153
111 114 153
111 115 153
111 116 153
111 117 153
111 118 153
111 119 153
111 120 153
111 121 153
111 122 153
111 123 153
111 124 153
111 125 153
111 126 153
111 127 153
111 128 153
111 129 153
111 130 153
111 131 153
111 132 153
111 133 153
111 134 153
111 135 153
111 136 153
111 137 153
111 138 153
111 139 153
111 140 153
111 141 153
111 142 153
111 143 153
111 144 153
111 145 153
111 146 153
111 147 153
111 148 153
111 149 153
111 150 153
111 151 153
111 152 153
111 153 153
111 154 153
111 155 153
111 156 153
111 157 153
111 158 153
111 159 153
111 160 153
111 161 153
111 162 153
111 163 153
111 164 153
111 165 153
111 166 153
111 167 153
111 168 153
111 169 153
111 170 153
111 171 153
111 172 153
111 173 153
111 174 153
111 175 153
111 176 153
111 177 153
111 178 153
111 179 153
111 180 153
111 181 153
111 182 153
111 183 153
111 184 153
111 185 153
111 186 153
111 187 153
111 188 153
111 189 153
111 190 153
111 191 153
111 192 153
111 193 153
111 194 153
111 195 153
111 196 153
111 197 153
111 198 153
111 199 153
111 200 153
111 201 153
111 202 153
111 203 153
111 204 153
111 205 153
111 206 153
111 207 153
111 208 153
111 209 153
111 210 153
111 211 153
111 212 153
111 213 153
111 214 153
111 215 153
111 216 153
111 217 153
111 218 153
111 219 153
111 220 153
111 221 153
111 222 153
111 223 153
111 224 153
111 225 153
111 226 153
111 227 153
111 228 153
111 229 153
111 230 153
111 231 153
111 232 153
111 233 153
111 234 153
111 235 153
111 236 153
111 237 153
111 238 153
111 239 153
111 240 153
111 241 153
111 242 153
111 243 153
111 244 153
111 245 153
111 246 153
111 247 153
111 248 153
111 249 153
111 250 153
111 251 153
111 252 153
111 253 153
111 254 153
111 255 153
112 0 153
112 1 153
112 2 153
112 3 153
112 4 153
112 5 153
112 6 153
112 7 153
112 8 153
112 9 153
112 10 153
112 11 153
112 12 153
112 13 153
112 14 153
112 15 153
112 16 153
112 17 153
112 18 153
112 19 153
112 20 153
112 21 153
112 22 153
112 23 153
112 24 153
112 25 153
112 26 153
112 27 153
112 28 153
112 29 153
112 30 153
112 31 153
112 32 153
112 33 153
112 34 153
112 35 153
112 36 153
112 37 153
112 38 153
112 39 153
112 40 153
112 41 153
112 42 153
112 43 153
112 44 153
112 45 153
112 46 153
112 47 153
112 48 153
112 49 153
112 50 153
112 51 153
112 52 153
112 53 153
112 54 153
112 55 153
112 56 153
112 57 153
112 58 153
112 59 153
112 60 153
112 61 153
112 62 153
112 63 153
112 64 153
112 65 153
112 66 153
112 67 153
112 68 153
112 69 153
112 70 153
112 71 153
112 72 153
112 73 153
112 74 153
112 75 153
112 76 153
112 77 153
112 78 153
112 79 153
112 80 153
112 81 153
112 82 153
112 83 153
112 84 153
112 85 153
112 86 153
112 87 153
112 88 153
112 89 153
112 90 153
112 91 153
112 92 153
112 93 153
112 94 153
112 95 153
112 96 153
112 97 153
112 98 153
112 99 153
112 100 153
112 101 153
112 102 153
112 103 153
112 104 153
112 105 153
112 106 153
112 107 153
112 108 153
112 109 153
112 110 153
112 111 153
112 112 153
112 113 153
112 114 153
112 115 153
112 116 153
112 117 153
112 118 153
112 119 153
112 120 153
112 121 153
112 122 153
112 123 153
112 124 153
112 125 153
112 126 153
112 127 153
112 128 153
112 129 153
112 130 153
112 131 153
112 132 153
112 133 153
112 134 153
112 135 153
112 136 153
112 137 153
112 138 153
112 139 153
112 140 153
112 141 153
112 142 153
112 143 153
112 144 153
112 145 153
112 146 153
112 147 153
112 148 153
112 149 153
112 150 153
112 151 153
112 152 153
112 153 153
112 154 153
112 155 153
112 156 153
112 157 153
112 158 153
112 159 153
112 160 153
112 161 153
112 162 153
112 163 153
112 164 153
112 165 153
112 166 153
112 167 153
112 168 153
112 169 153
112 170 153
112 171 153
112 172 153
112 173 153
112 174 153
112 175 153
112 176 153
112 177 153
112 178 153
112 179 153
112 180 153
112 181 153
112 182 153
112 183 153
112 184 153
112 185 153
112 186 153
112 187 153
112 188 153
112 189 153
112 190 153
112 191 153
112 192 153
112 193 153
112 194 153
112 195 153
112 196 153
112 197 153
112 198 153
112 199 153
112 200 153
112 201 153
112 202 153
112 203 153
112 204 153
112 205 153
112 206 153
112 207 153
112 208 153
112 209 153
112 210 153
112 211 153
112 212 153
112 213 153
112 214 153
112 215 153
112 216 153
112 217 153
112 218 153
112 219 153
112 220 153
112 221 153
112 222 153
112 223 153
112 224 153
112 225 153
112 226 153
112 227 153
112 228 153
112 229 153
112 230 153
112 231 153
112 232 153
112 233 153
112 234 153
112 235 153
112 236 153
112 237 153
112 238 153
112 239 153
112 240 153
112 241 153
112 242 153
112 243 153
112 244 153
112 245 153
112 246 153
112 247 153
112 248 153
112 249 153
112 250 153
112 251 153
112 252 153
112 253 153
112 254 153
112 255 153
113 0 153
113 1 153
113 2 153
113 3 153
113 4 153
113 5 153
113 6 153
113 7 153
113 8 153
113 9 153
113 10 153
113 11 153
113 12 153
113 13 153
113 14 153
113 15 153
113 16 153
113 17 153
113 18 153
113 19 153
113 20 153
113 21 153
113 22 153
113 23 153
113 24 153
113 25 153
113 26 153
113 27 153
113 28 153
113 29 153
113 30 153
113 31 153
113 32 153
113 33 153
113 34 153
113 35 153
113 36 153
113 37 153
113 38 153
113 39 153
113 40 153
113 41 153
113 42 153
113 43 153
113 44 153
113 45 153
113 46 153
113 47 153
113 48 153
113 49 153
113 50 153
113 51 153
113 52 153
113 53 153
113 54 153
113 55 153
113 56 153
113 57 153
113 58 153
113 59 153
113 60 153
113 61 153
113 62 153
113 63 153
113 64 153
113 65 153
113 66 153
113 67 153
113 68 153
113 69 153
113 70 153
113 71 153
113 72 153
113 73 153
113 74 153
113 75 153
113 76 153
113 77 153
113 78 153
113 79 153
113 80 153
113 81 153
113 82 153
113 83 153
113 84 153
113 85 153
113 86 153
113 87 153
113 88 153
113 89 153
113 90 153
113 91 153
113 92 153
113 93 153
113 94 153
113 95 153
113 96 153
113 97 153
113 98 153
113 99 153
113 100 153
113 101 153
113 102 153
113 103 153
113 104 153
113 105 153
113 106 153
113 107 153
113 108 153
113 109 153
113 110 153
113 111 153
113 112 153
113 113 153
113 114 153
113 115 153
113 116 153
113 117 153
113 118 153
113 119 153
113 120 153
113 121 153
113 122 153
113 123 153
113 124 153
113 125 153
113 126 153
113 127 153
113 128 153
113 129 153
113 130 153
113 131 153
113 132 153
113 133 153
113 134 153
113 135 153
113 136 153
113 137 153
113 138 153
113 139 153
113 140 153
113 141 153
113 142 153
113 143 153
113 144 153
113 145 153
113 146 153
113 147 153
113 148 153
113 149 153
113 150 153
113 151 153
113 152 153
113 153 153
113 154 153
113 155 153
113 156 153
113 157 153
113 158 153
113 159 153
113 160 153
113 161 153
113 162 153
113 163 153
113 164 153
113 165 153
113 166 153
113 167 153
113 168 153
113 169 153
113 170 153
113 171 153
113 172 153
113 173 153
113 174 153
113 175 153
113 176 153
113 177 153
113 178 153
113 179 153
113 180 153
113 181 153
113 182 153
113 183 153
113 184 153
113 185 153
113 186 153
113 187 153
113 188 153
113 189 153
113 190 153
113 191 153
113 192 153
113 193 153
113 194 153
113 195 153
113 196 153
113 197 153
113 198 153
113 199 153
113 200 153
113 201 153
113 202 153
113 203 153
113 204 153
113 205 153
113 206 153
113 207 153
113 208 153
113 209 153
113 210 153
113 211 153
113 212 153
113 213 153
113 214 153
113 215 153
113 216 153
113 217 153
113 218 153
113 219 153
113 220 153
113 221 153
113 222 153
113 223 153
113 224 153
113 225 153
113 226 153
113 227 153
113 228 153
113 229 153
113 230 153
113 231 153
113 232 153
113 233 153
113 234 153
113 235 153
113 236 153
113 237 153
113 238 153
113 239 153
113 240 153
113 241 153
113 242 153
113 243 153
113 244 153
113 245 153
113 246 153
113 247 153
113 248 153
113 249 153
113 250 153
113 251 153
113 252 153
113 253 153
113 254 153
113 255 153
114 0 153
114 1 153
114 2 153
114 3 153
114 4 153
114 5 153
114 6 153
114 7 153
114 8 153
114 9 153
114 10 153
114 11 153
114 12 153
114 13 153
114 14 153
114 15 153
114 16 153
114 17 153
114 18 153
114 19 153
114 20 153
114 21 153
114 22 153
114 23 153
114 24 153
114 25 153
114 26 153
114 27 153
114 28 153
114 29 153
114 30 153
114 31 153
114 32 153
114 33 153
114 34 153
114 35 153
114 36 153
114 37 153
114 38 153
114 39 153
114 40 153
114 41 153
114 42 153
114 43 153
114 44 153
114 45 153
114 46 153
114 47 153
114 48 153
114 49 153
114 50 153
114 51 153
114 52 153
114 53 153
114 54 153
114 55 153
114 56 153
114 57 153
114 58 153
114 59 153
114 60 153
114 61 153
114 62 153
114 63 153
114 64 153
114 65 153
114 66 153
114 67 153
114 68 153
114 69 153
114 70 153
114 71 153
114 72 153
114 73 153
114 74 153
114 75 153
114 76 153
114 77 153
114 78 153
114 79 153
114 80 153
114 81 153
114 82 153
114 83 153
114 84 153
114 85 153
114 86 153
114 87 153
114 88 153
114 89 153
114 90 153
114 91 153
114 92 153
114 93 153
114 94 153
114 95 153
114 96 153
114 97 153
114 98 153
114 99 153
114 100 153
114 101 153
114 102 153
114 103 153
114 104 153
114 105 153
114 106 153
114 107 153
114 108 153
114 109 153
114 110 153
114 111 153
114 112 153
114 113 153
114 114 153
114 115 153
114 116 153
114 117 153
114 118 153
114 119 153
114 120 153
114 121 153
114 122 153
114 123 153
114 124 153
114 125 153
114 126 153
114 127 153
114 128 153
114 129 153
114 130 153
114 131 153
114 132 153
114 133 153
114 134 153
114 135 153
114 136 153
114 137 153
114 138 153
114 139 153
114 140 153
114 141 153
114 142 153
114 143 153
114 144 153
114 145 153
114 146 153
114 147 153
114 148 153
114 149 153
114 150 153
114 151 153
114 152 153
114 153 153
114 154 153
114 155 153
114 156 153
114 157 153
114 158 153
114 159 153
114 160 153
114 161 153
114 162 153
114 163 153
114 164 153
114 165 153
114 166 153
114 167 153
114 168 153
114 169 153
114 170 153
114 171 153
114 172 153
114 173 153
114 174 153
114 175 153
114 176 153
114 177 153
114 178 153
114 179 153
114 180 153
114 181 153
114 182 153
114 183 153
114 184 153
114 185 153
114 186 153
114 187 153
114 188 153
114 189 153
114 190 153
114 191 153
114 192 153
114 193 153
114 194 153
114 195 153
114 196 153
114 197 153
114 198 153
114 199 153
114 200 153
114 201 153
114 202 153
114 203 153
114 204 153
114 205 153
114 206 153
114 207 153
114 208 153
114 209 153
114 210 153
114 211 153
114 212 153
114 213 153
114 214 153
114 215 153
114 216 153
114 217 153
114 218 153
114 219 153
114 220 153
114 221 153
114 222 153
114 223 153
114 224 153
114 225 153
114 226 153
114 227 153
114 228 153
114 229 153
114 230 153
114 231 153
114 232 153
114 233 153
114 234 153
114 235 153
114 236 153
114 237 153
114 238 153
114 239 153
114 240 153
114 241 153
114 242 153
114 243 153
114 244 153
114 245 153
114 246 153
114 247 153
114 248 153
114 249 153
114 250 153
114 251 153
114 252 153
114 253 153
114 254 153
114 255 153
115 0 153
115 1 153
115 2 153
115 3 153
115 4 153
115 5 153
115 6 153
115 7 153
115 8 153
115 9 153
115 10 153
115 11 153
115 12 153
115 13 153
115 14 153
115 15 153
115 16 153
115 17 153
115 18 153
115 19 153
115 20 153
115 21 153
115 22 153
115 23 153
115 24 153
115 25 153
115 26 153
115 27 153
115 28 153
115 29 153
115 30 153
115 31 153
115 32 153
115 33 153
115 34 153
115 35 153
115 36 153
115 37 153
115 38 153
115 39 153
115 40 153
115 41 153
115 42 153
115 43 153
115 44 153
115 45 153
115 46 153
115 47 153
115 48 153
115 49 153
115 50 153
115 51 153
115 52 153
115 53 153
115 54 153
115 55 153
115 56 153
115 57 153
115 58 153
115 59 153
115 60 153
115 61 153
115 62 153
115 63 153
115 64 153
115 65 153
115 66 153
115 67 153
115 68 153
115 69 153
115 70 153
115 71 153
115 72 153
115 73 153
115 74 153
115 75 153
115 76 153
115 77 153
115 78 153
115 79 153
115 80 153
115 81 153
115 82 153
115 83 153
115 84 153
115 85 153
115 86 153
115 87 153
115 88 153
115 89 153
115 90 153
115 91 153
115 92 153
115 93 153
115 94 153
115 95 153
115 96 153
115 97 153
115 98 153
115 99 153
115 100 153
115 101 153
115 102 153
115 103 153
115 104 153
115 105 153
115 106 153
115 107 153
115 108 153
115 109 153
115 110 153
115 111 153
115 112 153
115 113 153
115 114 153
115 115 153
115 116 153
115 117 153
115 118 153
115 119 153
115 120 153
115 121 153
115 122 153
115 123 153
115 124 153
115 125 153
115 126 153
115 127 153
115 128 153
115 129 153
115 130 153
115 131 153
115 132 153
115 133 153
115 134 153
115 135 153
115 136 153
115 137 153
115 138 153
115 139 153
115 140 153
115 141 153
115 142 153
115 143 153
115 144 153
115 145 153
115 146 153
115 147 153
115 148 153
115 149 153
115 150 153
115 151 153
115 152 153
115 153 153
115 154 153
115 155 153
115 156 153
115 157 153
115 158 153
115 159 153
115 160 153
115 161 153
115 162 153
115 163 153
115 164 153
115 165 153
115 166 153
115 167 153
115 168 153
115 169 153
115 170 153
115 171 153
115 172 153
115 173 153
115 174 153
115 175 153
115 176 153
115 177 153
115 178 153
115 179 153
115 180 153
115 181 153
115 182 153
115 183 153
115 184 153
115 185 153
115 186 153
115 187 153
115 188 153
115 189 153
115 190 153
115 191 153
115 192 153
115 193 153
115 194 153
115 195 153
115 196 153
115 197 153
115 198 153
115 199 153
115 200 153
115 201 153
115 202 153
115 203 153
115 204 153
115 205 153
115 206 153
115 207 153
115 208 153
115 209 153
115 210 153
115 211 153
115 212 153
115 213 153
115 214 153
115 215 153
115 216 153
115 217 153
115 218 153
115 219 153
115 220 153
115 221 153
115 222 153
115 223 153
115 224 153
115 225 153
115 226 153
115 227 153
115 228 153
115 229 153
115 230 153
115 231 153
115 232 153
115 233 153
115 234 153
115 235 153
115 236 153
115 237 153
115 238 153
115 239 153
115 240 153
115 241 153
115 242 153
115 243 153
115 244 153
115 245 153
115 246 153
115 247 153
115 248 153
115 249 153
115 250 153
115 251 153
115 252 153
115 253 153
115 254 153
115 255 153
116 0 153
116 1 153
116 2 153
116 3 153
116 4 153
116 5 153
116 6 153
116 7 153
116 8 153
116 9 153
116 10 153
116 11 153
116 12 153
116 13 153
116 14 153
116 15 153
116 16 153
116 17 153
116 18 153
116 19 153
116 20 153
116 21 153
116 22 153
116 23 153
116 24 153
116 25 153
116 26 153
116 27 153
116 28 153
116 29 153
116 30 153
116 31 153
116 32 153
116 33 153
116 34 153
116 35 153
116 36 153
116 37 153
116 38 153
116 39 153
116 40 153
116 41 153
116 42 153
116 43 153
116 44 153
116 45 153
116 46 153
116 47 153
116 48 153
116 49 153
116 50 153
116 51 153
116 52 153
116 53 153
116 54 153
116 55 153
116 56 153
116 57 153
116 58 153
116 59 153
116 60 153
116 61 153
116 62 153
116 63 153
116 64 153
116 65 153
116 66 153
116 67 153
116 68 153
116 69 153
116 70 153
116 71 153
116 72 153
116 73 153
116 74 153
116 75 153
116 76 153
116 77 153
116 78 153
116 79 153
116 80 153
116 81 153
116 82 153
116 83 153
116 84 153
116 85 153
116 86 153
116 87 153
116 88 153
116 89 153
116 90 153
116 91 153
116 92 153
116 93 153
116 94 153
116 95 153
116 96 153
116 97 153
116 98 153
116 99 153
116 100 153
116 101 153
116 102 153
116 103 153
116 104 153
116 105 153
116 106 153
116 107 153
116 108 153
116 109 153
116 110 153
116 111 153
116 112 153
116 113 153
116 114 153
116 115 153
116 116 153
116 117 153
116 118 153
116 119 153
116 120 153
116 121 153
116 122 153
116 123 153
116 124 153
116 125 153
116 126 153
116 127 153
116 128 153
116 129 153
116 130 153
116 131 153
116 132 153
116 133 153
116 134 153
116 135 153
116 136 153
116 137 153
116 138 153
116 139 153
116 140 153
116 141 153
116 142 153
116 143 153
116 144 153
116 145 153
116 146 153
116 147 153
116 148 153
116 149 153
116 150 153
116 151 153
116 152 153
116 153 153
116 154 153
116 155 153
116 156 153
116 157 153
116 158 153
116 159 153
116 160 153
116 161 153
116 162 153
116 163 153
116 164 153
116 165 153
116 166 153
116 167 153
116 168 153
116 169 153
116 170 153
116 171 153
116 172 153
116 173 153
116 174 153
116 175 153
116 176 153
116 177 153
116 178 153
116 179 153
116 180 153
116 181 153
116 182 153
116 183 153
116 184 153
116 185 153
116 186 153
116 187 153
116 188 153
116 189 153
116 190 153
116 191 153
116 192 153
116 193 153
116 194 153
116 195 153
116 196 153
116 197 153
116 198 153
116 199 153
116 200 153
116 201 153
116 202 153
116 203 153
116 204 153
116 205 153
116 206 153
116 207 153
116 208 153
116 209 153
116 210 153
116 211 153
116 212 153
116 213 153
116 214 153
116 215 153
116 216 153
116 217 153
116 218 153
116 219 153
116 220 153
116 221 153
116 222 153
116 223 153
116 224 153
116 225 153
116 226 153
116 227 153
116 228 153
116 229 153
116 230 153
116 231 153
116 232 153
116 233 153
116 234 153
116 235 153
116 236 153
116 237 153
116 238 153
116 239 153
116 240 153
116 241 153
116 242 153
116 243 153
116 244 153
116 245 153
116 246 153
116 247 153
116 248 153
116 249 153
116 250 153
116 251 153
116 252 153
116 253 153
116 254 153
116 255 153
117 0 153
117 1 153
117 2 153
117 3 153
117 4 153
117 5 153
117 6 153
117 7 153
117 8 153
117 9 153
117 10 153
117 11 153
117 12 153
117 13 153
117 14 153
117 15 153
117 16 153
117 17 153
117 18 153
117 19 153
117 20 153
117 21 153
117 22 153
117 23 153
117 24 153
117 25 153
117 26 153
117 27 153
117 28 153
117 29 153
117 30 153
117 31 153
117 32 153
117 33 153
117 34 153
117 35 153
117 36 153
117 37 153
117 38 153
117 39 153
117 40 153
117 41 153
117 42 153
117 43 153
117 44 153
117 45 153
117 46 153
117 47 153
117 48 153
117 49 153
117 50 153
117 51 153
117 52 153
117 53 153
117 54 153
117 55 153
117 56 153
117 57 153
117 58 153
117 59 153
117 60 153
117 61 153
117 62 153
117 63 153
117 64 153
117 65 153
117 66 153
117 67 153
117 68 153
117 69 153
117 70 153
117 71 153
117 72 153
117 73 153
117 74 153
117 75 153
117 76 153
117 77 153
117 78 153
117 79 153
117 80 153
117 81 153
117 82 153
117 83 153
117 84 153
117 85 153
117 86 153
117 87 153
117 88 153
117 89 153
117 90 153
117 91 153
117 92 153
117 93 153
117 94 153
117 95 153
117 96 153
117 97 153
117 98 153
117 99 153
117 100 153
117 101 153
117 102 153
117 103 153
117 104 153
117 105 153
117 106 153
117 107 153
117 108 153
117 109 153
117 110 153
117 111 153
117 112 153
117 113 153
117 114 153
117 115 153
117 116 153
117 117 153
117 118 153
117 119 153
117 120 153
117 121 153
117 122 153
117 123 153
117 124 153
117 125 153
117 126 153
117 127 153
117 128 153
117 129 153
117 130 153
117 131 153
117 132 153
117 133 153
117 134 153
117 135 153
117 136 153
117 137 153
117 138 153
117 139 153
117 140 153
117 141 153
117 142 153
117 143 153
117 144 153
117 145 153
117 146 153
117 147 153
117 148 153
117 149 153
117 150 153
117 151 153
117 152 153
117 153 153
117 154 153
117 155 153
117 156 153
117 157 153
117 158 153
117 159 153
117 160 153
117 161 153
117 162 153
117 163 153
117 164 153
117 165 153
117 166 153
117 167 153
117 168 153
117 169 153
117 170 153
117 171 153
117 172 153
117 173 153
117 174 153
117 175 153
117 176 153
117 177 153
117 178 153
117 179 153
117 180 153
117 181 153
117 182 153
117 183 153
117 184 153
117 185 153
117 186 153
117 187 153
117 188 153
117 189 153
117 190 153
117 191 153
117 192 153
117 193 153
117 194 153
117 195 153
117 196 153
117 197 153
117 198 153
117 199 153
117 200 153
117 201 153
117 202 153
117 203 153
117 204 153
117 205 153
117 206 153
117 207 153
117 208 153
117 209 153
117 210 153
117 211 153
117 212 153
117 213 153
117 214 153
117 215 153
117 216 153
117 217 153
117 218 153
117 219 153
117 220 153
117 221 153
117 222 153
117 223 153
117 224 153
117 225 153
117 226 153
117 227 153
117 228 153
117 229 153
117 230 153
117 231 153
117 232 153
117 233 153
117 234 153
117 235 153
117 236 153
117 237 153
117 238 153
117 239 153
117 240 153
117 241 153
117 242 153
117 243 153
117 244 153
117 245 153
117 246 153
117 247 153
117 248 153
117 249 153
117 250 153
117 251 153
117 252 153
117 253 153
117 254 153
117 255 153
118 0 153
118 1 153
118 2 153
118 3 153
118 4 153
118 5 153
118 6 153
118 7 153
118 8 153
118 9 153
118 10 153
118 11 153
118 12 153
118 13 153
118 14 153
118 15 153
118 16 153
118 17 153
118 18 153
118 19 153
118 20 153
118 21 153
118 22 153
118 23 153
118 24 153
118 25 153
118 26 153
118 27 153
118 28 153
118 29 153
118 30 153
118 31 153
118 32 153
118 33 153
118 34 153
118 35 153
118 36 153
118 37 153
118 38 153
118 39 153
118 40 153
118 41 153
118 42 153
118 43 153
118 44 153
118 45 153
118 46 153
118 47 153
118 48 153
118 49 153
118 50 153
118 51 153
118 52 153
118 53 153
118 54 153
118 55 153
118 56 153
118 57 153
118 58 153
118 59 153
118 60 153
118 61 153
118 62 153
118 63 153
118 64 153
118 65 153
118 66 153
118 67 153
118 68 153
118 69 153
118 70 153
118 71 153
118 72 153
118 73 153
118 74 153
118 75 153
118 76 153
118 77 153
118 78 153
118 79 153
118 80 153
118 81 153
118 82 153
118 83 153
118 84 153
118 85 153
118 86 153
118 87 153
118 88 153
118 89 153
118 90 153
118 91 153
118 92 153
118 93 153
118 94 153
118 95 153
118 96 153
118 97 153
118 98 153
118 99 153
118 100 153
118 101 153
118 102 153
118 103 153
118 104 153
118 105 153
118 106 153
118 107 153
118 108 153
118 109 153
118 110 153
118 111 153
118 112 153
118 113 153
118 114 153
118 115 153
118 116 153
118 117 153
118 118 153
118 119 153
118 120 153
118 121 153
118 122 153
118 123 153
118 124 153
118 125 153
118 126 153
118 127 153
118 128 153
118 129 153
118 130 153
118 131 153
118 132 153
118 133 153
118 134 153
118 135 153
118 136 153
118 137 153
118 138 153
118 139 153
118 140 153
118 141 153
118 142 153
118 143 153
118 144 153
118 145 153
118 146 153
118 147 153
118 148 153
118 149 153
118 150 153
118 151 153
118 152 153
118 153 153
118 154 153
118 155 153
118 156 153
118 157 153
118 158 153
118 159 153
118 160 153
118 161 153
118 162 153
118 163 153
118 164 153
118 165 153
118 166 153
118 167 153
118 168 153
118 169 153
118 170 153
118 171 153
118 172 153
118 173 153
118 174 153
118 175 153
118 176 153
118 177 153
118 178 153
118 179 153
118 180 153
118 181 153
118 182 153
118 183 153
118 184 153
118 185 153
118 186 153
118 187 153
118 188 153
118 189 153
118 190 153
118 191 153
118 192 153
118 193 153
118 194 153
118 195 153
118 196 153
118 197 153
118 198 153
118 199 153
118 200 153
118 201 153
118 202 153
118 203 153
118 204 153
118 205 153
118 206 153
118 207 153
118 208 153
118 209 153
118 210 153
118 211 153
118 212 153
118 213 153
118 214 153
118 215 153
118 216 153
118 217 153
118 218 153
118 219 153
118 220 153
118 221 153
118 222 153
118 223 153
118 224 153
118 225 153
118 226 153
118 227 153
118 228 153
118 229 153
118 230 153
118 231 153
118 232 153
118 233 153
118 234 153
118 235 153
118 236 153
118 237 153
118 238 153
118 239 153
118 240 153
118 241 153
118 242 153
118 243 153
118 244 153
118 245 153
118 246 153
118 247 153
118 248 153
118 249 153
118 250 153
118 251 153
118 252 153
118 253 153
118 254 153
118 255 153
119 0 153
119 1 153
119 2 153
119 3 153
119 4 153
119 5 153
119 6 153
119 7 153
119 8 153
119 9 153
119 10 153
119 11 153
119 12 153
119 13 153
119 14 153
119 15 153
119 16 153
119 17 153
119 18 153
119 19 153
119 20 153
119 21 153
119 22 153
119 23 153
119 24 153
119 25 153
119 26 153
119 27 153
119 28 153
119 29 153
119 30 153
119 31 153
119 32 153
119 33 153
119 34 153
119 35 153
119 36 153
119 37 153
119 38 153
119 39 153
119 40 153
119 41 153
119 42 153
119 43 153
119 44 153
119 45 153
119 46 153
119 47 153
119 48 153
119 49 153
119 50 153
119 51 153
119 52 153
119 53 153
119 54 153
119 55 153
119 56 153
119 57 153
119 58 153
119 59 153
119 60 153
119 61 153
119 62 153
119 63 153
119 64 153
119 65 153
119 66 153
119 67 153
119 68 153
119 69 153
119 70 153
119 71 153
119 72 153
119 73 153
119 74 153
119 75 153
119 76 153
119 77 153
119 78 153
119 79 153
119 80 153
119 81 153
119 82 153
119 83 153
119 84 153
119 85 153
119 86 153
119 87 153
119 88 153
119 89 153
119 90 153
119 91 153
119 92 153
119 93 153
119 94 153
119 95 153
119 96 153
119 97 153
119 98 153
119 99 153
119 100 153
119 101 153
119 102 153
119 103 153
119 104 153
119 105 153
119 106 153
119 107 153
119 108 153
119 109 153
119 110 153
119 111 153
119 112 153
119 113 153
119 114 153
119 115 153
119 116 153
119 117 153
119 118 153
119 119 153
119 120 153
119 121 153
119 122 153
119 123 153
119 124 153
119 125 153
119 126 153
119 127 153
119 128 153
119 129 153
119 130 153
119 131 153
119 132 153
119 133 153
119 134 153
119 135 153
119 136 153
119 137 153
119 138 153
119 139 153
119 140 153
119 141 153
119 142 153
119 143 153
119 144 153
119 145 153
119 146 153
119 147 153
119 148 153
119 149 153
119 150 153
119 151 153
119 152 153
119 153 153
119 154 153
119 155 153
119 156 153
119 157 153
119 158 153
119 159 153
119 160 153
119 161 153
119 162 153
119 163 153
119 164 153
119 165 153
119 166 153
119 167 153
119 168 153
119 169 153
119 170 153
119 171 153
119 172 153
119 173 153
119 174 153
119 175 153
119 176 153
119 177 153
119 178 153
119 179 153
119 180 153
119 181 153
119 182 153
119 183 153
119 184 153
119 185 153
119 186 153
119 187 153
119 188 153
119 189 153
119 190 153
119 191 153
119 192 153
119 193 153
119 194 153
119 195 153
119 196 153
119 197 153
119 198 153
119 199 153
119 200 153
119 201 153
119 202 153
119 203 153
119 204 153
119 205 153
119 206 153
119 207 153
119 208 153
119 209 153
119 210 153
119 211 153
119 212 153
119 213 153
119 214 153
119 215 153
119 216 153
119 217 153
119 218 153
119 219 153
119 220 153
119 221 153
119 222 153
119 223 153
119 224 153
119 225 153
119 226 153
119 227 153
119 228 153
119 229 153
119 230 153
119 231 153
119 232 153
119 233 153
119 234 153
119 235 153
119 236 153
119 237 153
119 238 153
119 239 153
119 240 153
119 241 153
119 242 153
119 243 153
119 244 153
119 245 153
119 246 153
119 247 153
119 248 153
119 249 153
119 250 153
119 251 153
119 252 153
119 253 153
119 254 153
119 255 153
120 0 153
120 1 153
120 2 153
120 3 153
120 4 153
120 5 153
120 6 153
120 7 153
120 8 153
120 9 153
120 10 153
120 11 153
120 12 153
120 13 153
120 14 153
120 15 153
120 16 153
120 17 153
120 18 153
120 19 153
120 20 153
120 21 153
120 22 153
120 23 153
120 24 153
120 25 153
120 26 153
120 27 153
120 28 153
120 29 153
120 30 153
120 31 153
120 32 153
120 33 153
120 34 153
120 35 153
120 36 153
120 37 153
120 38 153
120 39 153
120 40 153
120 41 153
120 42 153
120 43 153
120 44 153
120 45 153
120 46 153
120 47 153
120 48 153
120 49 153
120 50 153
120 51 153
120 52 153
120 53 153
120 54 153
120 55 153
120 56 153
120 57 153
120 58 153
120 59 153
120 60 153
120 61 153
120 62 153
120 63 153
120 64 153
120 65 153
120 66 153
120 67 153
120 68 153
120 69 153
120 70 153
120 71 153
120 72 153
120 73 153
120 74 153
120 75 153
120 76 153
120 77 153
120 78 153
120 79 153
120 80 153
120 81 153
120 82 153
120 83 153
120 84 153
120 85 153
120 86 153
120 87 153
120 88 153
120 89 153
120 90 153
120 91 153
120 92 153
120 93 153
120 94 153
120 95 153
120 96 153
120 97 153
120 98 153
120 99 153
120 100 153
120 101 153
120 102 153
120 103 153
120 104 153
120 105 153
120 106 153
120 107 153
120 108 153
120 109 153
120 110 153
120 111 153
120 112 153
120 113 153
120 114 153
120 115 153
120 116 153
120 117 153
120 118 153
120 119 153
120 120 153
120 121 153
120 122 153
120 123 153
120 124 153
120 125 153
120 126 153
120 127 153
120 128 153
120 129 153
120 130 153
120 131 153
120 132 153
120 133 153
120 134 153
120 135 153
120 136 153
120 137 153
120 138 153
120 139 153
120 140 153
120 141 153
120 142 153
120 143 153
120 144 153
120 145 153
120 146 153
120 147 153
120 148 153
120 149 153
120 150 153
120 151 153
120 152 153
120 153 153
120 154 153
120 155 153
120 156 153
120 157 153
120 158 153
120 159 153
120 160 153
120 161 153
120 162 153
120 163 153
120 164 153
120 165 153
120 166 153
120 167 153
120 168 153
120 169 153
120 170 153
120 171 153
120 172 153
120 173 153
120 174 153
120 175 153
120 176 153
120 177 153
120 178 153
120 179 153
120 180 153
120 181 153
120 182 153
120 183 153
120 184 153
120 185 153
120 186 153
120 187 153
120 188 153
120 189 153
120 190 153
120 191 153
120 192 153
120 193 153
120 194 153
120 195 153
120 196 153
120 197 153
120 198 153
120 199 153
120 200 153
120 201 153
120 202 153
120 203 153
120 204 153
120 205 153
120 206 153
120 207 153
120 208 153
120 209 153
120 210 153
120 211 153
120 212 153
120 213 153
120 214 153
120 215 153
120 216 153
120 217 153
120 218 153
120 219 153
120 220 153
120 221 153
120 222 153
120 223 153
120 224 153
120 225 153
120 226 153
120 227 153
120 228 153
120 229 153
120 230 153
120 231 153
120 232 153
120 233 153
120 234 153
120 235 153
120 236 153
120 237 153
120 238 153
120 239 153
120 240 153
120 241 153
120 242 153
120 243 153
120 244 153
120 245 153
120 246 153
120 247 153
120 248 153
120 249 153
120 250 153
120 251 153
120 252 153
120 253 153
120 254 153
120 255 153
121 0 153
121 1 153
121 2 153
121 3 153
121 4 153
121 5 153
121 6 153
121 7 153
121 8 153
121 9 153
121 10 153
121 11 153
121 12 153
121 13 153
121 14 153
121 15 153
121 16 153
121 17 153
121 18 153
121 19 153
121 20 153
121 21 153
121 22 153
121 23 153
121 24 153
121 25 153
121 26 153
121 27 153
121 28 153
121 29 153
121 30 153
121 31 153
121 32 153
121 33 153
121 34 153
121 35 153
121 36 153
121 37 153
121 38 153
121 39 153
121 40 153
121 41 153
121 42 153
121 43 153
121 44 153
121 45 153
121 46 153
121 47 153
121 48 153
121 49 153
121 50 153
121 51 153
121 52 153
121 53 153
121 54 153
121 55 153
121 56 153
121 57 153
121 58 153
121 59 153
121 60 153
121 61 153
121 62 153
121 63 153
121 64 153
121 65 153
121 66 153
121 67 153
121 68 153
121 69 153
121 70 153
121 71 153
121 72 153
121 73 153
121 74 153
121 75 153
121 76 153
121 77 153
121 78 153
121 79 153
121 80 153
121 81 153
121 82 153
121 83 153
121 84 153
121 85 153
121 86 153
121 87 153
121 88 153
121 89 153
121 90 153
121 91 153
121 92 153
121 93 153
121 94 153
121 95 153
121 96 153
121 97 153
121 98 153
121 99 153
121 100 153
121 101 153
121 102 153
121 103 153
121 104 153
121 105 153
121 106 153
121 107 153
121 108 153
121 109 153
121 110 153
121 111 153
121 112 153
121 113 153
121 114 153
121 115 153
121 116 153
121 117 153
121 118 153
121 119 153
121 120 153
121 121 153
121 122 153
121 123 153
121 124 153
121 125 153
121 126 153
121 127 153
121 128 153
121 129 153
121 130 153
121 131 153
121 132 153
121 133 153
121 134 153
121 135 153
121 136 153
121 137 153
121 138 153
121 139 153
121 140 153
121 141 153
121 142 153
121 143 153
121 144 153
121 145 153
121 146 153
121 147 153
121 148 153
121 149 153
121 150 153
121 151 153
121 152 153
121 153 153
121 154 153
121 155 153
121 156 153
121 157 153
121 158 153
121 159 153
121 160 153
121 161 153
121 162 153
121 163 153
121 164 153
121 165 153
121 166 153
121 167 153
121 168 153
121 169 153
121 170 153
121 171 153
121 172 153
121 173 153
121 174 153
121 175 153
121 176 153
121 177 153
121 178 153
121 179 153
121 180 153
121 181 153
121 182 153
121 183 153
121 184 153
121 185 153
121 186 153
121 187 153
121 188 153
121 189 153
121 190 153
121 191 153
121 192 153
121 193 153
121 194 153
121 195 153
121 196 153
121 197 153
121 198 153
121 199 153
121 200 153
121 201 153
121 202 153
121 203 153
121 204 153
121 205 153
121 206 153
121 207 153
121 208 153
121 209 153
121 210 153
121 211 153
121 212 153
121 213 153
121 214 153
121 215 153
121 216 153
121 217 153
121 218 153
121 219 153
121 220 153
121 221 153
121 222 153
121 223 153
121 224 153
121 225 153
121 226 153
121 227 153
121 228 153
121 229 153
121 230 153
121 231 153
121 232 153
121 233 153
121 234 153
121 235 153
121 236 153
121 237 153
121 238 153
121 239 153
121 240 153
121 241 153
121 242 153
121 243 153
121 244 153
121 245 153
121 246 153
121 247 153
121 248 153
121 249 153
121 250 153
121 251 153
121 252 153
121 253 153
121 254 153
121 255 153
122 0 153
122 1 153
122 2 153
122 3 153
122 4 153
122 5 153
122 6 153
122 7 153
122 8 153
122 9 153
122 10 153
122 11 153
122 12 153
122 13 153
122 14 153
122 15 153
122 16 153
122 17 153
122 18 153
122 19 153
122 20 153
122 21 153
122 22 153
122 23 153
122 24 153
122 25 153
122 26 153
122 27 153
122 28 153
122 29 153
122 30 153
122 31 153
122 32 153
122 33 153
122 34 153
122 35 153
122 36 153
122 37 153
122 38 153
122 39 153
122 40 153
122 41 153
122 42 153
122 43 153
122 44 153
122 45 153
122 46 153
122 47 153
122 48 153
122 49 153
122 50 153
122 51 153
122 52 153
122 53 153
122 54 153
122 55 153
122 56 153
122 57 153
122 58 153
122 59 153
122 60 153
122 61 153
122 62 153
122 63 153
122 64 153
122 65 153
122 66 153
122 67 153
122 68 153
122 69 153
122 70 153
122 71 153
122 72 153
122 73 153
122 74 153
122 75 153
122 76 153
122 77 153
122 78 153
122 79 153
122 80 153
122 81 153
122 82 153
122 83 153
122 84 153
122 85 153
122 86 153
122 87 153
122 88 153
122 89 153
122 90 153
122 91 153
122 92 153
122 93 153
122 94 153
122 95 153
122 96 153
122 97 153
122 98 153
122 99 153
122 100 153
122 101 153
122 102 153
122 103 153
122 104 153
122 105 153
122 106 153
122 107 153
122 108 153
122 109 153
122 110 153
122 111 153
122 112 153
122 113 153
122 114 153
122 115 153
122 116 153
122 117 153
122 118 153
122 119 153
122 120 153
122 121 153
122 122 153
122 123 153
122 124 153
122 125 153
122 126 153
122 127 153
122 128 153
122 129 153
122 130 153
122 131 153
122 132 153
122 133 153
122 134 153
122 135 153
122 136 153
122 137 153
122 138 153
122 139 153
122 140 153
122 141 153
122 142 153
122 143 153
122 144 153
122 145 153
122 146 153
122 147 153
122 148 153
122 149 153
122 150 153
122 151 153
122 152 153
122 153 153
122 154 153
122 155 153
122 156 153
122 157 153
122 158 153
122 159 153
122 160 153
122 161 153
122 162 153
122 163 153
122 164 153
122 165 153
122 166 153
122 167 153
122 168 153
122 169 153
122 170 153
122 171 153
122 172 153
122 173 153
122 174 153
122 175 153
122 176 153
122 177 153
122 178 153
122 179 153
122 180 153
122 181 153
122 182 153
122 183 153
122 184 153
122 185 153
122 186 153
122 187 153
122 188 153
122 189 153
122 190 153
122 191 153
122 192 153
122 193 153
122 194 153
122 195 153
122 196 153
122 197 153
122 198 153
122 199 153
122 200 153
122 201 153
122 202 153
122 203 153
122 204 153
122 205 153
122 206 153
122 207 153
122 208 153
122 209 153
122 210 153
122 211 153
122 212 153
122 213 153
122 214 153
122 215 153
122 216 153
122 217 153
122 218 153
122 219 153
122 220 153
122 221 153
122 222 153
122 223 153
122 224 153
122 225 153
122 226 153
122 227 153
122 228 153
122 229 153
122 230 153
122 231 153
122 232 153
122 233 153
122 234 153
122 235 153
122 236 153
122 237 153
122 238 153
122 239 153
122 240 153
122 241 153
122 242 153
122 243 153
122 244 153
122 245 153
122 246 153
122 247 153
122 248 153
122 249 153
122 250 153
122 251 153
122 252 153
122 253 153
122 254 153
122 255 153
123 0 153
123 1 153
123 2 153
123 3 153
123 4 153
123 5 153
123 6 153
123 7 153
123 8 153
123 9 153
123 10 153
123 11 153
123 12 153
123 13 153
123 14 153
123 15 153
123 16 153
123 17 153
123 18 153
123 19 153
123 20 153
123 21 153
123 22 153
123 23 153
123 24 153
123 25 153
123 26 153
123 27 153
123 28 153
123 29 153
123 30 153
123 31 153
123 32 153
123 33 153
123 34 153
123 35 153
123 36 153
123 37 153
123 38 153
123 39 153
123 40 153
123 41 153
123 42 153
123 43 153
123 44 153
123 45 153
123 46 153
123 47 153
123 48 153
123 49 153
123 50 153
123 51 153
123 52 153
123 53 153
123 54 153
123 55 153
123 56 153
123 57 153
123 58 153
123 59 153
123 60 153
123 61 153
123 62 153
123 63 153
123 64 153
123 65 153
123 66 153
123 67 153
123 68 153
123 69 153
123 70 153
123 71 153
123 72 153
123 73 153
123 74 153
123 75 153
123 76 153
123 77 153
123 78 153
123 79 153
123 80 153
123 81 153
123 82 153
123 83 153
123 84 153
123 85 153
123 86 153
123 87 153
123 88 153
123 89 153
123 90 153
123 91 153
123 92 153
123 93 153
123 94 153
123 95 153
123 96 153
123 97 153
123 98 153
123 99 153
123 100 153
123 101 153
123 102 153
123 103 153
123 104 153
123 105 153
123 106 153
123 107 153
123 108 153
123 109 153
123 110 153
123 111 153
123 112 153
123 113 153
123 114 153
123 115 153
123 116 153
123 117 153
123 118 153
123 119 153
123 120 153
123 121 153
123 122 153
123 123 153
123 124 153
123 125 153
123 126 153
123 127 153
123 128 153
123 129 153
123 130 153
123 131 153
123 132 153
123 133 153
123 134 153
123 135 153
123 136 153
123 137 153
123 138 153
123 139 153
123 140 153
123 141 153
123 142 153
123 143 153
123 144 153
123 145 153
123 146 153
123 147 153
123 148 153
123 149 153
123 150 153
123 151 153
123 152 153
123 153 153
123 154 153
123 155 153
123 156 153
123 157 153
123 158 153
123 159 153
123 160 153
123 161 153
123 162 153
123 163 153
123 164 153
123 165 153
123 166 153
123 167 153
123 168 153
123 169 153
123 170 153
123 171 153
123 172 153
123 173 153
123 174 153
123 175 153
123 176 153
123 177 153
123 178 153
123 179 153
123 180 153
123 181 153
123 182 153
123 183 153
123 184 153
123 185 153
123 186 153
123 187 153
123 188 153
123 189 153
123 190 153
123 191 153
123 192 153
123 193 153
123 194 153
123 195 153
123 196 153
123 197 153
123 198 153
123 199 153
123 200 153
123 201 153
123 202 153
123 203 153
123 204 153
123 205 153
123 206 153
123 207 153
123 208 153
123 209 153
123 210 153
123 211 153
123 212 153
123 213 153
123 214 153
123 215 153
123 216 153
123 217 153
123 218 153
123 219 153
123 220 153
123 221 153
123 222 153
123 223 153
123 224 153
123 225 153
123 226 153
123 227 153
123 228 153
123 229 153
123 230 153
123 231 153
123 232 153
123 233 153
123 234 153
123 235 153
123 236 153
123 237 153
123 238 153
123 239 153
123 240 153
123 241 153
123 242 153
123 243 153
123 244 153
123 245 153
123 246 153
123 247 153
123 248 153
123 249 153
123 250 153
123 251 153
123 252 153
123 253 153
123 254 153
123 255 153
124 0 153
124 1 153
124 2 153
124 3 153
124 4 153
124 5 153
124 6 153
124 7 153
124 8 153
124 9 153
124 10 153
124 11 153
124 12 153
124 13 153
124 14 153
124 15 153
124 16 153
124 17 153
124 18 153
124 19 153
124 20 153
124 21 153
124 22 153
124 23 153
124 24 153
124 25 153
124 26 153
124 27 153
124 28 153
124 29 153
124 30 153
124 31 153
124 32 153
124 33 153
124 34 153
124 35 153
124 36 153
124 37 153
124 38 153
124 39 153
124 40 153
124 41 153
124 42 153
124 43 153
124 44 153
124 45 153
124 46 153
124 47 153
124 48 153
124 49 153
124 50 153
124 51 153
124 52 153
124 53 153
124 54 153
124 55 153
124 56 153
124 57 153
124 58 153
124 59 153
124 60 153
124 61 153
124 62 153
124 63 153
124 64 153
124 65 153
124 66 153
124 67 153
124 68 153
124 69 153
124 70 153
124 71 153
124 72 153
124 73 153
124 74 153
124 75 153
124 76 153
124 77 153
124 78 153
124 79 153
124 80 153
124 81 153
124 82 153
124 83 153
124 84 153
124 85 153
124 86 153
124 87 153
124 88 153
124 89 153
124 90 153
124 91 153
124 92 153
124 93 153
124 94 153
124 95 153
124 96 153
124 97 153
124 98 153
124 99 153
124 100 153
124 101 153
124 102 153
124 103 153
124 104 153
124 105 153
124 106 153
124 107 153
124 108 153
124 109 153
124 110 153
124 111 153
124 112 153
124 113 153
124 114 153
124 115 153
124 116 153
124 117 153
124 118 153
124 119 153
124 120 153
124 121 153
124 122 153
124 123 153
124 124 153
124 125 153
124 126 153
124 127 153
124 128 153
124 129 153
124 130 153
124 131 153
124 132 153
124 133 153
124 134 153
124 135 153
124 136 153
124 137 153
124 138 153
124 139 153
124 140 153
124 141 153
124 142 153
124 143 153
124 144 153
124 145 153
124 146 153
124 147 153
124 148 153
124 149 153
124 150 153
124 151 153
124 152 153
124 153 153
124 154 153
124 155 153
124 156 153
124 157 153
124 158 153
124 159 153
124 160 153
124 161 153
124 162 153
124 163 153
124 164 153
124 165 153
124 166 153
124 167 153
124 168 153
124 169 153
124 170 153
124 171 153
124 172 153
124 173 153
124 174 153
124 175 153
124 176 153
124 177 153
124 178 153
124 179 153
124 180 153
124 181 153
124 182 153
124 183 153
124 184 153
124 185 153
124 186 153
124 187 153
124 188 153
124 189 153
124 190 153
124 191 153
124 192 153
124 193 153
124 194 153
124 195 153
124 196 153
124 197 153
124 198 153
124 199 153
124 200 153
124 201 153
124 202 153
124 203 153
124 204 153
124 205 153
124 206 153
124 207 153
124 208 153
124 209 153
124 210 153
124 211 153
124 212 153
124 213 153
124 214 153
124 215 153
124 216 153
124 217 153
124 218 153
124 219 153
124 220 153
124 221 153
124 222 153
124 223 153
124 224 153
124 225 153
124 226 153
124 227 153
124 228 153
124 229 153
124 230 153
124 231 153
124 232 153
124 233 153
124 234 153
124 235 153
124 236 153
124 237 153
124 238 153
124 239 153
124 240 153
124 241 153
124 242 153
124 243 153
124 244 153
124 245 153
124 246 153
124 247 153
124 248 153
124 249 153
124 250 153
124 251 153
124 252 153
124 253 153
124 254 153
124 255 153
125 0 153
125 1 153
125 2 153
125 3 153
125 4 153
125 5 153
125 6 153
125 7 153
125 8 153
125 9 153
125 10 153
125 11 153
125 12 153
125 13 153
125 14 153
125 15 153
125 16 153
125 17 153
125 18 153
125 19 153
125 20 153
125 21 153
125 22 153
125 23 153
125 24 153
125 25 153
125 26 153
125 27 153
125 28 153
125 29 153
125 30 153
125 31 153
125 32 153
125 33 153
125 34 153
125 35 153
125 36 153
125 37 153
125 38 153
125 39 153
125 40 153
125 41 153
125 42 153
125 43 153
125 44 153
125 45 153
125 46 153
125 47 153
125 48 153
125 49 153
125 50 153
125 51 153
125 52 153
125 53 153
125 54 153
125 55 153
125 56 153
125 57 153
125 58 153
125 59 153
125 60 153
125 61 153
125 62 153
125 63 153
125 64 153
125 65 153
125 66 153
125 67 153
125 68 153
125 69 153
125 70 153
125 71 153
125 72 153
125 73 153
125 74 153
125 75 153
125 76 153
125 77 153
125 78 153
125 79 153
125 80 153
125 81 153
125 82 153
125 83 153
125 84 153
125 85 153
125 86 153
125 87 153
125 88 153
125 89 153
125 90 153
125 91 153
125 92 153
125 93 153
125 94 153
125 95 153
125 96 153
125 97 153
125 98 153
125 99 153
125 100 153
125 101 153
125 102 153
125 103 153
125 104 153
125 105 153
125 106 153
125 107 153
125 108 153
125 109 153
125 110 153
125 111 153
125 112 153
125 113 153
125 114 153
125 115 153
125 116 153
125 117 153
125 118 153
125 119 153
125 120 153
125 121 153
125 122 153
125 123 153
125 124 153
125 125 153
125 126 153
125 127 153
125 128 153
125 129 153
125 130 153
125 131 153
125 132 153
125 133 153
125 134 153
125 135 153
125 136 153
125 137 153
125 138 153
125 139 153
125 140 153
125 141 153
125 142 153
125 143 153
125 144 153
125 145 153
125 146 153
125 147 153
125 148 153
125 149 153
125 150 153
125 151 153
125 152 153
125 153 153
125 154 153
125 155 153
125 156 153
125 157 153
125 158 153
125 159 153
125 160 153
125 161 153
125 162 153
125 163 153
125 164 153
125 165 153
125 166 153
125 167 153
125 168 153
125 169 153
125 170 153
125 171 153
125 172 153
125 173 153
125 174 153
125 175 153
125 176 153
125 177 153
125 178 153
125 179 153
125 180 153
125 181 153
125 182 153
125 183 153
125 184 153
125 185 153
125 186 153
125 187 153
125 188 153
125 189 153
125 190 153
125 191 153
125 192 153
125 193 153
125 194 153
125 195 153
125 196 153
125 197 153
125 198 153
125 199 153
125 200 153
125 201 153
125 202 153
125 203 153
125 204 153
125 205 153
125 206 153
125 207 153
125 208 153
125 209 153
125 210 153
125 211 153
125 212 153
125 213 153
125 214 153
125 215 153
125 216 153
125 217 153
125 218 153
125 219 153
125 220 153
125 221 153
125 222 153
125 223 153
125 224 153
125 225 153
125 226 153
125 227 153
125 228 153
125 229 153
125 230 153
125 231 153
125 232 153
125 233 153
125 234 153
125 235 153
125 236 153
125 237 153
125 238 153
125 239 153
125 240 153
125 241 153
125 242 153
125 243 153
125 244 153
125 245 153
125 246 153
125 247 153
125 248 153
125 249 153
125 250 153
125 251 153
125 252 153
125 253 153
125 254 153
125 255 153
126 0 153
126 1 153
126 2 153
126 3 153
126 4 153
126 5 153
126 6 153
126 7 153
126 8 153
126 9 153
126 10 153
126 11 153
126 12 153
126 13 153
126 14 153
126 15 153
126 16 153
126 17 153
126 18 153
126 19 153
126 20 153
126 21 153
126 22 153
126 23 153
126 24 153
126 25 153
126 26 153
126 27 153
126 28 153
126 29 153
126 30 153
126 31 153
126 32 153
126 33 153
126 34 153
126 35 153
126 36 153
126 37 153
126 38 153
126 39 153
126 40 153
126 41 153
126 42 153
126 43 153
126 44 153
126 45 153
126 46 153
126 47 153
126 48 153
126 49 153
126 50 153
126 51 153
126 52 153
126 53 153
126 54 153
126 55 153
126 56 153
126 57 153
126 58 153
126 59 153
126 60 153
126 61 153
126 62 153
126 63 153
126 64 153
126 65 153
126 66 153
126 67 153
126 68 153
126 69 153
126 70 153
126 71 153
126 72 153
126 73 153
126 74 153
126 75 153
126 76 153
126 77 153
126 78 153
126 79 153
126 80 153
126 81 153
126 82 153
126 83 153
126 84 153
126 85 153
126 86 153
126 87 153
126 88 153
126 89 153
126 90 153
126 91 153
126 92 153
126 93 153
126 94 153
126 95 153
126 96 153
126 97 153
126 98 153
126 99 153
126 100 153
126 101 153
126 102 153
126 103 153
126 104 153
126 105 153
126 106 153
126 107 153
126 108 153
126 109 153
126 110 153
126 111 153
126 112 153
126 113 153
126 114 153
126 115 153
126 116 153
126 117 153
126 118 153
126 119 153
126 120 153
126 121 153
126 122 153
126 123 153
126 124 153
126 125 153
126 126 153
126 127 153
126 128 153
126 129 153
126 130 153
126 131 153
126 132 153
126 133 153
126 134 153
126 135 153
126 136 153
126 137 153
126 138 153
126 139 153
126 140 153
126 141 153
126 142 153
126 143 153
126 144 153
126 145 153
126 146 153
126 147 153
126 148 153
126 149 153
126 150 153
126 151 153
126 152 153
126 153 153
126 154 153
126 155 153
126 156 153
126 157 153
126 158 153
126 159 153
126 160 153
126 161 153
126 162 153
126 163 153
126 164 153
126 165 153
126 166 153
126 167 153
126 168 153
126 169 153
126 170 153
126 171 153
126 172 153
126 173 153
126 174 153
126 175 153
126 176 153
126 177 153
126 178 153
126 179 153
126 180 153
126 181 153
126 182 153
126 183 153
126 184 153
126 185 153
126 186 153
126 187 153
126 188 153
126 189 153
126 190 153
126 191 153
126 192 153
126 193 153
126 194 153
126 195 153
126 196 153
126 197 153
126 198 153
126 199 153
126 200 153
126 201 153
126 202 153
126 203 153
126 204 153
126 205 153
126 206 153
126 207 153
126 208 153
126 209 153
126 210 153
126 211 153
126 212 153
126 213 153
126 214 153
126 215 153
126 216 153
126 217 153
126 218 153
126 219 153
126 220 153
126 221 153
126 222 153
126 223 153
126 224 153
126 225 153
126 226 153
126 227 153
126 228 153
126 229 153
126 230 153
126 231 153
126 232 153
126 233 153
126 234 153
126 235 153
126 236 153
126 237 153
126 238 153
126 239 153
126 240 153
126 241 153
126 242 153
126 243 153
126 244 153
126 245 153
126 246 153
126 247 153
126 248 153
126 249 153
126 250 153
126 251 153
126 252 153
126 253 153
126 254 153
126 255 153
127 0 153
127 1 153
127 2 153
127 3 153
127 4 153
127 5 153
127 6 153
127 7 153
127 8 153
127 9 153
127 10 153
127 11 153
127 12 153
127 13 153
127 14 153
127 15 153
127 16 153
127 17 153
127 18 153
127 19 153
127 20 153
127 21 153
127 22 153
127 23 153
127 24 153
127 25 153
127 26 153
127 27 153
127 28 153
127 29 153
127 30 153
127 31 153
127 32 153
127 33 153
127 34 153
127 35 153
127 36 153
127 37 153
127 38 153
127 39 153
127 40 153
127 41 153
127 42 153
127 43 153
127 44 153
127 45 153
127 46 153
127 47 153
127 48 153
127 49 153
127 50 153
127 51 153
127 52 153
127 53 153
127 54 153
127 55 153
127 56 153
127 57 153
127 58 153
127 59 153
127 60 153
127 61 153
127 62 153
127 63 153
127 64 153
127 65 153
127 66 153
127 67 153
127 68 153
127 69 153
127 70 153
127 71 153
127 72 153
127 73 153
127 74 153
127 75 153
127 76 153
127 77 153
127 78 153
127 79 153
127 80 153
127 81 153
127 82 153
127 83 153
127 84 153
127 85 153
127 86 153
127 87 153
127 88 153
127 89 153
127 90 153
127 91 153
127 92 153
127 93 153
127 94 153
127 95 153
127 96 153
127 97 153
127 98 153
127 99 153
127 100 153
127 101 153
127 102 153
127 103 153
127 104 153
127 105 153
127 106 153
127 107 153
127 108 153
127 109 153
127 110 153
127 111 153
127 112 153
127 113 153
127 114 153
127 115 153
127 116 153
127 117 153
127 118 153
127 119 153
127 120 153
127 121 153
127 122 153
127 123 153
127 124 153
127 125 153
127 126 153
127 127 153
127 128 153
127 129 153
127 130 153
127 131 153
127 132 153
127 133 153
127 134 153
127 135 153
127 136 153
127 137 153
127 138 153
127 139 153
127 140 153
127 141 153
127 142 153
127 143 153
127 144 153
127 145 153
127 146 153
127 147 153
127 148 153
127 149 153
127 150 153
127 151 153
127 152 153
127 153 153
127 154 153
127 155 153
127 156 153
127 157 153
127 158 153
127 159 153
127 160 153
127 161 153
127 162 153
127 163 153
127 164 153
127 165 153
127 166 153
127 167 153
127 168 153
127 169 153
127 170 153
127 171 153
127 172 153
127 173 153
127 174 153
127 175 153
127 176 153
127 177 153
127 178 153
127 179 153
127 180 153
127 181 153
127 182 153
127 183 153
127 184 153
127 185 153
127 186 153
127 187 153
127 188 153
127 189 153
127 190 153
127 191 153
127 192 153
127 193 153
127 194 153
127 195 153
127 196 153
127 197 153
127 198 153
127 199 153
127 200 153
127 201 153
127 202 153
127 203 153
127 204 153
127 205 153
127 206 153
127 207 153
127 208 153
127 209 153
127 210 153
127 211 153
127 212 153
127 213 153
127 214 153
127 215 153
127 216 153
127 217 153
127 218 153
127 219 153
127 220 153
127 221 153
127 222 153
127 223 153
127 224 153
127 225 153
127 226 153
127 227 153
127 228 153
127 229 153
127 230 153
127 231 153
127 232 153
127 233 153
127 234 153
127 235 153
127 236 153
127 237 153
127 238 153
127 239 153
127 240 153
127 241 153
127 242 153
127 243 153
127 244 153
127 245 153
127 246 153
127 247 153
127 248 153
127 249 153
127 250 153
127 251 153
127 252 153
127 253 153
127 254 153
127 255 153
128 0 153
128 1 153
128 2 153
128 3 153
128 4 153
128 5 153
128 6 153
128 7 153
128 8 153
128 9 153
128 10 153
128 11 153
128 12 153
128 13 153
128 14 153
128 15 153
128 16 153
128 17 153
128 18 153
128 19 153
128 20 153
128 21 153
128 22 153
128 23 153
128 24 153
128 25 153
128 26 153
128 27 153
128 28 153
128 29 153
128 30 153
128 31 153
128 32 153
128 33 153
128 34 153
128 35 153
128 36 153
128 37 153
128 38 153
128 39 153
128 40 153
128 41 153
128 42 153
128 43 153
128 44 153
128 45 153
128 46 153
128 47 153
128 48 153
128 49 153
128 50 153
128 51 153
128 52 153
128 53 153
128 54 153
128 55 153
128 56 153
128 57 153
128 58 153
128 59 153
128 60 153
128 61 153
128 62 153
128 63 153
128 64 153
128 65 153
128 66 153
128 67 153
128 68 153
128 69 153
128 70 153
128 71 153
128 72 153
128 73 153
128 74 153
128 75 153
128 76 153
128 77 153
128 78 153
128 79 153
128 80 153
128 81 153
128 82 153
128 83 153
128 84 153
128 85 153
128 86 153
128 87 153
128 88 153
128 89 153
128 90 153
128 91 153
128 92 153
128 93 153
128 94 153
128 95 153
128 96 153
128 97 153
128 98 153
128 99 153
128 100 153
128 101 153
128 102 153
128 103 153
128 104 153
128 105 153
128 106 153
128 107 153
128 108 153
128 109 153
128 110 153
128 111 153
128 112 153
128 113 153
128 114 153
128 115 153
128 116 153
128 117 153
128 118 153
128 119 153
128 120 153
128 121 153
128 122 153
128 123 153
128 124 153
128 125 153
128 126 153
128 127 153
128 128 153
128 129 153
128 130 153
128 131 153
128 132 153
128 133 153
128 134 153
128 135 153
128 136 153
128 137 153
128 138 153
128 139 153
128 140 153
128 141 153
128 142 153
128 143 153
128 144 153
128 145 153
128 146 153
128 147 153
128 148 153
128 149 153
128 150 153
128 151 153
128 152 153
128 153 153
128 154 153
128 155 153
128 156 153
128 157 153
128 158 153
128 159 153
128 160 153
128 161 153
128 162 153
128 163 153
128 164 153
128 165 153
128 166 153
128 167 153
128 168 153
128 169 153
128 170 153
128 171 153
128 172 153
128 173 153
128 174 153
128 175 153
128 176 153
128 177 153
128 178 153
128 179 153
128 180 153
128 181 153
128 182 153
128 183 153
128 184 153
128 185 153
128 186 153
128 187 153
128 188 153
128 189 153
128 190 153
128 191 153
128 192 153
128 193 153
128 194 153
128 195 153
128 196 153
128 197 153
128 198 153
128 199 153
128 200 153
128 201 153
128 202 153
128 203 153
128 204 153
128 205 153
128 206 153
128 207 153
128 208 153
128 209 153
128 210 153
128 211 153
128 212 153
128 213 153
128 214 153
128 215 153
128 216 153
128 217 153
128 218 153
128 219 153
128 220 153
128 221 153
128 222 153
128 223 153
128 224 153
128 225 153
128 226 153
128 227 153
128 228 153
128 229 153
128 230 153
128 231 153
128 232 153
128 233 153
128 234 153
128 235 153
128 236 153
128 237 153
128 238 153
128 239 153
128 240 153
128 241 153
128 242 153
128 243 153
128 244 153
128 245 153
128 246 153
128 247 153
128 248 153
128 249 153
128 250 153
128 251 153
128 252 153
128 253 153
128 254 153
128 255 153
129 0 153
129 1 153
129 2 153
129 3 153
129 4 153
129 5 153
129 6 153
129 7 153
129 8 153
129 9 153
129 10 153
129 11 153
129 12 153
129 13 153
129 14 153
129 15 153
129 16 153
129 17 153
129 18 153
129 19 153
129 20 153
129 21 153
129 22 153
129 23 153
129 24 153
129 25 153
129 26 153
129 27 153
129 28 153
129 29 153
129 30 153
129 31 153
129 32 153
129 33 153
129 34 153
129 35 153
129 36 153
129 37 153
129 38 153
129 39 153
129 40 153
129 41 153
129 42 153
129 43 153
129 44 153
129 45 153
129 46 153
129 47 153
129 48 153
129 49 153
129 50 153
129 51 153
129 52 153
129 53 153
129 54 153
129 55 153
129 56 153
129 57 153
129 58 153
129 59 153
129 60 153
129 61 153
129 62 153
129 63 153
129 64 153
129 65 153
129 66 153
129 67 153
129 68 153
129 69 153
129 70 153
129 71 153
129 72 153
129 73 153
129 74 153
129 75 153
129 76 153
129 77 153
129 78 153
129 79 153
129 80 153
129 81 153
129 82 153
129 83 153
129 84 153
129 85 153
129 86 153
129 87 153
129 88 153
129 89 153
129 90 153
129 91 153
129 92 153
129 93 153
129 94 153
129 95 153
129 96 153
129 97 153
129 98 153
129 99 153
129 100 153
129 101 153
129 102 153
129 103 153
129 104 153
129 105 153
129 106 153
129 107 153
129 108 153
129 109 153
129 110 153
129 111 153
129 112 153
129 113 153
129 114 153
129 115 153
129 116 153
129 117 153
129 118 153
129 119 153
129 120 153
129 121 153
129 122 153
129 123 153
129 124 153
129 125 153
129 126 153
129 127 153
129 128 153
129 129 153
129 130 153
129 131 153
129 132 153
129 133 153
129 134 153
129 135 153
129 136 153
129 137 153
129 138 153
129 139 153
129 140 153
129 141 153
129 142 153
129 143 153
129 144 153
129 145 153
129 146 153
129 147 153
129 148 153
129 149 153
129 150 153
129 151 153
129 152 153
129 153 153
129 154 153
129 155 153
129 156 153
129 157 153
129 158 153
129 159 153
129 160 153
129 161 153
129 162 153
129 163 153
129 164 153
129 165 153
129 166 153
129 167 153
129 168 153
129 169 153
129 170 153
129 171 153
129 172 153
129 173 153
129 174 153
129 175 153
129 176 153
129 177 153
129 178 153
129 179 153
129 180 153
129 181 153
129 182 153
129 183 153
129 184 153
129 185 153
129 186 153
129 187 153
129 188 153
129 189 153
129 190 153
129 191 153
129 192 153
129 193 153
129 194 153
129 195 153
129 196 153
129 197 153
129 198 153
129 199 153
129 200 153
129 201 153
129 202 153
129 203 153
129 204 153
129 205 153
129 206 153
129 207 153
129 208 153
129 209 153
129 210 153
129 211 153
129 212 153
129 213 153
129 214 153
129 215 153
129 216 153
129 217 153
129 218 153
129 219 153
129 220 153
129 221 153
129 222 153
129 223 153
129 224 153
129 225 153
129 226 153
129 227 153
129 228 153
129 229 153
129 230 153
129 231 153
129 232 153
129 233 153
129 234 153
129 235 153
129 236 153
129 237 153
129 238 153
129 239 153
129 240 153
129 241 153
129 242 153
129 243 153
129 244 153
129 245 153
129 246 153
129 247 153
129 248 153
129 249 153
129 250 153
129 251 153
129 252 153
129 253 153
129 254 153
129 255 153
130 0 153
130 1 153
130 2 153
130 3 153
130 4 153
130 5 153
130 6 153
130 7 153
130 8 153
130 9 153
130 10 153
130 11 153
130 12 153
130 13 153
130 14 153
130 15 153
130 16 153
130 17 153
130 18 153
130 19 153
130 20 153
130 21 153
130 22 153
130 23 153
130 24 153
130 25 153
130 26 153
130 27 153
130 28 153
130 29 153
130 30 153
130 31 153
130 32 153
130 33 153
130 34 153
130 35 153
130 36 153
130 37 153
130 38 153
130 39 153
130 40 153
130 41 153
130 42 153
130 43 153
130 44 153
130 45 153
130 46 153
130 47 153
130 48 153
130 49 153
130 50 153
130 51 153
130 52 153
130 53 153
130 54 153
130 55 153
130 56 153
130 57 153
130 58 153
130 59 153
130 60 153
130 61 153
130 62 153
130 63 153
130 64 153
130 65 153
130 66 153
130 67 153
130 68 153
130 69 153
130 70 153
130 71 153
130 72 153
130 73 153
130 74 153
130 75 153
130 76 153
130 77 153
130 78 153
130 79 153
130 80 153
130 81 153
130 82 153
130 83 153
130 84 153
130 85 153
130 86 153
130 87 153
130 88 153
130 89 153
130 90 153
130 91 153
130 92 153
130 93 153
130 94 153
130 95 153
130 96 153
130 97 153
130 98 153
130 99 153
130 100 153
130 101 153
130 102 153
130 103 153
130 104 153
130 105 153
130 106 153
130 107 153
130 108 153
130 109 153
130 110 153
130 111 153
130 112 153
130 113 153
130 114 153
130 115 153
130 116 153
130 117 153
130 118 153
130 119 153
130 120 153
130 121 153
130 122 153
130 123 153
130 124 153
130 125 153
130 126 153
130 127 153
130 128 153
130 129 153
130 130 153
130 131 153
130 132 153
130 133 153
130 134 153
130 135 153
130 136 153
130 137 153
130 138 153
130 139 153
130 140 153
130 141 153
130 142 153
130 143 153
130 144 153
130 145 153
130 146 153
130 147 153
130 148 153
130 149 153
130 150 153
130 151 153
130 152 153
130 153 153
130 154 153
130 155 153
130 156 153
130 157 153
130 158 153
130 159 153
130 160 153
130 161 153
130 162 153
130 163 153
130 164 153
130 165 153
130 166 153
130 167 153
130 168 153
130 169 153
130 170 153
130 171 153
130 172 153
130 173 153
130 174 153
130 175 153
130 176 153
130 177 153
130 178 153
130 179 153
130 180 153
130 181 153
130 182 153
130 183 153
130 184 153
130 185 153
130 186 153
130 187 153
130 188 153
130 189 153
130 190 153
130 191 153
130 192 153
130 193 153
130 194 153
130 195 153
130 196 153
130 197 153
130 198 153
130 199 153
130 200 153
130 201 153
130 202 153
130 203 153
130 204 153
130 205 153
130 206 153
130 207 153
130 208 153
130 209 153
130 210 153
130 211 153
130 212 153
130 213 153
130 214 153
130 215 153
130 216 153
130 217 153
130 218 153
130 219 153
130 220 153
130 221 153
130 222 153
130 223 153
130 224 153
130 225 153
130 226 153
130 227 153
130 228 153
130 229 153
130 230 153
130 231 153
130 232 153
130 233 153
130 234 153
130 235 153
130 236 153
130 237 153
130 238 153
130 239 153
130 240 153
130 241 153
130 242 153
130 243 153
130 244 153
130 245 153
130 246 153
130 247 153
130 248 153
130 249 153
130 250 153
130 251 153
130 252 153
130 253 153
130 254 153
130 255 153
131 0 153
131 1 153
131 2 153
131 3 153
131 4 153
131 5 153
131 6 153
131 7 153
131 8 153
131 9 153
131 10 153
131 11 153
131 12 153
131 13 153
131 14 153
131 15 153
131 16 153
131 17 153
131 18 153
131 19 153
131 20 153
131 21 153
131 22 153
131 23 153
131 24 153
131 25 153
131 26 153
131 27 153
131 28 153
131 29 153
131 30 153
131 31 153
131 32 153
131 33 153
131 34 153
131 35 153
131 36 153
131 37 153
131 38 153
131 39 153
131 40 153
131 41 153
131 42 153
131 43 153
131 44 153
131 45 153
131 46 153
131 47 153
131 48 153
131 49 153
131 50 153
131 51 153
131 52 153
131 53 153
131 54 153
131 55 153
131 56 153
131 57 153
131 58 153
131 59 153
131 60 153
131 61 153
131 62 153
131 63 153
131 64 153
131 65 153
131 66 153
131 67 153
131 68 153
131 69 153
131 70 153
131 71 153
131 72 153
131 73 153
131 74 153
131 75 153
131 76 153
131 77 153
131 78 153
131 79 153
131 80 153
131 81 153
131 82 153
131 83 153
131 84 153
131 85 153
131 86 153
131 87 153
131 88 153
131 89 153
131 90 153
131 91 153
131 92 153
131 93 153
131 94 153
131 95 153
131 96 153
131 97 153
131 98 153
131 99 153
131 100 153
131 101 153
131 102 153
131 103 153
131 104 153
131 105 153
131 106 153
131 107 153
131 108 153
131 109 153
131 110 153
131 111 153
131 112 153
131 113 153
131 114 153
131 115 153
131 116 153
131 117 153
131 118 153
131 119 153
131 120 153
131 121 153
131 122 153
131 123 153
131 124 153
131 125 153
131 126 153
131 127 153
131 128 153
131 129 153
131 130 153
131 131 153
131 132 153
131 133 153
131 134 153
131 135 153
131 136 153
131 137 153
131 138 153
131 139 153
131 140 153
131 141 153
131 142 153
131 143 153
131 144 153
131 145 153
131 146 153
131 147 153
131 148 153
131 149 153
131 150 153
131 151 153
131 152 153
131 153 153
131 154 153
131 155 153
131 156 153
131 157 153
131 158 153
131 159 153
131 160 153
131 161 153
131 162 153
131 163 153
131 164 153
131 165 153
131 166 153
131 167 153
131 168 153
131 169 153
131 170 153
131 171 153
131 172 153
131 173 153
131 174 153
131 175 153
131 176 153
131 177 153
131 178 153
131 179 153
131 180 153
131 181 153
131 182 153
131 183 153
131 184 153
131 185 153
131 186 153
131 187 153
131 188 153
131 189 153
131 190 153
131 191 153
131 192 153
131 193 153
131 194 153
131 195 153
131 196 153
131 197 153
131 198 153
131 199 153
131 200 153
131 201 153
131 202 153
131 203 153
131 204 153
131 205 153
131 206 153
131 207 153
131 208 153
131 209 153
131 210 153
131 211 153
131 212 153
131 213 153
131 214 153
131 215 153
131 216 153
131 217 153
131 218 153
131 219 153
131 220 153
131 221 153
131 222 153
131 223 153
131 224 153
131 225 153
131 226 153
131 227 153
131 228 153
131 229 153
131 230 153
131 231 153
131 232 153
131 233 153
131 234 153
131 235 153
131 236 153
131 237 153
131 238 153
131 239 153
131 240 153
131 241 153
131 242 153
131 243 153
131 244 153
131 245 153
131 246 153
131 247 153
131 248 153
131 249 153
131 250 153
131 251 153
131 252 153
131 253 153
131 254 153
131 255 153
132 0 153
132 1 153
132 2 153
132 3 153
132 4 153
132 5 153
132 6 153
132 7 153
132 8 153
132 9 153
132 10 153
132 11 153
132 12 153
132 13 153
132 14 153
132 15 153
132 16 153
132 17 153
132 18 153
132 19 153
132 20 153
132 21 153
132 22 153
132 23 153
132 24 153
132 25 153
132 26 153
132 27 153
132 28 153
132 29 153
132 30 153
132 31 153
132 32 153
132 33 153
132 34 153
132 35 153
132 36 153
132 37 153
132 38 153
132 39 153
132 40 153
132 41 153
132 42 153
132 43 153
132 44 153
132 45 153
132 46 153
132 47 153
132 48 153
132 49 153
132 50 153
132 51 153
132 52 153
132 53 153
132 54 153
132 55 153
132 56 153
132 57 153
132 58 153
132 59 153
132 60 153
132 61 153
132 62 153
132 63 153
132 64 153
132 65 153
132 66 153
132 67 153
132 68 153
132 69 153
132 70 153
132 71 153
132 72 153
132 73 153
132 74 153
132 75 153
132 76 153
132 77 153
132 78 153
132 79 153
132 80 153
132 81 153
132 82 153
132 83 153
132 84 153
132 85 153
132 86 153
132 87 153
132 88 153
132 89 153
132 90 153
132 91 153
132 92 153
132 93 153
132 94 153
132 95 153
132 96 153
132 97 153
132 98 153
132 99 153
132 100 153
132 101 153
132 102 153
132 103 153
132 104 153
132 105 153
132 106 153
132 107 153
132 108 153
132 109 153
132 110 153
132 111 153
132 112 153
132 113 153
132 114 153
132 115 153
132 116 153
132 117 153
132 118 153
132 119 153
132 120 153
132 121 153
132 122 153
132 123 153
132 124 153
132 125 153
132 126 153
132 127 153
132 128 153
132 129 153
132 130 153
132 131 153
132 132 153
132 133 153
132 134 153
132 135 153
132 136 153
132 137 153
132 138 153
132 139 153
132 140 153
132 141 153
132 142 153
132 143 153
132 144 153
132 145 153
132 146 153
132 147 153
132 148 153
132 149 153
132 150 153
132 151 153
132 152 153
132 153 153
132 154 153
132 155 153
132 156 153
132 157 153
132 158 153
132 159 153
132 160 153
132 161 153
132 162 153
132 163 153
132 164 153
132 165 153
132 166 153
132 167 153
132 168 153
132 169 153
132 170 153
132 171 153
132 172 153
132 173 153
132 174 153
132 175 153
132 176 153
132 177 153
132 178 153
132 179 153
132 180 153
132 181 153
132 182 153
132 183 153
132 184 153
132 185 153
132 186 153
132 187 153
132 188 153
132 189 153
132 190 153
132 191 153
132 192 153
132 193 153
132 194 153
132 195 153
132 196 153
132 197 153
132 198 153
132 199 153
132 200 153
132 201 153
132 202 153
132 203 153
132 204 153
132 205 153
132 206 153
132 207 153
132 208 153
132 209 153
132 210 153
132 211 153
132 212 153
132 213 153
132 214 153
132 215 153
132 216 153
132 217 153
132 218 153
132 219 153
132 220 153
132 221 153
132 222 153
132 223 153
132 224 153
132 225 153
132 226 153
132 227 153
132 228 153
132 229 153
132 230 153
132 231 153
132 232 153
132 233 153
132 234 153
132 235 153
132 236 153
132 237 153
132 238 153
132 239 153
132 240 153
132 241 153
132 242 153
132 243 153
132 244 153
132 245 153
132 246 153
132 247 153
132 248 153
132 249 153
132 250 153
132 251 153
132 252 153
132 253 153
132 254 153
132 255 153
133 0 153
133 1 153
133 2 153
133 3 153
133 4 153
133 5 153
133 6 153
133 7 153
133 8 153
133 9 153
133 10 153
133 11 153
133 12 153
133 13 153
133 14 153
133 15 153
133 16 153
133 17 153
133 18 153
133 19 153
133 20 153
133 21 153
133 22 153
133 23 153
133 24 153
133 25 153
133 26 153
133 27 153
133 28 153
133 29 153
133 30 153
133 31 153
133 32 153
133 33 153
133 34 153
133 35 153
133 36 153
133 37 153
133 38 153
133 39 153
133 40 153
133 41 153
133 42 153
133 43 153
133 44 153
133 45 153
133 46 153
133 47 153
133 48 153
133 49 153
133 50 153
133 51 153
133 52 153
133 53 153
133 54 153
133 55 153
133 56 153
133 57 153
133 58 153
133 59 153
133 60 153
133 61 153
133 62 153
133 63 153
133 64 153
133 65 153
133 66 153
133 67 153
133 68 153
133 69 153
133 70 153
133 71 153
133 72 153
133 73 153
133 74 153
133 75 153
133 76 153
133 77 153
133 78 153
133 79 153
133 80 153
133 81 153
133 82 153
133 83 153
133 84 153
133 85 153
133 86 153
133 87 153
133 88 153
133 89 153
133 90 153
133 91 153
133 92 153
133 93 153
133 94 153
133 95 153
133 96 153
133 97 153
133 98 153
133 99 153
133 100 153
133 101 153
133 102 153
133 103 153
133 104 153
133 105 153
133 106 153
133 107 153
133 108 153
133 109 153
133 110 153
133 111 153
133 112 153
133 113 153
133 114 153
133 115 153
133 116 153
133 117 153
133 118 153
133 119 153
133 120 153
133 121 153
133 122 153
133 123 153
133 124 153
133 125 153
133 126 153
133 127 153
133 128 153
133 129 153
133 130 153
133 131 153
133 132 153
133 133 153
133 134 153
133 135 153
133 136 153
133 137 153
133 138 153
133 139 153
133 140 153
133 141 153
133 142 153
133 143 153
133 144 153
133 145 153
133 146 153
133 147 153
133 148 153
133 149 153
133 150 153
133 151 153
133 152 153
133 153 153
133 154 153
133 155 153
133 156 153
133 157 153
133 158 153
133 159 153
133 160 153
133 161 153
133 162 153
133 163 153
133 164 153
133 165 153
133 166 153
133 167 153
133 168 153
133 169 153
133 170 153
133 171 153
133 172 153
133 173 153
133 174 153
133 175 153
133 176 153
133 177 153
133 178 153
133 179 153
133 180 153
133 181 153
133 182 153
133 183 153
133 184 153
133 185 153
133 186 153
133 187 153
133 188 153
133 189 153
133 190 153
133 191 153
133 192 153
133 193 153
133 194 153
133 195 153
133 196 153
133 197 153
133 198 153
133 199 153
133 200 153
133 201 153
133 202 153
133 203 153
133 204 153
133 205 153
133 206 153
133 207 153
133 208 153
133 209 153
133 210 153
133 211 153
133 212 153
133 213 153
133 214 153
133 215 153
133 216 153
133 217 153
133 218 153
133 219 153
133 220 153
133 221 153
133 222 153
133 223 153
133 224 153
133 225 153
133 226 153
133 227 153
133 228 153
133 229 153
133 230 153
133 231 153
133 232 153
133 233 153
133 234 153
133 235 153
133 236 153
133 237 153
133 238 153
133 239 153
133 240 153
133 241 153
133 242 153
133 243 153
133 244 153
133 245 153
133 246 153
133 247 153
133 248 153
133 249 153
133 250 153
133 251 153
133 252 153
133 253 153
133 254 153
133 255 153
134 0 153
134 1 153
134 2 153
134 3 153
134 4 153
134 5 153
134 6 153
134 7 153
134 8 153
134 9 153
134 10 153
134 11 153
134 12 153
134 13 153
134 14 153
134 15 153
134 16 153
134 17 153
134 18 153
134 19 153
134 20 153
134 21 153
134 22 153
134 23 153
134 24 153
134 25 153
134 26 153
134 27 153
134 28 153
134 29 153
134 30 153
134 31 153
134 32 153
134 33 153
134 34 153
134 35 153
134 36 153
134 37 153
134 38 153
134 39 153
134 40 153
134 41 153
134 42 153
134 43 153
134 44 153
134 45 153
134 46 153
134 47 153
134 48 153
134 49 153
134 50 153
134 51 153
134 52 153
134 53 153
134 54 153
134 55 153
134 56 153
134 57 153
134 58 153
134 59 153
134 60 153
134 61 153
134 62 153
134 63 153
134 64 153
134 65 153
134 66 153
134 67 153
134 68 153
134 69 153
134 70 153
134 71 153
134 72 153
134 73 153
134 74 153
134 75 153
134 76 153
134 77 153
134 78 153
134 79 153
134 80 153
134 81 153
134 82 153
134 83 153
134 84 153
134 85 153
134 86 153
134 87 153
134 88 153
134 89 153
134 90 153
134 91 153
134 92 153
134 93 153
134 94 153
134 95 153
134 96 153
134 97 153
134 98 153
134 99 153
134 100 153
134 101 153
134 102 153
134 103 153
134 104 153
134 105 153
134 106 153
134 107 153
134 108 153
134 109 153
134 110 153
134 111 153
134 112 153
134 113 153
134 114 153
134 115 153
134 116 153
134 117 153
134 118 153
134 119 153
134 120 153
134 121 153
134 122 153
134 123 153
134 124 153
134 125 153
134 126 153
134 127 153
134 128 153
134 129 153
134 130 153
134 131 153
134 132 153
134 133 153
134 134 153
134 135 153
134 136 153
134 137 153
134 138 153
134 139 153
134 140 153
134 141 153
134 142 153
134 143 153
134 144 153
134 145 153
134 146 153
134 147 153
134 148 153
134 149 153
134 150 153
134 151 153
134 152 153
134 153 153
134 154 153
134 155 153
134 156 153
134 157 153
134 158 153
134 159 153
134 160 153
134 161 153
134 162 153
134 163 153
134 164 153
134 165 153
134 166 153
134 167 153
134 168 153
134 169 153
134 170 153
134 171 153
134 172 153
134 173 153
134 174 153
134 175 153
134 176 153
134 177 153
134 178 153
134 179 153
134 180 153
134 181 153
134 182 153
134 183 153
134 184 153
134 185 153
134 186 153
134 187 153
134 188 153
134 189 153
134 190 153
134 191 153
134 192 153
134 193 153
134 194 153
134 195 153
134 196 153
134 197 153
134 198 153
134 199 153
134 200 153
134 201 153
134 202 153
134 203 153
134 204 153
134 205 153
134 206 153
134 207 153
134 208 153
134 209 153
134 210 153
134 211 153
134 212 153
134 213 153
134 214 153
134 215 153
134 216 153
134 217 153
134 218 153
134 219 153
134 220 153
134 221 153
134 222 153
134 223 153
134 224 153
134 225 153
134 226 153
134 227 153
134 228 153
134 229 153
134 230 153
134 231 153
134 232 153
134 233 153
134 234 153
134 235 153
134 236 153
134 237 153
134 238 153
134 239 153
134 240 153
134 241 153
134 242 153
134 243 153
134 244 153
134 245 153
134 246 153
134 247 153
134 248 153
134 249 153
134 250 153
134 251 153
134 252 153
134 253 153
134 254 153
134 255 153
135 0 153
135 1 153
135 2 153
135 3 153
135 4 153
135 5 153
135 6 153
135 7 153
135 8 153
135 9 153
135 10 153
135 11 153
135 12 153
135 13 153
135 14 153
135 15 153
135 16 153
135 17 153
135 18 153
135 19 153
135 20 153
135 21 153
135 22 153
135 23 153
135 24 153
135 25 153
135 26 153
135 27 153
135 28 153
135 29 153
135 30 153
135 31 153
135 32 153
135 33 153
135 34 153
135 35 153
135 36 153
135 37 153
135 38 153
135 39 153
135 40 153
135 41 153
135 42 153
135 43 153
135 44 153
135 45 153
135 46 153
135 47 153
135 48 153
135 49 153
135 50 153
135 51 153
135 52 153
135 53 153
135 54 153
135 55 153
135 56 153
135 57 153
135 58 153
135 59 153
135 60 153
135 61 153
135 62 153
135 63 153
135 64 153
135 65 153
135 66 153
135 67 153
135 68 153
135 69 153
135 70 153
135 71 153
135 72 153
135 73 153
135 74 153
135 75 153
135 76 153
135 77 153
135 78 153
135 79 153
135 80 153
135 81 153
135 82 153
135 83 153
135 84 153
135 85 153
135 86 153
135 87 153
135 88 153
135 89 153
135 90 153
135 91 153
135 92 153
135 93 153
135 94 153
135 95 153
135 96 153
135 97 153
135 98 153
135 99 153
135 100 153
135 101 153
135 102 153
135 103 153
135 104 153
135 105 153
135 106 153
135 107 153
135 108 153
135 109 153
135 110 153
135 111 153
135 112 153
135 113 153
135 114 153
135 115 153
135 116 153
135 117 153
135 118 153
135 119 153
135 120 153
135 121 153
135 122 153
135 123 153
135 124 153
135 125 153
135 126 153
135 127 153
135 128 153
135 129 153
135 130 153
135 131 153
135 132 153
135 133 153
135 134 153
135 135 153
135 136 153
135 137 153
135 138 153
135 139 153
135 140 153
135 141 153
135 142 153
135 143 153
135 144 153
135 145 153
135 146 153
135 147 153
135 148 153
135 149 153
135 150 153
135 151 153
135 152 153
135 153 153
135 154 153
135 155 153
135 156 153
135 157 153
135 158 153
135 159 153
135 160 153
135 161 153
135 162 153
135 163 153
135 164 153
135 165 153
135 166 153
135 167 153
135 168 153
135 169 153
135 170 153
135 171 153
135 172 153
135 173 153
135 174 153
135 175 153
135 176 153
135 177 153
135 178 153
135 179 153
135 180 153
135 181 153
135 182 153
135 183 153
135 184 153
135 185 153
135 186 153
135 187 153
135 188 153
135 189 153
135 190 153
135 191 153
135 192 153
135 193 153
135 194 153
135 195 153
135 196 153
135 197 153
135 198 153
135 199 153
135 200 153
135 201 153
135 202 153
135 203 153
135 204 153
135 205 153
135 206 153
135 207 153
135 208 153
135 209 153
135 210 153
135 211 153
135 212 153
135 213 153
135 214 153
135 215 153
135 216 153
135 217 153
135 218 153
135 219 153
135 220 153
135 221 153
135 222 153
135 223 153
135 224 153
135 225 153
135 226 153
135 227 153
135 228 153
135 229 153
135 230 153
135 231 153
135 232 153
135 233 153
135 234 153
135 235 153
135 236 153
135 237 153
135 238 153
135 239 153
135 240 153
135 241 153
135 242 153
135 243 153
135 244 153
135 245 153
135 246 153
135 247 153
135 248 153
135 249 153
135 250 153
135 251 153
135 252 153
135 253 153
135 254 153
135 255 153
136 0 153
136 1 153
136 2 153
136 3 153
136 4 153
136 5 153
136 6 153
136 7 153
136 8 153
136 9 153
136 10 153
136 11 153
136 12 153
136 13 153
136 14 153
136 15 153
136 16 153
136 17 153
136 18 153
136 19 153
136 20 153
136 21 153
136 22 153
136 23 153
136 24 153
136 25 153
136 26 153
136 27 153
136 28 153
136 29 153
136 30 153
136 31 153
136 32 153
136 33 153
136 34 153
136 35 153
136 36 153
136 37 153
136 38 153
136 39 153
136 40 153
136 41 153
136 42 153
136 43 153
136 44 153
136 45 153
136 46 153
136 47 153
136 48 153
136 49 153
136 50 153
136 51 153
136 52 153
136 53 153
136 54 153
136 55 153
136 56 153
136 57 153
136 58 153
136 59 153
136 60 153
136 61 153
136 62 153
136 63 153
136 64 153
136 65 153
136 66 153
136 67 153
136 68 153
136 69 153
136 70 153
136 71 153
136 72 153
136 73 153
136 74 153
136 75 153
136 76 153
136 77 153
136 78 153
136 79 153
136 80 153
136 81 153
136 82 153
136 83 153
136 84 153
136 85 153
136 86 153
136 87 153
136 88 153
136 89 153
136 90 153
136 91 153
136 92 153
136 93 153
136 94 153
136 95 153
136 96 153
136 97 153
136 98 153
136 99 153
136 100 153
136 101 153
136 102 153
136 103 153
136 104 153
136 105 153
136 106 153
136 107 153
136 108 153
136 109 153
136 110 153
136 111 153
136 112 153
136 113 153
136 114 153
136 115 153
136 116 153
136 117 153
136 118 153
136 119 153
136 120 153
136 121 153
136 122 153
136 123 153
136 124 153
136 125 153
136 126 153
136 127 153
136 128 153
136 129 153
136 130 153
136 131 153
136 132 153
136 133 153
136 134 153
136 135 153
136 136 153
136 137 153
136 138 153
136 139 153
136 140 153
136 141 153
136 142 153
136 143 153
136 144 153
136 145 153
136 146 153
136 147 153
136 148 153
136 149 153
136 150 153
136 151 153
136 152 153
136 153 153
136 154 153
136 155 153
136 156 153
136 157 153
136 158 153
136 159 153
136 160 153
136 161 153
136 162 153
136 163 153
136 164 153
136 165 153
136 166 153
136 167 153
136 168 153
136 169 153
136 170 153
136 171 153
136 172 153
136 173 153
136 174 153
136 175 153
136 176 153
136 177 153
136 178 153
136 179 153
136 180 153
136 181 153
136 182 153
136 183 153
136 184 153
136 185 153
136 186 153
136 187 153
136 188 153
136 189 153
136 190 153
136 191 153
136 192 153
136 193 153
136 194 153
136 195 153
136 196 153
136 197 153
136 198 153
136 199 153
136 200 153
136 201 153
136 202 153
136 203 153
136 204 153
136 205 153
136 206 153
136 207 153
136 208 153
136 209 153
136 210 153
136 211 153
136 212 153
136 213 153
136 214 153
136 215 153
136 216 153
136 217 153
136 218 153
136 219 153
136 220 153
136 221 153
136 222 153
136 223 153
136 224 153
136 225 153
136 226 153
136 227 153
136 228 153
136 229 153
136 230 153
136 231 153
136 232 153
136 233 153
136 234 153
136 235 153
136 236 153
136 237 153
136 238 153
136 239 153
136 240 153
136 241 153
136 242 153
136 243 153
136 244 153
136 245 153
136 246 153
136 247 153
136 248 153
136 249 153
136 250 153
136 251 153
136 252 153
136 253 153
136 254 153
136 255 153
137 0 153
137 1 153
137 2 153
137 3 153
137 4 153
137 5 153
137 6 153
137 7 153
137 8 153
137 9 153
137 10 153
137 11 153
137 12 153
137 13 153
137 14 153
137 15 153
137 16 153
137 17 153
137 18 153
137 19 153
137 20 153
137 21 153
137 22 153
137 23 153
137 24 153
137 25 153
137 26 153
137 27 153
137 28 153
137 29 153
137 30 153
137 31 153
137 32 153
137 33 153
137 34 153
137 35 153
137 36 153
137 37 153
137 38 153
137 39 153
137 40 153
137 41 153
137 42 153
137 43 153
137 44 153
137 45 153
137 46 153
137 47 153
137 48 153
137 49 153
137 50 153
137 51 153
137 52 153
137 53 153
137 54 153
137 55 153
137 56 153
137 57 153
137 58 153
137 59 153
137 60 153
137 61 153
137 62 153
137 63 153
137 64 153
137 65 153
137 66 153
137 67 153
137 68 153
137 69 153
137 70 153
137 71 153
137 72 153
137 73 153
137 74 153
137 75 153
137 76 153
137 77 153
137 78 153
137 79 153
137 80 153
137 81 153
137 82 153
137 83 153
137 84 153
137 85 153
137 86 153
137 87 153
137 88 153
137 89 153
137 90 153
137 91 153
137 92 153
137 93 153
137 94 153
137 95 153
137 96 153
137 97 153
137 98 153
137 99 153
137 100 153
137 101 153
137 102 153
137 103 153
137 104 153
137 105 153
137 106 153
137 107 153
137 108 153
137 109 153
137 110 153
137 111 153
137 112 153
137 113 153
137 114 153
137 115 153
137 116 153
137 117 153
137 118 153
137 119 153
137 120 153
137 121 153
137 122 153
137 123 153
137 124 153
137 125 153
137 126 153
137 127 153
137 128 153
137 129 153
137 130 153
137 131 153
137 132 153
137 133 153
137 134 153
137 135 153
137 136 153
137 137 153
137 138 153
137 139 153
137 140 153
137 141 153
137 142 153
137 143 153
137 144 153
137 145 153
137 146 153
137 147 153
137 148 153
137 149 153
137 150 153
137 151 153
137 152 153
137 153 153
137 154 153
137 155 153
137 156 153
137 157 153
137 158 153
137 159 153
137 160 153
137 161 153
137 162 153
137 163 153
137 164 153
137 165 153
137 166 153
137 167 153
137 168 153
137 169 153
137 170 153
137 171 153
137 172 153
137 173 153
137 174 153
137 175 153
137 176 153
137 177 153
137 178 153
137 179 153
137 180 153
137 181 153
137 182 153
137 183 153
137 184 153
137 185 153
137 186 153
137 187 153
137 188 153
137 189 153
137 190 153
137 191 153
137 192 153
137 193 153
137 194 153
137 195 153
137 196 153
137 197 153
137 198 153
137 199 153
137 200 153
137 201 153
137 202 153
137 203 153
137 204 153
137 205 153
137 206 153
137 207 153
137 208 153
137 209 153
137 210 153
137 211 153
137 212 153
137 213 153
137 214 153
137 215 153
137 216 153
137 217 153
137 218 153
137 219 153
137 220 153
137 221 153
137 222 153
137 223 153
137 224 153
137 225 153
137 226 153
137 227 153
137 228 153
137 229 153
137 230 153
137 231 153
137 232 153
137 233 153
137 234 153
137 235 153
137 236 153
137 237 153
137 238 153
137 239 153
137 240 153
137 241 153
137 242 153
137 243 153
137 244 153
137 245 153
137 246 153
137 247 153
137 248 153
137 249 153
137 250 153
137 251 153
137 252 153
137 253 153
137 254 153
137 255 153
138 0 153
138 1 153
138 2 153
138 3 153
138 4 153
138 5 153
138 6 153
138 7 153
138 8 153
138 9 153
138 10 153
138 11 153
138 12 153
138 13 153
138 14 153
138 15 153
138 16 153
138 17 153
138 18 153
138 19 153
138 20 153
138 21 153
138 22 153
138 23 153
138 24 153
138 25 153
138 26 153
138 27 153
138 28 153
138 29 153
138 30 153
138 31 153
138 32 153
138 33 153
138 34 153
138 35 153
138 36 153
138 37 153
138 38 153
138 39 153
138 40 153
138 41 153
138 42 153
138 43 153
138 44 153
138 45 153
138 46 153
138 47 153
138 48 153
138 49 153
138 50 153
138 51 153
138 52 153
138 53 153
138 54 153
138 55 153
138 56 153
138 57 153
138 58 153
138 59 153
138 60 153
138 61 153
138 62 153
138 63 153
138 64 153
138 65 153
138 66 153
138 67 153
138 68 153
138 69 153
138 70 153
138 71 153
138 72 153
138 73 153
138 74 153
138 75 153
138 76 153
138 77 153
138 78 153
138 79 153
138 80 153
138 81 153
138 82 153
138 83 153
138 84 153
138 85 153
138 86 153
138 87 153
138 88 153
138 89 153
138 90 153
138 91 153
138 92 153
138 93 153
138 94 153
138 95 153
138 96 153
138 97 153
138 98 153
138 99 153
138 100 153
138 101 153
138 102 153
138 103 153
138 104 153
138 105 153
138 106 153
138 107 153
138 108 153
138 109 153
138 110 153
138 111 153
138 112 153
138 113 153
138 114 153
138 115 153
138 116 153
138 117 153
138 118 153
138 119 153
138 120 153
138 121 153
138 122 153
138 123 153
138 124 153
138 125 153
138 126 153
138 127 153
138 128 153
138 129 153
138 130 153
138 131 153
138 132 153
138 133 153
138 134 153
138 135 153
138 136 153
138 137 153
138 138 153
138 139 153
138 140 153
138 141 153
138 142 153
138 143 153
138 144 153
138 145 153
138 146 153
138 147 153
138 148 153
138 149 153
138 150 153
138 151 153
138 152 153
138 153 153
138 154 153
138 155 153
138 156 153
138 157 153
138 158 153
138 159 153
138 160 153
138 161 153
138 162 153
138 163 153
138 164 153
138 165 153
138 166 153
138 167 153
138 168 153
138 169 153
138 170 153
138 171 153
138 172 153
138 173 153
138 174 153
138 175 153
138 176 153
138 177 153
138 178 153
138 179 153
138 180 153
138 181 153
138 182 153
138 183 153
138 184 153
138 185 153
138 186 153
138 187 153
138 188 153
138 189 153
138 190 153
138 191 153
138 192 153
138 193 153
138 194 153
138 195 153
138 196 153
138 197 153
138 198 153
138 199 153
138 200 153
138 201 153
138 202 153
138 203 153
138 204 153
138 205 153
138 206 153
138 207 153
138 208 153
138 209 153
138 210 153
138 211 153
138 212 153
138 213 153
138 214 153
138 215 153
138 216 153
138 217 153
138 218 153
138 219 153
138 220 153
138 221 153
138 222 153
138 223 153
138 224 153
138 225 153
138 226 153
138 227 153
138 228 153
138 229 153
138 230 153
138 231 153
138 232 153
138 233 153
138 234 153
138 235 153
138 236 153
138 237 153
138 238 153
138 239 153
138 240 153
138 241 153
138 242 153
138 243 153
138 244 153
138 245 153
138 246 153
138 247 153
138 248 153
138 249 153
138 250 153
138 251 153
138 252 153
138 253 153
138 254 153
138 255 153
139 0 153
139 1 153
139 2 153
139 3 153
139 4 153
139 5 153
139 6 153
139 7 153
139 8 153
139 9 153
139 10 153
139 11 153
139 12 153
139 13 153
139 14 153
139 15 153
139 16 153
139 17 153
139 18 153
139 19 153
139 20 153
139 21 153
139 22 153
139 23 153
139 24 153
139 25 153
139 26 153
139 27 153
139 28 153
139 29 153
139 30 153
139 31 153
139 32 153
139 33 153
139 34 153
139 35 153
139 36 153
139 37 153
139 38 153
139 39 153
139 40 153
139 41 153
139 42 153
139 43 153
139 44 153
139 45 153
139 46 153
139 47 153
139 48 153
139 49 153
139 50 153
139 51 153
139 52 153
139 53 153
139 54 153
139 55 153
139 56 153
139 57 153
139 58 153
139 59 153
139 60 153
139 61 153
139 62 153
139 63 153
139 64 153
139 65 153
139 66 153
139 67 153
139 68 153
139 69 153
139 70 153
139 71 153
139 72 153
139 73 153
139 74 153
139 75 153
139 76 153
139 77 153
139 78 153
139 79 153
139 80 153
139 81 153
139 82 153
139 83 153
139 84 153
139 85 153
139 86 153
139 87 153
139 88 153
139 89 153
139 90 153
139 91 153
139 92 153
139 93 153
139 94 153
139 95 153
139 96 153
139 97 153
139 98 153
139 99 153
139 100 153
139 101 153
139 102 153
139 103 153
139 104 153
139 105 153
139 106 153
139 107 153
139 108 153
139 109 153
139 110 153
139 111 153
139 112 153
139 113 153
139 114 153
139 115 153
139 116 153
139 117 153
139 118 153
139 119 153
139 120 153
139 121 153
139 122 153
139 123 153
139 124 153
139 125 153
139 126 153
139 127 153
139 128 153
139 129 153
139 130 153
139 131 153
139 132 153
139 133 153
139 134 153
139 135 153
139 136 153
139 137 153
139 138 153
139 139 153
139 140 153
139 141 153
139 142 153
139 143 153
139 144 153
139 145 153
139 146 153
139 147 153
139 148 153
139 149 153
139 150 153
139 151 153
139 152 153
139 153 153
139 154 153
139 155 153
139 156 153
139 157 153
139 158 153
139 159 153
139 160 153
139 161 153
139 162 153
139 163 153
139 164 153
139 165 153
139 166 153
139 167 153
139 168 153
139 169 153
139 170 153
139 171 153
139 172 153
139 173 153
139 174 153
139 175 153
139 176 153
139 177 153
139 178 153
139 179 153
139 180 153
139 181 153
139 182 153
139 183 153
139 184 153
139 185 153
139 186 153
139 187 153
139 188 153
139 189 153
139 190 153
139 191 153
139 192 153
139 193 153
139 194 153
139 195 153
139 196 153
139 197 153
139 198 153
139 199 153
139 200 153
139 201 153
139 202 153
139 203 153
139 204 153
139 205 153
139 206 153
139 207 153
139 208 153
139 209 153
139 210 153
139 211 153
139 212 153
139 213 153
139 214 153
139 215 153
139 216 153
139 217 153
139 218 153
139 219 153
139 220 153
139 221 153
139 222 153
139 223 153
139 224 153
139 225 153
139 226 153
139 227 153
139 228 153
139 229 153
139 230 153
139 231 153
139 232 153
139 233 153
139 234 153
139 235 153
139 236 153
139 237 153
139 238 153
139 239 153
139 240 153
139 241 153
139 242 153
139 243 153
139 244 153
139 245 153
139 246 153
139 247 153
139 248 153
139 249 153
139 250 153
139 251 153
139 252 153
139 253 153
139 254 153
139 255 153
140 0 153
140 1 153
140 2 153
140 3 153
140 4 153
140 5 153
140 6 153
140 7 153
140 8 153
140 9 153
140 10 153
140 11 153
140 12 153
140 13 153
140 14 153
140 15 153
140 16 153
140 17 153
140 18 153
140 19 153
140 20 153
140 21 153
140 22 153
140 23 153
140 24 153
140 25 153
140 26 153
140 27 153
140 28 153
140 29 153
140 30 153
140 31 153
140 32 153
140 33 153
140 34 153
140 35 153
140 36 153
140 37 153
140 38 153
140 39 153
140 40 153
140 41 153
140 42 153
140 43 153
140 44 153
140 45 153
140 46 153
140 47 153
140 48 153
140 49 153
140 50 153
140 51 153
140 52 153
140 53 153
140 54 153
140 55 153
140 56 153
140 57 153
140 58 153
140 59 153
140 60 153
140 61 153
140 62 153
140 63 153
140 64 153
140 65 153
140 66 153
140 67 153
140 68 153
140 69 153
140 70 153
140 71 153
140 72 153
140 73 153
140 74 153
140 75 153
140 76 153
140 77 153
140 78 153
140 79 153
140 80 153
140 81 153
140 82 153
140 83 153
140 84 153
140 85 153
140 86 153
140 87 153
140 88 153
140 89 153
140 90 153
140 91 153
140 92 153
140 93 153
140 94 153
140 95 153
140 96 153
140 97 153
140 98 153
140 99 153
140 100 153
140 101 153
140 102 153
140 103 153
140 104 153
140 105 153
140 106 153
140 107 153
140 108 153
140 109 153
140 110 153
140 111 153
140 112 153
140 113 153
140 114 153
140 115 153
140 116 153
140 117 153
140 118 153
140 119 153
140 120 153
140 121 153
140 122 153
140 123 153
140 124 153
140 125 153
140 126 153
140 127 153
140 128 153
140 129 153
140 130 153
140 131 153
140 132 153
140 133 153
140 134 153
140 135 153
140 136 153
140 137 153
140 138 153
140 139 153
140 140 153
140 141 153
140 142 153
140 143 153
140 144 153
140 145 153
140 146 153
140 147 153
140 148 153
140 149 153
140 150 153
140 151 153
140 152 153
140 153 153
140 154 153
140 155 153
140 156 153
140 157 153
140 158 153
140 159 153
140 160 153
140 161 153
140 162 153
140 163 153
140 164 153
140 165 153
140 166 153
140 167 153
140 168 153
140 169 153
140 170 153
140 171 153
140 172 153
140 173 153
140 174 153
140 175 153
140 176 153
140 177 153
140 178 153
140 179 153
140 180 153
140 181 153
140 182 153
140 183 153
140 184 153
140 185 153
140 186 153
140 187 153
140 188 153
140 189 153
140 190 153
140 191 153
140 192 153
140 193 153
140 194 153
140 195 153
140 196 153
140 197 153
140 198 153
140 199 153
140 200 153
140 201 153
140 202 153
140 203 153
140 204 153
140 205 153
140 206 153
140 207 153
140 208 153
140 209 153
140 210 153
140 211 153
140 212 153
140 213 153
140 214 153
140 215 153
140 216 153
140 217 153
140 218 153
140 219 153
140 220 153
140 221 153
140 222 153
140 223 153
140 224 153
140 225 153
140 226 153
140 227 153
140 228 153
140 229 153
140 230 153
140 231 153
140 232 153
140 233 153
140 234 153
140 235 153
140 236 153
140 237 153
140 238 153
140 239 153
140 240 153
140 241 153
140 242 153
140 243 153
140 244 153
140 245 153
140 246 153
140 247 153
140 248 153
140 249 153
140 250 153
140 251 153
140 252 153
140 253 153
140 254 153
140 255 153
141 0 153
141 1 153
141 2 153
141 3 153
141 4 153
141 5 153
141 6 153
141 7 153
141 8 153
141 9 153
141 10 153
141 11 153
141 12 153
141 13 153
141 14 153
141 15 153
141 16 153
141 17 153
141 18 153
141 19 153
141 20 153
141 21 153
141 22 153
141 23 153
141 24 153
141 25 153
141 26 153
141 27 153
141 28 153
141 29 153
141 30 153
141 31 153
141 32 153
141 33 153
141 34 153
141 35 153
141 36 153
141 37 153
141 38 153
141 39 153
141 40 153
141 41 153
141 42 153
141 43 153
141 44 153
141 45 153
141 46 153
141 47 153
141 48 153
141 49 153
141 50 153
141 51 153
141 52 153
141 53 153
141 54 153
141 55 153
141 56 153
141 57 153
141 58 153
141 59 153
141 60 153
141 61 153
141 62 153
141 63 153
141 64 153
141 65 153
141 66 153
141 67 153
141 68 153
141 69 153
141 70 153
141 71 153
141 72 153
141 73 153
141 74 153
141 75 153
141 76 153
141 77 153
141 78 153
141 79 153
141 80 153
141 81 153
141 82 153
141 83 153
141 84 153
141 85 153
141 86 153
141 87 153
141 88 153
141 89 153
141 90 153
141 91 153
141 92 153
141 93 153
141 94 153
141 95 153
141 96 153
141 97 153
141 98 153
141 99 153
141 100 153
141 101 153
141 102 153
141 103 153
141 104 153
141 105 153
141 106 153
141 107 153
141 108 153
141 109 153
141 110 153
141 111 153
141 112 153
141 113 153
141 114 153
141 115 153
141 116 153
141 117 153
141 118 153
141 119 153
141 120 153
141 121 153
141 122 153
141 123 153
141 124 153
141 125 153
141 126 153
141 127 153
141 128 153
141 129 153
141 130 153
141 131 153
141 132 153
141 133 153
141 134 153
141 135 153
141 136 153
141 137 153
141 138 153
141 139 153
141 140 153
141 141 153
141 142 153
141 143 153
141 144 153
141 145 153
141 146 153
141 147 153
141 148 153
141 149 153
141 150 153
141 151 153
141 152 153
141 153 153
141 154 153
141 155 153
141 156 153
141 157 153
141 158 153
141 159 153
141 160 153
141 161 153
141 162 153
141 163 153
141 164 153
141 165 153
141 166 153
141 167 153
141 168 153
141 169 153
141 170 153
141 171 153
141 172 153
141 173 153
141 174 153
141 175 153
141 176 153
141 177 153
141 178 153
141 179 153
141 180 153
141 181 153
141 182 153
141 183 153
141 184 153
141 185 153
141 186 153
141 187 153
141 188 153
141 189 153
141 190 153
141 191 153
141 192 153
141 193 153
141 194 153
141 195 153
141 196 153
141 197 153
141 198 153
141 199 153
141 200 153
141 201 153
141 202 153
141 203 153
141 204 153
141 205 153
141 206 153
141 207 153
141 208 153
141 209 153
141 210 153
141 211 153
141 212 153
141 213 153
141 214 153
141 215 153
141 216 153
141 217 153
141 218 153
141 219 153
141 220 153
141 221 153
141 222 153
141 223 153
141 224 153
141 225 153
141 226 153
141 227 153
141 228 153
141 229 153
141 230 153
141 231 153
141 232 153
141 233 153
141 234 153
141 235 153
141 236 153
141 237 153
141 238 153
141 239 153
141 240 153
141 241 153
141 242 153
141 243 153
141 244 153
141 245 153
141 246 153
141 247 153
141 248 153
141 249 153
141 250 153
141 251 153
141 252 153
141 253 153
141 254 153
141 255 153
142 0 153
142 1 153
142 2 153
142 3 153
142 4 153
142 5 153
142 6 153
142 7 153
142 8 153
142 9 153
142 10 153
142 11 153
142 12 153
142 13 153
142 14 153
142 15 153
142 16 153
142 17 153
142 18 153
142 19 153
142 20 153
142 21 153
142 22 153
142 23 153
142 24 153
142 25 153
142 26 153
142 27 153
142 28 153
142 29 153
142 30 153
142 31 153
142 32 153
142 33 153
142 34 153
142 35 153
142 36 153
142 37 153
142 38 153
142 39 153
142 40 153
142 41 153
142 42 153
142 43 153
142 44 153
142 45 153
142 46 153
142 47 153
142 48 153
142 49 153
142 50 153
142 51 153
142 52 153
142 53 153
142 54 153
142 55 153
142 56 153
142 57 153
142 58 153
142 59 153
142 60 153
142 61 153
142 62 153
142 63 153
142 64 153
142 65 153
142 66 153
142 67 153
142 68 153
142 69 153
142 70 153
142 71 153
142 72 153
142 73 153
142 74 153
142 75 153
142 76 153
142 77 153
142 78 153
142 79 153
142 80 153
142 81 153
142 82 153
142 83 153
142 84 153
142 85 153
142 86 153
142 87 153
142 88 153
142 89 153
142 90 153
142 91 153
142 92 153
142 93 153
142 94 153
142 95 153
142 96 153
142 97 153
142 98 153
142 99 153
142 100 153
142 101 153
142 102 153
142 103 153
142 104 153
142 105 153
142 106 153
142 107 153
142 108 153
142 109 153
142 110 153
142 111 153
142 112 153
142 113 153
142 114 153
142 115 153
142 116 153
142 117 153
142 118 153
142 119 153
142 120 153
142 121 153
142 122 153
142 123 153
142 124 153
142 125 153
142 126 153
142 127 153
142 128 153
142 129 153
142 130 153
142 131 153
142 132 153
142 133 153
142 134 153
142 135 153
142 136 153
142 137 153
142 138 153
142 139 153
142 140 153
142 141 153
142 142 153
142 143 153
142 144 153
142 145 153
142 146 153
142 147 153
142 148 153
142 149 153
142 150 153
142 151 153
142 152 153
142 153 153
142 154 153
142 155 153
142 156 153
142 157 153
142 158 153
142 159 153
142 160 153
142 161 153
142 162 153
142 163 153
142 164 153
142 165 153
142 166 153
142 167 153
142 168 153
142 169 153
142 170 153
142 171 153
142 172 153
142 173 153
142 174 153
142 175 153
142 176 153
142 177 153
142 178 153
142 179 153
142 180 153
142 181 153
142 182 153
142 183 153
142 184 153
142 185 153
142 186 153
142 187 153
142 188 153
142 189 153
142 190 153
142 191 153
142 192 153
142 193 153
142 194 153
142 195 153
142 196 153
142 197 153
142 198 153
142 199 153
142 200 153
142 201 153
142 202 153
142 203 153
142 204 153
142 205 153
142 206 153
142 207 153
142 208 153
142 209 153
142 210 153
142 211 153
142 212 153
142 213 153
142 214 153
142 215 153
142 216 153
142 217 153
142 218 153
142 219 153
142 220 153
142 221 153
142 222 153
142 223 153
142 224 153
142 225 153
142 226 153
142 227 153
142 228 153
142 229 153
142 230 153
142 231 153
142 232 153
142 233 153
142 234 153
142 235 153
142 236 153
142 237 153
142 238 153
142 239 153
142 240 153
142 241 153
142 242 153
142 243 153
142 244 153
142 245 153
142 246 153
142 247 153
142 248 153
142 249 153
142 250 153
142 251 153
142 252 153
142 253 153
142 254 153
142 255 153
143 0 153
143 1 153
143 2 153
143 3 153
143 4 153
143 5 153
143 6 153
143 7 153
143 8 153
143 9 153
143 10 153
143 11 153
143 12 153
143 13 153
143 14 153
143 15 153
143 16 153
143 17 153
143 18 153
143 19 153
143 20 153
143 21 153
143 22 153
143 23 153
143 24 153
143 25 153
143 26 153
143 27 153
143 28 153
143 29 153
143 30 153
143 31 153
143 32 153
143 33 153
143 34 153
143 35 153
143 36 153
143 37 153
143 38 153
143 39 153
143 40 153
143 41 153
143 42 153
143 43 153
143 44 153
143 45 153
143 46 153
143 47 153
143 48 153
143 49 153
143 50 153
143 51 153
143 52 153
143 53 153
143 54 153
143 55 153
143 56 153
143 57 153
143 58 153
143 59 153
143 60 153
143 61 153
143 62 153
143 63 153
143 64 153
143 65 153
143 66 153
143 67 153
143 68 153
143 69 153
143 70 153
143 71 153
143 72 153
143 73 153
143 74 153
143 75 153
143 76 153
143 77 153
143 78 153
143 79 153
143 80 153
143 81 153
143 82 153
143 83 153
143 84 153
143 85 153
143 86 153
143 87 153
143 88 153
143 89 153
143 90 153
143 91 153
143 92 153
143 93 153
143 94 153
143 95 153
143 96 153
143 97 153
143 98 153
143 99 153
143 100 153
143 101 153
143 102 153
143 103 153
143 104 153
143 105 153
143 106 153
143 107 153
143 108 153
143 109 153
143 110 153
143 111 153
143 112 153
143 113 153
143 114 153
143 115 153
143 116 153
143 117 153
143 118 153
143 119 153
143 120 153
143 121 153
143 122 153
143 123 153
143 124 153
143 125 153
143 126 153
143 127 153
143 128 153
143 129 153
143 130 153
143 131 153
143 132 153
143 133 153
143 134 153
143 135 153
143 136 153
143 137 153
143 138 153
143 139 153
143 140 153
143 141 153
143 142 153
143 143 153
143 144 153
143 145 153
143 146 153
143 147 153
143 148 153
143 149 153
143 150 153
143 151 153
143 152 153
143 153 153
143 154 153
143 155 153
143 156 153
143 157 153
143 158 153
143 159 153
143 160 153
143 161 153
143 162 153
143 163 153
143 164 153
143 165 153
143 166 153
143 167 153
143 168 153
143 169 153
143 170 153
143 171 153
143 172 153
143 173 153
143 174 153
143 175 153
143 176 153
143 177 153
143 178 153
143 179 153
143 180 153
143 181 153
143 182 153
143 183 153
143 184 153
143 185 153
143 186 153
143 187 153
143 188 153
143 189 153
143 190 153
143 191 153
143 192 153
143 193 153
143 194 153
143 195 153
143 196 153
143 197 153
143 198 153
143 199 153
143 200 153
143 201 153
143 202 153
143 203 153
143 204 153
143 205 153
143 206 153
143 207 153
143 208 153
143 209 153
143 210 153
143 211 153
143 212 153
143 213 153
143 214 153
143 215 153
143 216 153
143 217 153
143 218 153
143 219 153
143 220 153
143 221 153
143 222 153
143 223 153
143 224 153
143 225 153
143 226 153
143 227 153
143 228 153
143 229 153
143 230 153
143 231 153
143 232 153
143 233 153
143 234 153
143 235 153
143 236 153
143 237 153
143 238 153
143 239 153
143 240 153
143 241 153
143 242 153
143 243 153
143 244 153
143 245 153
143 246 153
143 247 153
143 248 153
143 249 153
143 250 153
143 251 153
143 252 153
143 253 153
143 254 153
143 255 153
144 0 153
144 1 153
144 2 153
144 3 153
144 4 153
144 5 153
144 6 153
144 7 153
144 8 153
144 9 153
144 10 153
144 11 153
144 12 153
144 13 153
144 14 153
144 15 153
144 16 153
144 17 153
144 18 153
144 19 153
144 20 153
144 21 153
144 22 153
144 23 153
144 24 153
144 25 153
144 26 153
144 27 153
144 28 153
144 29 153
144 30 153
144 31 153
144 32 153
144 33 153
144 34 153
144 35 153
144 36 153
144 37 153
144 38 153
144 39 153
144 40 153
144 41 153
144 42 153
144 43 153
144 44 153
144 45 153
144 46 153
144 47 153
144 48 153
144 49 153
144 50 153
144 51 153
144 52 153
144 53 153
144 54 153
144 55 153
144 56 153
144 57 153
144 58 153
144 59 153
144 60 153
144 61 153
144 62 153
144 63 153
144 64 153
144 65 153
144 66 153
144 67 153
144 68 153
144 69 153
144 70 153
144 71 153
144 72 153
144 73 153
144 74 153
144 75 153
144 76 153
144 77 153
144 78 153
144 79 153
144 80 153
144 81 153
144 82 153
144 83 153
144 84 153
144 85 153
144 86 153
144 87 153
144 88 153
144 89 153
144 90 153
144 91 153
144 92 153
144 93 153
144 94 153
144 95 153
144 96 153
144 97 153
144 98 153
144 99 153
144 100 153
144 101 153
144 102 153
144 103 153
144 104 153
144 105 153
144 106 153
144 107 153
144 108 153
144 109 153
144 110 153
144 111 153
144 112 153
144 113 153
144 114 153
144 115 153
144 116 153
144 117 153
144 118 153
144 119 153
144 120 153
144 121 153
144 122 153
144 123 153
144 124 153
144 125 153
144 126 153
144 127 153
144 128 153
144 129 153
144 130 153
144 131 153
144 132 153
144 133 153
144 134 153
144 135 153
144 136 153
144 137 153
144 138 153
144 139 153
144 140 153
144 141 153
144 142 153
144 143 153
144 144 153
144 145 153
144 146 153
144 147 153
144 148 153
144 149 153
144 150 153
144 151 153
144 152 153
144 153 153
144 154 153
144 155 153
144 156 153
144 157 153
144 158 153
144 159 153
144 160 153
144 161 153
144 162 153
144 163 153
144 164 153
144 165 153
144 166 153
144 167 153
144 168 153
144 169 153
144 170 153
144 171 153
144 172 153
144 173 153
144 174 153
144 175 153
144 176 153
144 177 153
144 178 153
144 179 153
144 180 153
144 181 153
144 182 153
144 183 153
144 184 153
144 185 153
144 186 153
144 187 153
144 188 153
144 189 153
144 190 153
144 191 153
144 192 153
144 193 153
144 194 153
144 195 153
144 196 153
144 197 153
144 198 153
144 199 153
144 200 153
144 201 153
144 202 153
144 203 153
144 204 153
144 205 153
144 206 153
144 207 153
144 208 153
144 209 153
144 210 153
144 211 153
144 212 153
144 213 153
144 214 153
144 215 153
144 216 153
144 217 153
144 218 153
144 219 153
144 220 153
144 221 153
144 222 153
144 223 153
144 224 153
144 225 153
144 226 153
144 227 153
144 228 153
144 229 153
144 230 153
144 231 153
144 232 153
144 233 153
144 234 153
144 235 153
144 236 153
144 237 153
144 238 153
144 239 153
144 240 153
144 241 153
144 242 153
144 243 153
144 244 153
144 245 153
144 246 153
144 247 153
144 248 153
144 249 153
144 250 153
144 251 153
144 252 153
144 253 153
144 254 153
144 255 153
145 0 153
145 1 153
145 2 153
145 3 153
145 4 153
145 5 153
145 6 153
145 7 153
145 8 153
145 9 153
145 10 153
145 11 153
145 12 153
145 13 153
145 14 153
145 15 153
145 16 153
145 17 153
145 18 153
145 19 153
145 20 153
145 21 153
145 22 153
145 23 153
145 24 153
145 25 153
145 26 153
145 27 153
145 28 153
145 29 153
145 30 153
145 31 153
145 32 153
145 33 153
145 34 153
145 35 153
145 36 153
145 37 153
145 38 153
145 39 153
145 40 153
145 41 153
145 42 153
145 43 153
145 44 153
145 45 153
145 46 153
145 47 153
145 48 153
145 49 153
145 50 153
145 51 153
145 52 153
145 53 153
145 54 153
145 55 153
145 56 153
145 57 153
145 58 153
145 59 153
145 60 153
145 61 153
145 62 153
145 63 153
145 64 153
145 65 153
145 66 153
145 67 153
145 68 153
145 69 153
145 70 153
145 71 153
145 72 153
145 73 153
145 74 153
145 75 153
145 76 153
145 77 153
145 78 153
145 79 153
145 80 153
145 81 153
145 82 153
145 83 153
145 84 153
145 85 153
145 86 153
145 87 153
145 88 153
145 89 153
145 90 153
145 91 153
145 92 153
145 93 153
145 94 153
145 95 153
145 96 153
145 97 153
145 98 153
145 99 153
145 100 153
145 101 153
145 102 153
145 103 153
145 104 153
145 105 153
145 106 153
145 107 153
145 108 153
145 109 153
145 110 153
145 111 153
145 112 153
145 113 153
145 114 153
145 115 153
145 116 153
145 117 153
145 118 153
145 119 153
145 120 153
145 121 153
145 122 153
145 123 153
145 124 153
145 125 153
145 126 153
145 127 153
145 128 153
145 129 153
145 130 153
145 131 153
145 132 153
145 133 153
145 134 153
145 135 153
145 136 153
145 137 153
145 138 153
145 139 153
145 140 153
145 141 153
145 142 153
145 143 153
145 144 153
145 145 153
145 146 153
145 147 153
145 148 153
145 149 153
145 150 153
145 151 153
145 152 153
145 153 153
145 154 153
145 155 153
145 156 153
145 157 153
145 158 153
145 159 153
145 160 153
145 161 153
145 162 153
145 163 153
145 164 153
145 165 153
145 166 153
145 167 153
145 168 153
145 169 153
145 170 153
145 171 153
145 172 153
145 173 153
145 174 153
145 175 153
145 176 153
145 177 153
145 178 153
145 179 153
145 180 153
145 181 153
145 182 153
145 183 153
145 184 153
145 185 153
145 186 153
145 187 153
145 188 153
145 189 153
145 190 153
145 191 153
145 192 153
145 193 153
145 194 153
145 195 153
145 196 153
145 197 153
145 198 153
145 199 153
145 200 153
145 201 153
145 202 153
145 203 153
145 204 153
145 205 153
145 206 153
145 207 153
145 208 153
145 209 153
145 210 153
145 211 153
145 212 153
145 213 153
145 214 153
145 215 153
145 216 153
145 217 153
145 218 153
145 219 153
145 220 153
145 221 153
145 222 153
145 223 153
145 224 153
145 225 153
145 226 153
145 227 153
145 228 153
145 229 153
145 230 153
145 231 153
145 232 153
145 233 153
145 234 153
145 235 153
145 236 153
145 237 153
145 238 153
145 239 153
145 240 153
145 241 153
145 242 153
145 243 153
145 244 153
145 245 153
145 246 153
145 247 153
145 248 153
145 249 153
145 250 153
145 251 153
145 252 153
145 253 153
145 254 153
145 255 153
146 0 153
146 1 153
146 2 153
146 3 153
146 4 153
146 5 153
146 6 153
146 7 153
146 8 153
146 9 153
146 10 153
146 11 153
146 12 153
146 13 153
146 14 153
146 15 153
146 16 153
146 17 153
146 18 153
146 19 153
146 20 153
146 21 153
146 22 153
146 23 153
146 24 153
146 25 153
146 26 153
146 27 153
146 28 153
146 29 153
146 30 153
146 31 153
146 32 153
146 33 153
146 34 153
146 35 153
146 36 153
146 37 153
146 38 153
146 39 153
146 40 153
146 41 153
146 42 153
146 43 153
146 44 153
146 45 153
146 46 153
146 47 153
146 48 153
146 49 153
146 50 153
146 51 153
146 52 153
146 53 153
146 54 153
146 55 153
146 56 153
146 57 153
146 58 153
146 59 153
146 60 153
146 61 153
146 62 153
146 63 153
146 64 153
146 65 153
146 66 153
146 67 153
146 68 153
146 69 153
146 70 153
146 71 153
146 72 153
146 73 153
146 74 153
146 75 153
146 76 153
146 77 153
146 78 153
146 79 153
146 80 153
146 81 153
146 82 153
146 83 153
146 84 153
146 85 153
146 86 153
146 87 153
146 88 153
146 89 153
146 90 153
146 91 153
146 92 153
146 93 153
146 94 153
146 95 153
146 96 153
146 97 153
146 98 153
146 99 153
146 100 153
146 101 153
146 102 153
146 103 153
146 104 153
146 105 153
146 106 153
146 107 153
146 108 153
146 109 153
146 110 153
146 111 153
146 112 153
146 113 153
146 114 153
146 115 153
146 116 153
146 117 153
146 118 153
146 119 153
146 120 153
146 121 153
146 122 153
146 123 153
146 124 153
146 125 153
146 126 153
146 127 153
146 128 153
146 129 153
146 130 153
146 131 153
146 132 153
146 133 153
146 134 153
146 135 153
146 136 153
146 137 153
146 138 153
146 139 153
146 140 153
146 141 153
146 142 153
146 143 153
146 144 153
146 145 153
146 146 153
146 147 153
146 148 153
146 149 153
146 150 153
146 151 153
146 152 153
146 153 153
146 154 153
146 155 153
146 156 153
146 157 153
146 158 153
146 159 153
146 160 153
146 161 153
146 162 153
146 163 153
146 164 153
146 165 153
146 166 153
146 167 153
146 168 153
146 169 153
146 170 153
146 171 153
146 172 153
146 173 153
146 174 153
146 175 153
146 176 153
146 177 153
146 178 153
146 179 153
146 180 153
146 181 153
146 182 153
146 183 153
146 184 153
146 185 153
146 186 153
146 187 153
146 188 153
146 189 153
146 190 153
146 191 153
146 192 153
146 193 153
146 194 153
146 195 153
146 196 153
146 197 153
146 198 153
146 199 153
146 200 153
146 201 153
146 202 153
146 203 153
146 204 153
146 205 153
146 206 153
146 207 153
146 208 153
146 209 153
146 210 153
146 211 153
146 212 153
146 213 153
146 214 153
146 215 153
146 216 153
146 217 153
146 218 153
146 219 153
146 220 153
146 221 153
146 222 153
146 223 153
146 224 153
146 225 153
146 226 153
146 227 153
146 228 153
146 229 153
146 230 153
146 231 153
146 232 153
146 233 153
146 234 153
146 235 153
146 236 153
146 237 153
146 238 153
146 239 153
146 240 153
146 241 153
146 242 153
146 243 153
146 244 153
146 245 153
146 246 153
146 247 153
146 248 153
146 249 153
146 250 153
146 251 153
146 252 153
146 253 153
146 254 153
146 255 153
147 0 153
147 1 153
147 2 153
147 3 153
147 4 153
147 5 153
147 6 153
147 7 153
147 8 153
147 9 153
147 10 153
147 11 153
147 12 153
147 13 153
147 14 153
147 15 153
147 16 153
147 17 153
147 18 153
147 19 153
147 20 153
147 21 153
147 22 153
147 23 153
147 24 153
147 25 153
147 26 153
147 27 153
147 28 153
147 29 153
147 30 153
147 31 153
147 32 153
147 33 153
147 34 153
147 35 153
147 36 153
147 37 153
147 38 153
147 39 153
147 40 153
147 41 153
147 42 153
147 43 153
147 44 153
147 45 153
147 46 153
147 47 153
147 48 153
147 49 153
147 50 153
147 51 153
147 52 153
147 53 153
147 54 153
147 55 153
147 56 153
147 57 153
147 58 153
147 59 153
147 60 153
147 61 153
147 62 153
147 63 153
147 64 153
147 65 153
147 66 153
147 67 153
147 68 153
147 69 153
147 70 153
147 71 153
147 72 153
147 73 153
147 74 153
147 75 153
147 76 153
147 77 153
147 78 153
147 79 153
147 80 153
147 81 153
147 82 153
147 83 153
147 84 153
147 85 153
147 86 153
147 87 153
147 88 153
147 89 153
147 90 153
147 91 153
147 92 153
147 93 153
147 94 153
147 95 153
147 96 153
147 97 153
147 98 153
147 99 153
147 100 153
147 101 153
147 102 153
147 103 153
147 104 153
147 105 153
147 106 153
147 107 153
147 108 153
147 109 153
147 110 153
147 111 153
147 112 153
147 113 153
147 114 153
147 115 153
147 116 153
147 117 153
147 118 153
147 119 153
147 120 153
147 121 153
147 122 153
147 123 153
147 124 153
147 125 153
147 126 153
147 127 153
147 128 153
147 129 153
147 130 153
147 131 153
147 132 153
147 133 153
147 134 153
147 135 153
147 136 153
147 137 153
147 138 153
147 139 153
147 140 153
147 141 153
147 142 153
147 143 153
147 144 153
147 145 153
147 146 153
147 147 153
147 148 153
147 149 153
147 150 153
147 151 153
147 152 153
147 153 153
147 154 153
147 155 153
147 156 153
147 157 153
147 158 153
147 159 153
147 160 153
147 161 153
147 162 153
147 163 153
147 164 153
147 165 153
147 166 153
147 167 153
147 168 153
147 169 153
147 170 153
147 171 153
147 172 153
147 173 153
147 174 153
147 175 153
147 176 153
147 177 153
147 178 153
147 179 153
147 180 153
147 181 153
147 182 153
147 183 153
147 184 153
147 185 153
147 186 153
147 187 153
147 188 153
147 189 153
147 190 153
147 191 153
147 192 153
147 193 153
147 194 153
147 195 153
147 196 153
147 197 153
147 198 153
147 199 153
147 200 153
147 201 153
147 202 153
147 203 153
147 204 153
147 205 153
147 206 153
147 207 153
147 208 153
147 209 153
147 210 153
147 211 153
147 212 153
147 213 153
147 214 153
147 215 153
147 216 153
147 217 153
147 218 153
147 219 153
147 220 153
147 221 153
147 222 153
147 223 153
147 224 153
147 225 153
147 226 153
147 227 153
147 228 153
147 229 153
147 230 153
147 231 153
147 232 153
147 233 153
147 234 153
147 235 153
147 236 153
147 237 153
147 238 153
147 239 153
147 240 153
147 241 153
147 242 153
147 243 153
147 244 153
147 245 153
147 246 153
147 247 153
147 248 153
147 249 153
147 250 153
147 251 153
147 252 153
147 253 153
147 254 153
147 255 153
148 0 153
148 1 153
148 2 153
148 3 153
148 4 153
148 5 153
148 6 153
148 7 153
148 8 153
148 9 153
148 10 153
148 11 153
148 12 153
148 13 153
148 14 153
148 15 153
148 16 153
148 17 153
148 18 153
148 19 153
148 20 153
148 21 153
148 22 153
148 23 153
148 24 153
148 25 153
148 26 153
148 27 153
148 28 153
148 29 153
148 30 153
148 31 153
148 32 153
148 33 153
148 34 153
148 35 153
148 36 153
148 37 153
148 38 153
148 39 153
148 40 153
148 41 153
148 42 153
148 43 153
148 44 153
148 45 153
148 46 153
148 47 153
148 48 153
148 49 153
148 50 153
148 51 153
148 52 153
148 53 153
148 54 153
148 55 153
148 56 153
148 57 153
148 58 153
148 59 153
148 60 153
148 61 153
148 62 153
148 63 153
148 64 153
148 65 153
148 66 153
148 67 153
148 68 153
148 69 153
148 70 153
148 71 153
148 72 153
148 73 153
148 74 153
148 75 153
148 76 153
148 77 153
148 78 153
148 79 153
148 80 153
148 81 153
148 82 153
148 83 153
148 84 153
148 85 153
148 86 153
148 87 153
148 88 153
148 89 153
148 90 153
148 91 153
148 92 153
148 93 153
148 94 153
148 95 153
148 96 153
148 97 153
148 98 153
148 99 153
148 100 153
148 101 153
148 102 153
148 103 153
148 104 153
148 105 153
148 106 153
148 107 153
148 108 153
148 109 153
148 110 153
148 111 153
148 112 153
148 113 153
148 114 153
148 115 153
148 116 153
148 117 153
148 118 153
148 119 153
148 120 153
148 121 153
148 122 153
148 123 153
148 124 153
148 125 153
148 126 153
148 127 153
148 128 153
148 129 153
148 130 153
148 131 153
148 132 153
148 133 153
148 134 153
148 135 153
148 136 153
148 137 153
148 138 153
148 139 153
148 140 153
148 141 153
148 142 153
148 143 153
148 144 153
148 145 153
148 146 153
148 147 153
148 148 153
148 149 153
148 150 153
148 151 153
148 152 153
148 153 153
148 154 153
148 155 153
148 156 153
148 157 153
148 158 153
148 159 153
148 160 153
148 161 153
148 162 153
148 163 153
148 164 153
148 165 153
148 166 153
148 167 153
148 168 153
148 169 153
148 170 153
148 171 153
148 172 153
148 173 153
148 174 153
148 175 153
148 176 153
148 177 153
148 178 153
148 179 153
148 180 153
148 181 153
148 182 153
148 183 153
148 184 153
148 185 153
148 186 153
148 187 153
148 188 153
148 189 153
148 190 153
148 191 153
148 192 153
148 193 153
148 194 153
148 195 153
148 196 153
148 197 153
148 198 153
148 199 153
148 200 153
148 201 153
148 202 153
148 203 153
148 204 153
148 205 153
148 206 153
148 207 153
148 208 153
148 209 153
148 210 153
148 211 153
148 212 153
148 213 153
148 214 153
148 215 153
148 216 153
148 217 153
148 218 153
148 219 153
148 220 153
148 221 153
148 222 153
148 223 153
148 224 153
148 225 153
148 226 153
148 227 153
148 228 153
148 229 153
148 230 153
148 231 153
148 232 153
148 233 153
148 234 153
148 235 153
148 236 153
148 237 153
148 238 153
148 239 153
148 240 153
148 241 153
148 242 153
148 243 153
148 244 153
148 245 153
148 246 153
148 247 153
148 248 153
148 249 153
148 250 153
148 251 153
148 252 153
148 253 153
148 254 153
148 255 153
149 0 153
149 1 153
149 2 153
149 3 153
149 4 153
149 5 153
149 6 153
149 7 153
149 8 153
149 9 153
149 10 153
149 11 153
149 12 153
149 13 153
149 14 153
149 15 153
149 16 153
149 17 153
149 18 153
149 19 153
149 20 153
149 21 153
149 22 153
149 23 153
149 24 153
149 25 153
149 26 153
149 27 153
149 28 153
149 29 153
149 30 153
149 31 153
149 32 153
149 33 153
149 34 153
149 35 153
149 36 153
149 37 153
149 38 153
149 39 153
149 40 153
149 41 153
149 42 153
149 43 153
149 44 153
149 45 153
149 46 153
149 47 153
149 48 153
149 49 153
149 50 153
149 51 153
149 52 153
149 53 153
149 54 153
149 55 153
149 56 153
149 57 153
149 58 153
149 59 153
149 60 153
149 61 153
149 62 153
149 63 153
149 64 153
149 65 153
149 66 153
149 67 153
149 68 153
149 69 153
149 70 153
149 71 153
149 72 153
149 73 153
149 74 153
149 75 153
149 76 153
149 77 153
149 78 153
149 79 153
149 80 153
149 81 153
149 82 153
149 83 153
149 84 153
149 85 153
149 86 153
149 87 153
149 88 153
149 89 153
149 90 153
149 91 153
149 92 153
149 93 153
149 94 153
149 95 153
149 96 153
149 97 153
149 98 153
149 99 153
149 100 153
149 101 153
149 102 153
149 103 153
149 104 153
149 105 153
149 106 153
149 107 153
149 108 153
149 109 153
149 110 153
149 111 153
149 112 153
149 113 153
149 114 153
149 115 153
149 116 153
149 117 153
149 118 153
149 119 153
149 120 153
149 121 153
149 122 153
149 123 153
149 124 153
149 125 153
149 126 153
149 127 153
149 128 153
149 129 153
149 130 153
149 131 153
149 132 153
149 133 153
149 134 153
149 135 153
149 136 153
149 137 153
149 138 153
149 139 153
149 140 153
149 141 153
149 142 153
149 143 153
149 144 153
149 145 153
149 146 153
149 147 153
149 148 153
149 149 153
149 150 153
149 151 153
149 152 153
149 153 153
149 154 153
149 155 153
149 156 153
149 157 153
149 158 153
149 159 153
149 160 153
149 161 153
149 162 153
149 163 153
149 164 153
149 165 153
149 166 153
149 167 153
149 168 153
149 169 153
149 170 153
149 171 153
149 172 153
149 173 153
149 174 153
149 175 153
149 176 153
149 177 153
149 178 153
149 179 153
149 180 153
149 181 153
149 182 153
149 183 153
149 184 153
149 185 153
149 186 153
149 187 153
149 188 153
149 189 153
149 190 153
149 191 153
149 192 153
149 193 153
149 194 153
149 195 153
149 196 153
149 197 153
149 198 153
149 199 153
149 200 153
149 201 153
149 202 153
149 203 153
149 204 153
149 205 153
149 206 153
149 207 153
149 208 153
149 209 153
149 210 153
149 211 153
149 212 153
149 213 153
149 214 153
149 215 153
149 216 153
149 217 153
149 218 153
149 219 153
149 220 153
149 221 153
149 222 153
149 223 153
149 224 153
149 225 153
149 226 153
149 227 153
149 228 153
149 229 153
149 230 153
149 231 153
149 232 153
149 233 153
149 234 153
149 235 153
149 236 153
149 237 153
149 238 153
149 239 153
149 240 153
149 241 153
149 242 153
149 243 153
149 244 153
149 245 153
149 246 153
149 247 153
149 248 153
149 249 153
149 250 153
149 251 153
149 252 153
149 253 153
149 254 153
149 255 153
150 0 153
150 1 153
150 2 153
150 3 153
150 4 153
150 5 153
150 6 153
150 7 153
150 8 153
150 9 153
150 10 153
150 11 153
150 12 153
150 13 153
150 14 153
150 15 153
150 16 153
150 17 153
150 18 153
150 19 153
150 20 153
150 21 153
150 22 153
150 23 153
150 24 153
150 25 153
150 26 153
150 27 153
150 28 153
150 29 153
150 30 153
150 31 153
150 32 153
150 33 153
150 34 153
150 35 153
150 36 153
150 37 153
150 38 153
150 39 153
150 40 153
150 41 153
150 42 153
150 43 153
150 44 153
150 45 153
150 46 153
150 47 153
150 48 153
150 49 153
150 50 153
150 51 153
150 52 153
150 53 153
150 54 153
150 55 153
150 56 153
150 57 153
150 58 153
150 59 153
150 60 153
150 61 153
150 62 153
150 63 153
150 64 153
150 65 153
150 66 153
150 67 153
150 68 153
150 69 153
150 70 153
150 71 153
150 72 153
150 73 153
150 74 153
150 75 153
150 76 153
150 77 153
150 78 153
150 79 153
150 80 153
150 81 153
150 82 153
150 83 153
150 84 153
150 85 153
150 86 153
150 87 153
150 88 153
150 89 153
150 90 153
150 91 153
150 92 153
150 93 153
150 94 153
150 95 153
150 96 153
150 97 153
150 98 153
150 99 153
150 100 153
150 101 153
150 102 153
150 103 153
150 104 153
150 105 153
150 106 153
150 107 153
150 108 153
150 109 153
150 110 153
150 111 153
150 112 153
150 113 153
150 114 153
150 115 153
150 116 153
150 117 153
150 118 153
150 119 153
150 120 153
150 121 153
150 122 153
150 123 153
150 124 153
150 125 153
150 126 153
150 127 153
150 128 153
150 129 153
150 130 153
150 131 153
150 132 153
150 133 153
150 134 153
150 135 153
150 136 153
150 137 153
150 138 153
150 139 153
150 140 153
150 141 153
150 142 153
150 143 153
150 144 153
150 145 153
150 146 153
150 147 153
150 148 153
150 149 153
150 150 153
150 151 153
150 152 153
150 153 153
150 154 153
150 155 153
150 156 153
150 157 153
150 158 153
150 159 153
150 160 153
150 161 153
150 162 153
150 163 153
150 164 153
150 165 153
150 166 153
150 167 153
150 168 153
150 169 153
150 170 153
150 171 153
150 172 153
150 173 153
150 174 153
150 175 153
150 176 153
150 177 153
150 178 153
150 179 153
150 180 153
150 181 153
150 182 153
150 183 153
150 184 153
150 185 153
150 186 153
150 187 153
150 188 153
150 189 153
150 190 153
150 191 153
150 192 153
150 193 153
150 194 153
150 195 153
150 196 153
150 197 153
150 198 153
150 199 153
150 200 153
150 201 153
150 202 153
150 203 153
150 204 153
150 205 153
150 206 153
150 207 153
150 208 153
150 209 153
150 210 153
150 211 153
150 212 153
150 213 153
150 214 153
150 215 153
150 216 153
150 217 153
150 218 153
150 219 153
150 220 153
150 221 153
150 222 153
150 223 153
150 224 153
150 225 153
150 226 153
150 227 153
150 228 153
150 229 153
150 230 153
150 231 153
150 232 153
150 233 153
150 234 153
150 235 153
150 236 153
150 237 153
150 238 153
150 239 153
150 240 153
150 241 153
150 242 153
150 243 153
150 244 153
150 245 153
150 246 153
150 247 153
150 248 153
150 249 153
150 250 153
150 251 153
150 252 153
150 253 153
150 254 153
150 255 153
151 0 153
151 1 153
151 2 153
151 3 153
151 4 153
151 5 153
151 6 153
151 7 153
151 8 153
151 9 153
151 10 153
151 11 153
151 12 153
151 13 153
151 14 153
151 15 153
151 16 153
151 17 153
151 18 153
151 19 153
151 20 153
151 21 153
151 22 153
151 23 153
151 24 153
151 25 153
151 26 153
151 27 153
151 28 153
151 29 153
151 30 153
151 31 153
151 32 153
151 33 153
151 34 153
151 35 153
151 36 153
151 37 153
151 38 153
151 39 153
151 40 153
151 41 153
151 42 153
151 43 153
151 44 153
151 45 153
151 46 153
151 47 153
151 48 153
151 49 153
151 50 153
151 51 153
151 52 153
151 53 153
151 54 153
151 55 153
151 56 153
151 57 153
151 58 153
151 59 153
151 60 153
151 61 153
151 62 153
151 63 153
151 64 153
151 65 153
151 66 153
151 67 153
151 68 153
151 69 153
151 70 153
151 71 153
151 72 153
151 73 153
151 74 153
151 75 153
151 76 153
151 77 153
151 78 153
151 79 153
151 80 153
151 81 153
151 82 153
151 83 153
151 84 153
151 85 153
151 86 153
151 87 153
151 88 153
151 89 153
151 90 153
151 91 153
151 92 153
151 93 153
151 94 153
151 95 153
151 96 153
151 97 153
151 98 153
151 99 153
151 100 153
151 101 153
151 102 153
151 103 153
151 104 153
151 105 153
151 106 153
151 107 153
151 108 153
151 109 153
151 110 153
151 111 153
151 112 153
151 113 153
151 114 153
151 115 153
151 116 153
151 117 153
151 118 153
151 119 153
151 120 153
151 121 153
151 122 153
151 123 153
151 124 153
151 125 153
151 126 153
151 127 153
151 128 153
151 129 153
151 130 153
151 131 153
151 132 153
151 133 153
151 134 153
151 135 153
151 136 153
151 137 153
151 138 153
151 139 153
151 140 153
151 141 153
151 142 153
151 143 153
151 144 153
151 145 153
151 146 153
151 147 153
151 148 153
151 149 153
151 150 153
151 151 153
151 152 153
151 153 153
151 154 153
151 155 153
151 156 153
151 157 153
151 158 153
151 159 153
151 160 153
151 161 153
151 162 153
151 163 153
151 164 153
151 165 153
151 166 153
151 167 153
151 168 153
151 169 153
151 170 153
151 171 153
151 172 153
151 173 153
151 174 153
151 175 153
151 176 153
151 177 153
151 178 153
151 179 153
151 180 153
151 181 153
151 182 153
151 183 153
151 184 153
151 185 153
151 186 153
151 187 153
151 188 153
151 189 153
151 190 153
151 191 153
151 192 153
151 193 153
151 194 153
151 195 153
151 196 153
151 197 153
151 198 153
151 199 153
151 200 153
151 201 153
151 202 153
151 203 153
151 204 153
151 205 153
151 206 153
151 207 153
151 208 153
151 209 153
151 210 153
151 211 153
151 212 153
151 213 153
151 214 153
151 215 153
151 216 153
151 217 153
151 218 153
151 219 153
151 220 153
151 221 153
151 222 153
151 223 153
151 224 153
151 225 153
151 226 153
151 227 153
151 228 153
151 229 153
151 230 153
151 231 153
151 232 153
151 233 153
151 234 153
151 235 153
151 236 153
151 237 153
151 238 153
151 239 153
151 240 153
151 241 153
151 242 153
151 243 153
151 244 153
151 245 153
151 246 153
151 247 153
151 248 153
151 249 153
151 250 153
151 251 153
151 252 153
151 253 153
151 254 153
151 255 153
152 0 153
152 1 153
152 2 153
152 3 153
152 4 153
152 5 153
152 6 153
152 7 153
152 8 153
152 9 153
152 10 153
152 11 153
152 12 153
152 13 153
152 14 153
152 15 153
152 16 153
152 17 153
152 18 153
152 19 153
152 20 153
152 21 153
152 22 153
152 23 153
152 24 153
152 25 153
152 26 153
152 27 153
152 28 153
152 29 153
152 30 153
152 31 153
152 32 153
152 33 153
152 34 153
152 35 153
152 36 153
152 37 153
152 38 153
152 39 153
152 40 153
152 41 153
152 42 153
152 43 153
152 44 153
152 45 153
152 46 153
152 47 153
152 48 153
152 49 153
152 50 153
152 51 153
152 52 153
152 53 153
152 54 153
152 55 153
152 56 153
152 57 153
152 58 153
152 59 153
152 60 153
152 61 153
152 62 153
152 63 153
152 64 153
152 65 153
152 66 153
152 67 153
152 68 153
152 69 153
152 70 153
152 71 153
152 72 153
152 73 153
152 74 153
152 75 153
152 76 153
152 77 153
152 78 153
152 79 153
152 80 153
152 81 153
152 82 153
152 83 153
152 84 153
152 85 153
152 86 153
152 87 153
152 88 153
152 89 153
152 90 153
152 91 153
152 92 153
152 93 153
152 94 153
152 95 153
152 96 153
152 97 153
152 98 153
152 99 153
152 100 153
152 101 153
152 102 153
152 103 153
152 104 153
152 105 153
152 106 153
152 107 153
152 108 153
152 109 153
152 110 153
152 111 153
152 112 153
152 113 153
152 114 153
152 115 153
152 116 153
152 117 153
152 118 153
152 119 153
152 120 153
152 121 153
152 122 153
152 123 153
152 124 153
152 125 153
152 126 153
152 127 153
152 128 153
152 129 153
152 130 153
152 131 153
152 132 153
152 133 153
152 134 153
152 135 153
152 136 153
152 137 153
152 138 153
152 139 153
152 140 153
152 141 153
152 142 153
152 143 153
152 144 153
152 145 153
152 146 153
152 147 153
152 148 153
152 149 153
152 150 153
152 151 153
152 152 153
152 153 153
152 154 153
152 155 153
152 156 153
152 157 153
152 158 153
152 159 153
152 160 153
152 161 153
152 162 153
152 163 153
152 164 153
152 165 153
152 166 153
152 167 153
152 168 153
152 169 153
152 170 153
152 171 153
152 172 153
152 173 153
152 174 153
152 175 153
152 176 153
152 177 153
152 178 153
152 179 153
152 180 153
152 181 153
152 182 153
152 183 153
152 184 153
152 185 153
152 186 153
152 187 153
152 188 153
152 189 153
152 190 153
152 191 153
152 192 153
152 193 153
152 194 153
152 195 153
152 196 153
152 197 153
152 198 153
152 199 153
152 200 153
152 201 153
152 202 153
152 203 153
152 204 153
152 205 153
152 206 153
152 207 153
152 208 153
152 209 153
152 210 153
152 211 153
152 212 153
152 213 153
152 214 153
152 215 153
152 216 153
152 217 153
152 218 153
152 219 153
152 220 153
152 221 153
152 222 153
152 223 153
152 224 153
152 225 153
152 226 153
152 227 153
152 228 153
152 229 153
152 230 153
152 231 153
152 232 153
152 233 153
152 234 153
152 235 153
152 236 153
152 237 153
152 238 153
152 239 153
152 240 153
152 241 153
152 242 153
152 243 153
152 244 153
152 245 153
152 246 153
152 247 153
152 248 153
152 249 153
152 250 153
152 251 153
152 252 153
152 253 153
152 254 153
152 255 153
153 0 153
153 1 153
153 2 153
153 3 153
153 4 153
153 5 153
153 6 153
153 7 153
153 8 153
153 9 153
153 10 153
153 11 153
153 12 153
153 13 153
153 14 153
153 15 153
153 16 153
153 17 153
153 18 153
153 19 153
153 20 153
153 21 153
153 22 153
153 23 153
153 24 153
153 25 153
153 26 153
153 27 153
153 28 153
153 29 153
153 30 153
153 31 153
153 32 153
153 33 153
153 34 153
153 35 153
153 36 153
153 37 153
153 38 153
153 39 153
153 40 153
153 41 153
153 42 153
153 43 153
153 44 153
153 45 153
153 46 153
153 47 153
153 48 153
153 49 153
153 50 153
153 51 153
153 52 153
153 53 153
153 54 153
153 55 153
153 56 153
153 57 153
153 58 153
153 59 153
153 60 153
153 61 153
153 62 153
153 63 153
153 64 153
153 65 153
153 66 153
153 67 153
153 68 153
153 69 153
153 70 153
153 71 153
153 72 153
153 73 153
153 74 153
153 75 153
153 76 153
153 77 153
153 78 153
153 79 153
153 80 153
153 81 153
153 82 153
153 83 153
153 84 153
153 85 153
153 86 153
153 87 153
153 88 153
153 89 153
153 90 153
153 91 153
153 92 153
153 93 153
153 94 153
153 95 153
153 96 153
153 97 153
153 98 153
153 99 153
153 100 153
153 101 153
153 102 153
153 103 153
153 104 153
153 105 153
153 106 153
153 107 153
153 108 153
153 109 153
153 110 153
153 111 153
153 112 153
153 113 153
153 114 153
153 115 153
153 116 153
153 117 153
153 118 153
153 119 153
153 120 153
153 121 153
153 122 153
153 123 153
153 124 153
153 125 153
153 126 153
153 127 153
153 128 153
153 129 153
153 130 153
153 131 153
153 132 153
153 133 153
153 134 153
153 135 153
153 136 153
153 137 153
153 138 153
153 139 153
153 140 153
153 141 153
153 142 153
153 143 153
153 144 153
153 145 153
153 146 153
153 147 153
153 148 153
153 149 153
153 150 153
153 151 153
153 152 153
153 153 153
153 154 153
153 155 153
153 156 153
153 157 153
153 158 153
153 159 153
153 160 153
153 161 153
153 162 153
153 163 153
153 164 153
153 165 153
153 166 153
153 167 153
153 168 153
153 169 153
153 170 153
153 171 153
153 172 153
153 173 153
153 174 153
153 175 153
153 176 153
153 177 153
153 178 153
153 179 153
153 180 153
153 181 153
153 182 153
153 183 153
153 184 153
153 185 153
153 186 153
153 187 153
153 188 153
153 189 153
153 190 153
153 191 153
153 192 153
153 193 153
153 194 153
153 195 153
153 196 153
153 197 153
153 198 153
153 199 153
153 200 153
153 201 153
153 202 153
153 203 153
153 204 153
153 205 153
153 206 153
153 207 153
153 208 153
153 209 153
153 210 153
153 211 153
153 212 153
153 213 153
153 214 153
153 215 153
153 216 153
153 217 153
153 218 153
153 219 153
153 220 153
153 221 153
153 222 153
153 223 153
153 224 153
153 225 153
153 226 153
153 227 153
153 228 153
153 229 153
153 230 153
153 231 153
153 232 153
153 233 153
153 234 153
153 235 153
153 236 153
153 237 153
153 238 153
153 239 153
153 240 153
153 241 153
153 242 153
153 243 153
153 244 153
153 245 153
153 246 153
153 247 153
153 248 153
153 249 153
153 250 153
153 251 153
153 252 153
153 253 153
153 254 153
153 255 153
154 0 153
154 1 153
154 2 153
154 3 153
154 4 153
154 5 153
154 6 153
154 7 153
154 8 153
154 9 153
154 10 153
154 11 153
154 12 153
154 13 153
154 14 153
154 15 153
154 16 153
154 17 153
154 18 153
154 19 153
154 20 153
154 21 153
154 22 153
154 23 153
154 24 153
154 25 153
154 26 153
154 27 153
154 28 153
154 29 153
154 30 153
154 31 153
154 32 153
154 33 153
154 34 153
154 35 153
154 36 153
154 37 153
154 38 153
154 39 153
154 40 153
154 41 153
154 42 153
154 43 153
154 44 153
154 45 153
154 46 153
154 47 153
154 48 153
154 49 153
154 50 153
154 51 153
154 52 153
154 53 153
154 54 153
154 55 153
154 56 153
154 57 153
154 58 153
154 59 153
154 60 153
154 61 153
154 62 153
154 63 153
154 64 153
154 65 153
154 66 153
154 67 153
154 68 153
154 69 153
154 70 153
154 71 153
154 72 153
154 73 153
154 74 153
154 75 153
154 76 153
154 77 153
154 78 153
154 79 153
154 80 153
154 81 153
154 82 153
154 83 153
154 84 153
154 85 153
154 86 153
154 87 153
154 88 153
154 89 153
154 90 153
154 91 153
154 92 153
154 93 153
154 94 153
154 95 153
154 96 153
154 97 153
154 98 153
154 99 153
154 100 153
154 101 153
154 102 153
154 103 153
154 104 153
154 105 153
154 106 153
154 107 153
154 108 153
154 109 153
154 110 153
154 111 153
154 112 153
154 113 153
154 114 153
154 115 153
154 116 153
154 117 153
154 118 153
154 119 153
154 120 153
154 121 153
154 122 153
154 123 153
154 124 153
154 125 153
154 126 153
154 127 153
154 128 153
154 129 153
154 130 153
154 131 153
154 132 153
154 133 153
154 134 153
154 135 153
154 136 153
154 137 153
154 138 153
154 139 153
154 140 153
154 141 153
154 142 153
154 143 153
154 144 153
154 145 153
154 146 153
154 147 153
154 148 153
154 149 153
154 150 153
154 151 153
154 152 153
154 153 153
154 154 153
154 155 153
154 156 153
154 157 153
154 158 153
154 159 153
154 160 153
154 161 153
154 162 153
154 163 153
154 164 153
154 165 153
154 166 153
154 167 153
154 168 153
154 169 153
154 170 153
154 171 153
154 172 153
154 173 153
154 174 153
154 175 153
154 176 153
154 177 153
154 178 153
154 179 153
154 180 153
154 181 153
154 182 153
154 183 153
154 184 153
154 185 153
154 186 153
154 187 153
154 188 153
154 189 153
154 190 153
154 191 153
154 192 153
154 193 153
154 194 153
154 195 153
154 196 153
154 197 153
154 198 153
154 199 153
154 200 153
154 201 153
154 202 153
154 203 153
154 204 153
154 205 153
154 206 153
154 207 153
154 208 153
154 209 153
154 210 153
154 211 153
154 212 153
154 213 153
154 214 153
154 215 153
154 216 153
154 217 153
154 218 153
154 219 153
154 220 153
154 221 153
154 222 153
154 223 153
154 224 153
154 225 153
154 226 153
154 227 153
154 228 153
154 229 153
154 230 153
154 231 153
154 232 153
154 233 153
154 234 153
154 235 153
154 236 153
154 237 153
154 238 153
154 239 153
154 240 153
154 241 153
154 242 153
154 243 153
154 244 153
154 245 153
154 246 153
154 247 153
154 248 153
154 249 153
154 250 153
154 251 153
154 252 153
154 253 153
154 254 153
154 255 153
155 0 153
155 1 153
155 2 153
155 3 153
155 4 153
155 5 153
155 6 153
155 7 153
155 8 153
155 9 153
155 10 153
155 11 153
155 12 153
155 13 153
155 14 153
155 15 153
155 16 153
155 17 153
155 18 153
155 19 153
155 20 153
155 21 153
155 22 153
155 23 153
155 24 153
155 25 153
155 26 153
155 27 153
155 28 153
155 29 153
155 30 153
155 31 153
155 32 153
155 33 153
155 34 153
155 35 153
155 36 153
155 37 153
155 38 153
155 39 153
155 40 153
155 41 153
155 42 153
155 43 153
155 44 153
155 45 153
155 46 153
155 47 153
155 48 153
155 49 153
155 50 153
155 51 153
155 52 153
155 53 153
155 54 153
155 55 153
155 56 153
155 57 153
155 58 153
155 59 153
155 60 153
155 61 153
155 62 153
155 63 153
155 64 153
155 65 153
155 66 153
155 67 153
155 68 153
155 69 153
155 70 153
155 71 153
155 72 153
155 73 153
155 74 153
155 75 153
155 76 153
155 77 153
155 78 153
155 79 153
155 80 153
155 81 153
155 82 153
155 83 153
155 84 153
155 85 153
155 86 153
155 87 153
155 88 153
155 89 153
155 90 153
155 91 153
155 92 153
155 93 153
155 94 153
155 95 153
155 96 153
155 97 153
155 98 153
155 99 153
155 100 153
155 101 153
155 102 153
155 103 153
155 104 153
155 105 153
155 106 153
155 107 153
155 108 153
155 109 153
155 110 153
155 111 153
155 112 153
155 113 153
155 114 153
155 115 153
155 116 153
155 117 153
155 118 153
155 119 153
155 120 153
155 121 153
155 122 153
155 123 153
155 124 153
155 125 153
155 126 153
155 127 153
155 128 153
155 129 153
155 130 153
155 131 153
155 132 153
155 133 153
155 134 153
155 135 153
155 136 153
155 137 153
155 138 153
155 139 153
155 140 153
155 141 153
155 142 153
155 143 153
155 144 153
155 145 153
155 146 153
155 147 153
155 148 153
155 149 153
155 150 153
155 151 153
155 152 153
155 153 153
155 154 153
155 155 153
155 156 153
155 157 153
155 158 153
155 159 153
155 160 153
155 161 153
155 162 153
155 163 153
155 164 153
155 165 153
155 166 153
155 167 153
155 168 153
155 169 153
155 170 153
155 171 153
155 172 153
155 173 153
155 174 153
155 175 153
155 176 153
155 177 153
155 178 153
155 179 153
155 180 153
155 181 153
155 182 153
155 183 153
155 184 153
155 185 153
155 186 153
155 187 153
155 188 153
155 189 153
155 190 153
155 191 153
155 192 153
155 193 153
155 194 153
155 195 153
155 196 153
155 197 153
155 198 153
155 199 153
155 200 153
155 201 153
155 202 153
155 203 153
155 204 153
155 205 153
155 206 153
155 207 153
155 208 153
155 209 153
155 210 153
155 211 153
155 212 153
155 213 153
155 214 153
155 215 153
155 216 153
155 217 153
155 218 153
155 219 153
155 220 153
155 221 153
155 222 153
155 223 153
155 224 153
155 225 153
155 226 153
155 227 153
155 228 153
155 229 153
155 230 153
155 231 153
155 232 153
155 233 153
155 234 153
155 235 153
155 236 153
155 237 153
155 238 153
155 239 153
155 240 153
155 241 153
155 242 153
155 243 153
155 244 153
155 245 153
155 246 153
155 247 153
155 248 153
155 249 153
155 250 153
155 251 153
155 252 153
155 253 153
155 254 153
155 255 153
156 0 153
156 1 153
156 2 153
156 3 153
156 4 153
156 5 153
156 6 153
156 7 153
156 8 153
156 9 153
156 10 153
156 11 153
156 12 153
156 13 153
156 14 153
156 15 153
156 16 153
156 17 153
156 18 153
156 19 153
156 20 153
156 21 153
156 22 153
156 23 153
156 24 153
156 25 153
156 26 153
156 27 153
156 28 153
156 29 153
156 30 153
156 31 153
156 32 153
156 33 153
156 34 153
156 35 153
156 36 153
156 37 153
156 38 153
156 39 153
156 40 153
156 41 153
156 42 153
156 43 153
156 44 153
156 45 153
156 46 153
156 47 153
156 48 153
156 49 153
156 50 153
156 51 153
156 52 153
156 53 153
156 54 153
156 55 153
156 56 153
156 57 153
156 58 153
156 59 153
156 60 153
156 61 153
156 62 153
156 63 153
156 64 153
156 65 153
156 66 153
156 67 153
156 68 153
156 69 153
156 70 153
156 71 153
156 72 153
156 73 153
156 74 153
156 75 153
156 76 153
156 77 153
156 78 153
156 79 153
156 80 153
156 81 153
156 82 153
156 83 153
156 84 153
156 85 153
156 86 153
156 87 153
156 88 153
156 89 153
156 90 153
156 91 153
156 92 153
156 93 153
156 94 153
156 95 153
156 96 153
156 97 153
156 98 153
156 99 153
156 100 153
156 101 153
156 102 153
156 103 153
156 104 153
156 105 153
156 106 153
156 107 153
156 108 153
156 109 153
156 110 153
156 111 153
156 112 153
156 113 153
156 114 153
156 115 153
156 116 153
156 117 153
156 118 153
156 119 153
156 120 153
156 121 153
156 122 153
156 123 153
156 124 153
156 125 153
156 126 153
156 127 153
156 128 153
156 129 153
156 130 153
156 131 153
156 132 153
156 133 153
156 134 153
156 135 153
156 136 153
156 137 153
156 138 153
156 139 153
156 140 153
156 141 153
156 142 153
156 143 153
156 144 153
156 145 153
156 146 153
156 147 153
156 148 153
156 149 153
156 150 153
156 151 153
156 152 153
156 153 153
156 154 153
156 155 153
156 156 153
156 157 153
156 158 153
156 159 153
156 160 153
156 161 153
156 162 153
156 163 153
156 164 153
156 165 153
156 166 153
156 167 153
156 168 153
156 169 153
156 170 153
156 171 153
156 172 153
156 173 153
156 174 153
156 175 153
156 176 153
156 177 153
156 178 153
156 179 153
156 180 153
156 181 153
156 182 153
156 183 153
156 184 153
156 185 153
156 186 153
156 187 153
156 188 153
156 189 153
156 190 153
156 191 153
156 192 153
156 193 153
156 194 153
156 195 153
156 196 153
156 197 153
156 198 153
156 199 153
156 200 153
156 201 153
156 202 153
156 203 153
156 204 153
156 205 153
156 206 153
156 207 153
156 208 153
156 209 153
156 210 153
156 211 153
156 212 153
156 213 153
156 214 153
156 215 153
156 216 153
156 217 153
156 218 153
156 219 153
156 220 153
156 221 153
156 222 153
156 223 153
156 224 153
156 225 153
156 226 153
156 227 153
156 228 153
156 229 153
156 230 153
156 231 153
156 232 153
156 233 153
156 234 153
156 235 153
156 236 153
156 237 153
156 238 153
156 239 153
156 240 153
156 241 153
156 242 153
156 243 153
156 244 153
156 245 153
156 246 153
156 247 153
156 248 153
156 249 153
156 250 153
156 251 153
156 252 153
156 253 153
156 254 153
156 255 153
157 0 153
157 1 153
157 2 153
157 3 153
157 4 153
157 5 153
157 6 153
157 7 153
157 8 153
157 9 153
157 10 153
157 11 153
157 12 153
157 13 153
157 14 153
157 15 153
157 16 153
157 17 153
157 18 153
157 19 153
157 20 153
157 21 153
157 22 153
157 23 153
157 24 153
157 25 153
157 26 153
157 27 153
157 28 153
157 29 153
157 30 153
157 31 153
157 32 153
157 33 153
157 34 153
157 35 153
157 36 153
157 37 153
157 38 153
157 39 153
157 40 153
157 41 153
157 42 153
157 43 153
157 44 153
157 45 153
157 46 153
157 47 153
157 48 153
157 49 153
157 50 153
157 51 153
157 52 153
157 53 153
157 54 153
157 55 153
157 56 153
157 57 153
157 58 153
157 59 153
157 60 153
157 61 153
157 62 153
157 63 153
157 64 153
157 65 153
157 66 153
157 67 153
157 68 153
157 69 153
157 70 153
157 71 153
157 72 153
157 73 153
157 74 153
157 75 153
157 76 153
157 77 153
157 78 153
157 79 153
157 80 153
157 81 153
157 82 153
157 83 153
157 84 153
157 85 153
157 86 153
157 87 153
157 88 153
157 89 153
157 90 153
157 91 153
157 92 153
157 93 153
157 94 153
157 95 153
157 96 153
157 97 153
157 98 153
157 99 153
157 100 153
157 101 153
157 102 153
157 103 153
157 104 153
157 105 153
157 106 153
157 107 153
157 108 153
157 109 153
157 110 153
157 111 153
157 112 153
157 113 153
157 114 153
157 115 153
157 116 153
157 117 153
157 118 153
157 119 153
157 120 153
157 121 153
157 122 153
157 123 153
157 124 153
157 125 153
157 126 153
157 127 153
157 128 153
157 129 153
157 130 153
157 131 153
157 132 153
157 133 153
157 134 153
157 135 153
157 136 153
157 137 153
157 138 153
157 139 153
157 140 153
157 141 153
157 142 153
157 143 153
157 144 153
157 145 153
157 146 153
157 147 153
157 148 153
157 149 153
157 150 153
157 151 153
157 152 153
157 153 153
157 154 153
157 155 153
157 156 153
157 157 153
157 158 153
157 159 153
157 160 153
157 161 153
157 162 153
157 163 153
157 164 153
157 165 153
157 166 153
157 167 153
157 168 153
157 169 153
157 170 153
157 171 153
157 172 153
157 173 153
157 174 153
157 175 153
157 176 153
157 177 153
157 178 153
157 179 153
157 180 153
157 181 153
157 182 153
157 183 153
157 184 153
157 185 153
157 186 153
157 187 153
157 188 153
157 189 153
157 190 153
157 191 153
157 192 153
157 193 153
157 194 153
157 195 153
157 196 153
157 197 153
157 198 153
157 199 153
157 200 153
157 201 153
157 202 153
157 203 153
157 204 153
157 205 153
157 206 153
157 207 153
157 208 153
157 209 153
157 210 153
157 211 153
157 212 153
157 213 153
157 214 153
157 215 153
157 216 153
157 217 153
157 218 153
157 219 153
157 220 153
157 221 153
157 222 153
157 223 153
157 224 153
157 225 153
157 226 153
157 227 153
157 228 153
157 229 153
157 230 153
157 231 153
157 232 153
157 233 153
157 234 153
157 235 153
157 236 153
157 237 153
157 238 153
157 239 153
157 240 153
157 241 153
157 242 153
157 243 153
157 244 153
157 245 153
157 246 153
157 247 153
157 248 153
157 249 153
157 250 153
157 251 153
157 252 153
157 253 153
157 254 153
157 255 153
158 0 153
158 1 153
158 2 153
158 3 153
158 4 153
158 5 153
158 6 153
158 7 153
158 8 153
158 9 153
158 10 153
158 11 153
158 12 153
158 13 153
158 14 153
158 15 153
158 16 153
158 17 153
158 18 153
158 19 153
158 20 153
158 21 153
158 22 153
158 23 153
158 24 153
158 25 153
158 26 153
158 27 153
158 28 153
158 29 153
158 30 153
158 31 153
158 32 153
158 33 153
158 34 153
158 35 153
158 36 153
158 37 153
158 38 153
158 39 153
158 40 153
158 41 153
158 42 153
158 43 153
158 44 153
158 45 153
158 46 153
158 47 153
158 48 153
158 49 153
158 50 153
158 51 153
158 52 153
158 53 153
158 54 153
158 55 153
158 56 153
158 57 153
158 58 153
158 59 153
158 60 153
158 61 153
158 62 153
158 63 153
158 64 153
158 65 153
158 66 153
158 67 153
158 68 153
158 69 153
158 70 153
158 71 153
158 72 153
158 73 153
158 74 153
158 75 153
158 76 153
158 77 153
158 78 153
158 79 153
158 80 153
158 81 153
158 82 153
158 83 153
158 84 153
158 85 153
158 86 153
158 87 153
158 88 153
158 89 153
158 90 153
158 91 153
158 92 153
158 93 153
158 94 153
158 95 153
158 96 153
158 97 153
158 98 153
158 99 153
158 100 153
158 101 153
158 102 153
158 103 153
158 104 153
158 105 153
158 106 153
158 107 153
158 108 153
158 109 153
158 110 153
158 111 153
158 112 153
158 113 153
158 114 153
158 115 153
158 116 153
158 117 153
158 118 153
158 119 153
158 120 153
158 121 153
158 122 153
158 123 153
158 124 153
158 125 153
158 126 153
158 127 153
158 128 153
158 129 153
158 130 153
158 131 153
158 132 153
158 133 153
158 134 153
158 135 153
158 136 153
158 137 153
158 138 153
158 139 153
158 140 153
158 141 153
158 142 153
158 143 153
158 144 153
158 145 153
158 146 153
158 147 153
158 148 153
158 149 153
158 150 153
158 151 153
158 152 153
158 153 153
158 154 153
158 155 153
158 156 153
158 157 153
158 158 153
158 159 153
158 160 153
158 161 153
158 162 153
158 163 153
158 164 153
158 165 153
158 166 153
158 167 153
158 168 153
158 169 153
158 170 153
158 171 153
158 172 153
158 173 153
158 174 153
158 175 153
158 176 153
158 177 153
158 178 153
158 179 153
158 180 153
158 181 153
158 182 153
158 183 153
158 184 153
158 185 153
158 186 153
158 187 153
158 188 153
158 189 153
158 190 153
158 191 153
158 192 153
158 193 153
158 194 153
158 195 153
158 196 153
158 197 153
158 198 153
158 199 153
158 200 153
158 201 153
158 202 153
158 203 153
158 204 153
158 205 153
158 206 153
158 207 153
158 208 153
158 209 153
158 210 153
158 211 153
158 212 153
158 213 153
158 214 153
158 215 153
158 216 153
158 217 153
158 218 153
158 219 153
158 220 153
158 221 153
158 222 153
158 223 153
158 224 153
158 225 153
158 226 153
158 227 153
158 228 153
158 229 153
158 230 153
158 231 153
158 232 153
158 233 153
158 234 153
158 235 153
158 236 153
158 237 153
158 238 153
158 239 153
158 240 153
158 241 153
158 242 153
158 243 153
158 244 153
158 245 153
158 246 153
158 247 153
158 248 153
158 249 153
158 250 153
158 251 153
158 252 153
158 253 153
158 254 153
158 255 153
159 0 153
159 1 153
159 2 153
159 3 153
159 4 153
159 5 153
159 6 153
159 7 153
159 8 153
159 9 153
159 10 153
159 11 153
159 12 153
159 13 153
159 14 153
159 15 153
159 16 153
159 17 153
159 18 153
159 19 153
159 20 153
159 21 153
159 22 153
159 23 153
159 24 153
159 25 153
159 26 153
159 27 153
159 28 153
159 29 153
159 30 153
159 31 153
159 32 153
159 33 153
159 34 153
159 35 153
159 36 153
159 37 153
159 38 153
159 39 153
159 40 153
159 41 153
159 42 153
159 43 153
159 44 153
159 45 153
159 46 153
159 47 153
159 48 153
159 49 153
159 50 153
159 51 153
159 52 153
159 53 153
159 54 153
159 55 153
159 56 153
159 57 153
159 58 153
159 59 153
159 60 153
159 61 153
159 62 153
159 63 153
159 64 153
159 65 153
159 66 153
159 67 153
159 68 153
159 69 153
159 70 153
159 71 153
159 72 153
159 73 153
159 74 153
159 75 153
159 76 153
159 77 153
159 78 153
159 79 153
159 80 153
159 81 153
159 82 153
159 83 153
159 84 153
159 85 153
159 86 153
159 87 153
159 88 153
159 89 153
159 90 153
159 91 153
159 92 153
159 93 153
159 94 153
159 95 153
159 96 153
159 97 153
159 98 153
159 99 153
159 100 153
159 101 153
159 102 153
159 103 153
159 104 153
159 105 153
159 106 153
159 107 153
159 108 153
159 109 153
159 110 153
159 111 153
159 112 153
159 113 153
159 114 153
159 115 153
159 116 153
159 117 153
159 118 153
159 119 153
159 120 153
159 121 153
159 122 153
159 123 153
159 124 153
159 125 153
159 126 153
159 127 153
159 128 153
159 129 153
159 130 153
159 131 153
159 132 153
159 133 153
159 134 153
159 135 153
159 136 153
159 137 153
159 138 153
159 139 153
159 140 153
159 141 153
159 142 153
159 143 153
159 144 153
159 145 153
159 146 153
159 147 153
159 148 153
159 149 153
159 150 153
159 151 153
159 152 153
159 153 153
159 154 153
159 155 153
159 156 153
159 157 153
159 158 153
159 159 153
159 160 153
159 161 153
159 162 153
159 163 153
159 164 153
159 165 153
159 166 153
159 167 153
159 168 153
159 169 153
159 170 153
159 171 153
159 172 153
159 173 153
159 174 153
159 175 153
159 176 153
159 177 153
159 178 153
159 179 153
159 180 153
159 181 153
159 182 153
159 183 153
159 184 153
159 185 153
159 186 153
159 187 153
159 188 153
159 189 153
159 190 153
159 191 153
159 192 153
159 193 153
159 194 153
159 195 153
159 196 153
159 197 153
159 198 153
159 199 153
159 200 153
159 201 153
159 202 153
159 203 153
159 204 153
159 205 153
159 206 153
159 207 153
159 208 153
159 209 153
159 210 153
159 211 153
159 212 153
159 213 153
159 214 153
159 215 153
159 216 153
159 217 153
159 218 153
159 219 153
159 220 153
159 221 153
159 222 153
159 223 153
159 224 153
159 225 153
159 226 153
159 227 153
159 228 153
159 229 153
159 230 153
159 231 153
159 232 153
159 233 153
159 234 153
159 235 153
159 236 153
159 237 153
159 238 153
159 239 153
159 240 153
159 241 153
159 242 153
159 243 153
159 244 153
159 245 153
159 246 153
159 247 153
159 248 153
159 249 153
159 250 153
159 251 153
159 252 153
159 253 153
159 254 153
159 255 153
160 0 153
160 1 153
160 2 153
160 3 153
160 4 153
160 5 153
160 6 153
160 7 153
160 8 153
160 9 153
160 10 153
160 11 153
160 12 153
160 13 153
160 14 153
160 15 153
160 16 153
160 17 153
160 18 153
160 19 153
160 20 153
160 21 153
160 22 153
160 23 153
160 24 153
160 25 153
160 26 153
160 27 153
160 28 153
160 29 153
160 30 153
160 31 153
160 32 153
160 33 153
160 34 153
160 35 153
160 36 153
160 37 153
160 38 153
160 39 153
160 40 153
160 41 153
160 42 153
160 43 153
160 44 153
160 45 153
160 46 153
160 47 153
160 48 153
160 49 153
160 50 153
160 51 153
160 52 153
160 53 153
160 54 153
160 55 153
160 56 153
160 57 153
160 58 153
160 59 153
160 60 153
160 61 153
160 62 153
160 63 153
160 64 153
160 65 153
160 66 153
160 67 153
160 68 153
160 69 153
160 70 153
160 71 153
160 72 153
160 73 153
160 74 153
160 75 153
160 76 153
160 77 153
160 78 153
160 79 153
160 80 153
160 81 153
160 82 153
160 83 153
160 84 153
160 85 153
160 86 153
160 87 153
160 88 153
160 89 153
160 90 153
160 91 153
160 92 153
160 93 153
160 94 153
160 95 153
160 96 153
160 97 153
160 98 153
160 99 153
160 100 153
160 101 153
160 102 153
160 103 153
160 104 153
160 105 153
160 106 153
160 107 153
160 108 153
160 109 153
160 110 153
160 111 153
160 112 153
160 113 153
160 114 153
160 115 153
160 116 153
160 117 153
160 118 153
160 119 153
160 120 153
160 121 153
160 122 153
160 123 153
160 124 153
160 125 153
160 126 153
160 127 153
160 128 153
160 129 153
160 130 153
160 131 153
160 132 153
160 133 153
160 134 153
160 135 153
160 136 153
160 137 153
160 138 153
160 139 153
160 140 153
160 141 153
160 142 153
160 143 153
160 144 153
160 145 153
160 146 153
160 147 153
160 148 153
160 149 153
160 150 153
160 151 153
160 152 153
160 153 153
160 154 153
160 155 153
160 156 153
160 157 153
160 158 153
160 159 153
160 160 153
160 161 153
160 162 153
160 163 153
160 164 153
160 165 153
160 166 153
160 167 153
160 168 153
160 169 153
160 170 153
160 171 153
160 172 153
160 173 153
160 174 153
160 175 153
160 176 153
160 177 153
160 178 153
160 179 153
160 180 153
160 181 153
160 182 153
160 183 153
160 184 153
160 185 153
160 186 153
160 187 153
160 188 153
160 189 153
160 190 153
160 191 153
160 192 153
160 193 153
160 194 153
160 195 153
160 196 153
160 197 153
160 198 153
160 199 153
160 200 153
160 201 153
160 202 153
160 203 153
160 204 153
160 205 153
160 206 153
160 207 153
160 208 153
160 209 153
160 210 153
160 211 153
160 212 153
160 213 153
160 214 153
160 215 153
160 216 153
160 217 153
160 218 153
160 219 153
160 220 153
160 221 153
160 222 153
160 223 153
160 224 153
160 225 153
160 226 153
160 227 153
160 228 153
160 229 153
160 230 153
160 231 153
160 232 153
160 233 153
160 234 153
160 235 153
160 236 153
160 237 153
160 238 153
160 239 153
160 240 153
160 241 153
160 242 153
160 243 153
160 244 153
160 245 153
160 246 153
160 247 153
160 248 153
160 249 153
160 250 153
160 251 153
160 252 153
160 253 153
160 254 153
160 255 153
161 0 153
161 1 153
161 2 153
161 3 153
161 4 153
161 5 153
161 6 153
161 7 153
161 8 153
161 9 153
161 10 153
161 11 153
161 12 153
161 13 153
161 14 153
161 15 153
161 16 153
161 17 153
161 18 153
161 19 153
161 20 153
161 21 153
161 22 153
161 23 153
161 24 153
161 25 153
161 26 153
161 27 153
161 28 153
161 29 153
161 30 153
161 31 153
161 32 153
161 33 153
161 34 153
161 35 153
161 36 153
161 37 153
161 38 153
161 39 153
161 40 153
161 41 153
161 42 153
161 43 153
161 44 153
161 45 153
161 46 153
161 47 153
161 48 153
161 49 153
161 50 153
161 51 153
161 52 153
161 53 153
161 54 153
161 55 153
161 56 153
161 57 153
161 58 153
161 59 153
161 60 153
161 61 153
161 62 153
161 63 153
161 64 153
161 65 153
161 66 153
161 67 153
161 68 153
161 69 153
161 70 153
161 71 153
161 72 153
161 73 153
161 74 153
161 75 153
161 76 153
161 77 153
161 78 153
161 79 153
161 80 153
161 81 153
161 82 153
161 83 153
161 84 153
161 85 153
161 86 153
161 87 153
161 88 153
161 89 153
161 90 153
161 91 153
161 92 153
161 93 153
161 94 153
161 95 153
161 96 153
161 97 153
161 98 153
161 99 153
161 100 153
161 101 153
161 102 153
161 103 153
161 104 153
161 105 153
161 106 153
161 107 153
161 108 153
161 109 153
161 110 153
161 111 153
161 112 153
161 113 153
161 114 153
161 115 153
161 116 153
161 117 153
161 118 153
161 119 153
161 120 153
161 121 153
161 122 153
161 123 153
161 124 153
161 125 153
161 126 153
161 127 153
161 128 153
161 129 153
161 130 153
161 131 153
161 132 153
161 133 153
161 134 153
161 135 153
161 136 153
161 137 153
161 138 153
161 139 153
161 140 153
161 141 153
161 142 153
161 143 153
161 144 153
161 145 153
161 146 153
161 147 153
161 148 153
161 149 153
161 150 153
161 151 153
161 152 153
161 153 153
161 154 153
161 155 153
161 156 153
161 157 153
161 158 153
161 159 153
161 160 153
161 161 153
161 162 153
161 163 153
161 164 153
161 165 153
161 166 153
161 167 153
161 168 153
161 169 153
161 170 153
161 171 153
161 172 153
161 173 153
161 174 153
161 175 153
161 176 153
161 177 153
161 178 153
161 179 153
161 180 153
161 181 153
161 182 153
161 183 153
161 184 153
161 185 153
161 186 153
161 187 153
161 188 153
161 189 153
161 190 153
161 191 153
161 192 153
161 193 153
161 194 153
161 195 153
161 196 153
161 197 153
161 198 153
161 199 153
161 200 153
161 201 153
161 202 153
161 203 153
161 204 153
161 205 153
161 206 153
161 207 153
161 208 153
161 209 153
161 210 153
161 211 153
161 212 153
161 213 153
161 214 153
161 215 153
161 216 153
161 217 153
161 218 153
161 219 153
161 220 153
161 221 153
161 222 153
161 223 153
161 224 153
161 225 153
161 226 153
161 227 153
161 228 153
161 229 153
161 230 153
161 231 153
161 232 153
161 233 153
161 234 153
161 235 153
161 236 153
161 237 153
161 238 153
161 239 153
161 240 153
161 241 153
161 242 153
161 243 153
161 244 153
161 245 153
161 246 153
161 247 153
161 248 153
161 249 153
161 250 153
161 251 153
161 252 153
161 253 153
161 254 153
161 255 153
162 0 153
162 1 153
162 2 153
162 3 153
162 4 153
162 5 153
162 6 153
162 7 153
162 8 153
162 9 153
162 10 153
162 11 153
162 12 153
162 13 153
162 14 153
162 15 153
162 16 153
162 17 153
162 18 153
162 19 153
162 20 153
162 21 153
162 22 153
162 23 153
162 24 153
162 25 153
162 26 153
162 27 153
162 28 153
162 29 153
162 30 153
162 31 153
162 32 153
162 33 153
162 34 153
162 35 153
162 36 153
162 37 153
162 38 153
162 39 153
162 40 153
162 41 153
162 42 153
162 43 153
162 44 153
162 45 153
162 46 153
162 47 153
162 48 153
162 49 153
162 50 153
162 51 153
162 52 153
162 53 153
162 54 153
162 55 153
162 56 153
162 57 153
162 58 153
162 59 153
162 60 153
162 61 153
162 62 153
162 63 153
162 64 153
162 65 153
162 66 153
162 67 153
162 68 153
162 69 153
162 70 153
162 71 153
162 72 153
162 73 153
162 74 153
162 75 153
162 76 153
162 77 153
162 78 153
162 79 153
162 80 153
162 81 153
162 82 153
162 83 153
162 84 153
162 85 153
162 86 153
162 87 153
162 88 153
162 89 153
162 90 153
162 91 153
162 92 153
162 93 153
162 94 153
162 95 153
162 96 153
162 97 153
162 98 153
162 99 153
162 100 153
162 101 153
162 102 153
162 103 153
162 104 153
162 105 153
162 106 153
162 107 153
162 108 153
162 109 153
162 110 153
162 111 153
162 112 153
162 113 153
162 114 153
162 115 153
162 116 153
162 117 153
162 118 153
162 119 153
162 120 153
162 121 153
162 122 153
162 123 153
162 124 153
162 125 153
162 126 153
162 127 153
162 128 153
162 129 153
162 130 153
162 131 153
162 132 153
162 133 153
162 134 153
162 135 153
162 136 153
162 137 153
162 138 153
162 139 153
162 140 153
162 141 153
162 142 153
162 143 153
162 144 153
162 145 153
162 146 153
162 147 153
162 148 153
162 149 153
162 150 153
162 151 153
162 152 153
162 153 153
162 154 153
162 155 153
162 156 153
162 157 153
162 158 153
162 159 153
162 160 153
162 161 153
162 162 153
162 163 153
162 164 153
162 165 153
162 166 153
162 167 153
162 168 153
162 169 153
162 170 153
162 171 153
162 172 153
162 173 153
162 174 153
162 175 153
162 176 153
162 177 153
162 178 153
162 179 153
162 180 153
162 181 153
162 182 153
162 183 153
162 184 153
162 185 153
162 186 153
162 187 153
162 188 153
162 189 153
162 190 153
162 191 153
162 192 153
162 193 153
162 194 153
162 195 153
162 196 153
162 197 153
162 198 153
162 199 153
162 200 153
162 201 153
162 202 153
162 203 153
162 204 153
162 205 153
162 206 153
162 207 153
162 208 153
162 209 153
162 210 153
162 211 153
162 212 153
162 213 153
162 214 153
162 215 153
162 216 153
162 217 153
162 218 153
162 219 153
162 220 153
162 221 153
162 222 153
162 223 153
162 224 153
162 225 153
162 226 153
162 227 153
162 228 153
162 229 153
162 230 153
162 231 153
162 232 153
162 233 153
162 234 153
162 235 153
162 236 153
162 237 153
162 238 153
162 239 153
162 240 153
162 241 153
162 242 153
162 243 153
162 244 153
162 245 153
162 246 153
162 247 153
162 248 153
162 249 153
162 250 153
162 251 153
162 252 153
162 253 153
162 254 153
162 255 153
163 0 153
163 1 153
163 2 153
163 3 153
163 4 153
163 5 153
163 6 153
163 7 153
163 8 153
163 9 153
163 10 153
163 11 153
163 12 153
163 13 153
163 14 153
163 15 153
163 16 153
163 17 153
163 18 153
163 19 153
163 20 153
163 21 153
163 22 153
163 23 153
163 24 153
163 25 153
163 26 153
163 27 153
163 28 153
163 29 153
163 30 153
163 31 153
163 32 153
163 33 153
163 34 153
163 35 153
163 36 153
163 37 153
163 38 153
163 39 153
163 40 153
163 41 153
163 42 153
163 43 153
163 44 153
163 45 153
163 46 153
163 47 153
163 48 153
163 49 153
163 50 153
163 51 153
163 52 153
163 53 153
163 54 153
163 55 153
163 56 153
163 57 153
163 58 153
163 59 153
163 60 153
163 61 153
163 62 153
163 63 153
163 64 153
163 65 153
163 66 153
163 67 153
163 68 153
163 69 153
163 70 153
163 71 153
163 72 153
163 73 153
163 74 153
163 75 153
163 76 153
163 77 153
163 78 153
163 79 153
163 80 153
163 81 153
163 82 153
163 83 153
163 84 153
163 85 153
163 86 153
163 87 153
163 88 153
163 89 153
163 90 153
163 91 153
163 92 153
163 93 153
163 94 153
163 95 153
163 96 153
163 97 153
163 98 153
163 99 153
163 100 153
163 101 153
163 102 153
163 103 153
163 104 153
163 105 153
163 106 153
163 107 153
163 108 153
163 109 153
163 110 153
163 111 153
163 112 153
163 113 153
163 114 153
163 115 153
163 116 153
163 117 153
163 118 153
163 119 153
163 120 153
163 121 153
163 122 153
163 123 153
163 124 153
163 125 153
163 126 153
163 127 153
163 128 153
163 129 153
163 130 153
163 131 153
163 132 153
163 133 153
163 134 153
163 135 153
163 136 153
163 137 153
163 138 153
163 139 153
163 140 153
163 141 153
163 142 153
163 143 153
163 144 153
163 145 153
163 146 153
163 147 153
163 148 153
163 149 153
163 150 153
163 151 153
163 152 153
163 153 153
163 154 153
163 155 153
163 156 153
163 157 153
163 158 153
163 159 153
163 160 153
163 161 153
163 162 153
163 163 153
163 164 153
163 165 153
163 166 153
163 167 153
163 168 153
163 169 153
163 170 153
163 171 153
163 172 153
163 173 153
163 174 153
163 175 153
163 176 153
163 177 153
163 178 153
163 179 153
163 180 153
163 181 153
163 182 153
163 183 153
163 184 153
163 185 153
163 186 153
163 187 153
163 188 153
163 189 153
163 190 153
163 191 153
163 192 153
163 193 153
163 194 153
163 195 153
163 196 153
163 197 153
163 198 153
163 199 153
163 200 153
163 201 153
163 202 153
163 203 153
163 204 153
163 205 153
163 206 153
163 207 153
163 208 153
163 209 153
163 210 153
163 211 153
163 212 153
163 213 153
163 214 153
163 215 153
163 216 153
163 217 153
163 218 153
163 219 153
163 220 153
163 221 153
163 222 153
163 223 153
163 224 153
163 225 153
163 226 153
163 227 153
163 228 153
163 229 153
163 230 153
163 231 153
163 232 153
163 233 153
163 234 153
163 235 153
163 236 153
163 237 153
163 238 153
163 239 153
163 240 153
163 241 153
163 242 153
163 243 153
163 244 153
163 245 153
163 246 153
163 247 153
163 248 153
163 249 153
163 250 153
163 251 153
163 252 153
163 253 153
163 254 153
163 255 153
164 0 153
164 1 153
164 2 153
164 3 153
164 4 153
164 5 153
164 6 153
164 7 153
164 8 153
164 9 153
164 10 153
164 11 153
164 12 153
164 13 153
164 14 153
164 15 153
164 16 153
164 17 153
164 18 153
164 19 153
164 20 153
164 21 153
164 22 153
164 23 153
164 24 153
164 25 153
164 26 153
164 27 153
164 28 153
164 29 153
164 30 153
164 31 153
164 32 153
164 33 153
164 34 153
164 35 153
164 36 153
164 37 153
164 38 153
164 39 153
164 40 153
164 41 153
164 42 153
164 43 153
164 44 153
164 45 153
164 46 153
164 47 153
164 48 153
164 49 153
164 50 153
164 51 153
164 52 153
164 53 153
164 54 153
164 55 153
164 56 153
164 57 153
164 58 153
164 59 153
164 60 153
164 61 153
164 62 153
164 63 153
164 64 153
164 65 153
164 66 153
164 67 153
164 68 153
164 69 153
164 70 153
164 71 153
164 72 153
164 73 153
164 74 153
164 75 153
164 76 153
164 77 153
164 78 153
164 79 153
164 80 153
164 81 153
164 82 153
164 83 153
164 84 153
164 85 153
164 86 153
164 87 153
164 88 153
164 89 153
164 90 153
164 91 153
164 92 153
164 93 153
164 94 153
164 95 153
164 96 153
164 97 153
164 98 153
164 99 153
164 100 153
164 101 153
164 102 153
164 103 153
164 104 153
164 105 153
164 106 153
164 107 153
164 108 153
164 109 153
164 110 153
164 111 153
164 112 153
164 113 153
164 114 153
164 115 153
164 116 153
164 117 153
164 118 153
164 119 153
164 120 153
164 121 153
164 122 153
164 123 153
164 124 153
164 125 153
164 126 153
164 127 153
164 128 153
164 129 153
164 130 153
164 131 153
164 132 153
164 133 153
164 134 153
164 135 153
164 136 153
164 137 153
164 138 153
164 139 153
164 140 153
164 141 153
164 142 153
164 143 153
164 144 153
164 145 153
164 146 153
164 147 153
164 148 153
164 149 153
164 150 153
164 151 153
164 152 153
164 153 153
164 154 153
164 155 153
164 156 153
164 157 153
164 158 153
164 159 153
164 160 153
164 161 153
164 162 153
164 163 153
164 164 153
164 165 153
164 166 153
164 167 153
164 168 153
164 169 153
164 170 153
164 171 153
164 172 153
164 173 153
164 174 153
164 175 153
164 176 153
164 177 153
164 178 153
164 179 153
164 180 153
164 181 153
164 182 153
164 183 153
164 184 153
164 185 153
164 186 153
164 187 153
164 188 153
164 189 153
164 190 153
164 191 153
164 192 153
164 193 153
164 194 153
164 195 153
164 196 153
164 197 153
164 198 153
164 199 153
164 200 153
164 201 153
164 202 153
164 203 153
164 204 153
164 205 153
164 206 153
164 207 153
164 208 153
164 209 153
164 210 153
164 211 153
164 212 153
164 213 153
164 214 153
164 215 153
164 216 153
164 217 153
164 218 153
164 219 153
164 220 153
164 221 153
164 222 153
164 223 153
164 224 153
164 225 153
164 226 153
164 227 153
164 228 153
164 229 153
164 230 153
164 231 153
164 232 153
164 233 153
164 234 153
164 235 153
164 236 153
164 237 153
164 238 153
164 239 153
164 240 153
164 241 153
164 242 153
164 243 153
164 244 153
164 245 153
164 246 153
164 247 153
164 248 153
164 249 153
164 250 153
164 251 153
164 252 153
164 253 153
164 254 153
164 255 153
165 0 153
165 1 153
165 2 153
165 3 153
165 4 153
165 5 153
165 6 153
165 7 153
165 8 153
165 9 153
165 10 153
165 11 153
165 12 153
165 13 153
165 14 153
165 15 153
165 16 153
165 17 153
165 18 153
165 19 153
165 20 153
165 21 153
165 22 153
165 23 153
165 24 153
165 25 153
165 26 153
165 27 153
165 28 153
165 29 153
165 30 153
165 31 153
165 32 153
165 33 153
165 34 153
165 35 153
165 36 153
165 37 153
165 38 153
165 39 153
165 40 153
165 41 153
165 42 153
165 43 153
165 44 153
165 45 153
165 46 153
165 47 153
165 48 153
165 49 153
165 50 153
165 51 153
165 52 153
165 53 153
165 54 153
165 55 153
165 56 153
165 57 153
165 58 153
165 59 153
165 60 153
165 61 153
165 62 153
165 63 153
165 64 153
165 65 153
165 66 153
165 67 153
165 68 153
165 69 153
165 70 153
165 71 153
165 72 153
165 73 153
165 74 153
165 75 153
165 76 153
165 77 153
165 78 153
165 79 153
165 80 153
165 81 153
165 82 153
165 83 153
165 84 153
165 85 153
165 86 153
165 87 153
165 88 153
165 89 153
165 90 153
165 91 153
165 92 153
165 93 153
165 94 153
165 95 153
165 96 153
165 97 153
165 98 153
165 99 153
165 100 153
165 101 153
165 102 153
165 103 153
165 104 153
165 105 153
165 106 153
165 107 153
165 108 153
165 109 153
165 110 153
165 111 153
165 112 153
165 113 153
165 114 153
165 115 153
165 116 153
165 117 153
165 118 153
165 119 153
165 120 153
165 121 153
165 122 153
165 123 153
165 124 153
165 125 153
165 126 153
165 127 153
165 128 153
165 129 153
165 130 153
165 131 153
165 132 153
165 133 153
165 134 153
165 135 153
165 136 153
165 137 153
165 138 153
165 139 153
165 140 153
165 141 153
165 142 153
165 143 153
165 144 153
165 145 153
165 146 153
165 147 153
165 148 153
165 149 153
165 150 153
165 151 153
165 152 153
165 153 153
165 154 153
165 155 153
165 156 153
165 157 153
165 158 153
165 159 153
165 160 153
165 161 153
165 162 153
165 163 153
165 164 153
165 165 153
165 166 153
165 167 153
165 168 153
165 169 153
165 170 153
165 171 153
165 172 153
165 173 153
165 174 153
165 175 153
165 176 153
165 177 153
165 178 153
165 179 153
165 180 153
165 181 153
165 182 153
165 183 153
165 184 153
165 185 153
165 186 153
165 187 153
165 188 153
165 189 153
165 190 153
165 191 153
165 192 153
165 193 153
165 194 153
165 195 153
165 196 153
165 197 153
165 198 153
165 199 153
165 200 153
165 201 153
165 202 153
165 203 153
165 204 153
165 205 153
165 206 153
165 207 153
165 208 153
165 209 153
165 210 153
165 211 153
165 212 153
165 213 153
165 214 153
165 215 153
165 216 153
165 217 153
165 218 153
165 219 153
165 220 153
165 221 153
165 222 153
165 223 153
165 224 153
165 225 153
165 226 153
165 227 153
165 228 153
165 229 153
165 230 153
165 231 153
165 232 153
165 233 153
165 234 153
165 235 153
165 236 153
165 237 153
165 238 153
165 239 153
165 240 153
165 241 153
165 242 153
165 243 153
165 244 153
165 245 153
165 246 153
165 247 153
165 248 153
165 249 153
165 250 153
165 251 153
165 252 153
165 253 153
165 254 153
165 255 153
166 0 153
166 1 153
166 2 153
166 3 153
166 4 153
166 5 153
166 6 153
166 7 153
166 8 153
166 9 153
166 10 153
166 11 153
166 12 153
166 13 153
166 14 153
166 15 153
166 16 153
166 17 153
166 18 153
166 19 153
166 20 153
166 21 153
166 22 153
166 23 153
166 24 153
166 25 153
166 26 153
166 27 153
166 28 153
166 29 153
166 30 153
166 31 153
166 32 153
166 33 153
166 34 153
166 35 153
166 36 153
166 37 153
166 38 153
166 39 153
166 40 153
166 41 153
166 42 153
166 43 153
166 44 153
166 45 153
166 46 153
166 47 153
166 48 153
166 49 153
166 50 153
166 51 153
166 52 153
166 53 153
166 54 153
166 55 153
166 56 153
166 57 153
166 58 153
166 59 153
166 60 153
166 61 153
166 62 153
166 63 153
166 64 153
166 65 153
166 66 153
166 67 153
166 68 153
166 69 153
166 70 153
166 71 153
166 72 153
166 73 153
166 74 153
166 75 153
166 76 153
166 77 153
166 78 153
166 79 153
166 80 153
166 81 153
166 82 153
166 83 153
166 84 153
166 85 153
166 86 153
166 87 153
166 88 153
166 89 153
166 90 153
166 91 153
166 92 153
166 93 153
166 94 153
166 95 153
166 96 153
166 97 153
166 98 153
166 99 153
166 100 153
166 101 153
166 102 153
166 103 153
166 104 153
166 105 153
166 106 153
166 107 153
166 108 153
166 109 153
166 110 153
166 111 153
166 112 153
166 113 153
166 114 153
166 115 153
166 116 153
166 117 153
166 118 153
166 119 153
166 120 153
166 121 153
166 122 153
166 123 153
166 124 153
166 125 153
166 126 153
166 127 153
166 128 153
166 129 153
166 130 153
166 131 153
166 132 153
166 133 153
166 134 153
166 135 153
166 136 153
166 137 153
166 138 153
166 139 153
166 140 153
166 141 153
166 142 153
166 143 153
166 144 153
166 145 153
166 146 153
166 147 153
166 148 153
166 149 153
166 150 153
166 151 153
166 152 153
166 153 153
166 154 153
166 155 153
166 156 153
166 157 153
166 158 153
166 159 153
166 160 153
166 161 153
166 162 153
166 163 153
166 164 153
166 165 153
166 166 153
166 167 153
166 168 153
166 169 153
166 170 153
166 171 153
166 172 153
166 173 153
166 174 153
166 175 153
166 176 153
166 177 153
166 178 153
166 179 153
166 180 153
166 181 153
166 182 153
166 183 153
166 184 153
166 185 153
166 186 153
166 187 153
166 188 153
166 189 153
166 190 153
166 191 153
166 192 153
166 193 153
166 194 153
166 195 153
166 196 153
166 197 153
166 198 153
166 199 153
166 200 153
166 201 153
166 202 153
166 203 153
166 204 153
166 205 153
166 206 153
166 207 153
166 208 153
166 209 153
166 210 153
166 211 153
166 212 153
166 213 153
166 214 153
166 215 153
166 216 153
166 217 153
166 218 153
166 219 153
166 220 153
166 221 153
166 222 153
166 223 153
166 224 153
166 225 153
166 226 153
166 227 153
166 228 153
166 229 153
166 230 153
166 231 153
166 232 153
166 233 153
166 234 153
166 235 153
166 236 153
166 237 153
166 238 153
166 239 153
166 240 153
166 241 153
166 242 153
166 243 153
166 244 153
166 245 153
166 246 153
166 247 153
166 248 153
166 249 153
166 250 153
166 251 153
166 252 153
166 253 153
166 254 153
166 255 153
167 0 153
167 1 153
167 2 153
167 3 153
167 4 153
167 5 153
167 6 153
167 7 153
167 8 153
167 9 153
167 10 153
167 11 153
167 12 153
167 13 153
167 14 153
167 15 153
167 16 153
167 17 153
167 18 153
167 19 153
167 20 153
167 21 153
167 22 153
167 23 153
167 24 153
167 25 153
167 26 153
167 27 153
167 28 153
167 29 153
167 30 153
167 31 153
167 32 153
167 33 153
167 34 153
167 35 153
167 36 153
167 37 153
167 38 153
167 39 153
167 40 153
167 41 153
167 42 153
167 43 153
167 44 153
167 45 153
167 46 153
167 47 153
167 48 153
167 49 153
167 50 153
167 51 153
167 52 153
167 53 153
167 54 153
167 55 153
167 56 153
167 57 153
167 58 153
167 59 153
167 60 153
167 61 153
167 62 153
167 63 153
167 64 153
167 65 153
167 66 153
167 67 153
167 68 153
167 69 153
167 70 153
167 71 153
167 72 153
167 73 153
167 74 153
167 75 153
167 76 153
167 77 153
167 78 153
167 79 153
167 80 153
167 81 153
167 82 153
167 83 153
167 84 153
167 85 153
167 86 153
167 87 153
167 88 153
167 89 153
167 90 153
167 91 153
167 92 153
167 93 153
167 94 153
167 95 153
167 96 153
167 97 153
167 98 153
167 99 153
167 100 153
167 101 153
167 102 153
167 103 153
167 104 153
167 105 153
167 106 153
167 107 153
167 108 153
167 109 153
167 110 153
167 111 153
167 112 153
167 113 153
167 114 153
167 115 153
167 116 153
167 117 153
167 118 153
167 119 153
167 120 153
167 121 153
167 122 153
167 123 153
167 124 153
167 125 153
167 126 153
167 127 153
167 128 153
167 129 153
167 130 153
167 131 153
167 132 153
167 133 153
167 134 153
167 135 153
167 136 153
167 137 153
167 138 153
167 139 153
167 140 153
167 141 153
167 142 153
167 143 153
167 144 153
167 145 153
167 146 153
167 147 153
167 148 153
167 149 153
167 150 153
167 151 153
167 152 153
167 153 153
167 154 153
167 155 153
167 156 153
167 157 153
167 158 153
167 159 153
167 160 153
167 161 153
167 162 153
167 163 153
167 164 153
167 165 153
167 166 153
167 167 153
167 168 153
167 169 153
167 170 153
167 171 153
167 172 153
167 173 153
167 174 153
167 175 153
167 176 153
167 177 153
167 178 153
167 179 153
167 180 153
167 181 153
167 182 153
167 183 153
167 184 153
167 185 153
167 186 153
167 187 153
167 188 153
167 189 153
167 190 153
167 191 153
167 192 153
167 193 153
167 194 153
167 195 153
167 196 153
167 197 153
167 198 153
167 199 153
167 200 153
167 201 153
167 202 153
167 203 153
167 204 153
167 205 153
167 206 153
167 207 153
167 208 153
167 209 153
167 210 153
167 211 153
167 212 153
167 213 153
167 214 153
167 215 153
167 216 153
167 217 153
167 218 153
167 219 153
167 220 153
167 221 153
167 222 153
167 223 153
167 224 153
167 225 153
167 226 153
167 227 153
167 228 153
167 229 153
167 230 153
167 231 153
167 232 153
167 233 153
167 234 153
167 235 153
167 236 153
167 237 153
167 238 153
167 239 153
167 240 153
167 241 153
167 242 153
167 243 153
167 244 153
167 245 153
167 246 153
167 247 153
167 248 153
167 249 153
167 250 153
167 251 153
167 252 153
167 253 153
167 254 153
167 255 153
168 0 153
168 1 153
168 2 153
168 3 153
168 4 153
168 5 153
168 6 153
168 7 153
168 8 153
168 9 153
168 10 153
168 11 153
168 12 153
168 13 153
168 14 153
168 15 153
168 16 153
168 17 153
168 18 153
168 19 153
168 20 153
168 21 153
168 22 153
168 23 153
168 24 153
168 25 153
168 26 153
168 27 153
168 28 153
168 29 153
168 30 153
168 31 153
168 32 153
168 33 153
168 34 153
168 35 153
168 36 153
168 37 153
168 38 153
168 39 153
168 40 153
168 41 153
168 42 153
168 43 153
168 44 153
168 45 153
168 46 153
168 47 153
168 48 153
168 49 153
168 50 153
168 51 153
168 52 153
168 53 153
168 54 153
168 55 153
168 56 153
168 57 153
168 58 153
168 59 153
168 60 153
168 61 153
168 62 153
168 63 153
168 64 153
168 65 153
168 66 153
168 67 153
168 68 153
168 69 153
168 70 153
168 71 153
168 72 153
168 73 153
168 74 153
168 75 153
168 76 153
168 77 153
168 78 153
168 79 153
168 80 153
168 81 153
168 82 153
168 83 153
168 84 153
168 85 153
168 86 153
168 87 153
168 88 153
168 89 153
168 90 153
168 91 153
168 92 153
168 93 153
168 94 153
168 95 153
168 96 153
168 97 153
168 98 153
168 99 153
168 100 153
168 101 153
168 102 153
168 103 153
168 104 153
168 105 153
168 106 153
168 107 153
168 108 153
168 109 153
168 110 153
168 111 153
168 112 153
168 113 153
168 114 153
168 115 153
168 116 153
168 117 153
168 118 153
168 119 153
168 120 153
168 121 153
168 122 153
168 123 153
168 124 153
168 125 153
168 126 153
168 127 153
168 128 153
168 129 153
168 130 153
168 131 153
168 132 153
168 133 153
168 134 153
168 135 153
168 136 153
168 137 153
168 138 153
168 139 153
168 140 153
168 141 153
168 142 153
168 143 153
168 144 153
168 145 153
168 146 153
168 147 153
168 148 153
168 149 153
168 150 153
168 151 153
168 152 153
168 153 153
168 154 153
168 155 153
168 156 153
168 157 153
168 158 153
168 159 153
168 160 153
168 161 153
168 162 153
168 163 153
168 164 153
168 165 153
168 166 153
168 167 153
168 168 153
168 169 153
168 170 153
168 171 153
168 172 153
168 173 153
168 174 153
168 175 153
168 176 153
168 177 153
168 178 153
168 179 153
168 180 153
168 181 153
168 182 153
168 183 153
168 184 153
168 185 153
168 186 153
168 187 153
168 188 153
168 189 153
168 190 153
168 191 153
168 192 153
168 193 153
168 194 153
168 195 153
168 196 153
168 197 153
168 198 153
168 199 153
168 200 153
168 201 153
168 202 153
168 203 153
168 204 153
168 205 153
168 206 153
168 207 153
168 208 153
168 209 153
168 210 153
168 211 153
168 212 153
168 213 153
168 214 153
168 215 153
168 216 153
168 217 153
168 218 153
168 219 153
168 220 153
168 221 153
168 222 153
168 223 153
168 224 153
168 225 153
168 226 153
168 227 153
168 228 153
168 229 153
168 230 153
168 231 153
168 232 153
168 233 153
168 234 153
168 235 153
168 236 153
168 237 153
168 238 153
168 239 153
168 240 153
168 241 153
168 242 153
168 243 153
168 244 153
168 245 153
168 246 153
168 247 153
168 248 153
168 249 153
168 250 153
168 251 153
168 252 153
168 253 153
168 254 153
168 255 153
169 0 153
169 1 153
169 2 153
169 3 153
169 4 153
169 5 153
169 6 153
169 7 153
169 8 153
169 9 153
169 10 153
169 11 153
169 12 153
169 13 153
169 14 153
169 15 153
169 16 153
169 17 153
169 18 153
169 19 153
169 20 153
169 21 153
169 22 153
169 23 153
169 24 153
169 25 153
169 26 153
169 27 153
169 28 153
169 29 153
169 30 153
169 31 153
169 32 153
169 33 153
169 34 153
169 35 153
169 36 153
169 37 153
169 38 153
169 39 153
169 40 153
169 41 153
169 42 153
169 43 153
169 44 153
169 45 153
169 46 153
169 47 153
169 48 153
169 49 153
169 50 153
169 51 153
169 52 153
169 53 153
169 54 153
169 55 153
169 56 153
169 57 153
169 58 153
169 59 153
169 60 153
169 61 153
169 62 153
169 63 153
169 64 153
169 65 153
169 66 153
169 67 153
169 68 153
169 69 153
169 70 153
169 71 153
169 72 153
169 73 153
169 74 153
169 75 153
169 76 153
169 77 153
169 78 153
169 79 153
169 80 153
169 81 153
169 82 153
169 83 153
169 84 153
169 85 153
169 86 153
169 87 153
169 88 153
169 89 153
169 90 153
169 91 153
169 92 153
169 93 153
169 94 153
169 95 153
169 96 153
169 97 153
169 98 153
169 99 153
169 100 153
169 101 153
169 102 153
169 103 153
169 104 153
169 105 153
169 106 153
169 107 153
169 108 153
169 109 153
169 110 153
169 111 153
169 112 153
169 113 153
169 114 153
169 115 153
169 116 153
169 117 153
169 118 153
169 119 153
169 120 153
169 121 153
169 122 153
169 123 153
169 124 153
169 125 153
169 126 153
169 127 153
169 128 153
169 129 153
169 130 153
169 131 153
169 132 153
169 133 153
169 134 153
169 135 153
169 136 153
169 137 153
169 138 153
169 139 153
169 140 153
169 141 153
169 142 153
169 143 153
169 144 153
169 145 153
169 146 153
169 147 153
169 148 153
169 149 153
169 150 153
169 151 153
169 152 153
169 153 153
169 154 153
169 155 153
169 156 153
169 157 153
169 158 153
169 159 153
169 160 153
169 161 153
169 162 153
169 163 153
169 164 153
169 165 153
169 166 153
169 167 153
169 168 153
169 169 153
169 170 153
169 171 153
169 172 153
169 173 153
169 174 153
169 175 153
169 176 153
169 177 153
169 178 153
169 179 153
169 180 153
169 181 153
169 182 153
169 183 153
169 184 153
169 185 153
169 186 153
169 187 153
169 188 153
169 189 153
169 190 153
169 191 153
169 192 153
169 193 153
169 194 153
169 195 153
169 196 153
169 197 153
169 198 153
169 199 153
169 200 153
169 201 153
169 202 153
169 203 153
169 204 153
169 205 153
169 206 153
169 207 153
169 208 153
169 209 153
169 210 153
169 211 153
169 212 153
169 213 153
169 214 153
169 215 153
169 216 153
169 217 153
169 218 153
169 219 153
169 220 153
169 221 153
169 222 153
169 223 153
169 224 153
169 225 153
169 226 153
169 227 153
169 228 153
169 229 153
169 230 153
169 231 153
169 232 153
169 233 153
169 234 153
169 235 153
169 236 153
169 237 153
169 238 153
169 239 153
169 240 153
169 241 153
169 242 153
169 243 153
169 244 153
169 245 153
169 246 153
169 247 153
169 248 153
169 249 153
169 250 153
169 251 153
169 252 153
169 253 153
169 254 153
169 255 153
170 0 153
170 1 153
170 2 153
170 3 153
170 4 153
170 5 153
170 6 153
170 7 153
170 8 153
170 9 153
170 10 153
170 11 153
170 12 153
170 13 153
170 14 153
170 15 153
170 16 153
170 17 153
170 18 153
170 19 153
170 20 153
170 21 153
170 22 153
170 23 153
170 24 153
170 25 153
170 26 153
170 27 153
170 28 153
170 29 153
170 30 153
170 31 153
170 32 153
170 33 153
170 34 153
170 35 153
170 36 153
170 37 153
170 38 153
170 39 153
170 40 153
170 41 153
170 42 153
170 43 153
170 44 153
170 45 153
170 46 153
170 47 153
170 48 153
170 49 153
170 50 153
170 51 153
170 52 153
170 53 153
170 54 153
170 55 153
170 56 153
170 57 153
170 58 153
170 59 153
170 60 153
170 61 153
170 62 153
170 63 153
170 64 153
170 65 153
170 66 153
170 67 153
170 68 153
170 69 153
170 70 153
170 71 153
170 72 153
170 73 153
170 74 153
170 75 153
170 76 153
170 77 153
170 78 153
170 79 153
170 80 153
170 81 153
170 82 153
170 83 153
170 84 153
170 85 153
170 86 153
170 87 153
170 88 153
170 89 153
170 90 153
170 91 153
170 92 153
170 93 153
170 94 153
170 95 153
170 96 153
170 97 153
170 98 153
170 99 153
170 100 153
170 101 153
170 102 153
170 103 153
170 104 153
170 105 153
170 106 153
170 107 153
170 108 153
170 109 153
170 110 153
170 111 153
170 112 153
170 113 153
170 114 153
170 115 153
170 116 153
170 117 153
170 118 153
170 119 153
170 120 153
170 121 153
170 122 153
170 123 153
170 124 153
170 125 153
170 126 153
170 127 153
170 128 153
170 129 153
170 130 153
170 131 153
170 132 153
170 133 153
170 134 153
170 135 153
170 136 153
170 137 153
170 138 153
170 139 153
170 140 153
170 141 153
170 142 153
170 143 153
170 144 153
170 145 153
170 146 153
170 147 153
170 148 153
170 149 153
170 150 153
170 151 153
170 152 153
170 153 153
170 154 153
170 155 153
170 156 153
170 157 153
170 158 153
170 159 153
170 160 153
170 161 153
170 162 153
170 163 153
170 164 153
170 165 153
170 166 153
170 167 153
170 168 153
170 169 153
170 170 153
170 171 153
170 172 153
170 173 153
170 174 153
170 175 153
170 176 153
170 177 153
170 178 153
170 179 153
170 180 153
170 181 153
170 182 153
170 183 153
170 184 153
170 185 153
170 186 153
170 187 153
170 188 153
170 189 153
170 190 153
170 191 153
170 192 153
170 193 153
170 194 153
170 195 153
170 196 153
170 197 153
170 198 153
170 199 153
170 200 153
170 201 153
170 202 153
170 203 153
170 204 153
170 205 153
170 206 153
170 207 153
170 208 153
170 209 153
170 210 153
170 211 153
170 212 153
170 213 153
170 214 153
170 215 153
170 216 153
170 217 153
170 218 153
170 219 153
170 220 153
170 221 153
170 222 153
170 223 153
170 224 153
170 225 153
170 226 153
170 227 153
170 228 153
170 229 153
170 230 153
170 231 153
170 232 153
170 233 153
170 234 153
170 235 153
170 236 153
170 237 153
170 238 153
170 239 153
170 240 153
170 241 153
170 242 153
170 243 153
170 244 153
170 245 153
170 246 153
170 247 153
170 248 153
170 249 153
170 250 153
170 251 153
170 252 153
170 253 153
170 254 153
170 255 153
171 0 153
171 1 153
171 2 153
171 3 153
171 4 153
171 5 153
171 6 153
171 7 153
171 8 153
171 9 153
171 10 153
171 11 153
171 12 153
171 13 153
171 14 153
171 15 153
171 16 153
171 17 153
171 18 153
171 19 153
171 20 153
171 21 153
171 22 153
171 23 153
171 24 153
171 25 153
171 26 153
171 27 153
171 28 153
171 29 153
171 30 153
171 31 153
171 32 153
171 33 153
171 34 153
171 35 153
171 36 153
171 37 153
171 38 153
171 39 153
171 40 153
171 41 153
171 42 153
171 43 153
171 44 153
171 45 153
171 46 153
171 47 153
171 48 153
171 49 153
171 50 153
171 51 153
171 52 153
171 53 153
171 54 153
171 55 153
171 56 153
171 57 153
171 58 153
171 59 153
171 60 153
171 61 153
171 62 153
171 63 153
171 64 153
171 65 153
171 66 153
171 67 153
171 68 153
171 69 153
171 70 153
171 71 153
171 72 153
171 73 153
171 74 153
171 75 153
171 76 153
171 77 153
171 78 153
171 79 153
171 80 153
171 81 153
171 82 153
171 83 153
171 84 153
171 85 153
171 86 153
171 87 153
171 88 153
171 89 153
171 90 153
171 91 153
171 92 153
171 93 153
171 94 153
171 95 153
171 96 153
171 97 153
171 98 153
171 99 153
171 100 153
171 101 153
171 102 153
171 103 153
171 104 153
171 105 153
171 106 153
171 107 153
171 108 153
171 109 153
171 110 153
171 111 153
171 112 153
171 113 153
171 114 153
171 115 153
171 116 153
171 117 153
171 118 153
171 119 153
171 120 153
171 121 153
171 122 153
171 123 153
171 124 153
171 125 153
171 126 153
171 127 153
171 128 153
171 129 153
171 130 153
171 131 153
171 132 153
171 133 153
171 134 153
171 135 153
171 136 153
171 137 153
171 138 153
171 139 153
171 140 153
171 141 153
171 142 153
171 143 153
171 144 153
171 145 153
171 146 153
171 147 153
171 148 153
171 149 153
171 150 153
171 151 153
171 152 153
171 153 153
171 154 153
171 155 153
171 156 153
171 157 153
171 158 153
171 159 153
171 160 153
171 161 153
171 162 153
171 163 153
171 164 153
171 165 153
171 166 153
171 167 153
171 168 153
171 169 153
171 170 153
171 171 153
171 172 153
171 173 153
171 174 153
171 175 153
171 176 153
171 177 153
171 178 153
171 179 153
171 180 153
171 181 153
171 182 153
171 183 153
171 184 153
171 185 153
171 186 153
171 187 153
171 188 153
171 189 153
171 190 153
171 191 153
171 192 153
171 193 153
171 194 153
171 195 153
171 196 153
171 197 153
171 198 153
171 199 153
171 200 153
171 201 153
171 202 153
171 203 153
171 204 153
171 205 153
171 206 153
171 207 153
171 208 153
171 209 153
171 210 153
171 211 153
171 212 153
171 213 153
171 214 153
171 215 153
171 216 153
171 217 153
171 218 153
171 219 153
171 220 153
171 221 153
171 222 153
171 223 153
171 224 153
171 225 153
171 226 153
171 227 153
171 228 153
171 229 153
171 230 153
171 231 153
171 232 153
171 233 153
171 234 153
171 235 153
171 236 153
171 237 153
171 238 153
171 239 153
171 240 153
171 241 153
171 242 153
171 243 153
171 244 153
171 245 153
171 246 153
171 247 153
171 248 153
171 249 153
171 250 153
171 251 153
171 252 153
171 253 153
171 254 153
171 255 153
172 0 153
172 1 153
172 2 153
172 3 153
172 4 153
172 5 153
172 6 153
172 7 153
172 8 153
172 9 153
172 10 153
172 11 153
172 12 153
172 13 153
172 14 153
172 15 153
172 16 153
172 17 153
172 18 153
172 19 153
172 20 153
172 21 153
172 22 153
172 23 153
172 24 153
172 25 153
172 26 153
172 27 153
172 28 153
172 29 153
172 30 153
172 31 153
172 32 153
172 33 153
172 34 153
172 35 153
172 36 153
172 37 153
172 38 153
172 39 153
172 40 153
172 41 153
172 42 153
172 43 153
172 44 153
172 45 153
172 46 153
172 47 153
172 48 153
172 49 153
172 50 153
172 51 153
172 52 153
172 53 153
172 54 153
172 55 153
172 56 153
172 57 153
172 58 153
172 59 153
172 60 153
172 61 153
172 62 153
172 63 153
172 64 153
172 65 153
172 66 153
172 67 153
172 68 153
172 69 153
172 70 153
172 71 153
172 72 153
172 73 153
172 74 153
172 75 153
172 76 153
172 77 153
172 78 153
172 79 153
172 80 153
172 81 153
172 82 153
172 83 153
172 84 153
172 85 153
172 86 153
172 87 153
172 88 153
172 89 153
172 90 153
172 91 153
172 92 153
172 93 153
172 94 153
172 95 153
172 96 153
172 97 153
172 98 153
172 99 153
172 100 153
172 101 153
172 102 153
172 103 153
172 104 153
172 105 153
172 106 153
172 107 153
172 108 153
172 109 153
172 110 153
172 111 153
172 112 153
172 113 153
172 114 153
172 115 153
172 116 153
172 117 153
172 118 153
172 119 153
172 120 153
172 121 153
172 122 153
172 123 153
172 124 153
172 125 153
172 126 153
172 127 153
172 128 153
172 129 153
172 130 153
172 131 153
172 132 153
172 133 153
172 134 153
172 135 153
172 136 153
172 137 153
172 138 153
172 139 153
172 140 153
172 141 153
172 142 153
172 143 153
172 144 153
172 145 153
172 146 153
172 147 153
172 148 153
172 149 153
172 150 153
172 151 153
172 152 153
172 153 153
172 154 153
172 155 153
172 156 153
172 157 153
172 158 153
172 159 153
172 160 153
172 161 153
172 162 153
172 163 153
172 164 153
172 165 153
172 166 153
172 167 153
172 168 153
172 169 153
172 170 153
172 171 153
172 172 153
172 173 153
172 174 153
172 175 153
172 176 153
172 177 153
172 178 153
172 179 153
172 180 153
172 181 153
172 182 153
172 183 153
172 184 153
172 185 153
172 186 153
172 187 153
172 188 153
172 189 153
172 190 153
172 191 153
172 192 153
172 193 153
172 194 153
172 195 153
172 196 153
172 197 153
172 198 153
172 199 153
172 200 153
172 201 153
172 202 153
172 203 153
172 204 153
172 205 153
172 206 153
172 207 153
172 208 153
172 209 153
172 210 153
172 211 153
172 212 153
172 213 153
172 214 153
172 215 153
172 216 153
172 217 153
172 218 153
172 219 153
172 220 153
172 221 153
172 222 153
172 223 153
172 224 153
172 225 153
172 226 153
172 227 153
172 228 153
172 229 153
172 230 153
172 231 153
172 232 153
172 233 153
172 234 153
172 235 153
172 236 153
172 237 153
172 238 153
172 239 153
172 240 153
172 241 153
172 242 153
172 243 153
172 244 153
172 245 153
172 246 153
172 247 153
172 248 153
172 249 153
172 250 153
172 251 153
172 252 153
172 253 153
172 254 153
172 255 153
173 0 153
173 1 153
173 2 153
173 3 153
173 4 153
173 5 153
173 6 153
173 7 153
173 8 153
173 9 153
173 10 153
173 11 153
173 12 153
173 13 153
173 14 153
173 15 153
173 16 153
173 17 153
173 18 153
173 19 153
173 20 153
173 21 153
173 22 153
173 23 153
173 24 153
173 25 153
173 26 153
173 27 153
173 28 153
173 29 153
173 30 153
173 31 153
173 32 153
173 33 153
173 34 153
173 35 153
173 36 153
173 37 153
173 38 153
173 39 153
173 40 153
173 41 153
173 42 153
173 43 153
173 44 153
173 45 153
173 46 153
173 47 153
173 48 153
173 49 153
173 50 153
173 51 153
173 52 153
173 53 153
173 54 153
173 55 153
173 56 153
173 57 153
173 58 153
173 59 153
173 60 153
173 61 153
173 62 153
173 63 153
173 64 153
173 65 153
173 66 153
173 67 153
173 68 153
173 69 153
173 70 153
173 71 153
173 72 153
173 73 153
173 74 153
173 75 153
173 76 153
173 77 153
173 78 153
173 79 153
173 80 153
173 81 153
173 82 153
173 83 153
173 84 153
173 85 153
173 86 153
173 87 153
173 88 153
173 89 153
173 90 153
173 91 153
173 92 153
173 93 153
173 94 153
173 95 153
173 96 153
173 97 153
173 98 153
173 99 153
173 100 153
173 101 153
173 102 153
173 103 153
173 104 153
173 105 153
173 106 153
173 107 153
173 108 153
173 109 153
173 110 153
173 111 153
173 112 153
173 113 153
173 114 153
173 115 153
173 116 153
173 117 153
173 118 153
173 119 153
173 120 153
173 121 153
173 122 153
173 123 153
173 124 153
173 125 153
173 126 153
173 127 153
173 128 153
173 129 153
173 130 153
173 131 153
173 132 153
173 133 153
173 134 153
173 135 153
173 136 153
173 137 153
173 138 153
173 139 153
173 140 153
173 141 153
173 142 153
173 143 153
173 144 153
173 145 153
173 146 153
173 147 153
173 148 153
173 149 153
173 150 153
173 151 153
173 152 153
173 153 153
173 154 153
173 155 153
173 156 153
173 157 153
173 158 153
173 159 153
173 160 153
173 161 153
173 162 153
173 163 153
173 164 153
173 165 153
173 166 153
173 167 153
173 168 153
173 169 153
173 170 153
173 171 153
173 172 153
173 173 153
173 174 153
173 175 153
173 176 153
173 177 153
173 178 153
173 179 153
173 180 153
173 181 153
173 182 153
173 183 153
173 184 153
173 185 153
173 186 153
173 187 153
173 188 153
173 189 153
173 190 153
173 191 153
173 192 153
173 193 153
173 194 153
173 195 153
173 196 153
173 197 153
173 198 153
173 199 153
173 200 153
173 201 153
173 202 153
173 203 153
173 204 153
173 205 153
173 206 153
173 207 153
173 208 153
173 209 153
173 210 153
173 211 153
173 212 153
173 213 153
173 214 153
173 215 153
173 216 153
173 217 153
173 218 153
173 219 153
173 220 153
173 221 153
173 222 153
173 223 153
173 224 153
173 225 153
173 226 153
173 227 153
173 228 153
173 229 153
173 230 153
173 231 153
173 232 153
173 233 153
173 234 153
173 235 153
173 236 153
173 237 153
173 238 153
173 239 153
173 240 153
173 241 153
173 242 153
173 243 153
173 244 153
173 245 153
173 246 153
173 247 153
173 248 153
173 249 153
173 250 153
173 251 153
173 252 153
173 253 153
173 254 153
173 255 153
174 0 153
174 1 153
174 2 153
174 3 153
174 4 153
174 5 153
174 6 153
174 7 153
174 8 153
174 9 153
174 10 153
174 11 153
174 12 153
174 13 153
174 14 153
174 15 153
174 16 153
174 17 153
174 18 153
174 19 153
174 20 153
174 21 153
174 22 153
174 23 153
174 24 153
174 25 153
174 26 153
174 27 153
174 28 153
174 29 153
174 30 153
174 31 153
174 32 153
174 33 153
174 34 153
174 35 153
174 36 153
174 37 153
174 38 153
174 39 153
174 40 153
174 41 153
174 42 153
174 43 153
174 44 153
174 45 153
174 46 153
174 47 153
174 48 153
174 49 153
174 50 153
174 51 153
174 52 153
174 53 153
174 54 153
174 55 153
174 56 153
174 57 153
174 58 153
174 59 153
174 60 153
174 61 153
174 62 153
174 63 153
174 64 153
174 65 153
174 66 153
174 67 153
174 68 153
174 69 153
174 70 153
174 71 153
174 72 153
174 73 153
174 74 153
174 75 153
174 76 153
174 77 153
174 78 153
174 79 153
174 80 153
174 81 153
174 82 153
174 83 153
174 84 153
174 85 153
174 86 153
174 87 153
174 88 153
174 89 153
174 90 153
174 91 153
174 92 153
174 93 153
174 94 153
174 95 153
174 96 153
174 97 153
174 98 153
174 99 153
174 100 153
174 101 153
174 102 153
174 103 153
174 104 153
174 105 153
174 106 153
174 107 153
174 108 153
174 109 153
174 110 153
174 111 153
174 112 153
174 113 153
174 114 153
174 115 153
174 116 153
174 117 153
174 118 153
174 119 153
174 120 153
174 121 153
174 122 153
174 123 153
174 124 153
174 125 153
174 126 153
174 127 153
174 128 153
174 129 153
174 130 153
174 131 153
174 132 153
174 133 153
174 134 153
174 135 153
174 136 153
174 137 153
174 138 153
174 139 153
174 140 153
174 141 153
174 142 153
174 143 153
174 144 153
174 145 153
174 146 153
174 147 153
174 148 153
174 149 153
174 150 153
174 151 153
174 152 153
174 153 153
174 154 153
174 155 153
174 156 153
174 157 153
174 158 153
174 159 153
174 160 153
174 161 153
174 162 153
174 163 153
174 164 153
174 165 153
174 166 153
174 167 153
174 168 153
174 169 153
174 170 153
174 171 153
174 172 153
174 173 153
174 174 153
174 175 153
174 176 153
174 177 153
174 178 153
174 179 153
174 180 153
174 181 153
174 182 153
174 183 153
174 184 153
174 185 153
174 186 153
174 187 153
174 188 153
174 189 153
174 190 153
174 191 153
174 192 153
174 193 153
174 194 153
174 195 153
174 196 153
174 197 153
174 198 153
174 199 153
174 200 153
174 201 153
174 202 153
174 203 153
174 204 153
174 205 153
174 206 153
174 207 153
174 208 153
174 209 153
174 210 153
174 211 153
174 212 153
174 213 153
174 214 153
174 215 153
174 216 153
174 217 153
174 218 153
174 219 153
174 220 153
174 221 153
174 222 153
174 223 153
174 224 153
174 225 153
174 226 153
174 227 153
174 228 153
174 229 153
174 230 153
174 231 153
174 232 153
174 233 153
174 234 153
174 235 153
174 236 153
174 237 153
174 238 153
174 239 153
174 240 153
174 241 153
174 242 153
174 243 153
174 244 153
174 245 153
174 246 153
174 247 153
174 248 153
174 249 153
174 250 153
174 251 153
174 252 153
174 253 153
174 254 153
174 255 153
175 0 153
175 1 153
175 2 153
175 3 153
175 4 153
175 5 153
175 6 153
175 7 153
175 8 153
175 9 153
175 10 153
175 11 153
175 12 153
175 13 153
175 14 153
175 15 153
175 16 153
175 17 153
175 18 153
175 19 153
175 20 153
175 21 153
175 22 153
175 23 153
175 24 153
175 25 153
175 26 153
175 27 153
175 28 153
175 29 153
175 30 153
175 31 153
175 32 153
175 33 153
175 34 153
175 35 153
175 36 153
175 37 153
175 38 153
175 39 153
175 40 153
175 41 153
175 42 153
175 43 153
175 44 153
175 45 153
175 46 153
175 47 153
175 48 153
175 49 153
175 50 153
175 51 153
175 52 153
175 53 153
175 54 153
175 55 153
175 56 153
175 57 153
175 58 153
175 59 153
175 60 153
175 61 153
175 62 153
175 63 153
175 64 153
175 65 153
175 66 153
175 67 153
175 68 153
175 69 153
175 70 153
175 71 153
175 72 153
175 73 153
175 74 153
175 75 153
175 76 153
175 77 153
175 78 153
175 79 153
175 80 153
175 81 153
175 82 153
175 83 153
175 84 153
175 85 153
175 86 153
175 87 153
175 88 153
175 89 153
175 90 153
175 91 153
175 92 153
175 93 153
175 94 153
175 95 153
175 96 153
175 97 153
175 98 153
175 99 153
175 100 153
175 101 153
175 102 153
175 103 153
175 104 153
175 105 153
175 106 153
175 107 153
175 108 153
175 109 153
175 110 153
175 111 153
175 112 153
175 113 153
175 114 153
175 115 153
175 116 153
175 117 153
175 118 153
175 119 153
175 120 153
175 121 153
175 122 153
175 123 153
175 124 153
175 125 153
175 126 153
175 127 153
175 128 153
175 129 153
175 130 153
175 131 153
175 132 153
175 133 153
175 134 153
175 135 153
175 136 153
175 137 153
175 138 153
175 139 153
175 140 153
175 141 153
175 142 153
175 143 153
175 144 153
175 145 153
175 146 153
175 147 153
175 148 153
175 149 153
175 150 153
175 151 153
175 152 153
175 153 153
175 154 153
175 155 153
175 156 153
175 157 153
175 158 153
175 159 153
175 160 153
175 161 153
175 162 153
175 163 153
175 164 153
175 165 153
175 166 153
175 167 153
175 168 153
175 169 153
175 170 153
175 171 153
175 172 153
175 173 153
175 174 153
175 175 153
175 176 153
175 177 153
175 178 153
175 179 153
175 180 153
175 181 153
175 182 153
175 183 153
175 184 153
175 185 153
175 186 153
175 187 153
175 188 153
175 189 153
175 190 153
175 191 153
175 192 153
175 193 153
175 194 153
175 195 153
175 196 153
175 197 153
175 198 153
175 199 153
175 200 153
175 201 153
175 202 153
175 203 153
175 204 153
175 205 153
175 206 153
175 207 153
175 208 153
175 209 153
175 210 153
175 211 153
175 212 153
175 213 153
175 214 153
175 215 153
175 216 153
175 217 153
175 218 153
175 219 153
175 220 153
175 221 153
175 222 153
175 223 153
175 224 153
175 225 153
175 226 153
175 227 153
175 228 153
175 229 153
175 230 153
175 231 153
175 232 153
175 233 153
175 234 153
175 235 153
175 236 153
175 237 153
175 238 153
175 239 153
175 240 153
175 241 153
175 242 153
175 243 153
175 244 153
175 245 153
175 246 153
175 247 153
175 248 153
175 249 153
175 250 153
175 251 153
175 252 153
175 253 153
175 254 153
175 255 153
176 0 153
176 1 153
176 2 153
176 3 153
176 4 153
176 5 153
176 6 153
176 7 153
176 8 153
176 9 153
176 10 153
176 11 153
176 12 153
176 13 153
176 14 153
176 15 153
176 16 153
176 17 153
176 18 153
176 19 153
176 20 153
176 21 153
176 22 153
176 23 153
176 24 153
176 25 153
176 26 153
176 27 153
176 28 153
176 29 153
176 30 153
176 31 153
176 32 153
176 33 153
176 34 153
176 35 153
176 36 153
176 37 153
176 38 153
176 39 153
176 40 153
176 41 153
176 42 153
176 43 153
176 44 153
176 45 153
176 46 153
176 47 153
176 48 153
176 49 153
176 50 153
176 51 153
176 52 153
176 53 153
176 54 153
176 55 153
176 56 153
176 57 153
176 58 153
176 59 153
176 60 153
176 61 153
176 62 153
176 63 153
176 64 153
176 65 153
176 66 153
176 67 153
176 68 153
176 69 153
176 70 153
176 71 153
176 72 153
176 73 153
176 74 153
176 75 153
176 76 153
176 77 153
176 78 153
176 79 153
176 80 153
176 81 153
176 82 153
176 83 153
176 84 153
176 85 153
176 86 153
176 87 153
176 88 153
176 89 153
176 90 153
176 91 153
176 92 153
176 93 153
176 94 153
176 95 153
176 96 153
176 97 153
176 98 153
176 99 153
176 100 153
176 101 153
176 102 153
176 103 153
176 104 153
176 105 153
176 106 153
176 107 153
176 108 153
176 109 153
176 110 153
176 111 153
176 112 153
176 113 153
176 114 153
176 115 153
176 116 153
176 117 153
176 118 153
176 119 153
176 120 153
176 121 153
176 122 153
176 123 153
176 124 153
176 125 153
176 126 153
176 127 153
176 128 153
176 129 153
176 130 153
176 131 153
176 132 153
176 133 153
176 134 153
176 135 153
176 136 153
176 137 153
176 138 153
176 139 153
176 140 153
176 141 153
176 142 153
176 143 153
176 144 153
176 145 153
176 146 153
176 147 153
176 148 153
176 149 153
176 150 153
176 151 153
176 152 153
176 153 153
176 154 153
176 155 153
176 156 153
176 157 153
176 158 153
176 159 153
176 160 153
176 161 153
176 162 153
176 163 153
176 164 153
176 165 153
176 166 153
176 167 153
176 168 153
176 169 153
176 170 153
176 171 153
176 172 153
176 173 153
176 174 153
176 175 153
176 176 153
176 177 153
176 178 153
176 179 153
176 180 153
176 181 153
176 182 153
176 183 153
176 184 153
176 185 153
176 186 153
176 187 153
176 188 153
176 189 153
176 190 153
176 191 153
176 192 153
176 193 153
176 194 153
176 195 153
176 196 153
176 197 153
176 198 153
176 199 153
176 200 153
176 201 153
176 202 153
176 203 153
176 204 153
176 205 153
176 206 153
176 207 153
176 208 153
176 209 153
176 210 153
176 211 153
176 212 153
176 213 153
176 214 153
176 215 153
176 216 153
176 217 153
176 218 153
176 219 153
176 220 153
176 221 153
176 222 153
176 223 153
176 224 153
176 225 153
176 226 153
176 227 153
176 228 153
176 229 153
176 230 153
176 231 153
176 232 153
176 233 153
176 234 153
176 235 153
176 236 153
176 237 153
176 238 153
176 239 153
176 240 153
176 241 153
176 242 153
176 243 153
176 244 153
176 245 153
176 246 153
176 247 153
176 248 153
176 249 153
176 250 153
176 251 153
176 252 153
176 253 153
176 254 153
176 255 153
177 0 153
177 1 153
177 2 153
177 3 153
177 4 153
177 5 153
177 6 153
177 7 153
177 8 153
177 9 153
177 10 153
177 11 153
177 12 153
177 13 153
177 14 153
177 15 153
177 16 153
177 17 153
177 18 153
177 19 153
177 20 153
177 21 153
177 22 153
177 23 153
177 24 153
177 25 153
177 26 153
177 27 153
177 28 153
177 29 153
177 30 153
177 31 153
177 32 153
177 33 153
177 34 153
177 35 153
177 36 153
177 37 153
177 38 153
177 39 153
177 40 153
177 41 153
177 42 153
177 43 153
177 44 153
177 45 153
177 46 153
177 47 153
177 48 153
177 49 153
177 50 153
177 51 153
177 52 153
177 53 153
177 54 153
177 55 153
177 56 153
177 57 153
177 58 153
177 59 153
177 60 153
177 61 153
177 62 153
177 63 153
177 64 153
177 65 153
177 66 153
177 67 153
177 68 153
177 69 153
177 70 153
177 71 153
177 72 153
177 73 153
177 74 153
177 75 153
177 76 153
177 77 153
177 78 153
177 79 153
177 80 153
177 81 153
177 82 153
177 83 153
177 84 153
177 85 153
177 86 153
177 87 153
177 88 153
177 89 153
177 90 153
177 91 153
177 92 153
177 93 153
177 94 153
177 95 153
177 96 153
177 97 153
177 98 153
177 99 153
177 100 153
177 101 153
177 102 153
177 103 153
177 104 153
177 105 153
177 106 153
177 107 153
177 108 153
177 109 153
177 110 153
177 111 153
177 112 153
177 113 153
177 114 153
177 115 153
177 116 153
177 117 153
177 118 153
177 119 153
177 120 153
177 121 153
177 122 153
177 123 153
177 124 153
177 125 153
177 126 153
177 127 153
177 128 153
177 129 153
177 130 153
177 131 153
177 132 153
177 133 153
177 134 153
177 135 153
177 136 153
177 137 153
177 138 153
177 139 153
177 140 153
177 141 153
177 142 153
177 143 153
177 144 153
177 145 153
177 146 153
177 147 153
177 148 153
177 149 153
177 150 153
177 151 153
177 152 153
177 153 153
177 154 153
177 155 153
177 156 153
177 157 153
177 158 153
177 159 153
177 160 153
177 161 153
177 162 153
177 163 153
177 164 153
177 165 153
177 166 153
177 167 153
177 168 153
177 169 153
177 170 153
177 171 153
177 172 153
177 173 153
177 174 153
177 175 153
177 176 153
177 177 153
177 178 153
177 179 153
177 180 153
177 181 153
177 182 153
177 183 153
177 184 153
177 185 153
177 186 153
177 187 153
177 188 153
177 189 153
177 190 153
177 191 153
177 192 153
177 193 153
177 194 153
177 195 153
177 196 153
177 197 153
177 198 153
177 199 153
177 200 153
177 201 153
177 202 153
177 203 153
177 204 153
177 205 153
177 206 153
177 207 153
177 208 153
177 209 153
177 210 153
177 211 153
177 212 153
177 213 153
177 214 153
177 215 153
177 216 153
177 217 153
177 218 153
177 219 153
177 220 153
177 221 153
177 222 153
177 223 153
177 224 153
177 225 153
177 226 153
177 227 153
177 228 153
177 229 153
177 230 153
177 231 153
177 232 153
177 233 153
177 234 153
177 235 153
177 236 153
177 237 153
177 238 153
177 239 153
177 240 153
177 241 153
177 242 153
177 243 153
177 244 153
177 245 153
177 246 153
177 247 153
177 248 153
177 249 153
177 250 153
177 251 153
177 252 153
177 253 153
177 254 153
177 255 153
178 0 153
178 1 153
178 2 153
178 3 153
178 4 153
178 5 153
178 6 153
178 7 153
178 8 153
178 9 153
178 10 153
178 11 153
178 12 153
178 13 153
178 14 153
178 15 153
178 16 153
178 17 153
178 18 153
178 19 153
178 20 153
178 21 153
178 22 153
178 23 153
178 24 153
178 25 153
178 26 153
178 27 153
178 28 153
178 29 153
178 30 153
178 31 153
178 32 153
178 33 153
178 34 153
178 35 153
178 36 153
178 37 153
178 38 153
178 39 153
178 40 153
178 41 153
178 42 153
178 43 153
178 44 153
178 45 153
178 46 153
178 47 153
178 48 153
178 49 153
178 50 153
178 51 153
178 52 153
178 53 153
178 54 153
178 55 153
178 56 153
178 57 153
178 58 153
178 59 153
178 60 153
178 61 153
178 62 153
178 63 153
178 64 153
178 65 153
178 66 153
178 67 153
178 68 153
178 69 153
178 70 153
178 71 153
178 72 153
178 73 153
178 74 153
178 75 153
178 76 153
178 77 153
178 78 153
178 79 153
178 80 153
178 81 153
178 82 153
178 83 153
178 84 153
178 85 153
178 86 153
178 87 153
178 88 153
178 89 153
178 90 153
178 91 153
178 92 153
178 93 153
178 94 153
178 95 153
178 96 153
178 97 153
178 98 153
178 99 153
178 100 153
178 101 153
178 102 153
178 103 153
178 104 153
178 105 153
178 106 153
178 107 153
178 108 153
178 109 153
178 110 153
178 111 153
178 112 153
178 113 153
178 114 153
178 115 153
178 116 153
178 117 153
178 118 153
178 119 153
178 120 153
178 121 153
178 122 153
178 123 153
178 124 153
178 125 153
178 126 153
178 127 153
178 128 153
178 129 153
178 130 153
178 131 153
178 132 153
178 133 153
178 134 153
178 135 153
178 136 153
178 137 153
178 138 153
178 139 153
178 140 153
178 141 153
178 142 153
178 143 153
178 144 153
178 145 153
178 146 153
178 147 153
178 148 153
178 149 153
178 150 153
178 151 153
178 152 153
178 153 153
178 154 153
178 155 153
178 156 153
178 157 153
178 158 153
178 159 153
178 160 153
178 161 153
178 162 153
178 163 153
178 164 153
178 165 153
178 166 153
178 167 153
178 168 153
178 169 153
178 170 153
178 171 153
178 172 153
178 173 153
178 174 153
178 175 153
178 176 153
178 177 153
178 178 153
178 179 153
178 180 153
178 181 153
178 182 153
178 183 153
178 184 153
178 185 153
178 186 153
178 187 153
178 188 153
178 189 153
178 190 153
178 191 153
178 192 153
178 193 153
178 194 153
178 195 153
178 196 153
178 197 153
178 198 153
178 199 153
178 200 153
178 201 153
178 202 153
178 203 153
178 204 153
178 205 153
178 206 153
178 207 153
178 208 153
178 209 153
178 210 153
178 211 153
178 212 153
178 213 153
178 214 153
178 215 153
178 216 153
178 217 153
178 218 153
178 219 153
178 220 153
178 221 153
178 222 153
178 223 153
178 224 153
178 225 153
178 226 153
178 227 153
178 228 153
178 229 153
178 230 153
178 231 153
178 232 153
178 233 153
178 234 153
178 235 153
178 236 153
178 237 153
178 238 153
178 239 153
178 240 153
178 241 153
178 242 153
178 243 153
178 244 153
178 245 153
178 246 153
178 247 153
178 248 153
178 249 153
178 250 153
178 251 153
178 252 153
178 253 153
178 254 153
178 255 153
179 0 153
179 1 153
179 2 153
179 3 153
179 4 153
179 5 153
179 6 153
179 7 153
179 8 153
179 9 153
179 10 153
179 11 153
179 12 153
179 13 153
179 14 153
179 15 153
179 16 153
179 17 153
179 18 153
179 19 153
179 20 153
179 21 153
179 22 153
179 23 153
179 24 153
179 25 153
179 26 153
179 27 153
179 28 153
179 29 153
179 30 153
179 31 153
179 32 153
179 33 153
179 34 153
179 35 153
179 36 153
179 37 153
179 38 153
179 39 153
179 40 153
179 41 153
179 42 153
179 43 153
179 44 153
179 45 153
179 46 153
179 47 153
179 48 153
179 49 153
179 50 153
179 51 153
179 52 153
179 53 153
179 54 153
179 55 153
179 56 153
179 57 153
179 58 153
179 59 153
179 60 153
179 61 153
179 62 153
179 63 153
179 64 153
179 65 153
179 66 153
179 67 153
179 68 153
179 69 153
179 70 153
179 71 153
179 72 153
179 73 153
179 74 153
179 75 153
179 76 153
179 77 153
179 78 153
179 79 153
179 80 153
179 81 153
179 82 153
179 83 153
179 84 153
179 85 153
179 86 153
179 87 153
179 88 153
179 89 153
179 90 153
179 91 153
179 92 153
179 93 153
179 94 153
179 95 153
179 96 153
179 97 153
179 98 153
179 99 153
179 100 153
179 101 153
179 102 153
179 103 153
179 104 153
179 105 153
179 106 153
179 107 153
179 108 153
179 109 153
179 110 153
179 111 153
179 112 153
179 113 153
179 114 153
179 115 153
179 116 153
179 117 153
179 118 153
179 119 153
179 120 153
179 121 153
179 122 153
179 123 153
179 124 153
179 125 153
179 126 153
179 127 153
179 128 153
179 129 153
179 130 153
179 131 153
179 132 153
179 133 153
179 134 153
179 135 153
179 136 153
179 137 153
179 138 153
179 139 153
179 140 153
179 141 153
179 142 153
179 143 153
179 144 153
179 145 153
179 146 153
179 147 153
179 148 153
179 149 153
179 150 153
179 151 153
179 152 153
179 153 153
179 154 153
179 155 153
179 156 153
179 157 153
179 158 153
179 159 153
179 160 153
179 161 153
179 162 153
179 163 153
179 164 153
179 165 153
179 166 153
179 167 153
179 168 153
179 169 153
179 170 153
179 171 153
179 172 153
179 173 153
179 174 153
179 175 153
179 176 153
179 177 153
179 178 153
179 179 153
179 180 153
179 181 153
179 182 153
179 183 153
179 184 153
179 185 153
179 186 153
179 187 153
179 188 153
179 189 153
179 190 153
179 191 153
179 192 153
179 193 153
179 194 153
179 195 153
179 196 153
179 197 153
179 198 153
179 199 153
179 200 153
179 201 153
179 202 153
179 203 153
179 204 153
179 205 153
179 206 153
179 207 153
179 208 153
179 209 153
179 210 153
179 211 153
179 212 153
179 213 153
179 214 153
179 215 153
179 216 153
179 217 153
179 218 153
179 219 153
179 220 153
179 221 153
179 222 153
179 223 153
179 224 153
179 225 153
179 226 153
179 227 153
179 228 153
179 229 153
179 230 153
179 231 153
179 232 153
179 233 153
179 234 153
179 235 153
179 236 153
179 237 153
179 238 153
179 239 153
179 240 153
179 241 153
179 242 153
179 243 153
179 244 153
179 245 153
179 246 153
179 247 153
179 248 153
179 249 153
179 250 153
179 251 153
179 252 153
179 253 153
179 254 153
179 255 153
180 0 153
180 1 153
180 2 153
180 3 153
180 4 153
180 5 153
180 6 153
180 7 153
180 8 153
180 9 153
180 10 153
180 11 153
180 12 153
180 13 153
180 14 153
180 15 153
180 16 153
180 17 153
180 18 153
180 19 153
180 20 153
180 21 153
180 22 153
180 23 153
180 24 153
180 25 153
180 26 153
180 27 153
180 28 153
180 29 153
180 30 153
180 31 153
180 32 153
180 33 153
180 34 153
180 35 153
180 36 153
180 37 153
180 38 153
180 39 153
180 40 153
180 41 153
180 42 153
180 43 153
180 44 153
180 45 153
180 46 153
180 47 153
180 48 153
180 49 153
180 50 153
180 51 153
180 52 153
180 53 153
180 54 153
180 55 153
180 56 153
180 57 153
180 58 153
180 59 153
180 60 153
180 61 153
180 62 153
180 63 153
180 64 153
180 65 153
180 66 153
180 67 153
180 68 153
180 69 153
180 70 153
180 71 153
180 72 153
180 73 153
180 74 153
180 75 153
180 76 153
180 77 153
180 78 153
180 79 153
180 80 153
180 81 153
180 82 153
180 83 153
180 84 153
180 85 153
180 86 153
180 87 153
180 88 153
180 89 153
180 90 153
180 91 153
180 92 153
180 93 153
180 94 153
180 95 153
180 96 153
180 97 153
180 98 153
180 99 153
180 100 153
180 101 153
180 102 153
180 103 153
180 104 153
180 105 153
180 106 153
180 107 153
180 108 153
180 109 153
180 110 153
180 111 153
180 112 153
180 113 153
180 114 153
180 115 153
180 116 153
180 117 153
180 118 153
180 119 153
180 120 153
180 121 153
180 122 153
180 123 153
180 124 153
180 125 153
180 126 153
180 127 153
180 128 153
180 129 153
180 130 153
180 131 153
180 132 153
180 133 153
180 134 153
180 135 153
180 136 153
180 137 153
180 138 153
180 139 153
180 140 153
180 141 153
180 142 153
180 143 153
180 144 153
180 145 153
180 146 153
180 147 153
180 148 153
180 149 153
180 150 153
180 151 153
180 152 153
180 153 153
180 154 153
180 155 153
180 156 153
180 157 153
180 158 153
180 159 153
180 160 153
180 161 153
180 162 153
180 163 153
180 164 153
180 165 153
180 166 153
180 167 153
180 168 153
180 169 153
180 170 153
180 171 153
180 172 153
180 173 153
180 174 153
180 175 153
180 176 153
180 177 153
180 178 153
180 179 153
180 180 153
180 181 153
180 182 153
180 183 153
180 184 153
180 185 153
180 186 153
180 187 153
180 188 153
180 189 153
180 190 153
180 191 153
180 192 153
180 193 153
180 194 153
180 195 153
180 196 153
180 197 153
180 198 153
180 199 153
180 200 153
180 201 153
180 202 153
180 203 153
180 204 153
180 205 153
180 206 153
180 207 153
180 208 153
180 209 153
180 210 153
180 211 153
180 212 153
180 213 153
180 214 153
180 215 153
180 216 153
180 217 153
180 218 153
180 219 153
180 220 153
180 221 153
180 222 153
180 223 153
180 224 153
180 225 153
180 226 153
180 227 153
180 228 153
180 229 153
180 230 153
180 231 153
180 232 153
180 233 153
180 234 153
180 235 153
180 236 153
180 237 153
180 238 153
180 239 153
180 240 153
180 241 153
180 242 153
180 243 153
180 244 153
180 245 153
180 246 153
180 247 153
180 248 153
180 249 153
180 250 153
180 251 153
180 252 153
180 253 153
180 254 153
180 255 153
181 0 153
181 1 153
181 2 153
181 3 153
181 4 153
181 5 153
181 6 153
181 7 153
181 8 153
181 9 153
181 10 153
181 11 153
181 12 153
181 13 153
181 14 153
181 15 153
181 16 153
181 17 153
181 18 153
181 19 153
181 20 153
181 21 153
181 22 153
181 23 153
181 24 153
181 25 153
181 26 153
181 27 153
181 28 153
181 29 153
181 30 153
181 31 153
181 32 153
181 33 153
181 34 153
181 35 153
181 36 153
181 37 153
181 38 153
181 39 153
181 40 153
181 41 153
181 42 153
181 43 153
181 44 153
181 45 153
181 46 153
181 47 153
181 48 153
181 49 153
181 50 153
181 51 153
181 52 153
181 53 153
181 54 153
181 55 153
181 56 153
181 57 153
181 58 153
181 59 153
181 60 153
181 61 153
181 62 153
181 63 153
181 64 153
181 65 153
181 66 153
181 67 153
181 68 153
181 69 153
181 70 153
181 71 153
181 72 153
181 73 153
181 74 153
181 75 153
181 76 153
181 77 153
181 78 153
181 79 153
181 80 153
181 81 153
181 82 153
181 83 153
181 84 153
181 85 153
181 86 153
181 87 153
181 88 153
181 89 153
181 90 153
181 91 153
181 92 153
181 93 153
181 94 153
181 95 153
181 96 153
181 97 153
181 98 153
181 99 153
181 100 153
181 101 153
181 102 153
181 103 153
181 104 153
181 105 153
181 106 153
181 107 153
181 108 153
181 109 153
181 110 153
181 111 153
181 112 153
181 113 153
181 114 153
181 115 153
181 116 153
181 117 153
181 118 153
181 119 153
181 120 153
181 121 153
181 122 153
181 123 153
181 124 153
181 125 153
181 126 153
181 127 153
181 128 153
181 129 153
181 130 153
181 131 153
181 132 153
181 133 153
181 134 153
181 135 153
181 136 153
181 137 153
181 138 153
181 139 153
181 140 153
181 141 153
181 142 153
181 143 153
181 144 153
181 145 153
181 146 153
181 147 153
181 148 153
181 149 153
181 150 153
181 151 153
181 152 153
181 153 153
181 154 153
181 155 153
181 156 153
181 157 153
181 158 153
181 159 153
181 160 153
181 161 153
181 162 153
181 163 153
181 164 153
181 165 153
181 166 153
181 167 153
181 168 153
181 169 153
181 170 153
181 171 153
181 172 153
181 173 153
181 174 153
181 175 153
181 176 153
181 177 153
181 178 153
181 179 153
181 180 153
181 181 153
181 182 153
181 183 153
181 184 153
181 185 153
181 186 153
181 187 153
181 188 153
181 189 153
181 190 153
181 191 153
181 192 153
181 193 153
181 194 153
181 195 153
181 196 153
181 197 153
181 198 153
181 199 153
181 200 153
181 201 153
181 202 153
181 203 153
181 204 153
181 205 153
181 206 153
181 207 153
181 208 153
181 209 153
181 210 153
181 211 153
181 212 153
181 213 153
181 214 153
181 215 153
181 216 153
181 217 153
181 218 153
181 219 153
181 220 153
181 221 153
181 222 153
181 223 153
181 224 153
181 225 153
181 226 153
181 227 153
181 228 153
181 229 153
181 230 153
181 231 153
181 232 153
181 233 153
181 234 153
181 235 153
181 236 153
181 237 153
181 238 153
181 239 153
181 240 153
181 241 153
181 242 153
181 243 153
181 244 153
181 245 153
181 246 153
181 247 153
181 248 153
181 249 153
181 250 153
181 251 153
181 252 153
181 253 153
181 254 153
181 255 153
182 0 153
182 1 153
182 2 153
182 3 153
182 4 153
182 5 153
182 6 153
182 7 153
182 8 153
182 9 153
182 10 153
182 11 153
182 12 153
182 13 153
182 14 153
182 15 153
182 16 153
182 17 153
182 18 153
182 19 153
182 20 153
182 21 153
182 22 153
182 23 153
182 24 153
182 25 153
182 26 153
182 27 153
182 28 153
182 29 153
182 30 153
182 31 153
182 32 153
182 33 153
182 34 153
182 35 153
182 36 153
182 37 153
182 38 153
182 39 153
182 40 153
182 41 153
182 42 153
182 43 153
182 44 153
182 45 153
182 46 153
182 47 153
182 48 153
182 49 153
182 50 153
182 51 153
182 52 153
182 53 153
182 54 153
182 55 153
182 56 153
182 57 153
182 58 153
182 59 153
182 60 153
182 61 153
182 62 153
182 63 153
182 64 153
182 65 153
182 66 153
182 67 153
182 68 153
182 69 153
182 70 153
182 71 153
182 72 153
182 73 153
182 74 153
182 75 153
182 76 153
182 77 153
182 78 153
182 79 153
182 80 153
182 81 153
182 82 153
182 83 153
182 84 153
182 85 153
182 86 153
182 87 153
182 88 153
182 89 153
182 90 153
182 91 153
182 92 153
182 93 153
182 94 153
182 95 153
182 96 153
182 97 153
182 98 153
182 99 153
182 100 153
182 101 153
182 102 153
182 103 153
182 104 153
182 105 153
182 106 153
182 107 153
182 108 153
182 109 153
182 110 153
182 111 153
182 112 153
182 113 153
182 114 153
182 115 153
182 116 153
182 117 153
182 118 153
182 119 153
182 120 153
182 121 153
182 122 153
182 123 153
182 124 153
182 125 153
182 126 153
182 127 153
182 128 153
182 129 153
182 130 153
182 131 153
182 132 153
182 133 153
182 134 153
182 135 153
182 136 153
182 137 153
182 138 153
182 139 153
182 140 153
182 141 153
182 142 153
182 143 153
182 144 153
182 145 153
182 146 153
182 147 153
182 148 153
182 149 153
182 150 153
182 151 153
182 152 153
182 153 153
182 154 153
182 155 153
182 156 153
182 157 153
182 158 153
182 159 153
182 160 153
182 161 153
182 162 153
182 163 153
182 164 153
182 165 153
182 166 153
182 167 153
182 168 153
182 169 153
182 170 153
182 171 153
182 172 153
182 173 153
182 174 153
182 175 153
182 176 153
182 177 153
182 178 153
182 179 153
182 180 153
182 181 153
182 182 153
182 183 153
182 184 153
182 185 153
182 186 153
182 187 153
182 188 153
182 189 153
182 190 153
182 191 153
182 192 153
182 193 153
182 194 153
182 195 153
182 196 153
182 197 153
182 198 153
182 199 153
182 200 153
182 201 153
182 202 153
182 203 153
182 204 153
182 205 153
182 206 153
182 207 153
182 208 153
182 209 153
182 210 153
182 211 153
182 212 153
182 213 153
182 214 153
182 215 153
182 216 153
182 217 153
182 218 153
182 219 153
182 220 153
182 221 153
182 222 153
182 223 153
182 224 153
182 225 153
182 226 153
182 227 153
182 228 153
182 229 153
182 230 153
182 231 153
182 232 153
182 233 153
182 234 153
182 235 153
182 236 153
182 237 153
182 238 153
182 239 153
182 240 153
182 241 153
182 242 153
182 243 153
182 244 153
182 245 153
182 246 153
182 247 153
182 248 153
182 249 153
182 250 153
182 251 153
182 252 153
182 253 153
182 254 153
182 255 153
183 0 153
183 1 153
183 2 153
183 3 153
183 4 153
183 5 153
183 6 153
183 7 153
183 8 153
183 9 153
183 10 153
183 11 153
183 12 153
183 13 153
183 14 153
183 15 153
183 16 153
183 17 153
183 18 153
183 19 153
183 20 153
183 21 153
183 22 153
183 23 153
183 24 153
183 25 153
183 26 153
183 27 153
183 28 153
183 29 153
183 30 153
183 31 153
183 32 153
183 33 153
183 34 153
183 35 153
183 36 153
183 37 153
183 38 153
183 39 153
183 40 153
183 41 153
183 42 153
183 43 153
183 44 153
183 45 153
183 46 153
183 47 153
183 48 153
183 49 153
183 50 153
183 51 153
183 52 153
183 53 153
183 54 153
183 55 153
183 56 153
183 57 153
183 58 153
183 59 153
183 60 153
183 61 153
183 62 153
183 63 153
183 64 153
183 65 153
183 66 153
183 67 153
183 68 153
183 69 153
183 70 153
183 71 153
183 72 153
183 73 153
183 74 153
183 75 153
183 76 153
183 77 153
183 78 153
183 79 153
183 80 153
183 81 153
183 82 153
183 83 153
183 84 153
183 85 153
183 86 153
183 87 153
183 88 153
183 89 153
183 90 153
183 91 153
183 92 153
183 93 153
183 94 153
183 95 153
183 96 153
183 97 153
183 98 153
183 99 153
183 100 153
183 101 153
183 102 153
183 103 153
183 104 153
183 105 153
183 106 153
183 107 153
183 108 153
183 109 153
183 110 153
183 111 153
183 112 153
183 113 153
183 114 153
183 115 153
183 116 153
183 117 153
183 118 153
183 119 153
183 120 153
183 121 153
183 122 153
183 123 153
183 124 153
183 125 153
183 126 153
183 127 153
183 128 153
183 129 153
183 130 153
183 131 153
183 132 153
183 133 153
183 134 153
183 135 153
183 136 153
183 137 153
183 138 153
183 139 153
183 140 153
183 141 153
183 142 153
183 143 153
183 144 153
183 145 153
183 146 153
183 147 153
183 148 153
183 149 153
183 150 153
183 151 153
183 152 153
183 153 153
183 154 153
183 155 153
183 156 153
183 157 153
183 158 153
183 159 153
183 160 153
183 161 153
183 162 153
183 163 153
183 164 153
183 165 153
183 166 153
183 167 153
183 168 153
183 169 153
183 170 153
183 171 153
183 172 153
183 173 153
183 174 153
183 175 153
183 176 153
183 177 153
183 178 153
183 179 153
183 180 153
183 181 153
183 182 153
183 183 153
183 184 153
183 185 153
183 186 153
183 187 153
183 188 153
183 189 153
183 190 153
183 191 153
183 192 153
183 193 153
183 194 153
183 195 153
183 196 153
183 197 153
183 198 153
183 199 153
183 200 153
183 201 153
183 202 153
183 203 153
183 204 153
183 205 153
183 206 153
183 207 153
183 208 153
183 209 153
183 210 153
183 211 153
183 212 153
183 213 153
183 214 153
183 215 153
183 216 153
183 217 153
183 218 153
183 219 153
183 220 153
183 221 153
183 222 153
183 223 153
183 224 153
183 225 153
183 226 153
183 227 153
183 228 153
183 229 153
183 230 153
183 231 153
183 232 153
183 233 153
183 234 153
183 235 153
183 236 153
183 237 153
183 238 153
183 239 153
183 240 153
183 241 153
183 242 153
183 243 153
183 244 153
183 245 153
183 246 153
183 247 153
183 248 153
183 249 153
183 250 153
183 251 153
183 252 153
183 253 153
183 254 153
183 255 153
184 0 153
184 1 153
184 2 153
184 3 153
184 4 153
184 5 153
184 6 153
184 7 153
184 8 153
184 9 153
184 10 153
184 11 153
184 12 153
184 13 153
184 14 153
184 15 153
184 16 153
184 17 153
184 18 153
184 19 153
184 20 153
184 21 153
184 22 153
184 23 153
184 24 153
184 25 153
184 26 153
184 27 153
184 28 153
184 29 153
184 30 153
184 31 153
184 32 153
184 33 153
184 34 153
184 35 153
184 36 153
184 37 153
184 38 153
184 39 153
184 40 153
184 41 153
184 42 153
184 43 153
184 44 153
184 45 153
184 46 153
184 47 153
184 48 153
184 49 153
184 50 153
184 51 153
184 52 153
184 53 153
184 54 153
184 55 153
184 56 153
184 57 153
184 58 153
184 59 153
184 60 153
184 61 153
184 62 153
184 63 153
184 64 153
184 65 153
184 66 153
184 67 153
184 68 153
184 69 153
184 70 153
184 71 153
184 72 153
184 73 153
184 74 153
184 75 153
184 76 153
184 77 153
184 78 153
184 79 153
184 80 153
184 81 153
184 82 153
184 83 153
184 84 153
184 85 153
184 86 153
184 87 153
184 88 153
184 89 153
184 90 153
184 91 153
184 92 153
184 93 153
184 94 153
184 95 153
184 96 153
184 97 153
184 98 153
184 99 153
184 100 153
184 101 153
184 102 153
184 103 153
184 104 153
184 105 153
184 106 153
184 107 153
184 108 153
184 109 153
184 110 153
184 111 153
184 112 153
184 113 153
184 114 153
184 115 153
184 116 153
184 117 153
184 118 153
184 119 153
184 120 153
184 121 153
184 122 153
184 123 153
184 124 153
184 125 153
184 126 153
184 127 153
184 128 153
184 129 153
184 130 153
184 131 153
184 132 153
184 133 153
184 134 153
184 135 153
184 136 153
184 137 153
184 138 153
184 139 153
184 140 153
184 141 153
184 142 153
184 143 153
184 144 153
184 145 153
184 146 153
184 147 153
184 148 153
184 149 153
184 150 153
184 151 153
184 152 153
184 153 153
184 154 153
184 155 153
184 156 153
184 157 153
184 158 153
184 159 153
184 160 153
184 161 153
184 162 153
184 163 153
184 164 153
184 165 153
184 166 153
184 167 153
184 168 153
184 169 153
184 170 153
184 171 153
184 172 153
184 173 153
184 174 153
184 175 153
184 176 153
184 177 153
184 178 153
184 179 153
184 180 153
184 181 153
184 182 153
184 183 153
184 184 153
184 185 153
184 186 153
184 187 153
184 188 153
184 189 153
184 190 153
184 191 153
184 192 153
184 193 153
184 194 153
184 195 153
184 196 153
184 197 153
184 198 153
184 199 153
184 200 153
184 201 153
184 202 153
184 203 153
184 204 153
184 205 153
184 206 153
184 207 153
184 208 153
184 209 153
184 210 153
184 211 153
184 212 153
184 213 153
184 214 153
184 215 153
184 216 153
184 217 153
184 218 153
184 219 153
184 220 153
184 221 153
184 222 153
184 223 153
184 224 153
184 225 153
184 226 153
184 227 153
184 228 153
184 229 153
184 230 153
184 231 153
184 232 153
184 233 153
184 234 153
184 235 153
184 236 153
184 237 153
184 238 153
184 239 153
184 240 153
184 241 153
184 242 153
184 243 153
184 244 153
184 245 153
184 246 153
184 247 153
184 248 153
184 249 153
184 250 153
184 251 153
184 252 153
184 253 153
184 254 153
184 255 153
185 0 153
185 1 153
185 2 153
185 3 153
185 4 153
185 5 153
185 6 153
185 7 153
185 8 153
185 9 153
185 10 153
185 11 153
185 12 153
185 13 153
185 14 153
185 15 153
185 16 153
185 17 153
185 18 153
185 19 153
185 20 153
185 21 153
185 22 153
185 23 153
185 24 153
185 25 153
185 26 153
185 27 153
185 28 153
185 29 153
185 30 153
185 31 153
185 32 153
185 33 153
185 34 153
185 35 153
185 36 153
185 37 153
185 38 153
185 39 153
185 40 153
185 41 153
185 42 153
185 43 153
185 44 153
185 45 153
185 46 153
185 47 153
185 48 153
185 49 153
185 50 153
185 51 153
185 52 153
185 53 153
185 54 153
185 55 153
185 56 153
185 57 153
185 58 153
185 59 153
185 60 153
185 61 153
185 62 153
185 63 153
185 64 153
185 65 153
185 66 153
185 67 153
185 68 153
185 69 153
185 70 153
185 71 153
185 72 153
185 73 153
185 74 153
185 75 153
185 76 153
185 77 153
185 78 153
185 79 153
185 80 153
185 81 153
185 82 153
185 83 153
185 84 153
185 85 153
185 86 153
185 87 153
185 88 153
185 89 153
185 90 153
185 91 153
185 92 153
185 93 153
185 94 153
185 95 153
185 96 153
185 97 153
185 98 153
185 99 153
185 100 153
185 101 153
185 102 153
185 103 153
185 104 153
185 105 153
185 106 153
185 107 153
185 108 153
185 109 153
185 110 153
185 111 153
185 112 153
185 113 153
185 114 153
185 115 153
185 116 153
185 117 153
185 118 153
185 119 153
185 120 153
185 121 153
185 122 153
185 123 153
185 124 153
185 125 153
185 126 153
185 127 153
185 128 153
185 129 153
185 130 153
185 131 153
185 132 153
185 133 153
185 134 153
185 135 153
185 136 153
185 137 153
185 138 153
185 139 153
185 140 153
185 141 153
185 142 153
185 143 153
185 144 153
185 145 153
185 146 153
185 147 153
185 148 153
185 149 153
185 150 153
185 151 153
185 152 153
185 153 153
185 154 153
185 155 153
185 156 153
185 157 153
185 158 153
185 159 153
185 160 153
185 161 153
185 162 153
185 163 153
185 164 153
185 165 153
185 166 153
185 167 153
185 168 153
185 169 153
185 170 153
185 171 153
185 172 153
185 173 153
185 174 153
185 175 153
185 176 153
185 177 153
185 178 153
185 179 153
185 180 153
185 181 153
185 182 153
185 183 153
185 184 153
185 185 153
185 186 153
185 187 153
185 188 153
185 189 153
185 190 153
185 191 153
185 192 153
185 193 153
185 194 153
185 195 153
185 196 153
185 197 153
185 198 153
185 199 153
185 200 153
185 201 153
185 202 153
185 203 153
185 204 153
185 205 153
185 206 153
185 207 153
185 208 153
185 209 153
185 210 153
185 211 153
185 212 153
185 213 153
185 214 153
185 215 153
185 216 153
185 217 153
185 218 153
185 219 153
185 220 153
185 221 153
185 222 153
185 223 153
185 224 153
185 225 153
185 226 153
185 227 153
185 228 153
185 229 153
185 230 153
185 231 153
185 232 153
185 233 153
185 234 153
185 235 153
185 236 153
185 237 153
185 238 153
185 239 153
185 240 153
185 241 153
185 242 153
185 243 153
185 244 153
185 245 153
185 246 153
185 247 153
185 248 153
185 249 153
185 250 153
185 251 153
185 252 153
185 253 153
185 254 153
185 255 153
186 0 153
186 1 153
186 2 153
186 3 153
186 4 153
186 5 153
186 6 153
186 7 153
186 8 153
186 9 153
186 10 153
186 11 153
186 12 153
186 13 153
186 14 153
186 15 153
186 16 153
186 17 153
186 18 153
186 19 153
186 20 153
186 21 153
186 22 153
186 23 153
186 24 153
186 25 153
186 26 153
186 27 153
186 28 153
186 29 153
186 30 153
186 31 153
186 32 153
186 33 153
186 34 153
186 35 153
186 36 153
186 37 153
186 38 153
186 39 153
186 40 153
186 41 153
186 42 153
186 43 153
186 44 153
186 45 153
186 46 153
186 47 153
186 48 153
186 49 153
186 50 153
186 51 153
186 52 153
186 53 153
186 54 153
186 55 153
186 56 153
186 57 153
186 58 153
186 59 153
186 60 153
186 61 153
186 62 153
186 63 153
186 64 153
186 65 153
186 66 153
186 67 153
186 68 153
186 69 153
186 70 153
186 71 153
186 72 153
186 73 153
186 74 153
186 75 153
186 76 153
186 77 153
186 78 153
186 79 153
186 80 153
186 81 153
186 82 153
186 83 153
186 84 153
186 85 153
186 86 153
186 87 153
186 88 153
186 89 153
186 90 153
186 91 153
186 92 153
186 93 153
186 94 153
186 95 153
186 96 153
186 97 153
186 98 153
186 99 153
186 100 153
186 101 153
186 102 153
186 103 153
186 104 153
186 105 153
186 106 153
186 107 153
186 108 153
186 109 153
186 110 153
186 111 153
186 112 153
186 113 153
186 114 153
186 115 153
186 116 153
186 117 153
186 118 153
186 119 153
186 120 153
186 121 153
186 122 153
186 123 153
186 124 153
186 125 153
186 126 153
186 127 153
186 128 153
186 129 153
186 130 153
186 131 153
186 132 153
186 133 153
186 134 153
186 135 153
186 136 153
186 137 153
186 138 153
186 139 153
186 140 153
186 141 153
186 142 153
186 143 153
186 144 153
186 145 153
186 146 153
186 147 153
186 148 153
186 149 153
186 150 153
186 151 153
186 152 153
186 153 153
186 154 153
186 155 153
186 156 153
186 157 153
186 158 153
186 159 153
186 160 153
186 161 153
186 162 153
186 163 153
186 164 153
186 165 153
186 166 153
186 167 153
186 168 153
186 169 153
186 170 153
186 171 153
186 172 153
186 173 153
186 174 153
186 175 153
186 176 153
186 177 153
186 178 153
186 179 153
186 180 153
186 181 153
186 182 153
186 183 153
186 184 153
186 185 153
186 186 153
186 187 153
186 188 153
186 189 153
186 190 153
186 191 153
186 192 153
186 193 153
186 194 153
186 195 153
186 196 153
186 197 153
186 198 153
186 199 153
186 200 153
186 201 153
186 202 153
186 203 153
186 204 153
186 205 153
186 206 153
186 207 153
186 208 153
186 209 153
186 210 153
186 211 153
186 212 153
186 213 153
186 214 153
186 215 153
186 216 153
186 217 153
186 218 153
186 219 153
186 220 153
186 221 153
186 222 153
186 223 153
186 224 153
186 225 153
186 226 153
186 227 153
186 228 153
186 229 153
186 230 153
186 231 153
186 232 153
186 233 153
186 234 153
186 235 153
186 236 153
186 237 153
186 238 153
186 239 153
186 240 153
186 241 153
186 242 153
186 243 153
186 244 153
186 245 153
186 246 153
186 247 153
186 248 153
186 249 153
186 250 153
186 251 153
186 252 153
186 253 153
186 254 153
186 255 153
187 0 153
187 1 153
187 2 153
187 3 153
187 4 153
187 5 153
187 6 153
187 7 153
187 8 153
187 9 153
187 10 153
187 11 153
187 12 153
187 13 153
187 14 153
187 15 153
187 16 153
187 17 153
187 18 153
187 19 153
187 20 153
187 21 153
187 22 153
187 23 153
187 24 153
187 25 153
187 26 153
187 27 153
187 28 153
187 29 153
187 30 153
187 31 153
187 32 153
187 33 153
187 34 153
187 35 153
187 36 153
187 37 153
187 38 153
187 39 153
187 40 153
187 41 153
187 42 153
187 43 153
187 44 153
187 45 153
187 46 153
187 47 153
187 48 153
187 49 153
187 50 153
187 51 153
187 52 153
187 53 153
187 54 153
187 55 153
187 56 153
187 57 153
187 58 153
187 59 153
187 60 153
187 61 153
187 62 153
187 63 153
187 64 153
187 65 153
187 66 153
187 67 153
187 68 153
187 69 153
187 70 153
187 71 153
187 72 153
187 73 153
187 74 153
187 75 153
187 76 153
187 77 153
187 78 153
187 79 153
187 80 153
187 81 153
187 82 153
187 83 153
187 84 153
187 85 153
187 86 153
187 87 153
187 88 153
187 89 153
187 90 153
187 91 153
187 92 153
187 93 153
187 94 153
187 95 153
187 96 153
187 97 153
187 98 153
187 99 153
187 100 153
187 101 153
187 102 153
187 103 153
187 104 153
187 105 153
187 106 153
187 107 153
187 108 153
187 109 153
187 110 153
187 111 153
187 112 153
187 113 153
187 114 153
187 115 153
187 116 153
187 117 153
187 118 153
187 119 153
187 120 153
187 121 153
187 122 153
187 123 153
187 124 153
187 125 153
187 126 153
187 127 153
187 128 153
187 129 153
187 130 153
187 131 153
187 132 153
187 133 153
187 134 153
187 135 153
187 136 153
187 137 153
187 138 153
187 139 153
187 140 153
187 141 153
187 142 153
187 143 153
187 144 153
187 145 153
187 146 153
187 147 153
187 148 153
187 149 153
187 150 153
187 151 153
187 152 153
187 153 153
187 154 153
187 155 153
187 156 153
187 157 153
187 158 153
187 159 153
187 160 153
187 161 153
187 162 153
187 163 153
187 164 153
187 165 153
187 166 153
187 167 153
187 168 153
187 169 153
187 170 153
187 171 153
187 172 153
187 173 153
187 174 153
187 175 153
187 176 153
187 177 153
187 178 153
187 179 153
187 180 153
187 181 153
187 182 153
187 183 153
187 184 153
187 185 153
187 186 153
187 187 153
187 188 153
187 189 153
187 190 153
187 191 153
187 192 153
187 193 153
187 194 153
187 195 153
187 196 153
187 197 153
187 198 153
187 199 153
187 200 153
187 201 153
187 202 153
187 203 153
187 204 153
187 205 153
187 206 153
187 207 153
187 208 153
187 209 153
187 210 153
187 211 153
187 212 153
187 213 153
187 214 153
187 215 153
187 216 153
187 217 153
187 218 153
187 219 153
187 220 153
187 221 153
187 222 153
187 223 153
187 224 153
187 225 153
187 226 153
187 227 153
187 228 153
187 229 153
187 230 153
187 231 153
187 232 153
187 233 153
187 234 153
187 235 153
187 236 153
187 237 153
187 238 153
187 239 153
187 240 153
187 241 153
187 242 153
187 243 153
187 244 153
187 245 153
187 246 153
187 247 153
187 248 153
187 249 153
187 250 153
187 251 153
187 252 153
187 253 153
187 254 153
187 255 153
188 0 153
188 1 153
188 2 153
188 3 153
188 4 153
188 5 153
188 6 153
188 7 153
188 8 153
188 9 153
188 10 153
188 11 153
188 12 153
188 13 153
188 14 153
188 15 153
188 16 153
188 17 153
188 18 153
188 19 153
188 20 153
188 21 153
188 22 153
188 23 153
188 24 153
188 25 153
188 26 153
188 27 153
188 28 153
188 29 153
188 30 153
188 31 153
188 32 153
188 33 153
188 34 153
188 35 153
188 36 153
188 37 153
188 38 153
188 39 153
188 40 153
188 41 153
188 42 153
188 43 153
188 44 153
188 45 153
188 46 153
188 47 153
188 48 153
188 49 153
188 50 153
188 51 153
188 52 153
188 53 153
188 54 153
188 55 153
188 56 153
188 57 153
188 58 153
188 59 153
188 60 153
188 61 153
188 62 153
188 63 153
188 64 153
188 65 153
188 66 153
188 67 153
188 68 153
188 69 153
188 70 153
188 71 153
188 72 153
188 73 153
188 74 153
188 75 153
188 76 153
188 77 153
188 78 153
188 79 153
188 80 153
188 81 153
188 82 153
188 83 153
188 84 153
188 85 153
188 86 153
188 87 153
188 88 153
188 89 153
188 90 153
188 91 153
188 92 153
188 93 153
188 94 153
188 95 153
188 96 153
188 97 153
188 98 153
188 99 153
188 100 153
188 101 153
188 102 153
188 103 153
188 104 153
188 105 153
188 106 153
188 107 153
188 108 153
188 109 153
188 110 153
188 111 153
188 112 153
188 113 153
188 114 153
188 115 153
188 116 153
188 117 153
188 118 153
188 119 153
188 120 153
188 121 153
188 122 153
188 123 153
188 124 153
188 125 153
188 126 153
188 127 153
188 128 153
188 129 153
188 130 153
188 131 153
188 132 153
188 133 153
188 134 153
188 135 153
188 136 153
188 137 153
188 138 153
188 139 153
188 140 153
188 141 153
188 142 153
188 143 153
188 144 153
188 145 153
188 146 153
188 147 153
188 148 153
188 149 153
188 150 153
188 151 153
188 152 153
188 153 153
188 154 153
188 155 153
188 156 153
188 157 153
188 158 153
188 159 153
188 160 153
188 161 153
188 162 153
188 163 153
188 164 153
188 165 153
188 166 153
188 167 153
188 168 153
188 169 153
188 170 153
188 171 153
188 172 153
188 173 153
188 174 153
188 175 153
188 176 153
188 177 153
188 178 153
188 179 153
188 180 153
188 181 153
188 182 153
188 183 153
188 184 153
188 185 153
188 186 153
188 187 153
188 188 153
188 189 153
188 190 153
188 191 153
188 192 153
188 193 153
188 194 153
188 195 153
188 196 153
188 197 153
188 198 153
188 199 153
188 200 153
188 201 153
188 202 153
188 203 153
188 204 153
188 205 153
188 206 153
188 207 153
188 208 153
188 209 153
188 210 153
188 211 153
188 212 153
188 213 153
188 214 153
188 215 153
188 216 153
188 217 153
188 218 153
188 219 153
188 220 153
188 221 153
188 222 153
188 223 153
188 224 153
188 225 153
188 226 153
188 227 153
188 228 153
188 229 153
188 230 153
188 231 153
188 232 153
188 233 153
188 234 153
188 235 153
188 236 153
188 237 153
188 238 153
188 239 153
188 240 153
188 241 153
188 242 153
188 243 153
188 244 153
188 245 153
188 246 153
188 247 153
188 248 153
188 249 153
188 250 153
188 251 153
188 252 153
188 253 153
188 254 153
188 255 153
189 0 153
189 1 153
189 2 153
189 3 153
189 4 153
189 5 153
189 6 153
189 7 153
189 8 153
189 9 153
189 10 153
189 11 153
189 12 153
189 13 153
189 14 153
189 15 153
189 16 153
189 17 153
189 18 153
189 19 153
189 20 153
189 21 153
189 22 153
189 23 153
189 24 153
189 25 153
189 26 153
189 27 153
189 28 153
189 29 153
189 30 153
189 31 153
189 32 153
189 33 153
189 34 153
189 35 153
189 36 153
189 37 153
189 38 153
189 39 153
189 40 153
189 41 153
189 42 153
189 43 153
189 44 153
189 45 153
189 46 153
189 47 153
189 48 153
189 49 153
189 50 153
189 51 153
189 52 153
189 53 153
189 54 153
189 55 153
189 56 153
189 57 153
189 58 153
189 59 153
189 60 153
189 61 153
189 62 153
189 63 153
189 64 153
189 65 153
189 66 153
189 67 153
189 68 153
189 69 153
189 70 153
189 71 153
189 72 153
189 73 153
189 74 153
189 75 153
189 76 153
189 77 153
189 78 153
189 79 153
189 80 153
189 81 153
189 82 153
189 83 153
189 84 153
189 85 153
189 86 153
189 87 153
189 88 153
189 89 153
189 90 153
189 91 153
189 92 153
189 93 153
189 94 153
189 95 153
189 96 153
189 97 153
189 98 153
189 99 153
189 100 153
189 101 153
189 102 153
189 103 153
189 104 153
189 105 153
189 106 153
189 107 153
189 108 153
189 109 153
189 110 153
189 111 153
189 112 153
189 113 153
189 114 153
189 115 153
189 116 153
189 117 153
189 118 153
189 119 153
189 120 153
189 121 153
189 122 153
189 123 153
189 124 153
189 125 153
189 126 153
189 127 153
189 128 153
189 129 153
189 130 153
189 131 153
189 132 153
189 133 153
189 134 153
189 135 153
189 136 153
189 137 153
189 138 153
189 139 153
189 140 153
189 141 153
189 142 153
189 143 153
189 144 153
189 145 153
189 146 153
189 147 153
189 148 153
189 149 153
189 150 153
189 151 153
189 152 153
189 153 153
189 154 153
189 155 153
189 156 153
189 157 153
189 158 153
189 159 153
189 160 153
189 161 153
189 162 153
189 163 153
189 164 153
189 165 153
189 166 153
189 167 153
189 168 153
189 169 153
189 170 153
189 171 153
189 172 153
189 173 153
189 174 153
189 175 153
189 176 153
189 177 153
189 178 153
189 179 153
189 180 153
189 181 153
189 182 153
189 183 153
189 184 153
189 185 153
189 186 153
189 187 153
189 188 153
189 189 153
189 190 153
189 191 153
189 192 153
189 193 153
189 194 153
189 195 153
189 196 153
189 197 153
189 198 153
189 199 153
189 200 153
189 201 153
189 202 153
189 203 153
189 204 153
189 205 153
189 206 153
189 207 153
189 208 153
189 209 153
189 210 153
189 211 153
189 212 153
189 213 153
189 214 153
189 215 153
189 216 153
189 217 153
189 218 153
189 219 153
189 220 153
189 221 153
189 222 153
189 223 153
189 224 153
189 225 153
189 226 153
189 227 153
189 228 153
189 229 153
189 230 153
189 231 153
189 232 153
189 233 153
189 234 153
189 235 153
189 236 153
189 237 153
189 238 153
189 239 153
189 240 153
189 241 153
189 242 153
189 243 153
189 244 153
189 245 153
189 246 153
189 247 153
189 248 153
189 249 153
189 250 153
189 251 153
189 252 153
189 253 153
189 254 153
189 255 153
190 0 153
190 1 153
190 2 153
190 3 153
190 4 153
190 5 153
190 6 153
190 7 153
190 8 153
190 9 153
190 10 153
190 11 153
190 12 153
190 13 153
190 14 153
190 15 153
190 16 153
190 17 153
190 18 153
190 19 153
190 20 153
190 21 153
190 22 153
190 23 153
190 24 153
190 25 153
190 26 153
190 27 153
190 28 153
190 29 153
190 30 153
190 31 153
190 32 153
190 33 153
190 34 153
190 35 153
190 36 153
190 37 153
190 38 153
190 39 153
190 40 153
190 41 153
190 42 153
190 43 153
190 44 153
190 45 153
190 46 153
190 47 153
190 48 153
190 49 153
190 50 153
190 51 153
190 52 153
190 53 153
190 54 153
190 55 153
190 56 153
190 57 153
190 58 153
190 59 153
190 60 153
190 61 153
190 62 153
190 63 153
190 64 153
190 65 153
190 66 153
190 67 153
190 68 153
190 69 153
190 70 153
190 71 153
190 72 153
190 73 153
190 74 153
190 75 153
190 76 153
190 77 153
190 78 153
190 79 153
190 80 153
190 81 153
190 82 153
190 83 153
190 84 153
190 85 153
190 86 153
190 87 153
190 88 153
190 89 153
190 90 153
190 91 153
190 92 153
190 93 153
190 94 153
190 95 153
190 96 153
190 97 153
190 98 153
190 99 153
190 100 153
190 101 153
190 102 153
190 103 153
190 104 153
190 105 153
190 106 153
190 107 153
190 108 153
190 109 153
190 110 153
190 111 153
190 112 153
190 113 153
190 114 153
190 115 153
190 116 153
190 117 153
190 118 153
190 119 153
190 120 153
190 121 153
190 122 153
190 123 153
190 124 153
190 125 153
190 126 153
190 127 153
190 128 153
190 129 153
190 130 153
190 131 153
190 132 153
190 133 153
190 134 153
190 135 153
190 136 153
190 137 153
190 138 153
190 139 153
190 140 153
190 141 153
190 142 153
190 143 153
190 144 153
190 145 153
190 146 153
190 147 153
190 148 153
190 149 153
190 150 153
190 151 153
190 152 153
190 153 153
190 154 153
190 155 153
190 156 153
190 157 153
190 158 153
190 159 153
190 160 153
190 161 153
190 162 153
190 163 153
190 164 153
190 165 153
190 166 153
190 167 153
190 168 153
190 169 153
190 170 153
190 171 153
190 172 153
190 173 153
190 174 153
190 175 153
190 176 153
190 177 153
190 178 153
190 179 153
190 180 153
190 181 153
190 182 153
190 183 153
190 184 153
190 185 153
190 186 153
190 187 153
190 188 153
190 189 153
190 190 153
190 191 153
190 192 153
190 193 153
190 194 153
190 195 153
190 196 153
190 197 153
190 198 153
190 199 153
190 200 153
190 201 153
190 202 153
190 203 153
190 204 153
190 205 153
190 206 153
190 207 153
190 208 153
190 209 153
190 210 153
190 211 153
190 212 153
190 213 153
190 214 153
190 215 153
190 216 153
190 217 153
190 218 153
190 219 153
190 220 153
190 221 153
190 222 153
190 223 153
190 224 153
190 225 153
190 226 153
190 227 153
190 228 153
190 229 153
190 230 153
190 231 153
190 232 153
190 233 153
190 234 153
190 235 153
190 236 153
190 237 153
190 238 153
190 239 153
190 240 153
190 241 153
190 242 153
190 243 153
190 244 153
190 245 153
190 246 153
190 247 153
190 248 153
190 249 153
190 250 153
190 251 153
190 252 153
190 253 153
190 254 153
190 255 153
191 0 153
191 1 153
191 2 153
191 3 153
191 4 153
191 5 153
191 6 153
191 7 153
191 8 153
191 9 153
191 10 153
191 11 153
191 12 153
191 13 153
191 14 153
191 15 153
191 16 153
191 17 153
191 18 153
191 19 153
191 20 153
191 21 153
191 22 153
191 23 153
191 24 153
191 25 153
191 26 153
191 27 153
191 28 153
191 29 153
191 30 153
191 31 153
191 32 153
191 33 153
191 34 153
191 35 153
191 36 153
191 37 153
191 38 153
191 39 153
191 40 153
191 41 153
191 42 153
191 43 153
191 44 153
191 45 153
191 46 153
191 47 153
191 48 153
191 49 153
191 50 153
191 51 153
191 52 153
191 53 153
191 54 153
191 55 153
191 56 153
191 57 153
191 58 153
191 59 153
191 60 153
191 61 153
191 62 153
191 63 153
191 64 153
191 65 153
191 66 153
191 67 153
191 68 153
191 69 153
191 70 153
191 71 153
191 72 153
191 73 153
191 74 153
191 75 153
191 76 153
191 77 153
191 78 153
191 79 153
191 80 153
191 81 153
191 82 153
191 83 153
191 84 153
191 85 153
191 86 153
191 87 153
191 88 153
191 89 153
191 90 153
191 91 153
191 92 153
191 93 153
191 94 153
191 95 153
191 96 153
191 97 153
191 98 153
191 99 153
191 100 153
191 101 153
191 102 153
191 103 153
191 104 153
191 105 153
191 106 153
191 107 153
191 108 153
191 109 153
191 110 153
191 111 153
191 112 153
191 113 153
191 114 153
191 115 153
191 116 153
191 117 153
191 118 153
191 119 153
191 120 153
191 121 153
191 122 153
191 123 153
191 124 153
191 125 153
191 126 153
191 127 153
191 128 153
191 129 153
191 130 153
191 131 153
191 132 153
191 133 153
191 134 153
191 135 153
191 136 153
191 137 153
191 138 153
191 139 153
191 140 153
191 141 153
191 142 153
191 143 153
191 144 153
191 145 153
191 146 153
191 147 153
191 148 153
191 149 153
191 150 153
191 151 153
191 152 153
191 153 153
191 154 153
191 155 153
191 156 153
191 157 153
191 158 153
191 159 153
191 160 153
191 161 153
191 162 153
191 163 153
191 164 153
191 165 153
191 166 153
191 167 153
191 168 153
191 169 153
191 170 153
191 171 153
191 172 153
191 173 153
191 174 153
191 175 153
191 176 153
191 177 153
191 178 153
191 179 153
191 180 153
191 181 153
191 182 153
191 183 153
191 184 153
191 185 153
191 186 153
191 187 153
191 188 153
191 189 153
191 190 153
191 191 153
191 192 153
191 193 153
191 194 153
191 195 153
191 196 153
191 197 153
191 198 153
191 199 153
191 200 153
191 201 153
191 202 153
191 203 153
191 204 153
191 205 153
191 206 153
191 207 153
191 208 153
191 209 153
191 210 153
191 211 153
191 212 153
191 213 153
191 214 153
191 215 153
191 216 153
191 217 153
191 218 153
191 219 153
191 220 153
191 221 153
191 222 153
191 223 153
191 224 153
191 225 153
191 226 153
191 227 153
191 228 153
191 229 153
191 230 153
191 231 153
191 232 153
191 233 153
191 234 153
191 235 153
191 236 153
191 237 153
191 238 153
191 239 153
191 240 153
191 241 153
191 242 153
191 243 153
191 244 153
191 245 153
191 246 153
191 247 153
191 248 153
191 249 153
191 250 153
191 251 153
191 252 153
191 253 153
191 254 153
191 255 153
192 0 153
192 1 153
192 2 153
192 3 153
192 4 153
192 5 153
192 6 153
192 7 153
192 8 153
192 9 153
192 10 153
192 11 153
192 12 153
192 13 153
192 14 153
192 15 153
192 16 153
192 17 153
192 18 153
192 19 153
192 20 153
192 21 153
192 22 153
192 23 153
192 24 153
192 25 153
192 26 153
192 27 153
192 28 153
192 29 153
192 30 153
192 31 153
192 32 153
192 33 153
192 34 153
192 35 153
192 36 153
192 37 153
192 38 153
192 39 153
192 40 153
192 41 153
192 42 153
192 43 153
192 44 153
192 45 153
192 46 153
192 47 153
192 48 153
192 49 153
192 50 153
192 51 153
192 52 153
192 53 153
192 54 153
192 55 153
192 56 153
192 57 153
192 58 153
192 59 153
192 60 153
192 61 153
192 62 153
192 63 153
192 64 153
192 65 153
192 66 153
192 67 153
192 68 153
192 69 153
192 70 153
192 71 153
192 72 153
192 73 153
192 74 153
192 75 153
192 76 153
192 77 153
192 78 153
192 79 153
192 80 153
192 81 153
192 82 153
192 83 153
192 84 153
192 85 153
192 86 153
192 87 153
192 88 153
192 89 153
192 90 153
192 91 153
192 92 153
192 93 153
192 94 153
192 95 153
192 96 153
192 97 153
192 98 153
192 99 153
192 100 153
192 101 153
192 102 153
192 103 153
192 104 153
192 105 153
192 106 153
192 107 153
192 108 153
192 109 153
192 110 153
192 111 153
192 112 153
192 113 153
192 114 153
192 115 153
192 116 153
192 117 153
192 118 153
192 119 153
192 120 153
192 121 153
192 122 153
192 123 153
192 124 153
192 125 153
192 126 153
192 127 153
192 128 153
192 129 153
192 130 153
192 131 153
192 132 153
192 133 153
192 134 153
192 135 153
192 136 153
192 137 153
192 138 153
192 139 153
192 140 153
192 141 153
192 142 153
192 143 153
192 144 153
192 145 153
192 146 153
192 147 153
192 148 153
192 149 153
192 150 153
192 151 153
192 152 153
192 153 153
192 154 153
192 155 153
192 156 153
192 157 153
192 158 153
192 159 153
192 160 153
192 161 153
192 162 153
192 163 153
192 164 153
192 165 153
192 166 153
192 167 153
192 168 153
192 169 153
192 170 153
192 171 153
192 172 153
192 173 153
192 174 153
192 175 153
192 176 153
192 177 153
192 178 153
192 179 153
192 180 153
192 181 153
192 182 153
192 183 153
192 184 153
192 185 153
192 186 153
192 187 153
192 188 153
192 189 153
192 190 153
192 191 153
192 192 153
192 193 153
192 194 153
192 195 153
192 196 153
192 197 153
192 198 153
192 199 153
192 200 153
192 201 153
192 202 153
192 203 153
192 204 153
192 205 153
192 206 153
192 207 153
192 208 153
192 209 153
192 210 153
192 211 153
192 212 153
192 213 153
192 214 153
192 215 153
192 216 153
192 217 153
192 218 153
192 219 153
192 220 153
192 221 153
192 222 153
192 223 153
192 224 153
192 225 153
192 226 153
192 227 153
192 228 153
192 229 153
192 230 153
192 231 153
192 232 153
192 233 153
192 234 153
192 235 153
192 236 153
192 237 153
192 238 153
192 239 153
192 240 153
192 241 153
192 242 153
192 243 153
192 244 153
192 245 153
192 246 153
192 247 153
192 248 153
192 249 153
192 250 153
192 251 153
192 252 153
192 253 153
192 254 153
192 255 153
193 0 153
193 1 153
193 2 153
193 3 153
193 4 153
193 5 153
193 6 153
193 7 153
193 8 153
193 9 153
193 10 153
193 11 153
193 12 153
193 13 153
193 14 153
193 15 153
193 16 153
193 17 153
193 18 153
193 19 153
193 20 153
193 21 153
193 22 153
193 23 153
193 24 153
193 25 153
193 26 153
193 27 153
193 28 153
193 29 153
193 30 153
193 31 153
193 32 153
193 33 153
193 34 153
193 35 153
193 36 153
193 37 153
193 38 153
193 39 153
193 40 153
193 41 153
193 42 153
193 43 153
193 44 153
193 45 153
193 46 153
193 47 153
193 48 153
193 49 153
193 50 153
193 51 153
193 52 153
193 53 153
193 54 153
193 55 153
193 56 153
193 57 153
193 58 153
193 59 153
193 60 153
193 61 153
193 62 153
193 63 153
193 64 153
193 65 153
193 66 153
193 67 153
193 68 153
193 69 153
193 70 153
193 71 153
193 72 153
193 73 153
193 74 153
193 75 153
193 76 153
193 77 153
193 78 153
193 79 153
193 80 153
193 81 153
193 82 153
193 83 153
193 84 153
193 85 153
193 86 153
193 87 153
193 88 153
193 89 153
193 90 153
193 91 153
193 92 153
193 93 153
193 94 153
193 95 153
193 96 153
193 97 153
193 98 153
193 99 153
193 100 153
193 101 153
193 102 153
193 103 153
193 104 153
193 105 153
193 106 153
193 107 153
193 108 153
193 109 153
193 110 153
193 111 153
193 112 153
193 113 153
193 114 153
193 115 153
193 116 153
193 117 153
193 118 153
193 119 153
193 120 153
193 121 153
193 122 153
193 123 153
193 124 153
193 125 153
193 126 153
193 127 153
193 128 153
193 129 153
193 130 153
193 131 153
193 132 153
193 133 153
193 134 153
193 135 153
193 136 153
193 137 153
193 138 153
193 139 153
193 140 153
193 141 153
193 142 153
193 143 153
193 144 153
193 145 153
193 146 153
193 147 153
193 148 153
193 149 153
193 150 153
193 151 153
193 152 153
193 153 153
193 154 153
193 155 153
193 156 153
193 157 153
193 158 153
193 159 153
193 160 153
193 161 153
193 162 153
193 163 153
193 164 153
193 165 153
193 166 153
193 167 153
193 168 153
193 169 153
193 170 153
193 171 153
193 172 153
193 173 153
193 174 153
193 175 153
193 176 153
193 177 153
193 178 153
193 179 153
193 180 153
193 181 153
193 182 153
193 183 153
193 184 153
193 185 153
193 186 153
193 187 153
193 188 153
193 189 153
193 190 153
193 191 153
193 192 153
193 193 153
193 194 153
193 195 153
193 196 153
193 197 153
193 198 153
193 199 153
193 200 153
193 201 153
193 202 153
193 203 153
193 204 153
193 205 153
193 206 153
193 207 153
193 208 153
193 209 153
193 210 153
193 211 153
193 212 153
193 213 153
193 214 153
193 215 153
193 216 153
193 217 153
193 218 153
193 219 153
193 220 153
193 221 153
193 222 153
193 223 153
193 224 153
193 225 153
193 226 153
193 227 153
193 228 153
193 229 153
193 230 153
193 231 153
193 232 153
193 233 153
193 234 153
193 235 153
193 236 153
193 237 153
193 238 153
193 239 153
193 240 153
193 241 153
193 242 153
193 243 153
193 244 153
193 245 153
193 246 153
193 247 153
193 248 153
193 249 153
193 250 153
193 251 153
193 252 153
193 253 153
193 254 153
193 255 153
194 0 153
194 1 153
194 2 153
194 3 153
194 4 153
194 5 153
194 6 153
194 7 153
194 8 153
194 9 153
194 10 153
194 11 153
194 12 153
194 13 153
194 14 153
194 15 153
194 16 153
194 17 153
194 18 153
194 19 153
194 20 153
194 21 153
194 22 153
194 23 153
194 24 153
194 25 153
194 26 153
194 27 153
194 28 153
194 29 153
194 30 153
194 31 153
194 32 153
194 33 153
194 34 153
194 35 153
194 36 153
194 37 153
194 38 153
194 39 153
194 40 153
194 41 153
194 42 153
194 43 153
194 44 153
194 45 153
194 46 153
194 47 153
194 48 153
194 49 153
194 50 153
194 51 153
194 52 153
194 53 153
194 54 153
194 55 153
194 56 153
194 57 153
194 58 153
194 59 153
194 60 153
194 61 153
194 62 153
194 63 153
194 64 153
194 65 153
194 66 153
194 67 153
194 68 153
194 69 153
194 70 153
194 71 153
194 72 153
194 73 153
194 74 153
194 75 153
194 76 153
194 77 153
194 78 153
194 79 153
194 80 153
194 81 153
194 82 153
194 83 153
194 84 153
194 85 153
194 86 153
194 87 153
194 88 153
194 89 153
194 90 153
194 91 153
194 92 153
194 93 153
194 94 153
194 95 153
194 96 153
194 97 153
194 98 153
194 99 153
194 100 153
194 101 153
194 102 153
194 103 153
194 104 153
194 105 153
194 106 153
194 107 153
194 108 153
194 109 153
194 110 153
194 111 153
194 112 153
194 113 153
194 114 153
194 115 153
194 116 153
194 117 153
194 118 153
194 119 153
194 120 153
194 121 153
194 122 153
194 123 153
194 124 153
194 125 153
194 126 153
194 127 153
194 128 153
194 129 153
194 130 153
194 131 153
194 132 153
194 133 153
194 134 153
194 135 153
194 136 153
194 137 153
194 138 153
194 139 153
194 140 153
194 141 153
194 142 153
194 143 153
194 144 153
194 145 153
194 146 153
194 147 153
194 148 153
194 149 153
194 150 153
194 151 153
194 152 153
194 153 153
194 154 153
194 155 153
194 156 153
194 157 153
194 158 153
194 159 153
194 160 153
194 161 153
194 162 153
194 163 153
194 164 153
194 165 153
194 166 153
194 167 153
194 168 153
194 169 153
194 170 153
194 171 153
194 172 153
194 173 153
194 174 153
194 175 153
194 176 153
194 177 153
194 178 153
194 179 153
194 180 153
194 181 153
194 182 153
194 183 153
194 184 153
194 185 153
194 186 153
194 187 153
194 188 153
194 189 153
194 190 153
194 191 153
194 192 153
194 193 153
194 194 153
194 195 153
194 196 153
194 197 153
194 198 153
194 199 153
194 200 153
194 201 153
194 202 153
194 203 153
194 204 153
194 205 153
194 206 153
194 207 153
194 208 153
194 209 153
194 210 153
194 211 153
194 212 153
194 213 153
194 214 153
194 215 153
194 216 153
194 217 153
194 218 153
194 219 153
194 220 153
194 221 153
194 222 153
194 223 153
194 224 153
194 225 153
194 226 153
194 227 153
194 228 153
194 229 153
194 230 153
194 231 153
194 232 153
194 233 153
194 234 153
194 235 153
194 236 153
194 237 153
194 238 153
194 239 153
194 240 153
194 241 153
194 242 153
194 243 153
194 244 153
194 245 153
194 246 153
194 247 153
194 248 153
194 249 153
194 250 153
194 251 153
194 252 153
194 253 153
194 254 153
194 255 153
195 0 153
195 1 153
195 2 153
195 3 153
195 4 153
195 5 153
195 6 153
195 7 153
195 8 153
195 9 153
195 10 153
195 11 153
195 12 153
195 13 153
195 14 153
195 15 153
195 16 153
195 17 153
195 18 153
195 19 153
195 20 153
195 21 153
195 22 153
195 23 153
195 24 153
195 25 153
195 26 153
195 27 153
195 28 153
195 29 153
195 30 153
195 31 153
195 32 153
195 33 153
195 34 153
195 35 153
195 36 153
195 37 153
195 38 153
195 39 153
195 40 153
195 41 153
195 42 153
195 43 153
195 44 153
195 45 153
195 46 153
195 47 153
195 48 153
195 49 153
195 50 153
195 51 153
195 52 153
195 53 153
195 54 153
195 55 153
195 56 153
195 57 153
195 58 153
195 59 153
195 60 153
195 61 153
195 62 153
195 63 153
195 64 153
195 65 153
195 66 153
195 67 153
195 68 153
195 69 153
195 70 153
195 71 153
195 72 153
195 73 153
195 74 153
195 75 153
195 76 153
195 77 153
195 78 153
195 79 153
195 80 153
195 81 153
195 82 153
195 83 153
195 84 153
195 85 153
195 86 153
195 87 153
195 88 153
195 89 153
195 90 153
195 91 153
195 92 153
195 93 153
195 94 153
195 95 153
195 96 153
195 97 153
195 98 153
195 99 153
195 100 153
195 101 153
195 102 153
195 103 153
195 104 153
195 105 153
195 106 153
195 107 153
195 108 153
195 109 153
195 110 153
195 111 153
195 112 153
195 113 153
195 114 153
195 115 153
195 116 153
195 117 153
195 118 153
195 119 153
195 120 153
195 121 153
195 122 153
195 123 153
195 124 153
195 125 153
195 126 153
195 127 153
195 128 153
195 129 153
195 130 153
195 131 153
195 132 153
195 133 153
195 134 153
195 135 153
195 136 153
195 137 153
195 138 153
195 139 153
195 140 153
195 141 153
195 142 153
195 143 153
195 144 153
195 145 153
195 146 153
195 147 153
195 148 153
195 149 153
195 150 153
195 151 153
195 152 153
195 153 153
195 154 153
195 155 153
195 156 153
195 157 153
195 158 153
195 159 153
195 160 153
195 161 153
195 162 153
195 163 153
195 164 153
195 165 153
195 166 153
195 167 153
195 168 153
195 169 153
195 170 153
195 171 153
195 172 153
195 173 153
195 174 153
195 175 153
195 176 153
195 177 153
195 178 153
195 179 153
195 180 153
195 181 153
195 182 153
195 183 153
195 184 153
195 185 153
195 186 153
195 187 153
195 188 153
195 189 153
195 190 153
195 191 153
195 192 153
195 193 153
195 194 153
195 195 153
195 196 153
195 197 153
195 198 153
195 199 153
195 200 153
195 201 153
195 202 153
195 203 153
195 204 153
195 205 153
195 206 153
195 207 153
195 208 153
195 209 153
195 210 153
195 211 153
195 212 153
195 213 153
195 214 153
195 215 153
195 216 153
195 217 153
195 218 153
195 219 153
195 220 153
195 221 153
195 222 153
195 223 153
195 224 153
195 225 153
195 226 153
195 227 153
195 228 153
195 229 153
195 230 153
195 231 153
195 232 153
195 233 153
195 234 153
195 235 153
195 236 153
195 237 153
195 238 153
195 239 153
195 240 153
195 241 153
195 242 153
195 243 153
195 244 153
195 245 153
195 246 153
195 247 153
195 248 153
195 249 153
195 250 153
195 251 153
195 252 153
195 253 153
195 254 153
195 255 153
196 0 153
196 1 153
196 2 153
196 3 153
196 4 153
196 5 153
196 6 153
196 7 153
196 8 153
196 9 153
196 10 153
196 11 153
196 12 153
196 13 153
196 14 153
196 15 153
196 16 153
196 17 153
196 18 153
196 19 153
196 20 153
196 21 153
196 22 153
196 23 153
196 24 153
196 25 153
196 26 153
196 27 153
196 28 153
196 29 153
196 30 153
196 31 153
196 32 153
196 33 153
196 34 153
196 35 153
196 36 153
196 37 153
196 38 153
196 39 153
196 40 153
196 41 153
196 42 153
196 43 153
196 44 153
196 45 153
196 46 153
196 47 153
196 48 153
196 49 153
196 50 153
196 51 153
196 52 153
196 53 153
196 54 153
196 55 153
196 56 153
196 57 153
196 58 153
196 59 153
196 60 153
196 61 153
196 62 153
196 63 153
196 64 153
196 65 153
196 66 153
196 67 153
196 68 153
196 69 153
196 70 153
196 71 153
196 72 153
196 73 153
196 74 153
196 75 153
196 76 153
196 77 153
196 78 153
196 79 153
196 80 153
196 81 153
196 82 153
196 83 153
196 84 153
196 85 153
196 86 153
196 87 153
196 88 153
196 89 153
196 90 153
196 91 153
196 92 153
196 93 153
196 94 153
196 95 153
196 96 153
196 97 153
196 98 153
196 99 153
196 100 153
196 101 153
196 102 153
196 103 153
196 104 153
196 105 153
196 106 153
196 107 153
196 108 153
196 109 153
196 110 153
196 111 153
196 112 153
196 113 153
196 114 153
196 115 153
196 116 153
196 117 153
196 118 153
196 119 153
196 120 153
196 121 153
196 122 153
196 123 153
196 124 153
196 125 153
196 126 153
196 127 153
196 128 153
196 129 153
196 130 153
196 131 153
196 132 153
196 133 153
196 134 153
196 135 153
196 136 153
196 137 153
196 138 153
196 139 153
196 140 153
196 141 153
196 142 153
196 143 153
196 144 153
196 145 153
196 146 153
196 147 153
196 148 153
196 149 153
196 150 153
196 151 153
196 152 153
196 153 153
196 154 153
196 155 153
196 156 153
196 157 153
196 158 153
196 159 153
196 160 153
196 161 153
196 162 153
196 163 153
196 164 153
196 165 153
196 166 153
196 167 153
196 168 153
196 169 153
196 170 153
196 171 153
196 172 153
196 173 153
196 174 153
196 175 153
196 176 153
196 177 153
196 178 153
196 179 153
196 180 153
196 181 153
196 182 153
196 183 153
196 184 153
196 185 153
196 186 153
196 187 153
196 188 153
196 189 153
196 190 153
196 191 153
196 192 153
196 193 153
196 194 153
196 195 153
196 196 153
196 197 153
196 198 153
196 199 153
196 200 153
196 201 153
196 202 153
196 203 153
196 204 153
196 205 153
196 206 153
196 207 153
196 208 153
196 209 153
196 210 153
196 211 153
196 212 153
196 213 153
196 214 153
196 215 153
196 216 153
196 217 153
196 218 153
196 219 153
196 220 153
196 221 153
196 222 153
196 223 153
196 224 153
196 225 153
196 226 153
196 227 153
196 228 153
196 229 153
196 230 153
196 231 153
196 232 153
196 233 153
196 234 153
196 235 153
196 236 153
196 237 153
196 238 153
196 239 153
196 240 153
196 241 153
196 242 153
196 243 153
196 244 153
196 245 153
196 246 153
196 247 153
196 248 153
196 249 153
196 250 153
196 251 153
196 252 153
196 253 153
196 254 153
196 255 153
197 0 153
197 1 153
197 2 153
197 3 153
197 4 153
197 5 153
197 6 153
197 7 153
197 8 153
197 9 153
197 10 153
197 11 153
197 12 153
197 13 153
197 14 153
197 15 153
197 16 153
197 17 153
197 18 153
197 19 153
197 20 153
197 21 153
197 22 153
197 23 153
197 24 153
197 25 153
197 26 153
197 27 153
197 28 153
197 29 153
197 30 153
197 31 153
197 32 153
197 33 153
197 34 153
197 35 153
197 36 153
197 37 153
197 38 153
197 39 153
197 40 153
197 41 153
197 42 153
197 43 153
197 44 153
197 45 153
197 46 153
197 47 153
197 48 153
197 49 153
197 50 153
197 51 153
197 52 153
197 53 153
197 54 153
197 55 153
197 56 153
197 57 153
197 58 153
197 59 153
197 60 153
197 61 153
197 62 153
197 63 153
197 64 153
197 65 153
197 66 153
197 67 153
197 68 153
197 69 153
197 70 153
197 71 153
197 72 153
197 73 153
197 74 153
197 75 153
197 76 153
197 77 153
197 78 153
197 79 153
197 80 153
197 81 153
197 82 153
197 83 153
197 84 153
197 85 153
197 86 153
197 87 153
197 88 153
197 89 153
197 90 153
197 91 153
197 92 153
197 93 153
197 94 153
197 95 153
197 96 153
197 97 153
197 98 153
197 99 153
197 100 153
197 101 153
197 102 153
197 103 153
197 104 153
197 105 153
197 106 153
197 107 153
197 108 153
197 109 153
197 110 153
197 111 153
197 112 153
197 113 153
197 114 153
197 115 153
197 116 153
197 117 153
197 118 153
197 119 153
197 120 153
197 121 153
197 122 153
197 123 153
197 124 153
197 125 153
197 126 153
197 127 153
197 128 153
197 129 153
197 130 153
197 131 153
197 132 153
197 133 153
197 134 153
197 135 153
197 136 153
197 137 153
197 138 153
197 139 153
197 140 153
197 141 153
197 142 153
197 143 153
197 144 153
197 145 153
197 146 153
197 147 153
197 148 153
197 149 153
197 150 153
197 151 153
197 152 153
197 153 153
197 154 153
197 155 153
197 156 153
197 157 153
197 158 153
197 159 153
197 160 153
197 161 153
197 162 153
197 163 153
197 164 153
197 165 153
197 166 153
197 167 153
197 168 153
197 169 153
197 170 153
197 171 153
197 172 153
197 173 153
197 174 153
197 175 153
197 176 153
197 177 153
197 178 153
197 179 153
197 180 153
197 181 153
197 182 153
197 183 153
197 184 153
197 185 153
197 186 153
197 187 153
197 188 153
197 189 153
197 190 153
197 191 153
197 192 153
197 193 153
197 194 153
197 195 153
197 196 153
197 197 153
197 198 153
197 199 153
197 200 153
197 201 153
197 202 153
197 203 153
197 204 153
197 205 153
197 206 153
197 207 153
197 208 153
197 209 153
197 210 153
197 211 153
197 212 153
197 213 153
197 214 153
197 215 153
197 216 153
197 217 153
197 218 153
197 219 153
197 220 153
197 221 153
197 222 153
197 223 153
197 224 153
197 225 153
197 226 153
197 227 153
197 228 153
197 229 153
197 230 153
197 231 153
197 232 153
197 233 153
197 234 153
197 235 153
197 236 153
197 237 153
197 238 153
197 239 153
197 240 153
197 241 153
197 242 153
197 243 153
197 244 153
197 245 153
197 246 153
197 247 153
197 248 153
197 249 153
197 250 153
197 251 153
197 252 153
197 253 153
197 254 153
197 255 153
198 0 153
198 1 153
198 2 153
198 3 153
198 4 153
198 5 153
198 6 153
198 7 153
198 8 153
198 9 153
198 10 153
198 11 153
198 12 153
198 13 153
198 14 153
198 15 153
198 16 153
198 17 153
198 18 153
198 19 153
198 20 153
198 21 153
198 22 153
198 23 153
198 24 153
198 25 153
198 26 153
198 27 153
198 28 153
198 29 153
198 30 153
198 31 153
198 32 153
198 33 153
198 34 153
198 35 153
198 36 153
198 37 153
198 38 153
198 39 153
198 40 153
198 41 153
198 42 153
198 43 153
198 44 153
198 45 153
198 46 153
198 47 153
198 48 153
198 49 153
198 50 153
198 51 153
198 52 153
198 53 153
198 54 153
198 55 153
198 56 153
198 57 153
198 58 153
198 59 153
198 60 153
198 61 153
198 62 153
198 63 153
198 64 153
198 65 153
198 66 153
198 67 153
198 68 153
198 69 153
198 70 153
198 71 153
198 72 153
198 73 153
198 74 153
198 75 153
198 76 153
198 77 153
198 78 153
198 79 153
198 80 153
198 81 153
198 82 153
198 83 153
198 84 153
198 85 153
198 86 153
198 87 153
198 88 153
198 89 153
198 90 153
198 91 153
198 92 153
198 93 153
198 94 153
198 95 153
198 96 153
198 97 153
198 98 153
198 99 153
198 100 153
198 101 153
198 102 153
198 103 153
198 104 153
198 105 153
198 106 153
198 107 153
198 108 153
198 109 153
198 110 153
198 111 153
198 112 153
198 113 153
198 114 153
198 115 153
198 116 153
198 117 153
198 118 153
198 119 153
198 120 153
198 121 153
198 122 153
198 123 153
198 124 153
198 125 153
198 126 153
198 127 153
198 128 153
198 129 153
198 130 153
198 131 153
198 132 153
198 133 153
198 134 153
198 135 153
198 136 153
198 137 153
198 138 153
198 139 153
198 140 153
198 141 153
198 142 153
198 143 153
198 144 153
198 145 153
198 146 153
198 147 153
198 148 153
198 149 153
198 150 153
198 151 153
198 152 153
198 153 153
198 154 153
198 155 153
198 156 153
198 157 153
198 158 153
198 159 153
198 160 153
198 161 153
198 162 153
198 163 153
198 164 153
198 165 153
198 166 153
198 167 153
198 168 153
198 169 153
198 170 153
198 171 153
198 172 153
198 173 153
198 174 153
198 175 153
198 176 153
198 177 153
198 178 153
198 179 153
198 180 153
198 181 153
198 182 153
198 183 153
198 184 153
198 185 153
198 186 153
198 187 153
198 188 153
198 189 153
198 190 153
198 191 153
198 192 153
198 193 153
198 194 153
198 195 153
198 196 153
198 197 153
198 198 153
198 199 153
198 200 153
198 201 153
198 202 153
198 203 153
198 204 153
198 205 153
198 206 153
198 207 153
198 208 153
198 209 153
198 210 153
198 211 153
198 212 153
198 213 153
198 214 153
198 215 153
198 216 153
198 217 153
198 218 153
198 219 153
198 220 153
198 221 153
198 222 153
198 223 153
198 224 153
198 225 153
198 226 153
198 227 153
198 228 153
198 229 153
198 230 153
198 231 153
198 232 153
198 233 153
198 234 153
198 235 153
198 236 153
198 237 153
198 238 153
198 239 153
198 240 153
198 241 153
198 242 153
198 243 153
198 244 153
198 245 153
198 246 153
198 247 153
198 248 153
198 249 153
198 250 153
198 251 153
198 252 153
198 253 153
198 254 153
198 255 153
199 0 153
199 1 153
199 2 153
199 3 153
199 4 153
199 5 153
199 6 153
199 7 153
199 8 153
199 9 153
199 10 153
199 11 153
199 12 153
199 13 153
199 14 153
199 15 153
199 16 153
199 17 153
199 18 153
199 19 153
199 20 153
199 21 153
199 22 153
199 23 153
199 24 153
199 25 153
199 26 153
199 27 153
199 28 153
199 29 153
199 30 153
199 31 153
199 32 153
199 33 153
199 34 153
199 35 153
199 36 153
199 37 153
199 38 153
199 39 153
199 40 153
199 41 153
199 42 153
199 43 153
199 44 153
199 45 153
199 46 153
199 47 153
199 48 153
199 49 153
199 50 153
199 51 153
199 52 153
199 53 153
199 54 153
199 55 153
199 56 153
199 57 153
199 58 153
199 59 153
199 60 153
199 61 153
199 62 153
199 63 153
199 64 153
199 65 153
199 66 153
199 67 153
199 68 153
199 69 153
199 70 153
199 71 153
199 72 153
199 73 153
199 74 153
199 75 153
199 76 153
199 77 153
199 78 153
199 79 153
199 80 153
199 81 153
199 82 153
199 83 153
199 84 153
199 85 153
199 86 153
199 87 153
199 88 153
199 89 153
199 90 153
199 91 153
199 92 153
199 93 153
199 94 153
199 95 153
199 96 153
199 97 153
199 98 153
199 99 153
199 100 153
199 101 153
199 102 153
199 103 153
199 104 153
199 105 153
199 106 153
199 107 153
199 108 153
199 109 153
199 110 153
199 111 153
199 112 153
199 113 153
199 114 153
199 115 153
199 116 153
199 117 153
199 118 153
199 119 153
199 120 153
199 121 153
199 122 153
199 123 153
199 124 153
199 125 153
199 126 153
199 127 153
199 128 153
199 129 153
199 130 153
199 131 153
199 132 153
199 133 153
199 134 153
199 135 153
199 136 153
199 137 153
199 138 153
199 139 153
199 140 153
199 141 153
199 142 153
199 143 153
199 144 153
199 145 153
199 146 153
199 147 153
199 148 153
199 149 153
199 150 153
199 151 153
199 152 153
199 153 153
199 154 153
199 155 153
199 156 153
199 157 153
199 158 153
199 159 153
199 160 153
199 161 153
199 162 153
199 163 153
199 164 153
199 165 153
199 166 153
199 167 153
199 168 153
199 169 153
199 170 153
199 171 153
199 172 153
199 173 153
199 174 153
199 175 153
199 176 153
199 177 153
199 178 153
199 179 153
199 180 153
199 181 153
199 182 153
199 183 153
199 184 153
199 185 153
199 186 153
199 187 153
199 188 153
199 189 153
199 190 153
199 191 153
199 192 153
199 193 153
199 194 153
199 195 153
199 196 153
199 197 153
199 198 153
199 199 153
199 200 153
199 201 153
199 202 153
199 203 153
199 204 153
199 205 153
199 206 153
199 207 153
199 208 153
199 209 153
199 210 153
199 211 153
199 212 153
199 213 153
199 214 153
199 215 153
199 216 153
199 217 153
199 218 153
199 219 153
199 220 153
199 221 153
199 222 153
199 223 153
199 224 153
199 225 153
199 226 153
199 227 153
199 228 153
199 229 153
199 230 153
199 231 153
199 232 153
199 233 153
199 234 153
199 235 153
199 236 153
199 237 153
199 238 153
199 239 153
199 240 153
199 241 153
199 242 153
199 243 153
199 244 153
199 245 153
199 246 153
199 247 153
199 248 153
199 249 153
199 250 153
199 251 153
199 252 153
199 253 153
199 254 153
199 255 153
200 0 153
200 1 153
200 2 153
200 3 153
200 4 153
200 5 153
200 6 153
200 7 153
200 8 153
200 9 153
200 10 153
200 11 153
200 12 153
200 13 153
200 14 153
200 15 153
200 16 153
200 17 153
200 18 153
200 19 153
200 20 153
200 21 153
200 22 153
200 23 153
200 24 153
200 25 153
200 26 153
200 27 153
200 28 153
200 29 153
200 30 153
200 31 153
200 32 153
200 33 153
200 34 153
200 35 153
200 36 153
200 37 153
200 38 153
200 39 153
200 40 153
200 41 153
200 42 153
200 43 153
200 44 153
200 45 153
200 46 153
200 47 153
200 48 153
200 49 153
200 50 153
200 51 153
200 52 153
200 53 153
200 54 153
200 55 153
200 56 153
200 57 153
200 58 153
200 59 153
200 60 153
200 61 153
200 62 153
200 63 153
200 64 153
200 65 153
200 66 153
200 67 153
200 68 153
200 69 153
200 70 153
200 71 153
200 72 153
200 73 153
200 74 153
200 75 153
200 76 153
200 77 153
200 78 153
200 79 153
200 80 153
200 81 153
200 82 153
200 83 153
200 84 153
200 85 153
200 86 153
200 87 153
200 88 153
200 89 153
200 90 153
200 91 153
200 92 153
200 93 153
200 94 153
200 95 153
200 96 153
200 97 153
200 98 153
200 99 153
200 100 153
200 101 153
200 102 153
200 103 153
200 104 153
200 105 153
200 106 153
200 107 153
200 108 153
200 109 153
200 110 153
200 111 153
200 112 153
200 113 153
200 114 153
200 115 153
200 116 153
200 117 153
200 118 153
200 119 153
200 120 153
200 121 153
200 122 153
200 123 153
200 124 153
200 125 153
200 126 153
200 127 153
200 128 153
200 129 153
200 130 153
200 131 153
200 132 153
200 133 153
200 134 153
200 135 153
200 136 153
200 137 153
200 138 153
200 139 153
200 140 153
200 141 153
200 142 153
200 143 153
200 144 153
200 145 153
200 146 153
200 147 153
200 148 153
200 149 153
200 150 153
200 151 153
200 152 153
200 153 153
200 154 153
200 155 153
200 156 153
200 157 153
200 158 153
200 159 153
200 160 153
200 161 153
200 162 153
200 163 153
200 164 153
200 165 153
200 166 153
200 167 153
200 168 153
200 169 153
200 170 153
200 171 153
200 172 153
200 173 153
200 174 153
200 175 153
200 176 153
200 177 153
200 178 153
200 179 153
200 180 153
200 181 153
200 182 153
200 183 153
200 184 153
200 185 153
200 186 153
200 187 153
200 188 153
200 189 153
200 190 153
200 191 153
200 192 153
200 193 153
200 194 153
200 195 153
200 196 153
200 197 153
200 198 153
200 199 153
200 200 153
200 201 153
200 202 153
200 203 153
200 204 153
200 205 153
200 206 153
200 207 153
200 208 153
200 209 153
200 210 153
200 211 153
200 212 153
200 213 153
200 214 153
200 215 153
200 216 153
200 217 153
200 218 153
200 219 153
200 220 153
200 221 153
200 222 153
200 223 153
200 224 153
200 225 153
200 226 153
200 227 153
200 228 153
200 229 153
200 230 153
200 231 153
200 232 153
200 233 153
200 234 153
200 235 153
200 236 153
200 237 153
200 238 153
200 239 153
200 240 153
200 241 153
200 242 153
200 243 153
200 244 153
200 245 153
200 246 153
200 247 153
200 248 153
200 249 153
200 250 153
200 251 153
200 252 153
200 253 153
200 254 153
200 255 153
201 0 153
201 1 153
201 2 153
201 3 153
201 4 153
201 5 153
201 6 153
201 7 153
201 8 153
201 9 153
201 10 153
201 11 153
201 12 153
201 13 153
201 14 153
201 15 153
201 16 153
201 17 153
201 18 153
201 19 153
201 20 153
201 21 153
201 22 153
201 23 153
201 24 153
201 25 153
201 26 153
201 27 153
201 28 153
201 29 153
201 30 153
201 31 153
201 32 153
201 33 153
201 34 153
201 35 153
201 36 153
201 37 153
201 38 153
201 39 153
201 40 153
201 41 153
201 42 153
201 43 153
201 44 153
201 45 153
201 46 153
201 47 153
201 48 153
201 49 153
201 50 153
201 51 153
201 52 153
201 53 153
201 54 153
201 55 153
201 56 153
201 57 153
201 58 153
201 59 153
201 60 153
201 61 153
201 62 153
201 63 153
201 64 153
201 65 153
201 66 153
201 67 153
201 68 153
201 69 153
201 70 153
201 71 153
201 72 153
201 73 153
201 74 153
201 75 153
201 76 153
201 77 153
201 78 153
201 79 153
201 80 153
201 81 153
201 82 153
201 83 153
201 84 153
201 85 153
201 86 153
201 87 153
201 88 153
201 89 153
201 90 153
201 91 153
201 92 153
201 93 153
201 94 153
201 95 153
201 96 153
201 97 153
201 98 153
201 99 153
201 100 153
201 101 153
201 102 153
201 103 153
201 104 153
201 105 153
201 106 153
201 107 153
201 108 153
201 109 153
201 110 153
201 111 153
201 112 153
201 113 153
201 114 153
201 115 153
201 116 153
201 117 153
201 118 153
201 119 153
201 120 153
201 121 153
201 122 153
201 123 153
201 124 153
201 125 153
201 126 153
201 127 153
201 128 153
201 129 153
201 130 153
201 131 153
201 132 153
201 133 153
201 134 153
201 135 153
201 136 153
201 137 153
201 138 153
201 139 153
201 140 153
201 141 153
201 142 153
201 143 153
201 144 153
201 145 153
201 146 153
201 147 153
201 148 153
201 149 153
201 150 153
201 151 153
201 152 153
201 153 153
201 154 153
201 155 153
201 156 153
201 157 153
201 158 153
201 159 153
201 160 153
201 161 153
201 162 153
201 163 153
201 164 153
201 165 153
201 166 153
201 167 153
201 168 153
201 169 153
201 170 153
201 171 153
201 172 153
201 173 153
201 174 153
201 175 153
201 176 153
201 177 153
201 178 153
201 179 153
201 180 153
201 181 153
201 182 153
201 183 153
201 184 153
201 185 153
201 186 153
201 187 153
201 188 153
201 189 153
201 190 153
201 191 153
201 192 153
201 193 153
201 194 153
201 195 153
201 196 153
201 197 153
201 198 153
201 199 153
201 200 153
201 201 153
201 202 153
201 203 153
201 204 153
201 205 153
201 206 153
201 207 153
201 208 153
201 209 153
201 210 153
201 211 153
201 212 153
201 213 153
201 214 153
201 215 153
201 216 153
201 217 153
201 218 153
201 219 153
201 220 153
201 221 153
201 222 153
201 223 153
201 224 153
201 225 153
201 226 153
201 227 153
201 228 153
201 229 153
201 230 153
201 231 153
201 232 153
201 233 153
201 234 153
201 235 153
201 236 153
201 237 153
201 238 153
201 239 153
201 240 153
201 241 153
201 242 153
201 243 153
201 244 153
201 245 153
201 246 153
201 247 153
201 248 153
201 249 153
201 250 153
201 251 153
201 252 153
201 253 153
201 254 153
201 255 153
202 0 153
202 1 153
202 2 153
202 3 153
202 4 153
202 5 153
202 6 153
202 7 153
202 8 153
202 9 153
202 10 153
202 11 153
202 12 153
202 13 153
202 14 153
202 15 153
202 16 153
202 17 153
202 18 153
202 19 153
202 20 153
202 21 153
202 22 153
202 23 153
202 24 153
202 25 153
202 26 153
202 27 153
202 28 153
202 29 153
202 30 153
202 31 153
202 32 153
202 33 153
202 34 153
202 35 153
202 36 153
202 37 153
202 38 153
202 39 153
202 40 153
202 41 153
202 42 153
202 43 153
202 44 153
202 45 153
202 46 153
202 47 153
202 48 153
202 49 153
202 50 153
202 51 153
202 52 153
202 53 153
202 54 153
202 55 153
202 56 153
202 57 153
202 58 153
202 59 153
202 60 153
202 61 153
202 62 153
202 63 153
202 64 153
202 65 153
202 66 153
202 67 153
202 68 153
202 69 153
202 70 153
202 71 153
202 72 153
202 73 153
202 74 153
202 75 153
202 76 153
202 77 153
202 78 153
202 79 153
202 80 153
202 81 153
202 82 153
202 83 153
202 84 153
202 85 153
202 86 153
202 87 153
202 88 153
202 89 153
202 90 153
202 91 153
202 92 153
202 93 153
202 94 153
202 95 153
202 96 153
202 97 153
202 98 153
202 99 153
202 100 153
202 101 153
202 102 153
202 103 153
202 104 153
202 105 153
202 106 153
202 107 153
202 108 153
202 109 153
202 110 153
202 111 153
202 112 153
202 113 153
202 114 153
202 115 153
202 116 153
202 117 153
202 118 153
202 119 153
202 120 153
202 121 153
202 122 153
202 123 153
202 124 153
202 125 153
202 126 153
202 127 153
202 128 153
202 129 153
202 130 153
202 131 153
202 132 153
202 133 153
202 134 153
202 135 153
202 136 153
202 137 153
202 138 153
202 139 153
202 140 153
202 141 153
202 142 153
202 143 153
202 144 153
202 145 153
202 146 153
202 147 153
202 148 153
202 149 153
202 150 153
202 151 153
202 152 153
202 153 153
202 154 153
202 155 153
202 156 153
202 157 153
202 158 153
202 159 153
202 160 153
202 161 153
202 162 153
202 163 153
202 164 153
202 165 153
202 166 153
202 167 153
202 168 153
202 169 153
202 170 153
202 171 153
202 172 153
202 173 153
202 174 153
202 175 153
202 176 153
202 177 153
202 178 153
202 179 153
202 180 153
202 181 153
202 182 153
202 183 153
202 184 153
202 185 153
202 186 153
202 187 153
202 188 153
202 189 153
202 190 153
202 191 153
202 192 153
202 193 153
202 194 153
202 195 153
202 196 153
202 197 153
202 198 153
202 199 153
202 200 153
202 201 153
202 202 153
202 203 153
202 204 153
202 205 153
202 206 153
202 207 153
202 208 153
202 209 153
202 210 153
202 211 153
202 212 153
202 213 153
202 214 153
202 215 153
202 216 153
202 217 153
202 218 153
202 219 153
202 220 153
202 221 153
202 222 153
202 223 153
202 224 153
202 225 153
202 226 153
202 227 153
202 228 153
202 229 153
202 230 153
202 231 153
202 232 153
202 233 153
202 234 153
202 235 153
202 236 153
202 237 153
202 238 153
202 239 153
202 240 153
202 241 153
202 242 153
202 243 153
202 244 153
202 245 153
202 246 153
202 247 153
202 248 153
202 249 153
202 250 153
202 251 153
202 252 153
202 253 153
202 254 153
202 255 153
203 0 153
203 1 153
203 2 153
203 3 153
203 4 153
203 5 153
203 6 153
203 7 153
203 8 153
203 9 153
203 10 153
203 11 153
203 12 153
203 13 153
203 14 153
203 15 153
203 16 153
203 17 153
203 18 153
203 19 153
203 20 153
203 21 153
203 22 153
203 23 153
203 24 153
203 25 153
203 26 153
203 27 153
203 28 153
203 29 153
203 30 153
203 31 153
203 32 153
203 33 153
203 34 153
203 35 153
203 36 153
203 37 153
203 38 153
203 39 153
203 40 153
203 41 153
203 42 153
203 43 153
203 44 153
203 45 153
203 46 153
203 47 153
203 48 153
203 49 153
203 50 153
203 51 153
203 52 153
203 53 153
203 54 153
203 55 153
203 56 153
203 57 153
203 58 153
203 59 153
203 60 153
203 61 153
203 62 153
203 63 153
203 64 153
203 65 153
203 66 153
203 67 153
203 68 153
203 69 153
203 70 153
203 71 153
203 72 153
203 73 153
203 74 153
203 75 153
203 76 153
203 77 153
203 78 153
203 79 153
203 80 153
203 81 153
203 82 153
203 83 153
203 84 153
203 85 153
203 86 153
203 87 153
203 88 153
203 89 153
203 90 153
203 91 153
203 92 153
203 93 153
203 94 153
203 95 153
203 96 153
203 97 153
203 98 153
203 99 153
203 100 153
203 101 153
203 102 153
203 103 153
203 104 153
203 105 153
203 106 153
203 107 153
203 108 153
203 109 153
203 110 153
203 111 153
203 112 153
203 113 153
203 114 153
203 115 153
203 116 153
203 117 153
203 118 153
203 119 153
203 120 153
203 121 153
203 122 153
203 123 153
203 124 153
203 125 153
203 126 153
203 127 153
203 128 153
203 129 153
203 130 153
203 131 153
203 132 153
203 133 153
203 134 153
203 135 153
203 136 153
203 137 153
203 138 153
203 139 153
203 140 153
203 141 153
203 142 153
203 143 153
203 144 153
203 145 153
203 146 153
203 147 153
203 148 153
203 149 153
203 150 153
203 151 153
203 152 153
203 153 153
203 154 153
203 155 153
203 156 153
203 157 153
203 158 153
203 159 153
203 160 153
203 161 153
203 162 153
203 163 153
203 164 153
203 165 153
203 166 153
203 167 153
203 168 153
203 169 153
203 170 153
203 171 153
203 172 153
203 173 153
203 174 153
203 175 153
203 176 153
203 177 153
203 178 153
203 179 153
203 180 153
203 181 153
203 182 153
203 183 153
203 184 153
203 185 153
203 186 153
203 187 153
203 188 153
203 189 153
203 190 153
203 191 153
203 192 153
203 193 153
203 194 153
203 195 153
203 196 153
203 197 153
203 198 153
203 199 153
203 200 153
203 201 153
203 202 153
203 203 153
203 204 153
203 205 153
203 206 153
203 207 153
203 208 153
203 209 153
203 210 153
203 211 153
203 212 153
203 213 153
203 214 153
203 215 153
203 216 153
203 217 153
203 218 153
203 219 153
203 220 153
203 221 153
203 222 153
203 223 153
203 224 153
203 225 153
203 226 153
203 227 153
203 228 153
203 229 153
203 230 153
203 231 153
203 232 153
203 233 153
203 234 153
203 235 153
203 236 153
203 237 153
203 238 153
203 239 153
203 240 153
203 241 153
203 242 153
203 243 153
203 244 153
203 245 153
203 246 153
203 247 153
203 248 153
203 249 153
203 250 153
203 251 153
203 252 153
203 253 153
203 254 153
203 255 153
204 0 153
204 1 153
204 2 153
204 3 153
204 4 153
204 5 153
204 6 153
204 7 153
204 8 153
204 9 153
204 10 153
204 11 153
204 12 153
204 13 153
204 14 153
204 15 153
204 16 153
204 17 153
204 18 153
204 19 153
204 20 153
204 21 153
204 22 153
204 23 153
204 24 153
204 25 153
204 26 153
204 27 153
204 28 153
204 29 153
204 30 153
204 31 153
204 32 153
204 33 153
204 34 153
204 35 153
204 36 153
204 37 153
204 38 153
204 39 153
204 40 153
204 41 153
204 42 153
204 43 153
204 44 153
204 45 153
204 46 153
204 47 153
204 48 153
204 49 153
204 50 153
204 51 153
204 52 153
204 53 153
204 54 153
204 55 153
204 56 153
204 57 153
204 58 153
204 59 153
204 60 153
204 61 153
204 62 153
204 63 153
204 64 153
204 65 153
204 66 153
204 67 153
204 68 153
204 69 153
204 70 153
204 71 153
204 72 153
204 73 153
204 74 153
204 75 153
204 76 153
204 77 153
204 78 153
204 79 153
204 80 153
204 81 153
204 82 153
204 83 153
204 84 153
204 85 153
204 86 153
204 87 153
204 88 153
204 89 153
204 90 153
204 91 153
204 92 153
204 93 153
204 94 153
204 95 153
204 96 153
204 97 153
204 98 153
204 99 153
204 100 153
204 101 153
204 102 153
204 103 153
204 104 153
204 105 153
204 106 153
204 107 153
204 108 153
204 109 153
204 110 153
204 111 153
204 112 153
204 113 153
204 114 153
204 115 153
204 116 153
204 117 153
204 118 153
204 119 153
204 120 153
204 121 153
204 122 153
204 123 153
204 124 153
204 125 153
204 126 153
204 127 153
204 128 153
204 129 153
204 130 153
204 131 153
204 132 153
204 133 153
204 134 153
204 135 153
204 136 153
204 137 153
204 138 153
204 139 153
204 140 153
204 141 153
204 142 153
204 143 153
204 144 153
204 145 153
204 146 153
204 147 153
204 148 153
204 149 153
204 150 153
204 151 153
204 152 153
204 153 153
204 154 153
204 155 153
204 156 153
204 157 153
204 158 153
204 159 153
204 160 153
204 161 153
204 162 153
204 163 153
204 164 153
204 165 153
204 166 153
204 167 153
204 168 153
204 169 153
204 170 153
204 171 153
204 172 153
204 173 153
204 174 153
204 175 153
204 176 153
204 177 153
204 178 153
204 179 153
204 180 153
204 181 153
204 182 153
204 183 153
204 184 153
204 185 153
204 186 153
204 187 153
204 188 153
204 189 153
204 190 153
204 191 153
204 192 153
204 193 153
204 194 153
204 195 153
204 196 153
204 197 153
204 198 153
204 199 153
204 200 153
204 201 153
204 202 153
204 203 153
204 204 153
204 205 153
204 206 153
204 207 153
204 208 153
204 209 153
204 210 153
204 211 153
204 212 153
204 213 153
204 214 153
204 215 153
204 216 153
204 217 153
204 218 153
204 219 153
204 220 153
204 221 153
204 222 153
204 223 153
204 224 153
204 225 153
204 226 153
204 227 153
204 228 153
204 229 153
204 230 153
204 231 153
204 232 153
204 233 153
204 234 153
204 235 153
204 236 153
204 237 153
204 238 153
204 239 153
204 240 153
204 241 153
204 242 153
204 243 153
204 244 153
204 245 153
204 246 153
204 247 153
204 248 153
204 249 153
204 250 153
204 251 153
204 252 153
204 253 153
204 254 153
204 255 153
205 0 153
205 1 153
205 2 153
205 3 153
205 4 153
205 5 153
205 6 153
205 7 153
205 8 153
205 9 153
205 10 153
205 11 153
205 12 153
205 13 153
205 14 153
205 15 153
205 16 153
205 17 153
205 18 153
205 19 153
205 20 153
205 21 153
205 22 153
205 23 153
205 24 153
205 25 153
205 26 153
205 27 153
205 28 153
205 29 153
205 30 153
205 31 153
205 32 153
205 33 153
205 34 153
205 35 153
205 36 153
205 37 153
205 38 153
205 39 153
205 40 153
205 41 153
205 42 153
205 43 153
205 44 153
205 45 153
205 46 153
205 47 153
205 48 153
205 49 153
205 50 153
205 51 153
205 52 153
205 53 153
205 54 153
205 55 153
205 56 153
205 57 153
205 58 153
205 59 153
205 60 153
205 61 153
205 62 153
205 63 153
205 64 153
205 65 153
205 66 153
205 67 153
205 68 153
205 69 153
205 70 153
205 71 153
205 72 153
205 73 153
205 74 153
205 75 153
205 76 153
205 77 153
205 78 153
205 79 153
205 80 153
205 81 153
205 82 153
205 83 153
205 84 153
205 85 153
205 86 153
205 87 153
205 88 153
205 89 153
205 90 153
205 91 153
205 92 153
205 93 153
205 94 153
205 95 153
205 96 153
205 97 153
205 98 153
205 99 153
205 100 153
205 101 153
205 102 153
205 103 153
205 104 153
205 105 153
205 106 153
205 107 153
205 108 153
205 109 153
205 110 153
205 111 153
205 112 153
205 113 153
205 114 153
205 115 153
205 116 153
205 117 153
205 118 153
205 119 153
205 120 153
205 121 153
205 122 153
205 123 153
205 124 153
205 125 153
205 126 153
205 127 153
205 128 153
205 129 153
205 130 153
205 131 153
205 132 153
205 133 153
205 134 153
205 135 153
205 136 153
205 137 153
205 138 153
205 139 153
205 140 153
205 141 153
205 142 153
205 143 153
205 144 153
205 145 153
205 146 153
205 147 153
205 148 153
205 149 153
205 150 153
205 151 153
205 152 153
205 153 153
205 154 153
205 155 153
205 156 153
205 157 153
205 158 153
205 159 153
205 160 153
205 161 153
205 162 153
205 163 153
205 164 153
205 165 153
205 166 153
205 167 153
205 168 153
205 169 153
205 170 153
205 171 153
205 172 153
205 173 153
205 174 153
205 175 153
205 176 153
205 177 153
205 178 153
205 179 153
205 180 153
205 181 153
205 182 153
205 183 153
205 184 153
205 185 153
205 186 153
205 187 153
205 188 153
205 189 153
205 190 153
205 191 153
205 192 153
205 193 153
205 194 153
205 195 153
205 196 153
205 197 153
205 198 153
205 199 153
205 200 153
205 201 153
205 202 153
205 203 153
205 204 153
205 205 153
205 206 153
205 207 153
205 208 153
205 209 153
205 210 153
205 211 153
205 212 153
205 213 153
205 214 153
205 215 153
205 216 153
205 217 153
205 218 153
205 219 153
205 220 153
205 221 153
205 222 153
205 223 153
205 224 153
205 225 153
205 226 153
205 227 153
205 228 153
205 229 153
205 230 153
205 231 153
205 232 153
205 233 153
205 234 153
205 235 153
205 236 153
205 237 153
205 238 153
205 239 153
205 240 153
205 241 153
205 242 153
205 243 153
205 244 153
205 245 153
205 246 153
205 247 153
205 248 153
205 249 153
205 250 153
205 251 153
205 252 153
205 253 153
205 254 153
205 255 153
206 0 153
206 1 153
206 2 153
206 3 153
206 4 153
206 5 153
206 6 153
206 7 153
206 8 153
206 9 153
206 10 153
206 11 153
206 12 153
206 13 153
206 14 153
206 15 153
206 16 153
206 17 153
206 18 153
206 19 153
206 20 153
206 21 153
206 22 153
206 23 153
206 24 153
206 25 153
206 26 153
206 27 153
206 28 153
206 29 153
206 30 153
206 31 153
206 32 153
206 33 153
206 34 153
206 35 153
206 36 153
206 37 153
206 38 153
206 39 153
206 40 153
206 41 153
206 42 153
206 43 153
206 44 153
206 45 153
206 46 153
206 47 153
206 48 153
206 49 153
206 50 153
206 51 153
206 52 153
206 53 153
206 54 153
206 55 153
206 56 153
206 57 153
206 58 153
206 59 153
206 60 153
206 61 153
206 62 153
206 63 153
206 64 153
206 65 153
206 66 153
206 67 153
206 68 153
206 69 153
206 70 153
206 71 153
206 72 153
206 73 153
206 74 153
206 75 153
206 76 153
206 77 153
206 78 153
206 79 153
206 80 153
206 81 153
206 82 153
206 83 153
206 84 153
206 85 153
206 86 153
206 87 153
206 88 153
206 89 153
206 90 153
206 91 153
206 92 153
206 93 153
206 94 153
206 95 153
206 96 153
206 97 153
206 98 153
206 99 153
206 100 153
206 101 153
206 102 153
206 103 153
206 104 153
206 105 153
206 106 153
206 107 153
206 108 153
206 109 153
206 110 153
206 111 153
206 112 153
206 113 153
206 114 153
206 115 153
206 116 153
206 117 153
206 118 153
206 119 153
206 120 153
206 121 153
206 122 153
206 123 153
206 124 153
206 125 153
206 126 153
206 127 153
206 128 153
206 129 153
206 130 153
206 131 153
206 132 153
206 133 153
206 134 153
206 135 153
206 136 153
206 137 153
206 138 153
206 139 153
206 140 153
206 141 153
206 142 153
206 143 153
206 144 153
206 145 153
206 146 153
206 147 153
206 148 153
206 149 153
206 150 153
206 151 153
206 152 153
206 153 153
206 154 153
206 155 153
206 156 153
206 157 153
206 158 153
206 159 153
206 160 153
206 161 153
206 162 153
206 163 153
206 164 153
206 165 153
206 166 153
206 167 153
206 168 153
206 169 153
206 170 153
206 171 153
206 172 153
206 173 153
206 174 153
206 175 153
206 176 153
206 177 153
206 178 153
206 179 153
206 180 153
206 181 153
206 182 153
206 183 153
206 184 153
206 185 153
206 186 153
206 187 153
206 188 153
206 189 153
206 190 153
206 191 153
206 192 153
206 193 153
206 194 153
206 195 153
206 196 153
206 197 153
206 198 153
206 199 153
206 200 153
206 201 153
206 202 153
206 203 153
206 204 153
206 205 153
206 206 153
206 207 153
206 208 153
206 209 153
206 210 153
206 211 153
206 212 153
206 213 153
206 214 153
206 215 153
206 216 153
206 217 153
206 218 153
206 219 153
206 220 153
206 221 153
206 222 153
206 223 153
206 224 153
206 225 153
206 226 153
206 227 153
206 228 153
206 229 153
206 230 153
206 231 153
206 232 153
206 233 153
206 234 153
206 235 153
206 236 153
206 237 153
206 238 153
206 239 153
206 240 153
206 241 153
206 242 153
206 243 153
206 244 153
206 245 153
206 246 153
206 247 153
206 248 153
206 249 153
206 250 153
206 251 153
206 252 153
206 253 153
206 254 153
206 255 153
207 0 153
207 1 153
207 2 153
207 3 153
207 4 153
207 5 153
207 6 153
207 7 153
207 8 153
207 9 153
207 10 153
207 11 153
207 12 153
207 13 153
207 14 153
207 15 153
207 16 153
207 17 153
207 18 153
207 19 153
207 20 153
207 21 153
207 22 153
207 23 153
207 24 153
207 25 153
207 26 153
207 27 153
207 28 153
207 29 153
207 30 153
207 31 153
207 32 153
207 33 153
207 34 153
207 35 153
207 36 153
207 37 153
207 38 153
207 39 153
207 40 153
207 41 153
207 42 153
207 43 153
207 44 153
207 45 153
207 46 153
207 47 153
207 48 153
207 49 153
207 50 153
207 51 153
207 52 153
207 53 153
207 54 153
207 55 153
207 56 153
207 57 153
207 58 153
207 59 153
207 60 153
207 61 153
207 62 153
207 63 153
207 64 153
207 65 153
207 66 153
207 67 153
207 68 153
207 69 153
207 70 153
207 71 153
207 72 153
207 73 153
207 74 153
207 75 153
207 76 153
207 77 153
207 78 153
207 79 153
207 80 153
207 81 153
207 82 153
207 83 153
207 84 153
207 85 153
207 86 153
207 87 153
207 88 153
207 89 153
207 90 153
207 91 153
207 92 153
207 93 153
207 94 153
207 95 153
207 96 153
207 97 153
207 98 153
207 99 153
207 100 153
207 101 153
207 102 153
207 103 153
207 104 153
207 105 153
207 106 153
207 107 153
207 108 153
207 109 153
207 110 153
207 111 153
207 112 153
207 113 153
207 114 153
207 115 153
207 116 153
207 117 153
207 118 153
207 119 153
207 120 153
207 121 153
207 122 153
207 123 153
207 124 153
207 125 153
207 126 153
207 127 153
207 128 153
207 129 153
207 130 153
207 131 153
207 132 153
207 133 153
207 134 153
207 135 153
207 136 153
207 137 153
207 138 153
207 139 153
207 140 153
207 141 153
207 142 153
207 143 153
207 144 153
207 145 153
207 146 153
207 147 153
207 148 153
207 149 153
207 150 153
207 151 153
207 152 153
207 153 153
207 154 153
207 155 153
207 156 153
207 157 153
207 158 153
207 159 153
207 160 153
207 161 153
207 162 153
207 163 153
207 164 153
207 165 153
207 166 153
207 167 153
207 168 153
207 169 153
207 170 153
207 171 153
207 172 153
207 173 153
207 174 153
207 175 153
207 176 153
207 177 153
207 178 153
207 179 153
207 180 153
207 181 153
207 182 153
207 183 153
207 184 153
207 185 153
207 186 153
207 187 153
207 188 153
207 189 153
207 190 153
207 191 153
207 192 153
207 193 153
207 194 153
207 195 153
207 196 153
207 197 153
207 198 153
207 199 153
207 200 153
207 201 153
207 202 153
207 203 153
207 204 153
207 205 153
207 206 153
207 207 153
207 208 153
207 209 153
207 210 153
207 211 153
207 212 153
207 213 153
207 214 153
207 215 153
207 216 153
207 217 153
207 218 153
207 219 153
207 220 153
207 221 153
207 222 153
207 223 153
207 224 153
207 225 153
207 226 153
207 227 153
207 228 153
207 229 153
207 230 153
207 231 153
207 232 153
207 233 153
207 234 153
207 235 153
207 236 153
207 237 153
207 238 153
207 239 153
207 240 153
207 241 153
207 242 153
207 243 153
207 244 153
207 245 153
207 246 153
207 247 153
207 248 153
207 249 153
207 250 153
207 251 153
207 252 153
207 253 153
207 254 153
207 255 153
208 0 153
208 1 153
208 2 153
208 3 153
208 4 153
208 5 153
208 6 153
208 7 153
208 8 153
208 9 153
208 10 153
208 11 153
208 12 153
208 13 153
208 14 153
208 15 153
208 16 153
208 17 153
208 18 153
208 19 153
208 20 153
208 21 153
208 22 153
208 23 153
208 24 153
208 25 153
208 26 153
208 27 153
208 28 153
208 29 153
208 30 153
208 31 153
208 32 153
208 33 153
208 34 153
208 35 153
208 36 153
208 37 153
208 38 153
208 39 153
208 40 153
208 41 153
208 42 153
208 43 153
208 44 153
208 45 153
208 46 153
208 47 153
208 48 153
208 49 153
208 50 153
208 51 153
208 52 153
208 53 153
208 54 153
208 55 153
208 56 153
208 57 153
208 58 153
208 59 153
208 60 153
208 61 153
208 62 153
208 63 153
208 64 153
208 65 153
208 66 153
208 67 153
208 68 153
208 69 153
208 70 153
208 71 153
208 72 153
208 73 153
208 74 153
208 75 153
208 76 153
208 77 153
208 78 153
208 79 153
208 80 153
208 81 153
208 82 153
208 83 153
208 84 153
208 85 153
208 86 153
208 87 153
208 88 153
208 89 153
208 90 153
208 91 153
208 92 153
208 93 153
208 94 153
208 95 153
208 96 153
208 97 153
208 98 153
208 99 153
208 100 153
208 101 153
208 102 153
208 103 153
208 104 153
208 105 153
208 106 153
208 107 153
208 108 153
208 109 153
208 110 153
208 111 153
208 112 153
208 113 153
208 114 153
208 115 153
208 116 153
208 117 153
208 118 153
208 119 153
208 120 153
208 121 153
208 122 153
208 123 153
208 124 153
208 125 153
208 126 153
208 127 153
208 128 153
208 129 153
208 130 153
208 131 153
208 132 153
208 133 153
208 134 153
208 135 153
208 136 153
208 137 153
208 138 153
208 139 153
208 140 153
208 141 153
208 142 153
208 143 153
208 144 153
208 145 153
208 146 153
208 147 153
208 148 153
208 149 153
208 150 153
208 151 153
208 152 153
208 153 153
208 154 153
208 155 153
208 156 153
208 157 153
208 158 153
208 159 153
208 160 153
208 161 153
208 162 153
208 163 153
208 164 153
208 165 153
208 166 153
208 167 153
208 168 153
208 169 153
208 170 153
208 171 153
208 172 153
208 173 153
208 174 153
208 175 153
208 176 153
208 177 153
208 178 153
208 179 153
208 180 153
208 181 153
208 182 153
208 183 153
208 184 153
208 185 153
208 186 153
208 187 153
208 188 153
208 189 153
208 190 153
208 191 153
208 192 153
208 193 153
208 194 153
208 195 153
208 196 153
208 197 153
208 198 153
208 199 153
208 200 153
208 201 153
208 202 153
208 203 153
208 204 153
208 205 153
208 206 153
208 207 153
208 208 153
208 209 153
208 210 153
208 211 153
208 212 153
208 213 153
208 214 153
208 215 153
208 216 153
208 217 153
208 218 153
208 219 153
208 220 153
208 221 153
208 222 153
208 223 153
208 224 153
208 225 153
208 226 153
208 227 153
208 228 153
208 229 153
208 230 153
208 231 153
208 232 153
208 233 153
208 234 153
208 235 153
208 236 153
208 237 153
208 238 153
208 239 153
208 240 153
208 241 153
208 242 153
208 243 153
208 244 153
208 245 153
208 246 153
208 247 153
208 248 153
208 249 153
208 250 153
208 251 153
208 252 153
208 253 153
208 254 153
208 255 153
209 0 153
209 1 153
209 2 153
209 3 153
209 4 153
209 5 153
209 6 153
209 7 153
209 8 153
209 9 153
209 10 153
209 11 153
209 12 153
209 13 153
209 14 153
209 15 153
209 16 153
209 17 153
209 18 153
209 19 153
209 20 153
209 21 153
209 22 153
209 23 153
209 24 153
209 25 153
209 26 153
209 27 153
209 28 153
209 29 153
209 30 153
209 31 153
209 32 153
209 33 153
209 34 153
209 35 153
209 36 153
209 37 153
209 38 153
209 39 153
209 40 153
209 41 153
209 42 153
209 43 153
209 44 153
209 45 153
209 46 153
209 47 153
209 48 153
209 49 153
209 50 153
209 51 153
209 52 153
209 53 153
209 54 153
209 55 153
209 56 153
209 57 153
209 58 153
209 59 153
209 60 153
209 61 153
209 62 153
209 63 153
209 64 153
209 65 153
209 66 153
209 67 153
209 68 153
209 69 153
209 70 153
209 71 153
209 72 153
209 73 153
209 74 153
209 75 153
209 76 153
209 77 153
209 78 153
209 79 153
209 80 153
209 81 153
209 82 153
209 83 153
209 84 153
209 85 153
209 86 153
209 87 153
209 88 153
209 89 153
209 90 153
209 91 153
209 92 153
209 93 153
209 94 153
209 95 153
209 96 153
209 97 153
209 98 153
209 99 153
209 100 153
209 101 153
209 102 153
209 103 153
209 104 153
209 105 153
209 106 153
209 107 153
209 108 153
209 109 153
209 110 153
209 111 153
209 112 153
209 113 153
209 114 153
209 115 153
209 116 153
209 117 153
209 118 153
209 119 153
209 120 153
209 121 153
209 122 153
209 123 153
209 124 153
209 125 153
209 126 153
209 127 153
209 128 153
209 129 153
209 130 153
209 131 153
209 132 153
209 133 153
209 134 153
209 135 153
209 136 153
209 137 153
209 138 153
209 139 153
209 140 153
209 141 153
209 142 153
209 143 153
209 144 153
209 145 153
209 146 153
209 147 153
209 148 153
209 149 153
209 150 153
209 151 153
209 152 153
209 153 153
209 154 153
209 155 153
209 156 153
209 157 153
209 158 153
209 159 153
209 160 153
209 161 153
209 162 153
209 163 153
209 164 153
209 165 153
209 166 153
209 167 153
209 168 153
209 169 153
209 170 153
209 171 153
209 172 153
209 173 153
209 174 153
209 175 153
209 176 153
209 177 153
209 178 153
209 179 153
209 180 153
209 181 153
209 182 153
209 183 153
209 184 153
209 185 153
209 186 153
209 187 153
209 188 153
209 189 153
209 190 153
209 191 153
209 192 153
209 193 153
209 194 153
209 195 153
209 196 153
209 197 153
209 198 153
209 199 153
209 200 153
209 201 153
209 202 153
209 203 153
209 204 153
209 205 153
209 206 153
209 207 153
209 208 153
209 209 153
209 210 153
209 211 153
209 212 153
209 213 153
209 214 153
209 215 153
209 216 153
209 217 153
209 218 153
209 219 153
209 220 153
209 221 153
209 222 153
209 223 153
209 224 153
209 225 153
209 226 153
209 227 153
209 228 153
209 229 153
209 230 153
209 231 153
209 232 153
209 233 153
209 234 153
209 235 153
209 236 153
209 237 153
209 238 153
209 239 153
209 240 153
209 241 153
209 242 153
209 243 153
209 244 153
209 245 153
209 246 153
209 247 153
209 248 153
209 249 153
209 250 153
209 251 153
209 252 153
209 253 153
209 254 153
209 255 153
210 0 153
210 1 153
210 2 153
210 3 153
210 4 153
210 5 153
210 6 153
210 7 153
210 8 153
210 9 153
210 10 153
210 11 153
210 12 153
210 13 153
210 14 153
210 15 153
210 16 153
210 17 153
210 18 153
210 19 153
210 20 153
210 21 153
210 22 153
210 23 153
210 24 153
210 25 153
210 26 153
210 27 153
210 28 153
210 29 153
210 30 153
210 31 153
210 32 153
210 33 153
210 34 153
210 35 153
210 36 153
210 37 153
210 38 153
210 39 153
210 40 153
210 41 153
210 42 153
210 43 153
210 44 153
210 45 153
210 46 153
210 47 153
210 48 153
210 49 153
210 50 153
210 51 153
210 52 153
210 53 153
210 54 153
210 55 153
210 56 153
210 57 153
210 58 153
210 59 153
210 60 153
210 61 153
210 62 153
210 63 153
210 64 153
210 65 153
210 66 153
210 67 153
210 68 153
210 69 153
210 70 153
210 71 153
210 72 153
210 73 153
210 74 153
210 75 153
210 76 153
210 77 153
210 78 153
210 79 153
210 80 153
210 81 153
210 82 153
210 83 153
210 84 153
210 85 153
210 86 153
210 87 153
210 88 153
210 89 153
210 90 153
210 91 153
210 92 153
210 93 153
210 94 153
210 95 153
210 96 153
210 97 153
210 98 153
210 99 153
210 100 153
210 101 153
210 102 153
210 103 153
210 104 153
210 105 153
210 106 153
210 107 153
210 108 153
210 109 153
210 110 153
210 111 153
210 112 153
210 113 153
210 114 153
210 115 153
210 116 153
210 117 153
210 118 153
210 119 153
210 120 153
210 121 153
210 122 153
210 123 153
210 124 153
210 125 153
210 126 153
210 127 153
210 128 153
210 129 153
210 130 153
210 131 153
210 132 153
210 133 153
210 134 153
210 135 153
210 136 153
210 137 153
210 138 153
210 139 153
210 140 153
210 141 153
210 142 153
210 143 153
210 144 153
210 145 153
210 146 153
210 147 153
210 148 153
210 149 153
210 150 153
210 151 153
210 152 153
210 153 153
210 154 153
210 155 153
210 156 153
210 157 153
210 158 153
210 159 153
210 160 153
210 161 153
210 162 153
210 163 153
210 164 153
210 165 153
210 166 153
210 167 153
210 168 153
210 169 153
210 170 153
210 171 153
210 172 153
210 173 153
210 174 153
210 175 153
210 176 153
210 177 153
210 178 153
210 179 153
210 180 153
210 181 153
210 182 153
210 183 153
210 184 153
210 185 153
210 186 153
210 187 153
210 188 153
210 189 153
210 190 153
210 191 153
210 192 153
210 193 153
210 194 153
210 195 153
210 196 153
210 197 153
210 198 153
210 199 153
210 200 153
210 201 153
210 202 153
210 203 153
210 204 153
210 205 153
210 206 153
210 207 153
210 208 153
210 209 153
210 210 153
210 211 153
210 212 153
210 213 153
210 214 153
210 215 153
210 216 153
210 217 153
210 218 153
210 219 153
210 220 153
210 221 153
210 222 153
210 223 153
210 224 153
210 225 153
210 226 153
210 227 153
210 228 153
210 229 153
210 230 153
210 231 153
210 232 153
210 233 153
210 234 153
210 235 153
210 236 153
210 237 153
210 238 153
210 239 153
210 240 153
210 241 153
210 242 153
210 243 153
210 244 153
210 245 153
210 246 153
210 247 153
210 248 153
210 249 153
210 250 153
210 251 153
210 252 153
210 253 153
210 254 153
210 255 153
211 0 153
211 1 153
211 2 153
211 3 153
211 4 153
211 5 153
211 6 153
211 7 153
211 8 153
211 9 153
211 10 153
211 11 153
211 12 153
211 13 153
211 14 153
211 15 153
211 16 153
211 17 153
211 18 153
211 19 153
211 20 153
211 21 153
211 22 153
211 23 153
211 24 153
211 25 153
211 26 153
211 27 153
211 28 153
211 29 153
211 30 153
211 31 153
211 32 153
211 33 153
211 34 153
211 35 153
211 36 153
211 37 153
211 38 153
211 39 153
211 40 153
211 41 153
211 42 153
211 43 153
211 44 153
211 45 153
211 46 153
211 47 153
211 48 153
211 49 153
211 50 153
211 51 153
211 52 153
211 53 153
211 54 153
211 55 153
211 56 153
211 57 153
211 58 153
211 59 153
211 60 153
211 61 153
211 62 153
211 63 153
211 64 153
211 65 153
211 66 153
211 67 153
211 68 153
211 69 153
211 70 153
211 71 153
211 72 153
211 73 153
211 74 153
211 75 153
211 76 153
211 77 153
211 78 153
211 79 153
211 80 153
211 81 153
211 82 153
211 83 153
211 84 153
211 85 153
211 86 153
211 87 153
211 88 153
211 89 153
211 90 153
211 91 153
211 92 153
211 93 153
211 94 153
211 95 153
211 96 153
211 97 153
211 98 153
211 99 153
211 100 153
211 101 153
211 102 153
211 103 153
211 104 153
211 105 153
211 106 153
211 107 153
211 108 153
211 109 153
211 110 153
211 111 153
211 112 153
211 113 153
211 114 153
211 115 153
211 116 153
211 117 153
211 118 153
211 119 153
211 120 153
211 121 153
211 122 153
211 123 153
211 124 153
211 125 153
211 126 153
211 127 153
211 128 153
211 129 153
211 130 153
211 131 153
211 132 153
211 133 153
211 134 153
211 135 153
211 136 153
211 137 153
211 138 153
211 139 153
211 140 153
211 141 153
211 142 153
211 143 153
211 144 153
211 145 153
211 146 153
211 147 153
211 148 153
211 149 153
211 150 153
211 151 153
211 152 153
211 153 153
211 154 153
211 155 153
211 156 153
211 157 153
211 158 153
211 159 153
211 160 153
211 161 153
211 162 153
211 163 153
211 164 153
211 165 153
211 166 153
211 167 153
211 168 153
211 169 153
211 170 153
211 171 153
211 172 153
211 173 153
211 174 153
211 175 153
211 176 153
211 177 153
211 178 153
211 179 153
211 180 153
211 181 153
211 182 153
211 183 153
211 184 153
211 185 153
211 186 153
211 187 153
211 188 153
211 189 153
211 190 153
211 191 153
211 192 153
211 193 153
211 194 153
211 195 153
211 196 153
211 197 153
211 198 153
211 199 153
211 200 153
211 201 153
211 202 153
211 203 153
211 204 153
211 205 153
211 206 153
211 207 153
211 208 153
211 209 153
211 210 153
211 211 153
211 212 153
211 213 153
211 214 153
211 215 153
211 216 153
211 217 153
211 218 153
211 219 153
211 220 153
211 221 153
211 222 153
211 223 153
211 224 153
211 225 153
211 226 153
211 227 153
211 228 153
211 229 153
211 230 153
211 231 153
211 232 153
211 233 153
211 234 153
211 235 153
211 236 153
211 237 153
211 238 153
211 239 153
211 240 153
211 241 153
211 242 153
211 243 153
211 244 153
211 245 153
211 246 153
211 247 153
211 248 153
211 249 153
211 250 153
211 251 153
211 252 153
211 253 153
211 254 153
211 255 153
212 0 153
212 1 153
212 2 153
212 3 153
212 4 153
212 5 153
212 6 153
212 7 153
212 8 153
212 9 153
212 10 153
212 11 153
212 12 153
212 13 153
212 14 153
212 15 153
212 16 153
212 17 153
212 18 153
212 19 153
212 20 153
212 21 153
212 22 153
212 23 153
212 24 153
212 25 153
212 26 153
212 27 153
212 28 153
212 29 153
212 30 153
212 31 153
212 32 153
212 33 153
212 34 153
212 35 153
212 36 153
212 37 153
212 38 153
212 39 153
212 40 153
212 41 153
212 42 153
212 43 153
212 44 153
212 45 153
212 46 153
212 47 153
212 48 153
212 49 153
212 50 153
212 51 153
212 52 153
212 53 153
212 54 153
212 55 153
212 56 153
212 57 153
212 58 153
212 59 153
212 60 153
212 61 153
212 62 153
212 63 153
212 64 153
212 65 153
212 66 153
212 67 153
212 68 153
212 69 153
212 70 153
212 71 153
212 72 153
212 73 153
212 74 153
212 75 153
212 76 153
212 77 153
212 78 153
212 79 153
212 80 153
212 81 153
212 82 153
212 83 153
212 84 153
212 85 153
212 86 153
212 87 153
212 88 153
212 89 153
212 90 153
212 91 153
212 92 153
212 93 153
212 94 153
212 95 153
212 96 153
212 97 153
212 98 153
212 99 153
212 100 153
212 101 153
212 102 153
212 103 153
212 104 153
212 105 153
212 106 153
212 107 153
212 108 153
212 109 153
212 110 153
212 111 153
212 112 153
212 113 153
212 114 153
212 115 153
212 116 153
212 117 153
212 118 153
212 119 153
212 120 153
212 121 153
212 122 153
212 123 153
212 124 153
212 125 153
212 126 153
212 127 153
212 128 153
212 129 153
212 130 153
212 131 153
212 132 153
212 133 153
212 134 153
212 135 153
212 136 153
212 137 153
212 138 153
212 139 153
212 140 153
212 141 153
212 142 153
212 143 153
212 144 153
212 145 153
212 146 153
212 147 153
212 148 153
212 149 153
212 150 153
212 151 153
212 152 153
212 153 153
212 154 153
212 155 153
212 156 153
212 157 153
212 158 153
212 159 153
212 160 153
212 161 153
212 162 153
212 163 153
212 164 153
212 165 153
212 166 153
212 167 153
212 168 153
212 169 153
212 170 153
212 171 153
212 172 153
212 173 153
212 174 153
212 175 153
212 176 153
212 177 153
212 178 153
212 179 153
212 180 153
212 181 153
212 182 153
212 183 153
212 184 153
212 185 153
212 186 153
212 187 153
212 188 153
212 189 153
212 190 153
212 191 153
212 192 153
212 193 153
212 194 153
212 195 153
212 196 153
212 197 153
212 198 153
212 199 153
212 200 153
212 201 153
212 202 153
212 203 153
212 204 153
212 205 153
212 206 153
212 207 153
212 208 153
212 209 153
212 210 153
212 211 153
212 212 153
212 213 153
212 214 153
212 215 153
212 216 153
212 217 153
212 218 153
212 219 153
212 220 153
212 221 153
212 222 153
212 223 153
212 224 153
212 225 153
212 226 153
212 227 153
212 228 153
212 229 153
212 230 153
212 231 153
212 232 153
212 233 153
212 234 153
212 235 153
212 236 153
212 237 153
212 238 153
212 239 153
212 240 153
212 241 153
212 242 153
212 243 153
212 244 153
212 245 153
212 246 153
212 247 153
212 248 153
212 249 153
212 250 153
212 251 153
212 252 153
212 253 153
212 254 153
212 255 153
213 0 153
213 1 153
213 2 153
213 3 153
213 4 153
213 5 153
213 6 153
213 7 153
213 8 153
213 9 153
213 10 153
213 11 153
213 12 153
213 13 153
213 14 153
213 15 153
213 16 153
213 17 153
213 18 153
213 19 153
213 20 153
213 21 153
213 22 153
213 23 153
213 24 153
213 25 153
213 26 153
213 27 153
213 28 153
213 29 153
213 30 153
213 31 153
213 32 153
213 33 153
213 34 153
213 35 153
213 36 153
213 37 153
213 38 153
213 39 153
213 40 153
213 41 153
213 42 153
213 43 153
213 44 153
213 45 153
213 46 153
213 47 153
213 48 153
213 49 153
213 50 153
213 51 153
213 52 153
213 53 153
213 54 153
213 55 153
213 56 153
213 57 153
213 58 153
213 59 153
213 60 153
213 61 153
213 62 153
213 63 153
213 64 153
213 65 153
213 66 153
213 67 153
213 68 153
213 69 153
213 70 153
213 71 153
213 72 153
213 73 153
213 74 153
213 75 153
213 76 153
213 77 153
213 78 153
213 79 153
213 80 153
213 81 153
213 82 153
213 83 153
213 84 153
213 85 153
213 86 153
213 87 153
213 88 153
213 89 153
213 90 153
213 91 153
213 92 153
213 93 153
213 94 153
213 95 153
213 96 153
213 97 153
213 98 153
213 99 153
213 100 153
213 101 153
213 102 153
213 103 153
213 104 153
213 105 153
213 106 153
213 107 153
213 108 153
213 109 153
213 110 153
213 111 153
213 112 153
213 113 153
213 114 153
213 115 153
213 116 153
213 117 153
213 118 153
213 119 153
213 120 153
213 121 153
213 122 153
213 123 153
213 124 153
213 125 153
213 126 153
213 127 153
213 128 153
213 129 153
213 130 153
213 131 153
213 132 153
213 133 153
213 134 153
213 135 153
213 136 153
213 137 153
213 138 153
213 139 153
213 140 153
213 141 153
213 142 153
213 143 153
213 144 153
213 145 153
213 146 153
213 147 153
213 148 153
213 149 153
213 150 153
213 151 153
213 152 153
213 153 153
213 154 153
213 155 153
213 156 153
213 157 153
213 158 153
213 159 153
213 160 153
213 161 153
213 162 153
213 163 153
213 164 153
213 165 153
213 166 153
213 167 153
213 168 153
213 169 153
213 170 153
213 171 153
213 172 153
213 173 153
213 174 153
213 175 153
213 176 153
213 177 153
213 178 153
213 179 153
213 180 153
213 181 153
213 182 153
213 183 153
213 184 153
213 185 153
213 186 153
213 187 153
213 188 153
213 189 153
213 190 153
213 191 153
213 192 153
213 193 153
213 194 153
213 195 153
213 196 153
213 197 153
213 198 153
213 199 153
213 200 153
213 201 153
213 202 153
213 203 153
213 204 153
213 205 153
213 206 153
213 207 153
213 208 153
213 209 153
213 210 153
213 211 153
213 212 153
213 213 153
213 214 153
213 215 153
213 216 153
213 217 153
213 218 153
213 219 153
213 220 153
213 221 153
213 222 153
213 223 153
213 224 153
213 225 153
213 226 153
213 227 153
213 228 153
213 229 153
213 230 153
213 231 153
213 232 153
213 233 153
213 234 153
213 235 153
213 236 153
213 237 153
213 238 153
213 239 153
213 240 153
213 241 153
213 242 153
213 243 153
213 244 153
213 245 153
213 246 153
213 247 153
213 248 153
213 249 153
213 250 153
213 251 153
213 252 153
213 253 153
213 254 153
213 255 153
214 0 153
214 1 153
214 2 153
214 3 153
214 4 153
214 5 153
214 6 153
214 7 153
214 8 153
214 9 153
214 10 153
214 11 153
214 12 153
214 13 153
214 14 153
214 15 153
214 16 153
214 17 153
214 18 153
214 19 153
214 20 153
214 21 153
214 22 153
214 23 153
214 24 153
214 25 153
214 26 153
214 27 153
214 28 153
214 29 153
214 30 153
214 31 153
214 32 153
214 33 153
214 34 153
214 35 153
214 36 153
214 37 153
214 38 153
214 39 153
214 40 153
214 41 153
214 42 153
214 43 153
214 44 153
214 45 153
214 46 153
214 47 153
214 48 153
214 49 153
214 50 153
214 51 153
214 52 153
214 53 153
214 54 153
214 55 153
214 56 153
214 57 153
214 58 153
214 59 153
214 60 153
214 61 153
214 62 153
214 63 153
214 64 153
214 65 153
214 66 153
214 67 153
214 68 153
214 69 153
214 70 153
214 71 153
214 72 153
214 73 153
214 74 153
214 75 153
214 76 153
214 77 153
214 78 153
214 79 153
214 80 153
214 81 153
214 82 153
214 83 153
214 84 153
214 85 153
214 86 153
214 87 153
214 88 153
214 89 153
214 90 153
214 91 153
214 92 153
214 93 153
214 94 153
214 95 153
214 96 153
214 97 153
214 98 153
214 99 153
214 100 153
214 101 153
214 102 153
214 103 153
214 104 153
214 105 153
214 106 153
214 107 153
214 108 153
214 109 153
214 110 153
214 111 153
214 112 153
214 113 153
214 114 153
214 115 153
214 116 153
214 117 153
214 118 153
214 119 153
214 120 153
214 121 153
214 122 153
214 123 153
214 124 153
214 125 153
214 126 153
214 127 153
214 128 153
214 129 153
214 130 153
214 131 153
214 132 153
214 133 153
214 134 153
214 135 153
214 136 153
214 137 153
214 138 153
214 139 153
214 140 153
214 141 153
214 142 153
214 143 153
214 144 153
214 145 153
214 146 153
214 147 153
214 148 153
214 149 153
214 150 153
214 151 153
214 152 153
214 153 153
214 154 153
214 155 153
214 156 153
214 157 153
214 158 153
214 159 153
214 160 153
214 161 153
214 162 153
214 163 153
214 164 153
214 165 153
214 166 153
214 167 153
214 168 153
214 169 153
214 170 153
214 171 153
214 172 153
214 173 153
214 174 153
214 175 153
214 176 153
214 177 153
214 178 153
214 179 153
214 180 153
214 181 153
214 182 153
214 183 153
214 184 153
214 185 153
214 186 153
214 187 153
214 188 153
214 189 153
214 190 153
214 191 153
214 192 153
214 193 153
214 194 153
214 195 153
214 196 153
214 197 153
214 198 153
214 199 153
214 200 153
214 201 153
214 202 153
214 203 153
214 204 153
214 205 153
214 206 153
214 207 153
214 208 153
214 209 153
214 210 153
214 211 153
214 212 153
214 213 153
214 214 153
214 215 153
214 216 153
214 217 153
214 218 153
214 219 153
214 220 153
214 221 153
214 222 153
214 223 153
214 224 153
214 225 153
214 226 153
214 227 153
214 228 153
214 229 153
214 230 153
214 231 153
214 232 153
214 233 153
214 234 153
214 235 153
214 236 153
214 237 153
214 238 153
214 239 153
214 240 153
214 241 153
214 242 153
214 243 153
214 244 153
214 245 153
214 246 153
214 247 153
214 248 153
214 249 153
214 250 153
214 251 153
214 252 153
214 253 153
214 254 153
214 255 153
215 0 153
215 1 153
215 2 153
215 3 153
215 4 153
215 5 153
215 6 153
215 7 153
215 8 153
215 9 153
215 10 153
215 11 153
215 12 153
215 13 153
215 14 153
215 15 153
215 16 153
215 17 153
215 18 153
215 19 153
215 20 153
215 21 153
215 22 153
215 23 153
215 24 153
215 25 153
215 26 153
215 27 153
215 28 153
215 29 153
215 30 153
215 31 153
215 32 153
215 33 153
215 34 153
215 35 153
215 36 153
215 37 153
215 38 153
215 39 153
215 40 153
215 41 153
215 42 153
215 43 153
215 44 153
215 45 153
215 46 153
215 47 153
215 48 153
215 49 153
215 50 153
215 51 153
215 52 153
215 53 153
215 54 153
215 55 153
215 56 153
215 57 153
215 58 153
215 59 153
215 60 153
215 61 153
215 62 153
215 63 153
215 64 153
215 65 153
215 66 153
215 67 153
215 68 153
215 69 153
215 70 153
215 71 153
215 72 153
215 73 153
215 74 153
215 75 153
215 76 153
215 77 153
215 78 153
215 79 153
215 80 153
215 81 153
215 82 153
215 83 153
215 84 153
215 85 153
215 86 153
215 87 153
215 88 153
215 89 153
215 90 153
215 91 153
215 92 153
215 93 153
215 94 153
215 95 153
215 96 153
215 97 153
215 98 153
215 99 153
215 100 153
215 101 153
215 102 153
215 103 153
215 104 153
215 105 153
215 106 153
215 107 153
215 108 153
215 109 153
215 110 153
215 111 153
215 112 153
215 113 153
215 114 153
215 115 153
215 116 153
215 117 153
215 118 153
215 119 153
215 120 153
215 121 153
215 122 153
215 123 153
215 124 153
215 125 153
215 126 153
215 127 153
215 128 153
215 129 153
215 130 153
215 131 153
215 132 153
215 133 153
215 134 153
215 135 153
215 136 153
215 137 153
215 138 153
215 139 153
215 140 153
215 141 153
215 142 153
215 143 153
215 144 153
215 145 153
215 146 153
215 147 153
215 148 153
215 149 153
215 150 153
215 151 153
215 152 153
215 153 153
215 154 153
215 155 153
215 156 153
215 157 153
215 158 153
215 159 153
215 160 153
215 161 153
215 162 153
215 163 153
215 164 153
215 165 153
215 166 153
215 167 153
215 168 153
215 169 153
215 170 153
215 171 153
215 172 153
215 173 153
215 174 153
215 175 153
215 176 153
215 177 153
215 178 153
215 179 153
215 180 153
215 181 153
215 182 153
215 183 153
215 184 153
215 185 153
215 186 153
215 187 153
215 188 153
215 189 153
215 190 153
215 191 153
215 192 153
215 193 153
215 194 153
215 195 153
215 196 153
215 197 153
215 198 153
215 199 153
215 200 153
215 201 153
215 202 153
215 203 153
215 204 153
215 205 153
215 206 153
215 207 153
215 208 153
215 209 153
215 210 153
215 211 153
215 212 153
215 213 153
215 214 153
215 215 153
215 216 153
215 217 153
215 218 153
215 219 153
215 220 153
215 221 153
215 222 153
215 223 153
215 224 153
215 225 153
215 226 153
215 227 153
215 228 153
215 229 153
215 230 153
215 231 153
215 232 153
215 233 153
215 234 153
215 235 153
215 236 153
215 237 153
215 238 153
215 239 153
215 240 153
215 241 153
215 242 153
215 243 153
215 244 153
215 245 153
215 246 153
215 247 153
215 248 153
215 249 153
215 250 153
215 251 153
215 252 153
215 253 153
215 254 153
215 255 153
216 0 153
216 1 153
216 2 153
216 3 153
216 4 153
216 5 153
216 6 153
216 7 153
216 8 153
216 9 153
216 10 153
216 11 153
216 12 153
216 13 153
216 14 153
216 15 153
216 16 153
216 17 153
216 18 153
216 19 153
216 20 153
216 21 153
216 22 153
216 23 153
216 24 153
216 25 153
216 26 153
216 27 153
216 28 153
216 29 153
216 30 153
216 31 153
216 32 153
216 33 153
216 34 153
216 35 153
216 36 153
216 37 153
216 38 153
216 39 153
216 40 153
216 41 153
216 42 153
216 43 153
216 44 153
216 45 153
216 46 153
216 47 153
216 48 153
216 49 153
216 50 153
216 51 153
216 52 153
216 53 153
216 54 153
216 55 153
216 56 153
216 57 153
216 58 153
216 59 153
216 60 153
216 61 153
216 62 153
216 63 153
216 64 153
216 65 153
216 66 153
216 67 153
216 68 153
216 69 153
216 70 153
216 71 153
216 72 153
216 73 153
216 74 153
216 75 153
216 76 153
216 77 153
216 78 153
216 79 153
216 80 153
216 81 153
216 82 153
216 83 153
216 84 153
216 85 153
216 86 153
216 87 153
216 88 153
216 89 153
216 90 153
216 91 153
216 92 153
216 93 153
216 94 153
216 95 153
216 96 153
216 97 153
216 98 153
216 99 153
216 100 153
216 101 153
216 102 153
216 103 153
216 104 153
216 105 153
216 106 153
216 107 153
216 108 153
216 109 153
216 110 153
216 111 153
216 112 153
216 113 153
216 114 153
216 115 153
216 116 153
216 117 153
216 118 153
216 119 153
216 120 153
216 121 153
216 122 153
216 123 153
216 124 153
216 125 153
216 126 153
216 127 153
216 128 153
216 129 153
216 130 153
216 131 153
216 132 153
216 133 153
216 134 153
216 135 153
216 136 153
216 137 153
216 138 153
216 139 153
216 140 153
216 141 153
216 142 153
216 143 153
216 144 153
216 145 153
216 146 153
216 147 153
216 148 153
216 149 153
216 150 153
216 151 153
216 152 153
216 153 153
216 154 153
216 155 153
216 156 153
216 157 153
216 158 153
216 159 153
216 160 153
216 161 153
216 162 153
216 163 153
216 164 153
216 165 153
216 166 153
216 167 153
216 168 153
216 169 153
216 170 153
216 171 153
216 172 153
216 173 153
216 174 153
216 175 153
216 176 153
216 177 153
216 178 153
216 179 153
216 180 153
216 181 153
216 182 153
216 183 153
216 184 153
216 185 153
216 186 153
216 187 153
216 188 153
216 189 153
216 190 153
216 191 153
216 192 153
216 193 153
216 194 153
216 195 153
216 196 153
216 197 153
216 198 153
216 199 153
216 200 153
216 201 153
216 202 153
216 203 153
216 204 153
216 205 153
216 206 153
216 207 153
216 208 153
216 209 153
216 210 153
216 211 153
216 212 153
216 213 153
216 214 153
216 215 153
216 216 153
216 217 153
216 218 153
216 219 153
216 220 153
216 221 153
216 222 153
216 223 153
216 224 153
216 225 153
216 226 153
216 227 153
216 228 153
216 229 153
216 230 153
216 231 153
216 232 153
216 233 153
216 234 153
216 235 153
216 236 153
216 237 153
216 238 153
216 239 153
216 240 153
216 241 153
216 242 153
216 243 153
216 244 153
216 245 153
216 246 153
216 247 153
216 248 153
216 249 153
216 250 153
216 251 153
216 252 153
216 253 153
216 254 153
216 255 153
217 0 153
217 1 153
217 2 153
217 3 153
217 4 153
217 5 153
217 6 153
217 7 153
217 8 153
217 9 153
217 10 153
217 11 153
217 12 153
217 13 153
217 14 153
217 15 153
217 16 153
217 17 153
217 18 153
217 19 153
217 20 153
217 21 153
217 22 153
217 23 153
217 24 153
217 25 153
217 26 153
217 27 153
217 28 153
217 29 153
217 30 153
217 31 153
217 32 153
217 33 153
217 34 153
217 35 153
217 36 153
217 37 153
217 38 153
217 39 153
217 40 153
217 41 153
217 42 153
217 43 153
217 44 153
217 45 153
217 46 153
217 47 153
217 48 153
217 49 153
217 50 153
217 51 153
217 52 153
217 53 153
217 54 153
217 55 153
217 56 153
217 57 153
217 58 153
217 59 153
217 60 153
217 61 153
217 62 153
217 63 153
217 64 153
217 65 153
217 66 153
217 67 153
217 68 153
217 69 153
217 70 153
217 71 153
217 72 153
217 73 153
217 74 153
217 75 153
217 76 153
217 77 153
217 78 153
217 79 153
217 80 153
217 81 153
217 82 153
217 83 153
217 84 153
217 85 153
217 86 153
217 87 153
217 88 153
217 89 153
217 90 153
217 91 153
217 92 153
217 93 153
217 94 153
217 95 153
217 96 153
217 97 153
217 98 153
217 99 153
217 100 153
217 101 153
217 102 153
217 103 153
217 104 153
217 105 153
217 106 153
217 107 153
217 108 153
217 109 153
217 110 153
217 111 153
217 112 153
217 113 153
217 114 153
217 115 153
217 116 153
217 117 153
217 118 153
217 119 153
217 120 153
217 121 153
217 122 153
217 123 153
217 124 153
217 125 153
217 126 153
217 127 153
217 128 153
217 129 153
217 130 153
217 131 153
217 132 153
217 133 153
217 134 153
217 135 153
217 136 153
217 137 153
217 138 153
217 139 153
217 140 153
217 141 153
217 142 153
217 143 153
217 144 153
217 145 153
217 146 153
217 147 153
217 148 153
217 149 153
217 150 153
217 151 153
217 152 153
217 153 153
217 154 153
217 155 153
217 156 153
217 157 153
217 158 153
217 159 153
217 160 153
217 161 153
217 162 153
217 163 153
217 164 153
217 165 153
217 166 153
217 167 153
217 168 153
217 169 153
217 170 153
217 171 153
217 172 153
217 173 153
217 174 153
217 175 153
217 176 153
217 177 153
217 178 153
217 179 153
217 180 153
217 181 153
217 182 153
217 183 153
217 184 153
217 185 153
217 186 153
217 187 153
217 188 153
217 189 153
217 190 153
217 191 153
217 192 153
217 193 153
217 194 153
217 195 153
217 196 153
217 197 153
217 198 153
217 199 153
217 200 153
217 201 153
217 202 153
217 203 153
217 204 153
217 205 153
217 206 153
217 207 153
217 208 153
217 209 153
217 210 153
217 211 153
217 212 153
217 213 153
217 214 153
217 215 153
217 216 153
217 217 153
217 218 153
217 219 153
217 220 153
217 221 153
217 222 153
217 223 153
217 224 153
217 225 153
217 226 153
217 227 153
217 228 153
217 229 153
217 230 153
217 231 153
217 232 153
217 233 153
217 234 153
217 235 153
217 236 153
217 237 153
217 238 153
217 239 153
217 240 153
217 241 153
217 242 153
217 243 153
217 244 153
217 245 153
217 246 153
217 247 153
217 248 153
217 249 153
217 250 153
217 251 153
217 252 153
217 253 153
217 254 153
217 255 153
218 0 153
218 1 153
218 2 153
218 3 153
218 4 153
218 5 153
218 6 153
218 7 153
218 8 153
218 9 153
218 10 153
218 11 153
218 12 153
218 13 153
218 14 153
218 15 153
218 16 153
218 17 153
218 18 153
218 19 153
218 20 153
218 21 153
218 22 153
218 23 153
218 24 153
218 25 153
218 26 153
218 27 153
218 28 153
218 29 153
218 30 153
218 31 153
218 32 153
218 33 153
218 34 153
218 35 153
218 36 153
218 37 153
218 38 153
218 39 153
218 40 153
218 41 153
218 42 153
218 43 153
218 44 153
218 45 153
218 46 153
218 47 153
218 48 153
218 49 153
218 50 153
218 51 153
218 52 153
218 53 153
218 54 153
218 55 153
218 56 153
218 57 153
218 58 153
218 59 153
218 60 153
218 61 153
218 62 153
218 63 153
218 64 153
218 65 153
218 66 153
218 67 153
218 68 153
218 69 153
218 70 153
218 71 153
218 72 153
218 73 153
218 74 153
218 75 153
218 76 153
218 77 153
218 78 153
218 79 153
218 80 153
218 81 153
218 82 153
218 83 153
218 84 153
218 85 153
218 86 153
218 87 153
218 88 153
218 89 153
218 90 153
218 91 153
218 92 153
218 93 153
218 94 153
218 95 153
218 96 153
218 97 153
218 98 153
218 99 153
218 100 153
218 101 153
218 102 153
218 103 153
218 104 153
218 105 153
218 106 153
218 107 153
218 108 153
218 109 153
218 110 153
218 111 153
218 112 153
218 113 153
218 114 153
218 115 153
218 116 153
218 117 153
218 118 153
218 119 153
218 120 153
218 121 153
218 122 153
218 123 153
218 124 153
218 125 153
218 126 153
218 127 153
218 128 153
218 129 153
218 130 153
218 131 153
218 132 153
218 133 153
218 134 153
218 135 153
218 136 153
218 137 153
218 138 153
218 139 153
218 140 153
218 141 153
218 142 153
218 143 153
218 144 153
218 145 153
218 146 153
218 147 153
218 148 153
218 149 153
218 150 153
218 151 153
218 152 153
218 153 153
218 154 153
218 155 153
218 156 153
218 157 153
218 158 153
218 159 153
218 160 153
218 161 153
218 162 153
218 163 153
218 164 153
218 165 153
218 166 153
218 167 153
218 168 153
218 169 153
218 170 153
218 171 153
218 172 153
218 173 153
218 174 153
218 175 153
218 176 153
218 177 153
218 178 153
218 179 153
218 180 153
218 181 153
218 182 153
218 183 153
218 184 153
218 185 153
218 186 153
218 187 153
218 188 153
218 189 153
218 190 153
218 191 153
218 192 153
218 193 153
218 194 153
218 195 153
218 196 153
218 197 153
218 198 153
218 199 153
218 200 153
218 201 153
218 202 153
218 203 153
218 204 153
218 205 153
218 206 153
218 207 153
218 208 153
218 209 153
218 210 153
218 211 153
218 212 153
218 213 153
218 214 153
218 215 153
218 216 153
218 217 153
218 218 153
218 219 153
218 220 153
218 221 153
218 222 153
218 223 153
218 224 153
218 225 153
218 226 153
218 227 153
218 228 153
218 229 153
218 230 153
218 231 153
218 232 153
218 233 153
218 234 153
218 235 153
218 236 153
218 237 153
218 238 153
218 239 153
218 240 153
218 241 153
218 242 153
218 243 153
218 244 153
218 245 153
218 246 153
218 247 153
218 248 153
218 249 153
218 250 153
218 251 153
218 252 153
218 253 153
218 254 153
218 255 153
219 0 153
219 1 153
219 2 153
219 3 153
219 4 153
219 5 153
219 6 153
219 7 153
219 8 153
219 9 153
219 10 153
219 11 153
219 12 153
219 13 153
219 14 153
219 15 153
219 16 153
219 17 153
219 18 153
219 19 153
219 20 153
219 21 153
219 22 153
219 23 153
219 24 153
219 25 153
219 26 153
219 27 153
219 28 153
219 29 153
219 30 153
219 31 153
219 32 153
219 33 153
219 34 153
219 35 153
219 36 153
219 37 153
219 38 153
219 39 153
219 40 153
219 41 153
219 42 153
219 43 153
219 44 153
219 45 153
219 46 153
219 47 153
219 48 153
219 49 153
219 50 153
219 51 153
219 52 153
219 53 153
219 54 153
219 55 153
219 56 153
219 57 153
219 58 153
219 59 153
219 60 153
219 61 153
219 62 153
219 63 153
219 64 153
219 65 153
219 66 153
219 67 153
219 68 153
219 69 153
219 70 153
219 71 153
219 72 153
219 73 153
219 74 153
219 75 153
219 76 153
219 77 153
219 78 153
219 79 153
219 80 153
219 81 153
219 82 153
219 83 153
219 84 153
219 85 153
219 86 153
219 87 153
219 88 153
219 89 153
219 90 153
219 91 153
219 92 153
219 93 153
219 94 153
219 95 153
219 96 153
219 97 153
219 98 153
219 99 153
219 100 153
219 101 153
219 102 153
219 103 153
219 104 153
219 105 153
219 106 153
219 107 153
219 108 153
219 109 153
219 110 153
219 111 153
219 112 153
219 113 153
219 114 153
219 115 153
219 116 153
219 117 153
219 118 153
219 119 153
219 120 153
219 121 153
219 122 153
219 123 153
219 124 153
219 125 153
219 126 153
219 127 153
219 128 153
219 129 153
219 130 153
219 131 153
219 132 153
219 133 153
219 134 153
219 135 153
219 136 153
219 137 153
219 138 153
219 139 153
219 140 153
219 141 153
219 142 153
219 143 153
219 144 153
219 145 153
219 146 153
219 147 153
219 148 153
219 149 153
219 150 153
219 151 153
219 152 153
219 153 153
219 154 153
219 155 153
219 156 153
219 157 153
219 158 153
219 159 153
219 160 153
219 161 153
219 162 153
219 163 153
219 164 153
219 165 153
219 166 153
219 167 153
219 168 153
219 169 153
219 170 153
219 171 153
219 172 153
219 173 153
219 174 153
219 175 153
219 176 153
219 177 153
219 178 153
219 179 153
219 180 153
219 181 153
219 182 153
219 183 153
219 184 153
219 185 153
219 186 153
219 187 153
219 188 153
219 189 153
219 190 153
219 191 153
219 192 153
219 193 153
219 194 153
219 195 153
219 196 153
219 197 153
219 198 153
219 199 153
219 200 153
219 201 153
219 202 153
219 203 153
219 204 153
219 205 153
219 206 153
219 207 153
219 208 153
219 209 153
219 210 153
219 211 153
219 212 153
219 213 153
219 214 153
219 215 153
219 216 153
219 217 153
219 218 153
219 219 153
219 220 153
219 221 153
219 222 153
219 223 153
219 224 153
219 225 153
219 226 153
219 227 153
219 228 153
219 229 153
219 230 153
219 231 153
219 232 153
219 233 153
219 234 153
219 235 153
219 236 153
219 237 153
219 238 153
219 239 153
219 240 153
219 241 153
219 242 153
219 243 153
219 244 153
219 245 153
219 246 153
219 247 153
219 248 153
219 249 153
219 250 153
219 251 153
219 252 153
219 253 153
219 254 153
219 255 153
220 0 153
220 1 153
220 2 153
220 3 153
220 4 153
220 5 153
220 6 153
220 7 153
220 8 153
220 9 153
220 10 153
220 11 153
220 12 153
220 13 153
220 14 153
220 15 153
220 16 153
220 17 153
220 18 153
220 19 153
220 20 153
220 21 153
220 22 153
220 23 153
220 24 153
220 25 153
220 26 153
220 27 153
220 28 153
220 29 153
220 30 153
220 31 153
220 32 153
220 33 153
220 34 153
220 35 153
220 36 153
220 37 153
220 38 153
220 39 153
220 40 153
220 41 153
220 42 153
220 43 153
220 44 153
220 45 153
220 46 153
220 47 153
220 48 153
220 49 153
220 50 153
220 51 153
220 52 153
220 53 153
220 54 153
220 55 153
220 56 153
220 57 153
220 58 153
220 59 153
220 60 153
220 61 153
220 62 153
220 63 153
220 64 153
220 65 153
220 66 153
220 67 153
220 68 153
220 69 153
220 70 153
220 71 153
220 72 153
220 73 153
220 74 153
220 75 153
220 76 153
220 77 153
220 78 153
220 79 153
220 80 153
220 81 153
220 82 153
220 83 153
220 84 153
220 85 153
220 86 153
220 87 153
220 88 153
220 89 153
220 90 153
220 91 153
220 92 153
220 93 153
220 94 153
220 95 153
220 96 153
220 97 153
220 98 153
220 99 153
220 100 153
220 101 153
220 102 153
220 103 153
220 104 153
220 105 153
220 106 153
220 107 153
220 108 153
220 109 153
220 110 153
220 111 153
220 112 153
220 113 153
220 114 153
220 115 153
220 116 153
220 117 153
220 118 153
220 119 153
220 120 153
220 121 153
220 122 153
220 123 153
220 124 153
220 125 153
220 126 153
220 127 153
220 128 153
220 129 153
220 130 153
220 131 153
220 132 153
220 133 153
220 134 153
220 135 153
220 136 153
220 137 153
220 138 153
220 139 153
220 140 153
220 141 153
220 142 153
220 143 153
220 144 153
220 145 153
220 146 153
220 147 153
220 148 153
220 149 153
220 150 153
220 151 153
220 152 153
220 153 153
220 154 153
220 155 153
220 156 153
220 157 153
220 158 153
220 159 153
220 160 153
220 161 153
220 162 153
220 163 153
220 164 153
220 165 153
220 166 153
220 167 153
220 168 153
220 169 153
220 170 153
220 171 153
220 172 153
220 173 153
220 174 153
220 175 153
220 176 153
220 177 153
220 178 153
220 179 153
220 180 153
220 181 153
220 182 153
220 183 153
220 184 153
220 185 153
220 186 153
220 187 153
220 188 153
220 189 153
220 190 153
220 191 153
220 192 153
220 193 153
220 194 153
220 195 153
220 196 153
220 197 153
220 198 153
220 199 153
220 200 153
220 201 153
220 202 153
220 203 153
220 204 153
220 205 153
220 206 153
220 207 153
220 208 153
220 209 153
220 210 153
220 211 153
220 212 153
220 213 153
220 214 153
220 215 153
220 216 153
220 217 153
220 218 153
220 219 153
220 220 153
220 221 153
220 222 153
220 223 153
220 224 153
220 225 153
220 226 153
220 227 153
220 228 153
220 229 153
220 230 153
220 231 153
220 232 153
220 233 153
220 234 153
220 235 153
220 236 153
220 237 153
220 238 153
220 239 153
220 240 153
220 241 153
220 242 153
220 243 153
220 244 153
220 245 153
220 246 153
220 247 153
220 248 153
220 249 153
220 250 153
220 251 153
220 252 153
220 253 153
220 254 153
220 255 153
221 0 153
221 1 153
221 2 153
221 3 153
221 4 153
221 5 153
221 6 153
221 7 153
221 8 153
221 9 153
221 10 153
221 11 153
221 12 153
221 13 153
221 14 153
221 15 153
221 16 153
221 17 153
221 18 153
221 19 153
221 20 153
221 21 153
221 22 153
221 23 153
221 24 153
221 25 153
221 26 153
221 27 153
221 28 153
221 29 153
221 30 153
221 31 153
221 32 153
221 33 153
221 34 153
221 35 153
221 36 153
221 37 153
221 38 153
221 39 153
221 40 153
221 41 153
221 42 153
221 43 153
221 44 153
221 45 153
221 46 153
221 47 153
221 48 153
221 49 153
221 50 153
221 51 153
221 52 153
221 53 153
221 54 153
221 55 153
221 56 153
221 57 153
221 58 153
221 59 153
221 60 153
221 61 153
221 62 153
221 63 153
221 64 153
221 65 153
221 66 153
221 67 153
221 68 153
221 69 153
221 70 153
221 71 153
221 72 153
221 73 153
221 74 153
221 75 153
221 76 153
221 77 153
221 78 153
221 79 153
221 80 153
221 81 153
221 82 153
221 83 153
221 84 153
221 85 153
221 86 153
221 87 153
221 88 153
221 89 153
221 90 153
221 91 153
221 92 153
221 93 153
221 94 153
221 95 153
221 96 153
221 97 153
221 98 153
221 99 153
221 100 153
221 101 153
221 102 153
221 103 153
221 104 153
221 105 153
221 106 153
221 107 153
221 108 153
221 109 153
221 110 153
221 111 153
221 112 153
221 113 153
221 114 153
221 115 153
221 116 153
221 117 153
221 118 153
221 119 153
221 120 153
221 121 153
221 122 153
221 123 153
221 124 153
221 125 153
221 126 153
221 127 153
221 128 153
221 129 153
221 130 153
221 131 153
221 132 153
221 133 153
221 134 153
221 135 153
221 136 153
221 137 153
221 138 153
221 139 153
221 140 153
221 141 153
221 142 153
221 143 153
221 144 153
221 145 153
221 146 153
221 147 153
221 148 153
221 149 153
221 150 153
221 151 153
221 152 153
221 153 153
221 154 153
221 155 153
221 156 153
221 157 153
221 158 153
221 159 153
221 160 153
221 161 153
221 162 153
221 163 153
221 164 153
221 165 153
221 166 153
221 167 153
221 168 153
221 169 153
221 170 153
221 171 153
221 172 153
221 173 153
221 174 153
221 175 153
221 176 153
221 177 153
221 178 153
221 179 153
221 180 153
221 181 153
221 182 153
221 183 153
221 184 153
221 185 153
221 186 153
221 187 153
221 188 153
221 189 153
221 190 153
221 191 153
221 192 153
221 193 153
221 194 153
221 195 153
221 196 153
221 197 153
221 198 153
221 199 153
221 200 153
221 201 153
221 202 153
221 203 153
221 204 153
221 205 153
221 206 153
221 207 153
221 208 153
221 209 153
221 210 153
221 211 153
221 212 153
221 213 153
221 214 153
221 215 153
221 216 153
221 217 153
221 218 153
221 219 153
221 220 153
221 221 153
221 222 153
221 223 153
221 224 153
221 225 153
221 226 153
221 227 153
221 228 153
221 229 153
221 230 153
221 231 153
221 232 153
221 233 153
221 234 153
221 235 153
221 236 153
221 237 153
221 238 153
221 239 153
221 240 153
221 241 153
221 242 153
221 243 153
221 244 153
221 245 153
221 246 153
221 247 153
221 248 153
221 249 153
221 250 153
221 251 153
221 252 153
221 253 153
221 254 153
221 255 153
222 0 153
222 1 153
222 2 153
222 3 153
222 4 153
222 5 153
222 6 153
222 7 153
222 8 153
222 9 153
222 10 153
222 11 153
222 12 153
222 13 153
222 14 153
222 15 153
222 16 153
222 17 153
222 18 153
222 19 153
222 20 153
222 21 153
222 22 153
222 23 153
222 24 153
222 25 153
222 26 153
222 27 153
222 28 153
222 29 153
222 30 153
222 31 153
222 32 153
222 33 153
222 34 153
222 35 153
222 36 153
222 37 153
222 38 153
222 39 153
222 40 153
222 41 153
222 42 153
222 43 153
222 44 153
222 45 153
222 46 153
222 47 153
222 48 153
222 49 153
222 50 153
222 51 153
222 52 153
222 53 153
222 54 153
222 55 153
222 56 153
222 57 153
222 58 153
222 59 153
222 60 153
222 61 153
222 62 153
222 63 153
222 64 153
222 65 153
222 66 153
222 67 153
222 68 153
222 69 153
222 70 153
222 71 153
222 72 153
222 73 153
222 74 153
222 75 153
222 76 153
222 77 153
222 78 153
222 79 153
222 80 153
222 81 153
222 82 153
222 83 153
222 84 153
222 85 153
222 86 153
222 87 153
222 88 153
222 89 153
222 90 153
222 91 153
222 92 153
222 93 153
222 94 153
222 95 153
222 96 153
222 97 153
222 98 153
222 99 153
222 100 153
222 101 153
222 102 153
222 103 153
222 104 153
222 105 153
222 106 153
222 107 153
222 108 153
222 109 153
222 110 153
222 111 153
222 112 153
222 113 153
222 114 153
222 115 153
222 116 153
222 117 153
222 118 153
222 119 153
222 120 153
222 121 153
222 122 153
222 123 153
222 124 153
222 125 153
222 126 153
222 127 153
222 128 153
222 129 153
222 130 153
222 131 153
222 132 153
222 133 153
222 134 153
222 135 153
222 136 153
222 137 153
222 138 153
222 139 153
222 140 153
222 141 153
222 142 153
222 143 153
222 144 153
222 145 153
222 146 153
222 147 153
222 148 153
222 149 153
222 150 153
222 151 153
222 152 153
222 153 153
222 154 153
222 155 153
222 156 153
222 157 153
222 158 153
222 159 153
222 160 153
222 161 153
222 162 153
222 163 153
222 164 153
222 165 153
222 166 153
222 167 153
222 168 153
222 169 153
222 170 153
222 171 153
222 172 153
222 173 153
222 174 153
222 175 153
222 176 153
222 177 153
222 178 153
222 179 153
222 180 153
222 181 153
222 182 153
222 183 153
222 184 153
222 185 153
222 186 153
222 187 153
222 188 153
222 189 153
222 190 153
222 191 153
222 192 153
222 193 153
222 194 153
222 195 153
222 196 153
222 197 153
222 198 153
222 199 153
222 200 153
222 201 153
222 202 153
222 203 153
222 204 153
222 205 153
222 206 153
222 207 153
222 208 153
222 209 153
222 210 153
222 211 153
222 212 153
222 213 153
222 214 153
222 215 153
222 216 153
222 217 153
222 218 153
222 219 153
222 220 153
222 221 153
222 222 153
222 223 153
222 224 153
222 225 153
222 226 153
222 227 153
222 228 153
222 229 153
222 230 153
222 231 153
222 232 153
222 233 153
222 234 153
222 235 153
222 236 153
222 237 153
222 238 153
222 239 153
222 240 153
222 241 153
222 242 153
222 243 153
222 244 153
222 245 153
222 246 153
222 247 153
222 248 153
222 249 153
222 250 153
222 251 153
222 252 153
222 253 153
222 254 153
222 255 153
223 0 153
223 1 153
223 2 153
223 3 153
223 4 153
223 5 153
223 6 153
223 7 153
223 8 153
223 9 153
223 10 153
223 11 153
223 12 153
223 13 153
223 14 153
223 15 153
223 16 153
223 17 153
223 18 153
223 19 153
223 20 153
223 21 153
223 22 153
223 23 153
223 24 153
223 25 153
223 26 153
223 27 153
223 28 153
223 29 153
223 30 153
223 31 153
223 32 153
223 33 153
223 34 153
223 35 153
223 36 153
223 37 153
223 38 153
223 39 153
223 40 153
223 41 153
223 42 153
223 43 153
223 44 153
223 45 153
223 46 153
223 47 153
223 48 153
223 49 153
223 50 153
223 51 153
223 52 153
223 53 153
223 54 153
223 55 153
223 56 153
223 57 153
223 58 153
223 59 153
223 60 153
223 61 153
223 62 153
223 63 153
223 64 153
223 65 153
223 66 153
223 67 153
223 68 153
223 69 153
223 70 153
223 71 153
223 72 153
223 73 153
223 74 153
223 75 153
223 76 153
223 77 153
223 78 153
223 79 153
223 80 153
223 81 153
223 82 153
223 83 153
223 84 153
223 85 153
223 86 153
223 87 153
223 88 153
223 89 153
223 90 153
223 91 153
223 92 153
223 93 153
223 94 153
223 95 153
223 96 153
223 97 153
223 98 153
223 99 153
223 100 153
223 101 153
223 102 153
223 103 153
223 104 153
223 105 153
223 106 153
223 107 153
223 108 153
223 109 153
223 110 153
223 111 153
223 112 153
223 113 153
223 114 153
223 115 153
223 116 153
223 117 153
223 118 153
223 119 153
223 120 153
223 121 153
223 122 153
223 123 153
223 124 153
223 125 153
223 126 153
223 127 153
223 128 153
223 129 153
223 130 153
223 131 153
223 132 153
223 133 153
223 134 153
223 135 153
223 136 153
223 137 153
223 138 153
223 139 153
223 140 153
223 141 153
223 142 153
223 143 153
223 144 153
223 145 153
223 146 153
223 147 153
223 148 153
223 149 153
223 150 153
223 151 153
223 152 153
223 153 153
223 154 153
223 155 153
223 156 153
223 157 153
223 158 153
223 159 153
223 160 153
223 161 153
223 162 153
223 163 153
223 164 153
223 165 153
223 166 153
223 167 153
223 168 153
223 169 153
223 170 153
223 171 153
223 172 153
223 173 153
223 174 153
223 175 153
223 176 153
223 177 153
223 178 153
223 179 153
223 180 153
223 181 153
223 182 153
223 183 153
223 184 153
223 185 153
223 186 153
223 187 153
223 188 153
223 189 153
223 190 153
223 191 153
223 192 153
223 193 153
223 194 153
223 195 153
223 196 153
223 197 153
223 198 153
223 199 153
223 200 153
223 201 153
223 202 153
223 203 153
223 204 153
223 205 153
223 206 153
223 207 153
223 208 153
223 209 153
223 210 153
223 211 153
223 212 153
223 213 153
223 214 153
223 215 153
223 216 153
223 217 153
223 218 153
223 219 153
223 220 153
223 221 153
223 222 153
223 223 153
223 224 153
223 225 153
223 226 153
223 227 153
223 228 153
223 229 153
223 230 153
223 231 153
223 232 153
223 233 153
223 234 153
223 235 153
223 236 153
223 237 153
223 238 153
223 239 153
223 240 153
223 241 153
223 242 153
223 243 153
223 244 153
223 245 153
223 246 153
223 247 153
223 248 153
223 249 153
223 250 153
223 251 153
223 252 153
223 253 153
223 254 153
223 255 153
224 0 153
224 1 153
224 2 153
224 3 153
224 4 153
224 5 153
224 6 153
224 7 153
224 8 153
224 9 153
224 10 153
224 11 153
224 12 153
224 13 153
224 14 153
224 15 153
224 16 153
224 17 153
224 18 153
224 19 153
224 20 153
224 21 153
224 22 153
224 23 153
224 24 153
224 25 153
224 26 153
224 27 153
224 28 153
224 29 153
224 30 153
224 31 153
224 32 153
224 33 153
224 34 153
224 35 153
224 36 153
224 37 153
224 38 153
224 39 153
224 40 153
224 41 153
224 42 153
224 43 153
224 44 153
224 45 153
224 46 153
224 47 153
224 48 153
224 49 153
224 50 153
224 51 153
224 52 153
224 53 153
224 54 153
224 55 153
224 56 153
224 57 153
224 58 153
224 59 153
224 60 153
224 61 153
224 62 153
224 63 153
224 64 153
224 65 153
224 66 153
224 67 153
224 68 153
224 69 153
224 70 153
224 71 153
224 72 153
224 73 153
224 74 153
224 75 153
224 76 153
224 77 153
224 78 153
224 79 153
224 80 153
224 81 153
224 82 153
224 83 153
224 84 153
224 85 153
224 86 153
224 87 153
224 88 153
224 89 153
224 90 153
224 91 153
224 92 153
224 93 153
224 94 153
224 95 153
224 96 153
224 97 153
224 98 153
224 99 153
224 100 153
224 101 153
224 102 153
224 103 153
224 104 153
224 105 153
224 106 153
224 107 153
224 108 153
224 109 153
224 110 153
224 111 153
224 112 153
224 113 153
224 114 153
224 115 153
224 116 153
224 117 153
224 118 153
224 119 153
224 120 153
224 121 153
224 122 153
224 123 153
224 124 153
224 125 153
224 126 153
224 127 153
224 128 153
224 129 153
224 130 153
224 131 153
224 132 153
224 133 153
224 134 153
224 135 153
224 136 153
224 137 153
224 138 153
224 139 153
224 140 153
224 141 153
224 142 153
224 143 153
224 144 153
224 145 153
224 146 153
224 147 153
224 148 153
224 149 153
224 150 153
224 151 153
224 152 153
224 153 153
224 154 153
224 155 153
224 156 153
224 157 153
224 158 153
224 159 153
224 160 153
224 161 153
224 162 153
224 163 153
224 164 153
224 165 153
224 166 153
224 167 153
224 168 153
224 169 153
224 170 153
224 171 153
224 172 153
224 173 153
224 174 153
224 175 153
224 176 153
224 177 153
224 178 153
224 179 153
224 180 153
224 181 153
224 182 153
224 183 153
224 184 153
224 185 153
224 186 153
224 187 153
224 188 153
224 189 153
224 190 153
224 191 153
224 192 153
224 193 153
224 194 153
224 195 153
224 196 153
224 197 153
224 198 153
224 199 153
224 200 153
224 201 153
224 202 153
224 203 153
224 204 153
224 205 153
224 206 153
224 207 153
224 208 153
224 209 153
224 210 153
224 211 153
224 212 153
224 213 153
224 214 153
224 215 153
224 216 153
224 217 153
224 218 153
224 219 153
224 220 153
224 221 153
224 222 153
224 223 153
224 224 153
224 225 153
224 226 153
224 227 153
224 228 153
224 229 153
224 230 153
224 231 153
224 232 153
224 233 153
224 234 153
224 235 153
224 236 153
224 237 153
224 238 153
224 239 153
224 240 153
224 241 153
224 242 153
224 243 153
224 244 153
224 245 153
224 246 153
224 247 153
224 248 153
224 249 153
224 250 153
224 251 153
224 252 153
224 253 153
224 254 153
224 255 153
225 0 153
225 1 153
225 2 153
225 3 153
225 4 153
225 5 153
225 6 153
225 7 153
225 8 153
225 9 153
225 10 153
225 11 153
225 12 153
225 13 153
225 14 153
225 15 153
225 16 153
225 17 153
225 18 153
225 19 153
225 20 153
225 21 153
225 22 153
225 23 153
225 24 153
225 25 153
225 26 153
225 27 153
225 28 153
225 29 153
225 30 153
225 31 153
225 32 153
225 33 153
225 34 153
225 35 153
225 36 153
225 37 153
225 38 153
225 39 153
225 40 153
225 41 153
225 42 153
225 43 153
225 44 153
225 45 153
225 46 153
225 47 153
225 48 153
225 49 153
225 50 153
225 51 153
225 52 153
225 53 153
225 54 153
225 55 153
225 56 153
225 57 153
225 58 153
225 59 153
225 60 153
225 61 153
225 62 153
225 63 153
225 64 153
225 65 153
225 66 153
225 67 153
225 68 153
225 69 153
225 70 153
225 71 153
225 72 153
225 73 153
225 74 153
225 75 153
225 76 153
225 77 153
225 78 153
225 79 153
225 80 153
225 81 153
225 82 153
225 83 153
225 84 153
225 85 153
225 86 153
225 87 153
225 88 153
225 89 153
225 90 153
225 91 153
225 92 153
225 93 153
225 94 153
225 95 153
225 96 153
225 97 153
225 98 153
225 99 153
225 100 153
225 101 153
225 102 153
225 103 153
225 104 153
225 105 153
225 106 153
225 107 153
225 108 153
225 109 153
225 110 153
225 111 153
225 112 153
225 113 153
225 114 153
225 115 153
225 116 153
225 117 153
225 118 153
225 119 153
225 120 153
225 121 153
225 122 153
225 123 153
225 124 153
225 125 153
225 126 153
225 127 153
225 128 153
225 129 153
225 130 153
225 131 153
225 132 153
225 133 153
225 134 153
225 135 153
225 136 153
225 137 153
225 138 153
225 139 153
225 140 153
225 141 153
225 142 153
225 143 153
225 144 153
225 145 153
225 146 153
225 147 153
225 148 153
225 149 153
225 150 153
225 151 153
225 152 153
225 153 153
225 154 153
225 155 153
225 156 153
225 157 153
225 158 153
225 159 153
225 160 153
225 161 153
225 162 153
225 163 153
225 164 153
225 165 153
225 166 153
225 167 153
225 168 153
225 169 153
225 170 153
225 171 153
225 172 153
225 173 153
225 174 153
225 175 153
225 176 153
225 177 153
225 178 153
225 179 153
225 180 153
225 181 153
225 182 153
225 183 153
225 184 153
225 185 153
225 186 153
225 187 153
225 188 153
225 189 153
225 190 153
225 191 153
225 192 153
225 193 153
225 194 153
225 195 153
225 196 153
225 197 153
225 198 153
225 199 153
225 200 153
225 201 153
225 202 153
225 203 153
225 204 153
225 205 153
225 206 153
225 207 153
225 208 153
225 209 153
225 210 153
225 211 153
225 212 153
225 213 153
225 214 153
225 215 153
225 216 153
225 217 153
225 218 153
225 219 153
225 220 153
225 221 153
225 222 153
225 223 153
225 224 153
225 225 153
225 226 153
225 227 153
225 228 153
225 229 153
225 230 153
225 231 153
225 232 153
225 233 153
225 234 153
225 235 153
225 236 153
225 237 153
225 238 153
225 239 153
225 240 153
225 241 153
225 242 153
225 243 153
225 244 153
225 245 153
225 246 153
225 247 153
225 248 153
225 249 153
225 250 153
225 251 153
225 252 153
225 253 153
225 254 153
225 255 153
226 0 153
226 1 153
226 2 153
226 3 153
226 4 153
226 5 153
226 6 153
226 7 153
226 8 153
226 9 153
226 10 153
226 11 153
226 12 153
226 13 153
226 14 153
226 15 153
226 16 153
226 17 153
226 18 153
226 19 153
226 20 153
226 21 153
226 22 153
226 23 153
226 24 153
226 25 153
226 26 153
226 27 153
226 28 153
226 29 153
226 30 153
226 31 153
226 32 153
226 33 153
226 34 153
226 35 153
226 36 153
226 37 153
226 38 153
226 39 153
226 40 153
226 41 153
226 42 153
226 43 153
226 44 153
226 45 153
226 46 153
226 47 153
226 48 153
226 49 153
226 50 153
226 51 153
226 52 153
226 53 153
226 54 153
226 55 153
226 56 153
226 57 153
226 58 153
226 59 153
226 60 153
226 61 153
226 62 153
226 63 153
226 64 153
226 65 153
226 66 153
226 67 153
226 68 153
226 69 153
226 70 153
226 71 153
226 72 153
226 73 153
226 74 153
226 75 153
226 76 153
226 77 153
226 78 153
226 79 153
226 80 153
226 81 153
226 82 153
226 83 153
226 84 153
226 85 153
226 86 153
226 87 153
226 88 153
226 89 153
226 90 153
226 91 153
226 92 153
226 93 153
226 94 153
226 95 153
226 96 153
226 97 153
226 98 153
226 99 153
226 100 153
226 101 153
226 102 153
226 103 153
226 104 153
226 105 153
226 106 153
226 107 153
226 108 153
226 109 153
226 110 153
226 111 153
226 112 153
226 113 153
226 114 153
226 115 153
226 116 153
226 117 153
226 118 153
226 119 153
226 120 153
226 121 153
226 122 153
226 123 153
226 124 153
226 125 153
226 126 153
226 127 153
226 128 153
226 129 153
226 130 153
226 131 153
226 132 153
226 133 153
226 134 153
226 135 153
226 136 153
226 137 153
226 138 153
226 139 153
226 140 153
226 141 153
226 142 153
226 143 153
226 144 153
226 145 153
226 146 153
226 147 153
226 148 153
226 149 153
226 150 153
226 151 153
226 152 153
226 153 153
226 154 153
226 155 153
226 156 153
226 157 153
226 158 153
226 159 153
226 160 153
226 161 153
226 162 153
226 163 153
226 164 153
226 165 153
226 166 153
226 167 153
226 168 153
226 169 153
226 170 153
226 171 153
226 172 153
226 173 153
226 174 153
226 175 153
226 176 153
226 177 153
226 178 153
226 179 153
226 180 153
226 181 153
226 182 153
226 183 153
226 184 153
226 185 153
226 186 153
226 187 153
226 188 153
226 189 153
226 190 153
226 191 153
226 192 153
226 193 153
226 194 153
226 195 153
226 196 153
226 197 153
226 198 153
226 199 153
226 200 153
226 201 153
226 202 153
226 203 153
226 204 153
226 205 153
226 206 153
226 207 153
226 208 153
226 209 153
226 210 153
226 211 153
226 212 153
226 213 153
226 214 153
226 215 153
226 216 153
226 217 153
226 218 153
226 219 153
226 220 153
226 221 153
226 222 153
226 223 153
226 224 153
226 225 153
226 226 153
226 227 153
226 228 153
226 229 153
226 230 153
226 231 153
226 232 153
226 233 153
226 234 153
226 235 153
226 236 153
226 237 153
226 238 153
226 239 153
226 240 153
226 241 153
226 242 153
226 243 153
226 244 153
226 245 153
226 246 153
226 247 153
226 248 153
226 249 153
226 250 153
226 251 153
226 252 153
226 253 153
226 254 153
226 255 153
227 0 153
227 1 153
227 2 153
227 3 153
227 4 153
227 5 153
227 6 153
227 7 153
227 8 153
227 9 153
227 10 153
227 11 153
227 12 153
227 13 153
227 14 153
227 15 153
227 16 153
227 17 153
227 18 153
227 19 153
227 20 153
227 21 153
227 22 153
227 23 153
227 24 153
227 25 153
227 26 153
227 27 153
227 28 153
227 29 153
227 30 153
227 31 153
227 32 153
227 33 153
227 34 153
227 35 153
227 36 153
227 37 153
227 38 153
227 39 153
227 40 153
227 41 153
227 42 153
227 43 153
227 44 153
227 45 153
227 46 153
227 47 153
227 48 153
227 49 153
227 50 153
227 51 153
227 52 153
227 53 153
227 54 153
227 55 153
227 56 153
227 57 153
227 58 153
227 59 153
227 60 153
227 61 153
227 62 153
227 63 153
227 64 153
227 65 153
227 66 153
227 67 153
227 68 153
227 69 153
227 70 153
227 71 153
227 72 153
227 73 153
227 74 153
227 75 153
227 76 153
227 77 153
227 78 153
227 79 153
227 80 153
227 81 153
227 82 153
227 83 153
227 84 153
227 85 153
227 86 153
227 87 153
227 88 153
227 89 153
227 90 153
227 91 153
227 92 153
227 93 153
227 94 153
227 95 153
227 96 153
227 97 153
227 98 153
227 99 153
227 100 153
227 101 153
227 102 153
227 103 153
227 104 153
227 105 153
227 106 153
227 107 153
227 108 153
227 109 153
227 110 153
227 111 153
227 112 153
227 113 153
227 114 153
227 115 153
227 116 153
227 117 153
227 118 153
227 119 153
227 120 153
227 121 153
227 122 153
227 123 153
227 124 153
227 125 153
227 126 153
227 127 153
227 128 153
227 129 153
227 130 153
227 131 153
227 132 153
227 133 153
227 134 153
227 135 153
227 136 153
227 137 153
227 138 153
227 139 153
227 140 153
227 141 153
227 142 153
227 143 153
227 144 153
227 145 153
227 146 153
227 147 153
227 148 153
227 149 153
227 150 153
227 151 153
227 152 153
227 153 153
227 154 153
227 155 153
227 156 153
227 157 153
227 158 153
227 159 153
227 160 153
227 161 153
227 162 153
227 163 153
227 164 153
227 165 153
227 166 153
227 167 153
227 168 153
227 169 153
227 170 153
227 171 153
227 172 153
227 173 153
227 174 153
227 175 153
227 176 153
227 177 153
227 178 153
227 179 153
227 180 153
227 181 153
227 182 153
227 183 153
227 184 153
227 185 153
227 186 153
227 187 153
227 188 153
227 189 153
227 190 153
227 191 153
227 192 153
227 193 153
227 194 153
227 195 153
227 196 153
227 197 153
227 198 153
227 199 153
227 200 153
227 201 153
227 202 153
227 203 153
227 204 153
227 205 153
227 206 153
227 207 153
227 208 153
227 209 153
227 210 153
227 211 153
227 212 153
227 213 153
227 214 153
227 215 153
227 216 153
227 217 153
227 218 153
227 219 153
227 220 153
227 221 153
227 222 153
227 223 153
227 224 153
227 225 153
227 226 153
227 227 153
227 228 153
227 229 153
227 230 153
227 231 153
227 232 153
227 233 153
227 234 153
227 235 153
227 236 153
227 237 153
227 238 153
227 239 153
227 240 153
227 241 153
227 242 153
227 243 153
227 244 153
227 245 153
227 246 153
227 247 153
227 248 153
227 249 153
227 250 153
227 251 153
227 252 153
227 253 153
227 254 153
227 255 153
228 0 153
228 1 153
228 2 153
228 3 153
228 4 153
228 5 153
228 6 153
228 7 153
228 8 153
228 9 153
228 10 153
228 11 153
228 12 153
228 13 153
228 14 153
228 15 153
228 16 153
228 17 153
228 18 153
228 19 153
228 20 153
228 21 153
228 22 153
228 23 153
228 24 153
228 25 153
228 26 153
228 27 153
228 28 153
228 29 153
228 30 153
228 31 153
228 32 153
228 33 153
228 34 153
228 35 153
228 36 153
228 37 153
228 38 153
228 39 153
228 40 153
228 41 153
228 42 153
228 43 153
228 44 153
228 45 153
228 46 153
228 47 153
228 48 153
228 49 153
228 50 153
228 51 153
228 52 153
228 53 153
228 54 153
228 55 153
228 56 153
228 57 153
228 58 153
228 59 153
228 60 153
228 61 153
228 62 153
228 63 153
228 64 153
228 65 153
228 66 153
228 67 153
228 68 153
228 69 153
228 70 153
228 71 153
228 72 153
228 73 153
228 74 153
228 75 153
228 76 153
228 77 153
228 78 153
228 79 153
228 80 153
228 81 153
228 82 153
228 83 153
228 84 153
228 85 153
228 86 153
228 87 153
228 88 153
228 89 153
228 90 153
228 91 153
228 92 153
228 93 153
228 94 153
228 95 153
228 96 153
228 97 153
228 98 153
228 99 153
228 100 153
228 101 153
228 102 153
228 103 153
228 104 153
228 105 153
228 106 153
228 107 153
228 108 153
228 109 153
228 110 153
228 111 153
228 112 153
228 113 153
228 114 153
228 115 153
228 116 153
228 117 153
228 118 153
228 119 153
228 120 153
228 121 153
228 122 153
228 123 153
228 124 153
228 125 153
228 126 153
228 127 153
228 128 153
228 129 153
228 130 153
228 131 153
228 132 153
228 133 153
228 134 153
228 135 153
228 136 153
228 137 153
228 138 153
228 139 153
228 140 153
228 141 153
228 142 153
228 143 153
228 144 153
228 145 153
228 146 153
228 147 153
228 148 153
228 149 153
228 150 153
228 151 153
228 152 153
228 153 153
228 154 153
228 155 153
228 156 153
228 157 153
228 158 153
228 159 153
228 160 153
228 161 153
228 162 153
228 163 153
228 164 153
228 165 153
228 166 153
228 167 153
228 168 153
228 169 153
228 170 153
228 171 153
228 172 153
228 173 153
228 174 153
228 175 153
228 176 153
228 177 153
228 178 153
228 179 153
228 180 153
228 181 153
228 182 153
228 183 153
228 184 153
228 185 153
228 186 153
228 187 153
228 188 153
228 189 153
228 190 153
228 191 153
228 192 153
228 193 153
228 194 153
228 195 153
228 196 153
228 197 153
228 198 153
228 199 153
228 200 153
228 201 153
228 202 153
228 203 153
228 204 153
228 205 153
228 206 153
228 207 153
228 208 153
228 209 153
228 210 153
228 211 153
228 212 153
228 213 153
228 214 153
228 215 153
228 216 153
228 217 153
228 218 153
228 219 153
228 220 153
228 221 153
228 222 153
228 223 153
228 224 153
228 225 153
228 226 153
228 227 153
228 228 153
228 229 153
228 230 153
228 231 153
228 232 153
228 233 153
228 234 153
228 235 153
228 236 153
228 237 153
228 238 153
228 239 153
228 240 153
228 241 153
228 242 153
228 243 153
228 244 153
228 245 153
228 246 153
228 247 153
228 248 153
228 249 153
228 250 153
228 251 153
228 252 153
228 253 153
228 254 153
228 255 153
229 0 153
229 1 153
229 2 153
229 3 153
229 4 153
229 5 153
229 6 153
229 7 153
229 8 153
229 9 153
229 10 153
229 11 153
229 12 153
229 13 153
229 14 153
229 15 153
229 16 153
229 17 153
229 18 153
229 19 153
229 20 153
229 21 153
229 22 153
229 23 153
229 24 153
229 25 153
229 26 153
229 27 153
229 28 153
229 29 153
229 30 153
229 31 153
229 32 153
229 33 153
229 34 153
229 35 153
229 36 153
229 37 153
229 38 153
229 39 153
229 40 153
229 41 153
229 42 153
229 43 153
229 44 153
229 45 153
229 46 153
229 47 153
229 48 153
229 49 153
229 50 153
229 51 153
229 52 153
229 53 153
229 54 153
229 55 153
229 56 153
229 57 153
229 58 153
229 59 153
229 60 153
229 61 153
229 62 153
229 63 153
229 64 153
229 65 153
229 66 153
229 67 153
229 68 153
229 69 153
229 70 153
229 71 153
229 72 153
229 73 153
229 74 153
229 75 153
229 76 153
229 77 153
229 78 153
229 79 153
229 80 153
229 81 153
229 82 153
229 83 153
229 84 153
229 85 153
229 86 153
229 87 153
229 88 153
229 89 153
229 90 153
229 91 153
229 92 153
229 93 153
229 94 153
229 95 153
229 96 153
229 97 153
229 98 153
229 99 153
229 100 153
229 101 153
229 102 153
229 103 153
229 104 153
229 105 153
229 106 153
229 107 153
229 108 153
229 109 153
229 110 153
229 111 153
229 112 153
229 113 153
229 114 153
229 115 153
229 116 153
229 117 153
229 118 153
229 119 153
229 120 153
229 121 153
229 122 153
229 123 153
229 124 153
229 125 153
229 126 153
229 127 153
229 128 153
229 129 153
229 130 153
229 131 153
229 132 153
229 133 153
229 134 153
229 135 153
229 136 153
229 137 153
229 138 153
229 139 153
229 140 153
229 141 153
229 142 153
229 143 153
229 144 153
229 145 153
229 146 153
229 147 153
229 148 153
229 149 153
229 150 153
229 151 153
229 152 153
229 153 153
229 154 153
229 155 153
229 156 153
229 157 153
229 158 153
229 159 153
229 160 153
229 161 153
229 162 153
229 163 153
229 164 153
229 165 153
229 166 153
229 167 153
229 168 153
229 169 153
229 170 153
229 171 153
229 172 153
229 173 153
229 174 153
229 175 153
229 176 153
229 177 153
229 178 153
229 179 153
229 180 153
229 181 153
229 182 153
229 183 153
229 184 153
229 185 153
229 186 153
229 187 153
229 188 153
229 189 153
229 190 153
229 191 153
229 192 153
229 193 153
229 194 153
229 195 153
229 196 153
229 197 153
229 198 153
229 199 153
229 200 153
229 201 153
229 202 153
229 203 153
229 204 153
229 205 153
229 206 153
229 207 153
229 208 153
229 209 153
229 210 153
229 211 153
229 212 153
229 213 153
229 214 153
229 215 153
229 216 153
229 217 153
229 218 153
229 219 153
229 220 153
229 221 153
229 222 153
229 223 153
229 224 153
229 225 153
229 226 153
229 227 153
229 228 153
229 229 153
229 230 153
229 231 153
229 232 153
229 233 153
229 234 153
229 235 153
229 236 153
229 237 153
229 238 153
229 239 153
229 240 153
229 241 153
229 242 153
229 243 153
229 244 153
229 245 153
229 246 153
229 247 153
229 248 153
229 249 153
229 250 153
229 251 153
229 252 153
229 253 153
229 254 153
229 255 153
230 0 153
230 1 153
230 2 153
230 3 153
230 4 153
230 5 153
230 6 153
230 7 153
230 8 153
230 9 153
230 10 153
230 11 153
230 12 153
230 13 153
230 14 153
230 15 153
230 16 153
230 17 153
230 18 153
230 19 153
230 20 153
230 21 153
230 22 153
230 23 153
230 24 153
230 25 153
230 26 153
230 27 153
230 28 153
230 29 153
230 30 153
230 31 153
230 32 153
230 33 153
230 34 153
230 35 153
230 36 153
230 37 153
230 38 153
230 39 153
230 40 153
230 41 153
230 42 153
230 43 153
230 44 153
230 45 153
230 46 153
230 47 153
230 48 153
230 49 153
230 50 153
230 51 153
230 52 153
230 53 153
230 54 153
230 55 153
230 56 153
230 57 153
230 58 153
230 59 153
230 60 153
230 61 153
230 62 153
230 63 153
230 64 153
230 65 153
230 66 153
230 67 153
230 68 153
230 69 153
230 70 153
230 71 153
230 72 153
230 73 153
230 74 153
230 75 153
230 76 153
230 77 153
230 78 153
230 79 153
230 80 153
230 81 153
230 82 153
230 83 153
230 84 153
230 85 153
230 86 153
230 87 153
230 88 153
230 89 153
230 90 153
230 91 153
230 92 153
230 93 153
230 94 153
230 95 153
230 96 153
230 97 153
230 98 153
230 99 153
230 100 153
230 101 153
230 102 153
230 103 153
230 104 153
230 105 153
230 106 153
230 107 153
230 108 153
230 109 153
230 110 153
230 111 153
230 112 153
230 113 153
230 114 153
230 115 153
230 116 153
230 117 153
230 118 153
230 119 153
230 120 153
230 121 153
230 122 153
230 123 153
230 124 153
230 125 153
230 126 153
230 127 153
230 128 153
230 129 153
230 130 153
230 131 153
230 132 153
230 133 153
230 134 153
230 135 153
230 136 153
230 137 153
230 138 153
230 139 153
230 140 153
230 141 153
230 142 153
230 143 153
230 144 153
230 145 153
230 146 153
230 147 153
230 148 153
230 149 153
230 150 153
230 151 153
230 152 153
230 153 153
230 154 153
230 155 153
230 156 153
230 157 153
230 158 153
230 159 153
230 160 153
230 161 153
230 162 153
230 163 153
230 164 153
230 165 153
230 166 153
230 167 153
230 168 153
230 169 153
230 170 153
230 171 153
230 172 153
230 173 153
230 174 153
230 175 153
230 176 153
230 177 153
230 178 153
230 179 153
230 180 153
230 181 153
230 182 153
230 183 153
230 184 153
230 185 153
230 186 153
230 187 153
230 188 153
230 189 153
230 190 153
230 191 153
230 192 153
230 193 153
230 194 153
230 195 153
230 196 153
230 197 153
230 198 153
230 199 153
230 200 153
230 201 153
230 202 153
230 203 153
230 204 153
230 205 153
230 206 153
230 207 153
230 208 153
230 209 153
230 210 153
230 211 153
230 212 153
230 213 153
230 214 153
230 215 153
230 216 153
230 217 153
230 218 153
230 219 153
230 220 153
230 221 153
230 222 153
230 223 153
230 224 153
230 225 153
230 226 153
230 227 153
230 228 153
230 229 153
230 230 153
230 231 153
230 232 153
230 233 153
230 234 153
230 235 153
230 236 153
230 237 153
230 238 153
230 239 153
230 240 153
230 241 153
230 242 153
230 243 153
230 244 153
230 245 153
230 246 153
230 247 153
230 248 153
230 249 153
230 250 153
230 251 153
230 252 153
230 253 153
230 254 153
230 255 153
231 0 153
231 1 153
231 2 153
231 3 153
231 4 153
231 5 153
231 6 153
231 7 153
231 8 153
231 9 153
231 10 153
231 11 153
231 12 153
231 13 153
231 14 153
231 15 153
231 16 153
231 17 153
231 18 153
231 19 153
231 20 153
231 21 153
231 22 153
231 23 153
231 24 153
231 25 153
231 26 153
231 27 153
231 28 153
231 29 153
231 30 153
231 31 153
231 32 153
231 33 153
231 34 153
231 35 153
231 36 153
231 37 153
231 38 153
231 39 153
231 40 153
231 41 153
231 42 153
231 43 153
231 44 153
231 45 153
231 46 153
231 47 153
231 48 153
231 49 153
231 50 153
231 51 153
231 52 153
231 53 153
231 54 153
231 55 153
231 56 153
231 57 153
231 58 153
231 59 153
231 60 153
231 61 153
231 62 153
231 63 153
231 64 153
231 65 153
231 66 153
231 67 153
231 68 153
231 69 153
231 70 153
231 71 153
231 72 153
231 73 153
231 74 153
231 75 153
231 76 153
231 77 153
231 78 153
231 79 153
231 80 153
231 81 153
231 82 153
231 83 153
231 84 153
231 85 153
231 86 153
231 87 153
231 88 153
231 89 153
231 90 153
231 91 153
231 92 153
231 93 153
231 94 153
231 95 153
231 96 153
231 97 153
231 98 153
231 99 153
231 100 153
231 101 153
231 102 153
231 103 153
231 104 153
231 105 153
231 106 153
231 107 153
231 108 153
231 109 153
231 110 153
231 111 153
231 112 153
231 113 153
231 114 153
231 115 153
231 116 153
231 117 153
231 118 153
231 119 153
231 120 153
231 121 153
231 122 153
231 123 153
231 124 153
231 125 153
231 126 153
231 127 153
231 128 153
231 129 153
231 130 153
231 131 153
231 132 153
231 133 153
231 134 153
231 135 153
231 136 153
231 137 153
231 138 153
231 139 153
231 140 153
231 141 153
231 142 153
231 143 153
231 144 153
231 145 153
231 146 153
231 147 153
231 148 153
231 149 153
231 150 153
231 151 153
231 152 153
231 153 153
231 154 153
231 155 153
231 156 153
231 157 153
231 158 153
231 159 153
231 160 153
231 161 153
231 162 153
231 163 153
231 164 153
231 165 153
231 166 153
231 167 153
231 168 153
231 169 153
231 170 153
231 171 153
231 172 153
231 173 153
231 174 153
231 175 153
231 176 153
231 177 153
231 178 153
231 179 153
231 180 153
231 181 153
231 182 153
231 183 153
231 184 153
231 185 153
231 186 153
231 187 153
231 188 153
231 189 153
231 190 153
231 191 153
231 192 153
231 193 153
231 194 153
231 195 153
231 196 153
231 197 153
231 198 153
231 199 153
231 200 153
231 201 153
231 202 153
231 203 153
231 204 153
231 205 153
231 206 153
231 207 153
231 208 153
231 209 153
231 210 153
231 211 153
231 212 153
231 213 153
231 214 153
231 215 153
231 216 153
231 217 153
231 218 153
231 219 153
231 220 153
231 221 153
231 222 153
231 223 153
231 224 153
231 225 153
231 226 153
231 227 153
231 228 153
231 229 153
231 230 153
231 231 153
231 232 153
231 233 153
231 234 153
231 235 153
231 236 153
231 237 153
231 238 153
231 239 153
231 240 153
231 241 153
231 242 153
231 243 153
231 244 153
231 245 153
231 246 153
231 247 153
231 248 153
231 249 153
231 250 153
231 251 153
231 252 153
231 253 153
231 254 153
231 255 153
232 0 153
232 1 153
232 2 153
232 3 153
232 4 153
232 5 153
232 6 153
232 7 153
232 8 153
232 9 153
232 10 153
232 11 153
232 12 153
232 13 153
232 14 153
232 15 153
232 16 153
232 17 153
232 18 153
232 19 153
232 20 153
232 21 153
232 22 153
232 23 153
232 24 153
232 25 153
232 26 153
232 27 153
232 28 153
232 29 153
232 30 153
232 31 153
232 32 153
232 33 153
232 34 153
232 35 153
232 36 153
232 37 153
232 38 153
232 39 153
232 40 153
232 41 153
232 42 153
232 43 153
232 44 153
232 45 153
232 46 153
232 47 153
232 48 153
232 49 153
232 50 153
232 51 153
232 52 153
232 53 153
232 54 153
232 55 153
232 56 153
232 57 153
232 58 153
232 59 153
232 60 153
232 61 153
232 62 153
232 63 153
232 64 153
232 65 153
232 66 153
232 67 153
232 68 153
232 69 153
232 70 153
232 71 153
232 72 153
232 73 153
232 74 153
232 75 153
232 76 153
232 77 153
232 78 153
232 79 153
232 80 153
232 81 153
232 82 153
232 83 153
232 84 153
232 85 153
232 86 153
232 87 153
232 88 153
232 89 153
232 90 153
232 91 153
232 92 153
232 93 153
232 94 153
232 95 153
232 96 153
232 97 153
232 98 153
232 99 153
232 100 153
232 101 153
232 102 153
232 103 153
232 104 153
232 105 153
232 106 153
232 107 153
232 108 153
232 109 153
232 110 153
232 111 153
232 112 153
232 113 153
232 114 153
232 115 153
232 116 153
232 117 153
232 118 153
232 119 153
232 120 153
232 121 153
232 122 153
232 123 153
232 124 153
232 125 153
232 126 153
232 127 153
232 128 153
232 129 153
232 130 153
232 131 153
232 132 153
232 133 153
232 134 153
232 135 153
232 136 153
232 137 153
232 138 153
232 139 153
232 140 153
232 141 153
232 142 153
232 143 153
232 144 153
232 145 153
232 146 153
232 147 153
232 148 153
232 149 153
232 150 153
232 151 153
232 152 153
232 153 153
232 154 153
232 155 153
232 156 153
232 157 153
232 158 153
232 159 153
232 160 153
232 161 153
232 162 153
232 163 153
232 164 153
232 165 153
232 166 153
232 167 153
232 168 153
232 169 153
232 170 153
232 171 153
232 172 153
232 173 153
232 174 153
232 175 153
232 176 153
232 177 153
232 178 153
232 179 153
232 180 153
232 181 153
232 182 153
232 183 153
232 184 153
232 185 153
232 186 153
232 187 153
232 188 153
232 189 153
232 190 153
232 191 153
232 192 153
232 193 153
232 194 153
232 195 153
232 196 153
232 197 153
232 198 153
232 199 153
232 200 153
232 201 153
232 202 153
232 203 153
232 204 153
232 205 153
232 206 153
232 207 153
232 208 153
232 209 153
232 210 153
232 211 153
232 212 153
232 213 153
232 214 153
232 215 153
232 216 153
232 217 153
232 218 153
232 219 153
232 220 153
232 221 153
232 222 153
232 223 153
232 224 153
232 225 153
232 226 153
232 227 153
232 228 153
232 229 153
232 230 153
232 231 153
232 232 153
232 233 153
232 234 153
232 235 153
232 236 153
232 237 153
232 238 153
232 239 153
232 240 153
232 241 153
232 242 153
232 243 153
232 244 153
232 245 153
232 246 153
232 247 153
232 248 153
232 249 153
232 250 153
232 251 153
232 252 153
232 253 153
232 254 153
232 255 153
233 0 153
233 1 153
233 2 153
233 3 153
233 4 153
233 5 153
233 6 153
233 7 153
233 8 153
233 9 153
233 10 153
233 11 153
233 12 153
233 13 153
233 14 153
233 15 153
233 16 153
233 17 153
233 18 153
233 19 153
233 20 153
233 21 153
233 22 153
233 23 153
233 24 153
233 25 153
233 26 153
233 27 153
233 28 153
233 29 153
233 30 153
233 31 153
233 32 153
233 33 153
233 34 153
233 35 153
233 36 153
233 37 153
233 38 153
233 39 153
233 40 153
233 41 153
233 42 153
233 43 153
233 44 153
233 45 153
233 46 153
233 47 153
233 48 153
233 49 153
233 50 153
233 51 153
233 52 153
233 53 153
233 54 153
233 55 153
233 56 153
233 57 153
233 58 153
233 59 153
233 60 153
233 61 153
233 62 153
233 63 153
233 64 153
233 65 153
233 66 153
233 67 153
233 68 153
233 69 153
233 70 153
233 71 153
233 72 153
233 73 153
233 74 153
233 75 153
233 76 153
233 77 153
233 78 153
233 79 153
233 80 153
233 81 153
233 82 153
233 83 153
233 84 153
233 85 153
233 86 153
233 87 153
233 88 153
233 89 153
233 90 153
233 91 153
233 92 153
233 93 153
233 94 153
233 95 153
233 96 153
233 97 153
233 98 153
233 99 153
233 100 153
233 101 153
233 102 153
233 103 153
233 104 153
233 105 153
233 106 153
233 107 153
233 108 153
233 109 153
233 110 153
233 111 153
233 112 153
233 113 153
233 114 153
233 115 153
233 116 153
233 117 153
233 118 153
233 119 153
233 120 153
233 121 153
233 122 153
233 123 153
233 124 153
233 125 153
233 126 153
233 127 153
233 128 153
233 129 153
233 130 153
233 131 153
233 132 153
233 133 153
233 134 153
233 135 153
233 136 153
233 137 153
233 138 153
233 139 153
233 140 153
233 141 153
233 142 153
233 143 153
233 144 153
233 145 153
233 146 153
233 147 153
233 148 153
233 149 153
233 150 153
233 151 153
233 152 153
233 153 153
233 154 153
233 155 153
233 156 153
233 157 153
233 158 153
233 159 153
233 160 153
233 161 153
233 162 153
233 163 153
233 164 153
233 165 153
233 166 153
233 167 153
233 168 153
233 169 153
233 170 153
233 171 153
233 172 153
233 173 153
233 174 153
233 175 153
233 176 153
233 177 153
233 178 153
233 179 153
233 180 153
233 181 153
233 182 153
233 183 153
233 184 153
233 185 153
233 186 153
233 187 153
233 188 153
233 189 153
233 190 153
233 191 153
233 192 153
233 193 153
233 194 153
233 195 153
233 196 153
233 197 153
233 198 153
233 199 153
233 200 153
233 201 153
233 202 153
233 203 153
233 204 153
233 205 153
233 206 153
233 207 153
233 208 153
233 209 153
233 210 153
233 211 153
233 212 153
233 213 153
233 214 153
233 215 153
233 216 153
233 217 153
233 218 153
233 219 153
233 220 153
233 221 153
233 222 153
233 223 153
233 224 153
233 225 153
233 226 153
233 227 153
233 228 153
233 229 153
233 230 153
233 231 153
233 232 153
233 233 153
233 234 153
233 235 153
233 236 153
233 237 153
233 238 153
233 239 153
233 240 153
233 241 153
233 242 153
233 243 153
233 244 153
233 245 153
233 246 153
233 247 153
233 248 153
233 249 153
233 250 153
233 251 153
233 252 153
233 253 153
233 254 153
233 255 153
234 0 153
234 1 153
234 2 153
234 3 153
234 4 153
234 5 153
234 6 153
234 7 153
234 8 153
234 9 153
234 10 153
234 11 153
234 12 153
234 13 153
234 14 153
234 15 153
234 16 153
234 17 153
234 18 153
234 19 153
234 20 153
234 21 153
234 22 153
234 23 153
234 24 153
234 25 153
234 26 153
234 27 153
234 28 153
234 29 153
234 30 153
234 31 153
234 32 153
234 33 153
234 34 153
234 35 153
234 36 153
234 37 153
234 38 153
234 39 153
234 40 153
234 41 153
234 42 153
234 43 153
234 44 153
234 45 153
234 46 153
234 47 153
234 48 153
234 49 153
234 50 153
234 51 153
234 52 153
234 53 153
234 54 153
234 55 153
234 56 153
234 57 153
234 58 153
234 59 153
234 60 153
234 61 153
234 62 153
234 63 153
234 64 153
234 65 153
234 66 153
234 67 153
234 68 153
234 69 153
234 70 153
234 71 153
234 72 153
234 73 153
234 74 153
234 75 153
234 76 153
234 77 153
234 78 153
234 79 153
234 80 153
234 81 153
234 82 153
234 83 153
234 84 153
234 85 153
234 86 153
234 87 153
234 88 153
234 89 153
234 90 153
234 91 153
234 92 153
234 93 153
234 94 153
234 95 153
234 96 153
234 97 153
234 98 153
234 99 153
234 100 153
234 101 153
234 102 153
234 103 153
234 104 153
234 105 153
234 106 153
234 107 153
234 108 153
234 109 153
234 110 153
234 111 153
234 112 153
234 113 153
234 114 153
234 115 153
234 116 153
234 117 153
234 118 153
234 119 153
234 120 153
234 121 153
234 122 153
234 123 153
234 124 153
234 125 153
234 126 153
234 127 153
234 128 153
234 129 153
234 130 153
234 131 153
234 132 153
234 133 153
234 134 153
234 135 153
234 136 153
234 137 153
234 138 153
234 139 153
234 140 153
234 141 153
234 142 153
234 143 153
234 144 153
234 145 153
234 146 153
234 147 153
234 148 153
234 149 153
234 150 153
234 151 153
234 152 153
234 153 153
234 154 153
234 155 153
234 156 153
234 157 153
234 158 153
234 159 153
234 160 153
234 161 153
234 162 153
234 163 153
234 164 153
234 165 153
234 166 153
234 167 153
234 168 153
234 169 153
234 170 153
234 171 153
234 172 153
234 173 153
234 174 153
234 175 153
234 176 153
234 177 153
234 178 153
234 179 153
234 180 153
234 181 153
234 182 153
234 183 153
234 184 153
234 185 153
234 186 153
234 187 153
234 188 153
234 189 153
234 190 153
234 191 153
234 192 153
234 193 153
234 194 153
234 195 153
234 196 153
234 197 153
234 198 153
234 199 153
234 200 153
234 201 153
234 202 153
234 203 153
234 204 153
234 205 153
234 206 153
234 207 153
234 208 153
234 209 153
234 210 153
234 211 153
234 212 153
234 213 153
234 214 153
234 215 153
234 216 153
234 217 153
234 218 153
234 219 153
234 220 153
234 221 153
234 222 153
234 223 153
234 224 153
234 225 153
234 226 153
234 227 153
234 228 153
234 229 153
234 230 153
234 231 153
234 232 153
234 233 153
234 234 153
234 235 153
234 236 153
234 237 153
234 238 153
234 239 153
234 240 153
234 241 153
234 242 153
234 243 153
234 244 153
234 245 153
234 246 153
234 247 153
234 248 153
234 249 153
234 250 153
234 251 153
234 252 153
234 253 153
234 254 153
234 255 153
235 0 153
235 1 153
235 2 153
235 3 153
235 4 153
235 5 153
235 6 153
235 7 153
235 8 153
235 9 153
235 10 153
235 11 153
235 12 153
235 13 153
235 14 153
235 15 153
235 16 153
235 17 153
235 18 153
235 19 153
235 20 153
235 21 153
235 22 153
235 23 153
235 24 153
235 25 153
235 26 153
235 27 153
235 28 153
235 29 153
235 30 153
235 31 153
235 32 153
235 33 153
235 34 153
235 35 153
235 36 153
235 37 153
235 38 153
235 39 153
235 40 153
235 41 153
235 42 153
235 43 153
235 44 153
235 45 153
235 46 153
235 47 153
235 48 153
235 49 153
235 50 153
235 51 153
235 52 153
235 53 153
235 54 153
235 55 153
235 56 153
235 57 153
235 58 153
235 59 153
235 60 153
235 61 153
235 62 153
235 63 153
235 64 153
235 65 153
235 66 153
235 67 153
235 68 153
235 69 153
235 70 153
235 71 153
235 72 153
235 73 153
235 74 153
235 75 153
235 76 153
235 77 153
235 78 153
235 79 153
235 80 153
235 81 153
235 82 153
235 83 153
235 84 153
235 85 153
235 86 153
235 87 153
235 88 153
235 89 153
235 90 153
235 91 153
235 92 153
235 93 153
235 94 153
235 95 153
235 96 153
235 97 153
235 98 153
235 99 153
235 100 153
235 101 153
235 102 153
235 103 153
235 104 153
235 105 153
235 106 153
235 107 153
235 108 153
235 109 153
235 110 153
235 111 153
235 112 153
235 113 153
235 114 153
235 115 153
235 116 153
235 117 153
235 118 153
235 119 153
235 120 153
235 121 153
235 122 153
235 123 153
235 124 153
235 125 153
235 126 153
235 127 153
235 128 153
235 129 153
235 130 153
235 131 153
235 132 153
235 133 153
235 134 153
235 135 153
235 136 153
235 137 153
235 138 153
235 139 153
235 140 153
235 141 153
235 142 153
235 143 153
235 144 153
235 145 153
235 146 153
235 147 153
235 148 153
235 149 153
235 150 153
235 151 153
235 152 153
235 153 153
235 154 153
235 155 153
235 156 153
235 157 153
235 158 153
235 159 153
235 160 153
235 161 153
235 162 153
235 163 153
235 164 153
235 165 153
235 166 153
235 167 153
235 168 153
235 169 153
235 170 153
235 171 153
235 172 153
235 173 153
235 174 153
235 175 153
235 176 153
235 177 153
235 178 153
235 179 153
235 180 153
235 181 153
235 182 153
235 183 153
235 184 153
235 185 153
235 186 153
235 187 153
235 188 153
235 189 153
235 190 153
235 191 153
235 192 153
235 193 153
235 194 153
235 195 153
235 196 153
235 197 153
235 198 153
235 199 153
235 200 153
235 201 153
235 202 153
235 203 153
235 204 153
235 205 153
235 206 153
235 207 153
235 208 153
235 209 153
235 210 153
235 211 153
235 212 153
235 213 153
235 214 153
235 215 153
235 216 153
235 217 153
235 218 153
235 219 153
235 220 153
235 221 153
235 222 153
235 223 153
235 224 153
235 225 153
235 226 153
235 227 153
235 228 153
235 229 153
235 230 153
235 231 153
235 232 153
235 233 153
235 234 153
235 235 153
235 236 153
235 237 153
235 238 153
235 239 153
235 240 153
235 241 153
235 242 153
235 243 153
235 244 153
235 245 153
235 246 153
235 247 153
235 248 153
235 249 153
235 250 153
235 251 153
235 252 153
235 253 153
235 254 153
235 255 153
236 0 153
236 1 153
236 2 153
236 3 153
236 4 153
236 5 153
236 6 153
236 7 153
236 8 153
236 9 153
236 10 153
236 11 153
236 12 153
236 13 153
236 14 153
236 15 153
236 16 153
236 17 153
236 18 153
236 19 153
236 20 153
236 21 153
236 22 153
236 23 153
236 24 153
236 25 153
236 26 153
236 27 153
236 28 153
236 29 153
236 30 153
236 31 153
236 32 153
236 33 153
236 34 153
236 35 153
236 36 153
236 37 153
236 38 153
236 39 153
236 40 153
236 41 153
236 42 153
236 43 153
236 44 153
236 45 153
236 46 153
236 47 153
236 48 153
236 49 153
236 50 153
236 51 153
236 52 153
236 53 153
236 54 153
236 55 153
236 56 153
236 57 153
236 58 153
236 59 153
236 60 153
236 61 153
236 62 153
236 63 153
236 64 153
236 65 153
236 66 153
236 67 153
236 68 153
236 69 153
236 70 153
236 71 153
236 72 153
236 73 153
236 74 153
236 75 153
236 76 153
236 77 153
236 78 153
236 79 153
236 80 153
236 81 153
236 82 153
236 83 153
236 84 153
236 85 153
236 86 153
236 87 153
236 88 153
236 89 153
236 90 153
236 91 153
236 92 153
236 93 153
236 94 153
236 95 153
236 96 153
236 97 153
236 98 153
236 99 153
236 100 153
236 101 153
236 102 153
236 103 153
236 104 153
236 105 153
236 106 153
236 107 153
236 108 153
236 109 153
236 110 153
236 111 153
236 112 153
236 113 153
236 114 153
236 115 153
236 116 153
236 117 153
236 118 153
236 119 153
236 120 153
236 121 153
236 122 153
236 123 153
236 124 153
236 125 153
236 126 153
236 127 153
236 128 153
236 129 153
236 130 153
236 131 153
236 132 153
236 133 153
236 134 153
236 135 153
236 136 153
236 137 153
236 138 153
236 139 153
236 140 153
236 141 153
236 142 153
236 143 153
236 144 153
236 145 153
236 146 153
236 147 153
236 148 153
236 149 153
236 150 153
236 151 153
236 152 153
236 153 153
236 154 153
236 155 153
236 156 153
236 157 153
236 158 153
236 159 153
236 160 153
236 161 153
236 162 153
236 163 153
236 164 153
236 165 153
236 166 153
236 167 153
236 168 153
236 169 153
236 170 153
236 171 153
236 172 153
236 173 153
236 174 153
236 175 153
236 176 153
236 177 153
236 178 153
236 179 153
236 180 153
236 181 153
236 182 153
236 183 153
236 184 153
236 185 153
236 186 153
236 187 153
236 188 153
236 189 153
236 190 153
236 191 153
236 192 153
236 193 153
236 194 153
236 195 153
236 196 153
236 197 153
236 198 153
236 199 153
236 200 153
236 201 153
236 202 153
236 203 153
236 204 153
236 205 153
236 206 153
236 207 153
236 208 153
236 209 153
236 210 153
236 211 153
236 212 153
236 213 153
236 214 153
236 215 153
236 216 153
236 217 153
236 218 153
236 219 153
236 220 153
236 221 153
236 222 153
236 223 153
236 224 153
236 225 153
236 226 153
236 227 153
236 228 153
236 229 153
236 230 153
236 231 153
236 232 153
236 233 153
236 234 153
236 235 153
236 236 153
236 237 153
236 238 153
236 239 153
236 240 153
236 241 153
236 242 153
236 243 153
236 244 153
236 245 153
236 246 153
236 247 153
236 248 153
236 249 153
236 250 153
236 251 153
236 252 153
236 253 153
236 254 153
236 255 153
237 0 153
237 1 153
237 2 153
237 3 153
237 4 153
237 5 153
237 6 153
237 7 153
237 8 153
237 9 153
237 10 153
237 11 153
237 12 153
237 13 153
237 14 153
237 15 153
237 16 153
237 17 153
237 18 153
237 19 153
237 20 153
237 21 153
237 22 153
237 23 153
237 24 153
237 25 153
237 26 153
237 27 153
237 28 153
237 29 153
237 30 153
237 31 153
237 32 153
237 33 153
237 34 153
237 35 153
237 36 153
237 37 153
237 38 153
237 39 153
237 40 153
237 41 153
237 42 153
237 43 153
237 44 153
237 45 153
237 46 153
237 47 153
237 48 153
237 49 153
237 50 153
237 51 153
237 52 153
237 53 153
237 54 153
237 55 153
237 56 153
237 57 153
237 58 153
237 59 153
237 60 153
237 61 153
237 62 153
237 63 153
237 64 153
237 65 153
237 66 153
237 67 153
237 68 153
237 69 153
237 70 153
237 71 153
237 72 153
237 73 153
237 74 153
237 75 153
237 76 153
237 77 153
237 78 153
237 79 153
237 80 153
237 81 153
237 82 153
237 83 153
237 84 153
237 85 153
237 86 153
237 87 153
237 88 153
237 89 153
237 90 153
237 91 153
237 92 153
237 93 153
237 94 153
237 95 153
237 96 153
237 97 153
237 98 153
237 99 153
237 100 153
237 101 153
237 102 153
237 103 153
237 104 153
237 105 153
237 106 153
237 107 153
237 108 153
237 109 153
237 110 153
237 111 153
237 112 153
237 113 153
237 114 153
237 115 153
237 116 153
237 117 153
237 118 153
237 119 153
237 120 153
237 121 153
237 122 153
237 123 153
237 124 153
237 125 153
237 126 153
237 127 153
237 128 153
237 129 153
237 130 153
237 131 153
237 132 153
237 133 153
237 134 153
237 135 153
237 136 153
237 137 153
237 138 153
237 139 153
237 140 153
237 141 153
237 142 153
237 143 153
237 144 153
237 145 153
237 146 153
237 147 153
237 148 153
237 149 153
237 150 153
237 151 153
237 152 153
237 153 153
237 154 153
237 155 153
237 156 153
237 157 153
237 158 153
237 159 153
237 160 153
237 161 153
237 162 153
237 163 153
237 164 153
237 165 153
237 166 153
237 167 153
237 168 153
237 169 153
237 170 153
237 171 153
237 172 153
237 173 153
237 174 153
237 175 153
237 176 153
237 177 153
237 178 153
237 179 153
237 180 153
237 181 153
237 182 153
237 183 153
237 184 153
237 185 153
237 186 153
237 187 153
237 188 153
237 189 153
237 190 153
237 191 153
237 192 153
237 193 153
237 194 153
237 195 153
237 196 153
237 197 153
237 198 153
237 199 153
237 200 153
237 201 153
237 202 153
237 203 153
237 204 153
237 205 153
237 206 153
237 207 153
237 208 153
237 209 153
237 210 153
237 211 153
237 212 153
237 213 153
237 214 153
237 215 153
237 216 153
237 217 153
237 218 153
237 219 153
237 220 153
237 221 153
237 222 153
237 223 153
237 224 153
237 225 153
237 226 153
237 227 153
237 228 153
237 229 153
237 230 153
237 231 153
237 232 153
237 233 153
237 234 153
237 235 153
237 236 153
237 237 153
237 238 153
237 239 153
237 240 153
237 241 153
237 242 153
237 243 153
237 244 153
237 245 153
237 246 153
237 247 153
237 248 153
237 249 153
237 250 153
237 251 153
237 252 153
237 253 153
237 254 153
237 255 153
238 0 153
238 1 153
238 2 153
238 3 153
238 4 153
238 5 153
238 6 153
238 7 153
238 8 153
238 9 153
238 10 153
238 11 153
238 12 153
238 13 153
238 14 153
238 15 153
238 16 153
238 17 153
238 18 153
238 19 153
238 20 153
238 21 153
238 22 153
238 23 153
238 24 153
238 25 153
238 26 153
238 27 153
238 28 153
238 29 153
238 30 153
238 31 153
238 32 153
238 33 153
238 34 153
238 35 153
238 36 153
238 37 153
238 38 153
238 39 153
238 40 153
238 41 153
238 42 153
238 43 153
238 44 153
238 45 153
238 46 153
238 47 153
238 48 153
238 49 153
238 50 153
238 51 153
238 52 153
238 53 153
238 54 153
238 55 153
238 56 153
238 57 153
238 58 153
238 59 153
238 60 153
238 61 153
238 62 153
238 63 153
238 64 153
238 65 153
238 66 153
238 67 153
238 68 153
238 69 153
238 70 153
238 71 153
238 72 153
238 73 153
238 74 153
238 75 153
238 76 153
238 77 153
238 78 153
238 79 153
238 80 153
238 81 153
238 82 153
238 83 153
238 84 153
238 85 153
238 86 153
238 87 153
238 88 153
238 89 153
238 90 153
238 91 153
238 92 153
238 93 153
238 94 153
238 95 153
238 96 153
238 97 153
238 98 153
238 99 153
238 100 153
238 101 153
238 102 153
238 103 153
238 104 153
238 105 153
238 106 153
238 107 153
238 108 153
238 109 153
238 110 153
238 111 153
238 112 153
238 113 153
238 114 153
238 115 153
238 116 153
238 117 153
238 118 153
238 119 153
238 120 153
238 121 153
238 122 153
238 123 153
238 124 153
238 125 153
238 126 153
238 127 153
238 128 153
238 129 153
238 130 153
238 131 153
238 132 153
238 133 153
238 134 153
238 135 153
238 136 153
238 137 153
238 138 153
238 139 153
238 140 153
238 141 153
238 142 153
238 143 153
238 144 153
238 145 153
238 146 153
238 147 153
238 148 153
238 149 153
238 150 153
238 151 153
238 152 153
238 153 153
238 154 153
238 155 153
238 156 153
238 157 153
238 158 153
238 159 153
238 160 153
238 161 153
238 162 153
238 163 153
238 164 153
238 165 153
238 166 153
238 167 153
238 168 153
238 169 153
238 170 153
238 171 153
238 172 153
238 173 153
238 174 153
238 175 153
238 176 153
238 177 153
238 178 153
238 179 153
238 180 153
238 181 153
238 182 153
238 183 153
238 184 153
238 185 153
238 186 153
238 187 153
238 188 153
238 189 153
238 190 153
238 191 153
238 192 153
238 193 153
238 194 153
238 195 153
238 196 153
238 197 153
238 198 153
238 199 153
238 200 153
238 201 153
238 202 153
238 203 153
238 204 153
238 205 153
238 206 153
238 207 153
238 208 153
238 209 153
238 210 153
238 211 153
238 212 153
238 213 153
238 214 153
238 215 153
238 216 153
238 217 153
238 218 153
238 219 153
238 220 153
238 221 153
238 222 153
238 223 153
238 224 153
238 225 153
238 226 153
238 227 153
238 228 153
238 229 153
238 230 153
238 231 153
238 232 153
238 233 153
238 234 153
238 235 153
238 236 153
238 237 153
238 238 153
238 239 153
238 240 153
238 241 153
238 242 153
238 243 153
238 244 153
238 245 153
238 246 153
238 247 153
238 248 153
238 249 153
238 250 153
238 251 153
238 252 153
238 253 153
238 254 153
238 255 153
239 0 153
239 1 153
239 2 153
239 3 153
239 4 153
239 5 153
239 6 153
239 7 153
239 8 153
239 9 153
239 10 153
239 11 153
239 12 153
239 13 153
239 14 153
239 15 153
239 16 153
239 17 153
239 18 153
239 19 153
239 20 153
239 21 153
239 22 153
239 23 153
239 24 153
239 25 153
239 26 153
239 27 153
239 28 153
239 29 153
239 30 153
239 31 153
239 32 153
239 33 153
239 34 153
239 35 153
239 36 153
239 37 153
239 38 153
239 39 153
239 40 153
239 41 153
239 42 153
239 43 153
239 44 153
239 45 153
239 46 153
239 47 153
239 48 153
239 49 153
239 50 153
239 51 153
239 52 153
239 53 153
239 54 153
239 55 153
239 56 153
239 57 153
239 58 153
239 59 153
239 60 153
239 61 153
239 62 153
239 63 153
239 64 153
239 65 153
239 66 153
239 67 153
239 68 153
239 69 153
239 70 153
239 71 153
239 72 153
239 73 153
239 74 153
239 75 153
239 76 153
239 77 153
239 78 153
239 79 153
239 80 153
239 81 153
239 82 153
239 83 153
239 84 153
239 85 153
239 86 153
239 87 153
239 88 153
239 89 153
239 90 153
239 91 153
239 92 153
239 93 153
239 94 153
239 95 153
239 96 153
239 97 153
239 98 153
239 99 153
239 100 153
239 101 153
239 102 153
239 103 153
239 104 153
239 105 153
239 106 153
239 107 153
239 108 153
239 109 153
239 110 153
239 111 153
239 112 153
239 113 153
239 114 153
239 115 153
239 116 153
239 117 153
239 118 153
239 119 153
239 120 153
239 121 153
239 122 153
239 123 153
239 124 153
239 125 153
239 126 153
239 127 153
239 128 153
239 129 153
239 130 153
239 131 153
239 132 153
239 133 153
239 134 153
239 135 153
239 136 153
239 137 153
239 138 153
239 139 153
239 140 153
239 141 153
239 142 153
239 143 153
239 144 153
239 145 153
239 146 153
239 147 153
239 148 153
239 149 153
239 150 153
239 151 153
239 152 153
239 153 153
239 154 153
239 155 153
239 156 153
239 157 153
239 158 153
239 159 153
239 160 153
239 161 153
239 162 153
239 163 153
239 164 153
239 165 153
239 166 153
239 167 153
239 168 153
239 169 153
239 170 153
239 171 153
239 172 153
239 173 153
239 174 153
239 175 153
239 176 153
239 177 153
239 178 153
239 179 153
239 180 153
239 181 153
239 182 153
239 183 153
239 184 153
239 185 153
239 186 153
239 187 153
239 188 153
239 189 153
239 190 153
239 191 153
239 192 153
239 193 153
239 194 153
239 195 153
239 196 153
239 197 153
239 198 153
239 199 153
239 200 153
239 201 153
239 202 153
239 203 153
239 204 153
239 205 153
239 206 153
239 207 153
239 208 153
239 209 153
239 210 153
239 211 153
239 212 153
239 213 153
239 214 153
239 215 153
239 216 153
239 217 153
239 218 153
239 219 153
239 220 153
239 221 153
239 222 153
239 223 153
239 224 153
239 225 153
239 226 153
239 227 153
239 228 153
239 229 153
239 230 153
239 231 153
239 232 153
239 233 153
239 234 153
239 235 153
239 236 153
239 237 153
239 238 153
239 239 153
239 240 153
239 241 153
239 242 153
239 243 153
239 244 153
239 245 153
239 246 153
239 247 153
239 248 153
239 249 153
239 250 153
239 251 153
239 252 153
239 253 153
239 254 153
239 255 153
240 0 153
240 1 153
240 2 153
240 3 153
240 4 153
240 5 153
240 6 153
240 7 153
240 8 153
240 9 153
240 10 153
240 11 153
240 12 153
240 13 153
240 14 153
240 15 153
240 16 153
240 17 153
240 18 153
240 19 153
240 20 153
240 21 153
240 22 153
240 23 153
240 24 153
240 25 153
240 26 153
240 27 153
240 28 153
240 29 153
240 30 153
240 31 153
240 32 153
240 33 153
240 34 153
240 35 153
240 36 153
240 37 153
240 38 153
240 39 153
240 40 153
240 41 153
240 42 153
240 43 153
240 44 153
240 45 153
240 46 153
240 47 153
240 48 153
240 49 153
240 50 153
240 51 153
240 52 153
240 53 153
240 54 153
240 55 153
240 56 153
240 57 153
240 58 153
240 59 153
240 60 153
240 61 153
240 62 153
240 63 153
240 64 153
240 65 153
240 66 153
240 67 153
240 68 153
240 69 153
240 70 153
240 71 153
240 72 153
240 73 153
240 74 153
240 75 153
240 76 153
240 77 153
240 78 153
240 79 153
240 80 153
240 81 153
240 82 153
240 83 153
240 84 153
240 85 153
240 86 153
240 87 153
240 88 153
240 89 153
240 90 153
240 91 153
240 92 153
240 93 153
240 94 153
240 95 153
240 96 153
240 97 153
240 98 153
240 99 153
240 100 153
240 101 153
240 102 153
240 103 153
240 104 153
240 105 153
240 106 153
240 107 153
240 108 153
240 109 153
240 110 153
240 111 153
240 112 153
240 113 153
240 114 153
240 115 153
240 116 153
240 117 153
240 118 153
240 119 153
240 120 153
240 121 153
240 122 153
240 123 153
240 124 153
240 125 153
240 126 153
240 127 153
240 128 153
240 129 153
240 130 153
240 131 153
240 132 153
240 133 153
240 134 153
240 135 153
240 136 153
240 137 153
240 138 153
240 139 153
240 140 153
240 141 153
240 142 153
240 143 153
240 144 153
240 145 153
240 146 153
240 147 153
240 148 153
240 149 153
240 150 153
240 151 153
240 152 153
240 153 153
240 154 153
240 155 153
240 156 153
240 157 153
240 158 153
240 159 153
240 160 153
240 161 153
240 162 153
240 163 153
240 164 153
240 165 153
240 166 153
240 167 153
240 168 153
240 169 153
240 170 153
240 171 153
240 172 153
240 173 153
240 174 153
240 175 153
240 176 153
240 177 153
240 178 153
240 179 153
240 180 153
240 181 153
240 182 153
240 183 153
240 184 153
240 185 153
240 186 153
240 187 153
240 188 153
240 189 153
240 190 153
240 191 153
240 192 153
240 193 153
240 194 153
240 195 153
240 196 153
240 197 153
240 198 153
240 199 153
240 200 153
240 201 153
240 202 153
240 203 153
240 204 153
240 205 153
240 206 153
240 207 153
240 208 153
240 209 153
240 210 153
240 211 153
240 212 153
240 213 153
240 214 153
240 215 153
240 216 153
240 217 153
240 218 153
240 219 153
240 220 153
240 221 153
240 222 153
240 223 153
240 224 153
240 225 153
240 226 153
240 227 153
240 228 153
240 229 153
240 230 153
240 231 153
240 232 153
240 233 153
240 234 153
240 235 153
240 236 153
240 237 153
240 238 153
240 239 153
240 240 153
240 241 153
240 242 153
240 243 153
240 244 153
240 245 153
240 246 153
240 247 153
240 248 153
240 249 153
240 250 153
240 251 153
240 252 153
240 253 153
240 254 153
240 255 153
241 0 153
241 1 153
241 2 153
241 3 153
241 4 153
241 5 153
241 6 153
241 7 153
241 8 153
241 9 153
241 10 153
241 11 153
241 12 153
241 13 153
241 14 153
241 15 153
241 16 153
241 17 153
241 18 153
241 19 153
241 20 153
241 21 153
241 22 153
241 23 153
241 24 153
241 25 153
241 26 153
241 27 153
241 28 153
241 29 153
241 30 153
241 31 153
241 32 153
241 33 153
241 34 153
241 35 153
241 36 153
241 37 153
241 38 153
241 39 153
241 40 153
241 41 153
241 42 153
241 43 153
241 44 153
241 45 153
241 46 153
241 47 153
241 48 153
241 49 153
241 50 153
241 51 153
241 52 153
241 53 153
241 54 153
241 55 153
241 56 153
241 57 153
241 58 153
241 59 153
241 60 153
241 61 153
241 62 153
241 63 153
241 64 153
241 65 153
241 66 153
241 67 153
241 68 153
241 69 153
241 70 153
241 71 153
241 72 153
241 73 153
241 74 153
241 75 153
241 76 153
241 77 153
241 78 153
241 79 153
241 80 153
241 81 153
241 82 153
241 83 153
241 84 153
241 85 153
241 86 153
241 87 153
241 88 153
241 89 153
241 90 153
241 91 153
241 92 153
241 93 153
241 94 153
241 95 153
241 96 153
241 97 153
241 98 153
241 99 153
241 100 153
241 101 153
241 102 153
241 103 153
241 104 153
241 105 153
241 106 153
241 107 153
241 108 153
241 109 153
241 110 153
241 111 153
241 112 153
241 113 153
241 114 153
241 115 153
241 116 153
241 117 153
241 118 153
241 119 153
241 120 153
241 121 153
241 122 153
241 123 153
241 124 153
241 125 153
241 126 153
241 127 153
241 128 153
241 129 153
241 130 153
241 131 153
241 132 153
241 133 153
241 134 153
241 135 153
241 136 153
241 137 153
241 138 153
241 139 153
241 140 153
241 141 153
241 142 153
241 143 153
241 144 153
241 145 153
241 146 153
241 147 153
241 148 153
241 149 153
241 150 153
241 151 153
241 152 153
241 153 153
241 154 153
241 155 153
241 156 153
241 157 153
241 158 153
241 159 153
241 160 153
241 161 153
241 162 153
241 163 153
241 164 153
241 165 153
241 166 153
241 167 153
241 168 153
241 169 153
241 170 153
241 171 153
241 172 153
241 173 153
241 174 153
241 175 153
241 176 153
241 177 153
241 178 153
241 179 153
241 180 153
241 181 153
241 182 153
241 183 153
241 184 153
241 185 153
241 186 153
241 187 153
241 188 153
241 189 153
241 190 153
241 191 153
241 192 153
241 193 153
241 194 153
241 195 153
241 196 153
241 197 153
241 198 153
241 199 153
241 200 153
241 201 153
241 202 153
241 203 153
241 204 153
241 205 153
241 206 153
241 207 153
241 208 153
241 209 153
241 210 153
241 211 153
241 212 153
241 213 153
241 214 153
241 215 153
241 216 153
241 217 153
241 218 153
241 219 153
241 220 153
241 221 153
241 222 153
241 223 153
241 224 153
241 225 153
241 226 153
241 227 153
241 228 153
241 229 153
241 230 153
241 231 153
241 232 153
241 233 153
241 234 153
241 235 153
241 236 153
241 237 153
241 238 153
241 239 153
241 240 153
241 241 153
241 242 153
241 243 153
241 244 153
241 245 153
241 246 153
241 247 153
241 248 153
241 249 153
241 250 153
241 251 153
241 252 153
241 253 153
241 254 153
241 255 153
242 0 153
242 1 153
242 2 153
242 3 153
242 4 153
242 5 153
242 6 153
242 7 153
242 8 153
242 9 153
242 10 153
242 11 153
242 12 153
242 13 153
242 14 153
242 15 153
242 16 153
242 17 153
242 18 153
242 19 153
242 20 153
242 21 153
242 22 153
242 23 153
242 24 153
242 25 153
242 26 153
242 27 153
242 28 153
242 29 153
242 30 153
242 31 153
242 32 153
242 33 153
242 34 153
242 35 153
242 36 153
242 37 153
242 38 153
242 39 153
242 40 153
242 41 153
242 42 153
242 43 153
242 44 153
242 45 153
242 46 153
242 47 153
242 48 153
242 49 153
242 50 153
242 51 153
242 52 153
242 53 153
242 54 153
242 55 153
242 56 153
242 57 153
242 58 153
242 59 153
242 60 153
242 61 153
242 62 153
242 63 153
242 64 153
242 65 153
242 66 153
242 67 153
242 68 153
242 69 153
242 70 153
242 71 153
242 72 153
242 73 153
242 74 153
242 75 153
242 76 153
242 77 153
242 78 153
242 79 153
242 80 153
242 81 153
242 82 153
242 83 153
242 84 153
242 85 153
242 86 153
242 87 153
242 88 153
242 89 153
242 90 153
242 91 153
242 92 153
242 93 153
242 94 153
242 95 153
242 96 153
242 97 153
242 98 153
242 99 153
242 100 153
242 101 153
242 102 153
242 103 153
242 104 153
242 105 153
242 106 153
242 107 153
242 108 153
242 109 153
242 110 153
242 111 153
242 112 153
242 113 153
242 114 153
242 115 153
242 116 153
242 117 153
242 118 153
242 119 153
242 120 153
242 121 153
242 122 153
242 123 153
242 124 153
242 125 153
242 126 153
242 127 153
242 128 153
242 129 153
242 130 153
242 131 153
242 132 153
242 133 153
242 134 153
242 135 153
242 136 153
242 137 153
242 138 153
242 139 153
242 140 153
242 141 153
242 142 153
242 143 153
242 144 153
242 145 153
242 146 153
242 147 153
242 148 153
242 149 153
242 150 153
242 151 153
242 152 153
242 153 153
242 154 153
242 155 153
242 156 153
242 157 153
242 158 153
242 159 153
242 160 153
242 161 153
242 162 153
242 163 153
242 164 153
242 165 153
242 166 153
242 167 153
242 168 153
242 169 153
242 170 153
242 171 153
242 172 153
242 173 153
242 174 153
242 175 153
242 176 153
242 177 153
242 178 153
242 179 153
242 180 153
242 181 153
242 182 153
242 183 153
242 184 153
242 185 153
242 186 153
242 187 153
242 188 153
242 189 153
242 190 153
242 191 153
242 192 153
242 193 153
242 194 153
242 195 153
242 196 153
242 197 153
242 198 153
242 199 153
242 200 153
242 201 153
242 202 153
242 203 153
242 204 153
242 205 153
242 206 153
242 207 153
242 208 153
242 209 153
242 210 153
242 211 153
242 212 153
242 213 153
242 214 153
242 215 153
242 216 153
242 217 153
242 218 153
242 219 153
242 220 153
242 221 153
242 222 153
242 223 153
242 224 153
242 225 153
242 226 153
242 227 153
242 228 153
242 229 153
242 230 153
242 231 153
242 232 153
242 233 153
242 234 153
242 235 153
242 236 153
242 237 153
242 238 153
242 239 153
242 240 153
242 241 153
242 242 153
242 243 153
242 244 153
242 245 153
242 246 153
242 247 153
242 248 153
242 249 153
242 250 153
242 251 153
242 252 153
242 253 153
242 254 153
242 255 153
243 0 153
243 1 153
243 2 153
243 3 153
243 4 153
243 5 153
243 6 153
243 7 153
243 8 153
243 9 153
243 10 153
243 11 153
243 12 153
243 13 153
243 14 153
243 15 153
243 16 153
243 17 153
243 18 153
243 19 153
243 20 153
243 21 153
243 22 153
243 23 153
243 24 153
243 25 153
243 26 153
243 27 153
243 28 153
243 29 153
243 30 153
243 31 153
243 32 153
243 33 153
243 34 153
243 35 153
243 36 153
243 37 153
243 38 153
243 39 153
243 40 153
243 41 153
243 42 153
243 43 153
243 44 153
243 45 153
243 46 153
243 47 153
243 48 153
243 49 153
243 50 153
243 51 153
243 52 153
243 53 153
243 54 153
243 55 153
243 56 153
243 57 153
243 58 153
243 59 153
243 60 153
243 61 153
243 62 153
243 63 153
243 64 153
243 65 153
243 66 153
243 67 153
243 68 153
243 69 153
243 70 153
243 71 153
243 72 153
243 73 153
243 74 153
243 75 153
243 76 153
243 77 153
243 78 153
243 79 153
243 80 153
243 81 153
243 82 153
243 83 153
243 84 153
243 85 153
243 86 153
243 87 153
243 88 153
243 89 153
243 90 153
243 91 153
243 92 153
243 93 153
243 94 153
243 95 153
243 96 153
243 97 153
243 98 153
243 99 153
243 100 153
243 101 153
243 102 153
243 103 153
243 104 153
243 105 153
243 106 153
243 107 153
243 108 153
243 109 153
243 110 153
243 111 153
243 112 153
243 113 153
243 114 153
243 115 153
243 116 153
243 117 153
243 118 153
243 119 153
243 120 153
243 121 153
243 122 153
243 123 153
243 124 153
243 125 153
243 126 153
243 127 153
243 128 153
243 129 153
243 130 153
243 131 153
243 132 153
243 133 153
243 134 153
243 135 153
243 136 153
243 137 153
243 138 153
243 139 153
243 140 153
243 141 153
243 142 153
243 143 153
243 144 153
243 145 153
243 146 153
243 147 153
243 148 153
243 149 153
243 150 153
243 151 153
243 152 153
243 153 153
243 154 153
243 155 153
243 156 153
243 157 153
243 158 153
243 159 153
243 160 153
243 161 153
243 162 153
243 163 153
243 164 153
243 165 153
243 166 153
243 167 153
243 168 153
243 169 153
243 170 153
243 171 153
243 172 153
243 173 153
243 174 153
243 175 153
243 176 153
243 177 153
243 178 153
243 179 153
243 180 153
243 181 153
243 182 153
243 183 153
243 184 153
243 185 153
243 186 153
243 187 153
243 188 153
243 189 153
243 190 153
243 191 153
243 192 153
243 193 153
243 194 153
243 195 153
243 196 153
243 197 153
243 198 153
243 199 153
243 200 153
243 201 153
243 202 153
243 203 153
243 204 153
243 205 153
243 206 153
243 207 153
243 208 153
243 209 153
243 210 153
243 211 153
243 212 153
243 213 153
243 214 153
243 215 153
243 216 153
243 217 153
243 218 153
243 219 153
243 220 153
243 221 153
243 222 153
243 223 153
243 224 153
243 225 153
243 226 153
243 227 153
243 228 153
243 229 153
243 230 153
243 231 153
243 232 153
243 233 153
243 234 153
243 235 153
243 236 153
243 237 153
243 238 153
243 239 153
243 240 153
243 241 153
243 242 153
243 243 153
243 244 153
243 245 153
243 246 153
243 247 153
243 248 153
243 249 153
243 250 153
243 251 153
243 252 153
243 253 153
243 254 153
243 255 153
244 0 153
244 1 153
244 2 153
244 3 153
244 4 153
244 5 153
244 6 153
244 7 153
244 8 153
244 9 153
244 10 153
244 11 153
244 12 153
244 13 153
244 14 153
244 15 153
244 16 153
244 17 153
244 18 153
244 19 153
244 20 153
244 21 153
244 22 153
244 23 153
244 24 153
244 25 153
244 26 153
244 27 153
244 28 153
244 29 153
244 30 153
244 31 153
244 32 153
244 33 153
244 34 153
244 35 153
244 36 153
244 37 153
244 38 153
244 39 153
244 40 153
244 41 153
244 42 153
244 43 153
244 44 153
244 45 153
244 46 153
244 47 153
244 48 153
244 49 153
244 50 153
244 51 153
244 52 153
244 53 153
244 54 153
244 55 153
244 56 153
244 57 153
244 58 153
244 59 153
244 60 153
244 61 153
244 62 153
244 63 153
244 64 153
244 65 153
244 66 153
244 67 153
244 68 153
244 69 153
244 70 153
244 71 153
244 72 153
244 73 153
244 74 153
244 75 153
244 76 153
244 77 153
244 78 153
244 79 153
244 80 153
244 81 153
244 82 153
244 83 153
244 84 153
244 85 153
244 86 153
244 87 153
244 88 153
244 89 153
244 90 153
244 91 153
244 92 153
244 93 153
244 94 153
244 95 153
244 96 153
244 97 153
244 98 153
244 99 153
244 100 153
244 101 153
244 102 153
244 103 153
244 104 153
244 105 153
244 106 153
244 107 153
244 108 153
244 109 153
244 110 153
244 111 153
244 112 153
244 113 153
244 114 153
244 115 153
244 116 153
244 117 153
244 118 153
244 119 153
244 120 153
244 121 153
244 122 153
244 123 153
244 124 153
244 125 153
244 126 153
244 127 153
244 128 153
244 129 153
244 130 153
244 131 153
244 132 153
244 133 153
244 134 153
244 135 153
244 136 153
244 137 153
244 138 153
244 139 153
244 140 153
244 141 153
244 142 153
244 143 153
244 144 153
244 145 153
244 146 153
244 147 153
244 148 153
244 149 153
244 150 153
244 151 153
244 152 153
244 153 153
244 154 153
244 155 153
244 156 153
244 157 153
244 158 153
244 159 153
244 160 153
244 161 153
244 162 153
244 163 153
244 164 153
244 165 153
244 166 153
244 167 153
244 168 153
244 169 153
244 170 153
244 171 153
244 172 153
244 173 153
244 174 153
244 175 153
244 176 153
244 177 153
244 178 153
244 179 153
244 180 153
244 181 153
244 182 153
244 183 153
244 184 153
244 185 153
244 186 153
244 187 153
244 188 153
244 189 153
244 190 153
244 191 153
244 192 153
244 193 153
244 194 153
244 195 153
244 196 153
244 197 153
244 198 153
244 199 153
244 200 153
244 201 153
244 202 153
244 203 153
244 204 153
244 205 153
244 206 153
244 207 153
244 208 153
244 209 153
244 210 153
244 211 153
244 212 153
244 213 153
244 214 153
244 215 153
244 216 153
244 217 153
244 218 153
244 219 153
244 220 153
244 221 153
244 222 153
244 223 153
244 224 153
244 225 153
244 226 153
244 227 153
244 228 153
244 229 153
244 230 153
244 231 153
244 232 153
244 233 153
244 234 153
244 235 153
244 236 153
244 237 153
244 238 153
244 239 153
244 240 153
244 241 153
244 242 153
244 243 153
244 244 153
244 245 153
244 246 153
244 247 153
244 248 153
244 249 153
244 250 153
244 251 153
244 252 153
244 253 153
244 254 153
244 255 153
245 0 153
245 1 153
245 2 153
245 3 153
245 4 153
245 5 153
245 6 153
245 7 153
245 8 153
245 9 153
245 10 153
245 11 153
245 12 153
245 13 153
245 14 153
245 15 153
245 16 153
245 17 153
245 18 153
245 19 153
245 20 153
245 21 153
245 22 153
245 23 153
245 24 153
245 25 153
245 26 153
245 27 153
245 28 153
245 29 153
245 30 153
245 31 153
245 32 153
245 33 153
245 34 153
245 35 153
245 36 153
245 37 153
245 38 153
245 39 153
245 40 153
245 41 153
245 42 153
245 43 153
245 44 153
245 45 153
245 46 153
245 47 153
245 48 153
245 49 153
245 50 153
245 51 153
245 52 153
245 53 153
245 54 153
245 55 153
245 56 153
245 57 153
245 58 153
245 59 153
245 60 153
245 61 153
245 62 153
245 63 153
245 64 153
245 65 153
245 66 153
245 67 153
245 68 153
245 69 153
245 70 153
245 71 153
245 72 153
245 73 153
245 74 153
245 75 153
245 76 153
245 77 153
245 78 153
245 79 153
245 80 153
245 81 153
245 82 153
245 83 153
245 84 153
245 85 153
245 86 153
245 87 153
245 88 153
245 89 153
245 90 153
245 91 153
245 92 153
245 93 153
245 94 153
245 95 153
245 96 153
245 97 153
245 98 153
245 99 153
245 100 153
245 101 153
245 102 153
245 103 153
245 104 153
245 105 153
245 106 153
245 107 153
245 108 153
245 109 153
245 110 153
245 111 153
245 112 153
245 113 153
245 114 153
245 115 153
245 116 153
245 117 153
245 118 153
245 119 153
245 120 153
245 121 153
245 122 153
245 123 153
245 124 153
245 125 153
245 126 153
245 127 153
245 128 153
245 129 153
245 130 153
245 131 153
245 132 153
245 133 153
245 134 153
245 135 153
245 136 153
245 137 153
245 138 153
245 139 153
245 140 153
245 141 153
245 142 153
245 143 153
245 144 153
245 145 153
245 146 153
245 147 153
245 148 153
245 149 153
245 150 153
245 151 153
245 152 153
245 153 153
245 154 153
245 155 153
245 156 153
245 157 153
245 158 153
245 159 153
245 160 153
245 161 153
245 162 153
245 163 153
245 164 153
245 165 153
245 166 153
245 167 153
245 168 153
245 169 153
245 170 153
245 171 153
245 172 153
245 173 153
245 174 153
245 175 153
245 176 153
245 177 153
245 178 153
245 179 153
245 180 153
245 181 153
245 182 153
245 183 153
245 184 153
245 185 153
245 186 153
245 187 153
245 188 153
245 189 153
245 190 153
245 191 153
245 192 153
245 193 153
245 194 153
245 195 153
245 196 153
245 197 153
245 198 153
245 199 153
245 200 153
245 201 153
245 202 153
245 203 153
245 204 153
245 205 153
245 206 153
245 207 153
245 208 153
245 209 153
245 210 153
245 211 153
245 212 153
245 213 153
245 214 153
245 215 153
245 216 153
245 217 153
245 218 153
245 219 153
245 220 153
245 221 153
245 222 153
245 223 153
245 224 153
245 225 153
245 226 153
245 227 153
245 228 153
245 229 153
245 230 153
245 231 153
245 232 153
245 233 153
245 234 153
245 235 153
245 236 153
245 237 153
245 238 153
245 239 153
245 240 153
245 241 153
245 242 153
245 243 153
245 244 153
245 245 153
245 246 153
245 247 153
245 248 153
245 249 153
245 250 153
245 251 153
245 252 153
245 253 153
245 254 153
245 255 153
246 0 153
246 1 153
246 2 153
246 3 153
246 4 153
246 5 153
246 6 153
246 7 153
246 8 153
246 9 153
246 10 153
246 11 153
246 12 153
246 13 153
246 14 153
246 15 153
246 16 153
246 17 153
246 18 153
246 19 153
246 20 153
246 21 153
246 22 153
246 23 153
246 24 153
246 25 153
246 26 153
246 27 153
246 28 153
246 29 153
246 30 153
246 31 153
246 32 153
246 33 153
246 34 153
246 35 153
246 36 153
246 37 153
246 38 153
246 39 153
246 40 153
246 41 153
246 42 153
246 43 153
246 44 153
246 45 153
246 46 153
246 47 153
246 48 153
246 49 153
246 50 153
246 51 153
246 52 153
246 53 153
246 54 153
246 55 153
246 56 153
246 57 153
246 58 153
246 59 153
246 60 153
246 61 153
246 62 153
246 63 153
246 64 153
246 65 153
246 66 153
246 67 153
246 68 153
246 69 153
246 70 153
246 71 153
246 72 153
246 73 153
246 74 153
246 75 153
246 76 153
246 77 153
246 78 153
246 79 153
246 80 153
246 81 153
246 82 153
246 83 153
246 84 153
246 85 153
246 86 153
246 87 153
246 88 153
246 89 153
246 90 153
246 91 153
246 92 153
246 93 153
246 94 153
246 95 153
246 96 153
246 97 153
246 98 153
246 99 153
246 100 153
246 101 153
246 102 153
246 103 153
246 104 153
246 105 153
246 106 153
246 107 153
246 108 153
246 109 153
246 110 153
246 111 153
246 112 153
246 113 153
246 114 153
246 115 153
246 116 153
246 117 153
246 118 153
246 119 153
246 120 153
246 121 153
246 122 153
246 123 153
246 124 153
246 125 153
246 126 153
246 127 153
246 128 153
246 129 153
246 130 153
246 131 153
246 132 153
246 133 153
246 134 153
246 135 153
246 136 153
246 137 153
246 138 153
246 139 153
246 140 153
246 141 153
246 142 153
246 143 153
246 144 153
246 145 153
246 146 153
246 147 153
246 148 153
246 149 153
246 150 153
246 151 153
246 152 153
246 153 153
246 154 153
246 155 153
246 156 153
246 157 153
246 158 153
246 159 153
246 160 153
246 161 153
246 162 153
246 163 153
246 164 153
246 165 153
246 166 153
246 167 153
246 168 153
246 169 153
246 170 153
246 171 153
246 172 153
246 173 153
246 174 153
246 175 153
246 176 153
246 177 153
246 178 153
246 179 153
246 180 153
246 181 153
246 182 153
246 183 153
246 184 153
246 185 153
246 186 153
246 187 153
246 188 153
246 189 153
246 190 153
246 191 153
246 192 153
246 193 153
246 194 153
246 195 153
246 196 153
246 197 153
246 198 153
246 199 153
246 200 153
246 201 153
246 202 153
246 203 153
246 204 153
246 205 153
246 206 153
246 207 153
246 208 153
246 209 153
246 210 153
246 211 153
246 212 153
246 213 153
246 214 153
246 215 153
246 216 153
246 217 153
246 218 153
246 219 153
246 220 153
246 221 153
246 222 153
246 223 153
246 224 153
246 225 153
246 226 153
246 227 153
246 228 153
246 229 153
246 230 153
246 231 153
246 232 153
246 233 153
246 234 153
246 235 153
246 236 153
246 237 153
246 238 153
246 239 153
246 240 153
246 241 153
246 242 153
246 243 153
246 244 153
246 245 153
246 246 153
246 247 153
246 248 153
246 249 153
246 250 153
246 251 153
246 252 153
246 253 153
246 254 153
246 255 153
247 0 153
247 1 153
247 2 153
247 3 153
247 4 153
247 5 153
247 6 153
247 7 153
247 8 153
247 9 153
247 10 153
247 11 153
247 12 153
247 13 153
247 14 153
247 15 153
247 16 153
247 17 153
247 18 153
247 19 153
247 20 153
247 21 153
247 22 153
247 23 153
247 24 153
247 25 153
247 26 153
247 27 153
247 28 153
247 29 153
247 30 153
247 31 153
247 32 153
247 33 153
247 34 153
247 35 153
247 36 153
247 37 153
247 38 153
247 39 153
247 40 153
247 41 153
247 42 153
247 43 153
247 44 153
247 45 153
247 46 153
247 47 153
247 48 153
247 49 153
247 50 153
247 51 153
247 52 153
247 53 153
247 54 153
247 55 153
247 56 153
247 57 153
247 58 153
247 59 153
247 60 153
247 61 153
247 62 153
247 63 153
247 64 153
247 65 153
247 66 153
247 67 153
247 68 153
247 69 153
247 70 153
247 71 153
247 72 153
247 73 153
247 74 153
247 75 153
247 76 153
247 77 153
247 78 153
247 79 153
247 80 153
247 81 153
247 82 153
247 83 153
247 84 153
247 85 153
247 86 153
247 87 153
247 88 153
247 89 153
247 90 153
247 91 153
247 92 153
247 93 153
247 94 153
247 95 153
247 96 153
247 97 153
247 98 153
247 99 153
247 100 153
247 101 153
247 102 153
247 103 153
247 104 153
247 105 153
247 106 153
247 107 153
247 108 153
247 109 153
247 110 153
247 111 153
247 112 153
247 113 153
247 114 153
247 115 153
247 116 153
247 117 153
247 118 153
247 119 153
247 120 153
247 121 153
247 122 153
247 123 153
247 124 153
247 125 153
247 126 153
247 127 153
247 128 153
247 129 153
247 130 153
247 131 153
247 132 153
247 133 153
247 134 153
247 135 153
247 136 153
247 137 153
247 138 153
247 139 153
247 140 153
247 141 153
247 142 153
247 143 153
247 144 153
247 145 153
247 146 153
247 147 153
247 148 153
247 149 153
247 150 153
247 151 153
247 152 153
247 153 153
247 154 153
247 155 153
247 156 153
247 157 153
247 158 153
247 159 153
247 160 153
247 161 153
247 162 153
247 163 153
247 164 153
247 165 153
247 166 153
247 167 153
247 168 153
247 169 153
247 170 153
247 171 153
247 172 153
247 173 153
247 174 153
247 175 153
247 176 153
247 177 153
247 178 153
247 179 153
247 180 153
247 181 153
247 182 153
247 183 153
247 184 153
247 185 153
247 186 153
247 187 153
247 188 153
247 189 153
247 190 153
247 191 153
247 192 153
247 193 153
247 194 153
247 195 153
247 196 153
247 197 153
247 198 153
247 199 153
247 200 153
247 201 153
247 202 153
247 203 153
247 204 153
247 205 153
247 206 153
247 207 153
247 208 153
247 209 153
247 210 153
247 211 153
247 212 153
247 213 153
247 214 153
247 215 153
247 216 153
247 217 153
247 218 153
247 219 153
247 220 153
247 221 153
247 222 153
247 223 153
247 224 153
247 225 153
247 226 153
247 227 153
247 228 153
247 229 153
247 230 153
247 231 153
247 232 153
247 233 153
247 234 153
247 235 153
247 236 153
247 237 153
247 238 153
247 239 153
247 240 153
247 241 153
247 242 153
247 243 153
247 244 153
247 245 153
247 246 153
247 247 153
247 248 153
247 249 153
247 250 153
247 251 153
247 252 153
247 253 153
247 254 153
247 255 153
248 0 153
248 1 153
248 2 153
248 3 153
248 4 153
248 5 153
248 6 153
248 7 153
248 8 153
248 9 153
248 10 153
248 11 153
248 12 153
248 13 153
248 14 153
248 15 153
248 16 153
248 17 153
248 18 153
248 19 153
248 20 153
248 21 153
248 22 153
248 23 153
248 24 153
248 25 153
248 26 153
248 27 153
248 28 153
248 29 153
248 30 153
248 31 153
248 32 153
248 33 153
248 34 153
248 35 153
248 36 153
248 37 153
248 38 153
248 39 153
248 40 153
248 41 153
248 42 153
248 43 153
248 44 153
248 45 153
248 46 153
248 47 153
248 48 153
248 49 153
248 50 153
248 51 153
248 52 153
248 53 153
248 54 153
248 55 153
248 56 153
248 57 153
248 58 153
248 59 153
248 60 153
248 61 153
248 62 153
248 63 153
248 64 153
248 65 153
248 66 153
248 67 153
248 68 153
248 69 153
248 70 153
248 71 153
248 72 153
248 73 153
248 74 153
248 75 153
248 76 153
248 77 153
248 78 153
248 79 153
248 80 153
248 81 153
248 82 153
248 83 153
248 84 153
248 85 153
248 86 153
248 87 153
248 88 153
248 89 153
248 90 153
248 91 153
248 92 153
248 93 153
248 94 153
248 95 153
248 96 153
248 97 153
248 98 153
248 99 153
248 100 153
248 101 153
248 102 153
248 103 153
248 104 153
248 105 153
248 106 153
248 107 153
248 108 153
248 109 153
248 110 153
248 111 153
248 112 153
248 113 153
248 114 153
248 115 153
248 116 153
248 117 153
248 118 153
248 119 153
248 120 153
248 121 153
248 122 153
248 123 153
248 124 153
248 125 153
248 126 153
248 127 153
248 128 153
248 129 153
248 130 153
248 131 153
248 132 153
248 133 153
248 134 153
248 135 153
248 136 153
248 137 153
248 138 153
248 139 153
248 140 153
248 141 153
248 142 153
248 143 153
248 144 153
248 145 153
248 146 153
248 147 153
248 148 153
248 149 153
248 150 153
248 151 153
248 152 153
248 153 153
248 154 153
248 155 153
248 156 153
248 157 153
248 158 153
248 159 153
248 160 153
248 161 153
248 162 153
248 163 153
248 164 153
248 165 153
248 166 153
248 167 153
248 168 153
248 169 153
248 170 153
248 171 153
248 172 153
248 173 153
248 174 153
248 175 153
248 176 153
248 177 153
248 178 153
248 179 153
248 180 153
248 181 153
248 182 153
248 183 153
248 184 153
248 185 153
248 186 153
248 187 153
248 188 153
248 189 153
248 190 153
248 191 153
248 192 153
248 193 153
248 194 153
248 195 153
248 196 153
248 197 153
248 198 153
248 199 153
248 200 153
248 201 153
248 202 153
248 203 153
248 204 153
248 205 153
248 206 153
248 207 153
248 208 153
248 209 153
248 210 153
248 211 153
248 212 153
248 213 153
248 214 153
248 215 153
248 216 153
248 217 153
248 218 153
248 219 153
248 220 153
248 221 153
248 222 153
248 223 153
248 224 153
248 225 153
248 226 153
248 227 153
248 228 153
248 229 153
248 230 153
248 231 153
248 232 153
248 233 153
248 234 153
248 235 153
248 236 153
248 237 153
248 238 153
248 239 153
248 240 153
248 241 153
248 242 153
248 243 153
248 244 153
248 245 153
248 246 153
248 247 153
248 248 153
248 249 153
248 250 153
248 251 153
248 252 153
248 253 153
248 254 153
248 255 153
249 0 153
249 1 153
249 2 153
249 3 153
249 4 153
249 5 153
249 6 153
249 7 153
249 8 153
249 9 153
249 10 153
249 11 153
249 12 153
249 13 153
249 14 153
249 15 153
249 16 153
249 17 153
249 18 153
249 19 153
249 20 153
249 21 153
249 22 153
249 23 153
249 24 153
249 25 153
249 26 153
249 27 153
249 28 153
249 29 153
249 30 153
249 31 153
249 32 153
249 33 153
249 34 153
249 35 153
249 36 153
249 37 153
249 38 153
249 39 153
249 40 153
249 41 153
249 42 153
249 43 153
249 44 153
249 45 153
249 46 153
249 47 153
249 48 153
249 49 153
249 50 153
249 51 153
249 52 153
249 53 153
249 54 153
249 55 153
249 56 153
249 57 153
249 58 153
249 59 153
249 60 153
249 61 153
249 62 153
249 63 153
249 64 153
249 65 153
249 66 153
249 67 153
249 68 153
249 69 153
249 70 153
249 71 153
249 72 153
249 73 153
249 74 153
249 75 153
249 76 153
249 77 153
249 78 153
249 79 153
249 80 153
249 81 153
249 82 153
249 83 153
249 84 153
249 85 153
249 86 153
249 87 153
249 88 153
249 89 153
249 90 153
249 91 153
249 92 153
249 93 153
249 94 153
249 95 153
249 96 153
249 97 153
249 98 153
249 99 153
249 100 153
249 101 153
249 102 153
249 103 153
249 104 153
249 105 153
249 106 153
249 107 153
249 108 153
249 109 153
249 110 153
249 111 153
249 112 153
249 113 153
249 114 153
249 115 153
249 116 153
249 117 153
249 118 153
249 119 153
249 120 153
249 121 153
249 122 153
249 123 153
249 124 153
249 125 153
249 126 153
249 127 153
249 128 153
249 129 153
249 130 153
249 131 153
249 132 153
249 133 153
249 134 153
249 135 153
249 136 153
249 137 153
249 138 153
249 139 153
249 140 153
249 141 153
249 142 153
249 143 153
249 144 153
249 145 153
249 146 153
249 147 153
249 148 153
249 149 153
249 150 153
249 151 153
249 152 153
249 153 153
249 154 153
249 155 153
249 156 153
249 157 153
249 158 153
249 159 153
249 160 153
249 161 153
249 162 153
249 163 153
249 164 153
249 165 153
249 166 153
249 167 153
249 168 153
249 169 153
249 170 153
249 171 153
249 172 153
249 173 153
249 174 153
249 175 153
249 176 153
249 177 153
249 178 153
249 179 153
249 180 153
249 181 153
249 182 153
249 183 153
249 184 153
249 185 153
249 186 153
249 187 153
249 188 153
249 189 153
249 190 153
249 191 153
249 192 153
249 193 153
249 194 153
249 195 153
249 196 153
249 197 153
249 198 153
249 199 153
249 200 153
249 201 153
249 202 153
249 203 153
249 204 153
249 205 153
249 206 153
249 207 153
249 208 153
249 209 153
249 210 153
249 211 153
249 212 153
249 213 153
249 214 153
249 215 153
249 216 153
249 217 153
249 218 153
249 219 153
249 220 153
249 221 153
249 222 153
249 223 153
249 224 153
249 225 153
249 226 153
249 227 153
249 228 153
249 229 153
249 230 153
249 231 153
249 232 153
249 233 153
249 234 153
249 235 153
249 236 153
249 237 153
249 238 153
249 239 153
249 240 153
249 241 153
249 242 153
249 243 153
249 244 153
249 245 153
249 246 153
249 247 153
249 248 153
249 249 153
249 250 153
249 251 153
249 252 153
249 253 153
249 254 153
249 255 153
250 0 153
250 1 153
250 2 153
250 3 153
250 4 153
250 5 153
250 6 153
250 7 153
250 8 153
250 9 153
250 10 153
250 11 153
250 12 153
250 13 153
250 14 153
250 15 153
250 16 153
250 17 153
250 18 153
250 19 153
250 20 153
250 21 153
250 22 153
250 23 153
250 24 153
250 25 153
250 26 153
250 27 153
250 28 153
250 29 153
250 30 153
250 31 153
250 32 153
250 33 153
250 34 153
250 35 153
250 36 153
250 37 153
250 38 153
250 39 153
250 40 153
250 41 153
250 42 153
250 43 153
250 44 153
250 45 153
250 46 153
250 47 153
250 48 153
250 49 153
250 50 153
250 51 153
250 52 153
250 53 153
250 54 153
250 55 153
250 56 153
250 57 153
250 58 153
250 59 153
250 60 153
250 61 153
250 62 153
250 63 153
250 64 153
250 65 153
250 66 153
250 67 153
250 68 153
250 69 153
250 70 153
250 71 153
250 72 153
250 73 153
250 74 153
250 75 153
250 76 153
250 77 153
250 78 153
250 79 153
250 80 153
250 81 153
250 82 153
250 83 153
250 84 153
250 85 153
250 86 153
250 87 153
250 88 153
250 89 153
250 90 153
250 91 153
250 92 153
250 93 153
250 94 153
250 95 153
250 96 153
250 97 153
250 98 153
250 99 153
250 100 153
250 101 153
250 102 153
250 103 153
250 104 153
250 105 153
250 106 153
250 107 153
250 108 153
250 109 153
250 110 153
250 111 153
250 112 153
250 113 153
250 114 153
250 115 153
250 116 153
250 117 153
250 118 153
250 119 153
250 120 153
250 121 153
250 122 153
250 123 153
250 124 153
250 125 153
250 126 153
250 127 153
250 128 153
250 129 153
250 130 153
250 131 153
250 132 153
250 133 153
250 134 153
250 135 153
250 136 153
250 137 153
250 138 153
250 139 153
250 140 153
250 141 153
250 142 153
250 143 153
250 144 153
250 145 153
250 146 153
250 147 153
250 148 153
250 149 153
250 150 153
250 151 153
250 152 153
250 153 153
250 154 153
250 155 153
250 156 153
250 157 153
250 158 153
250 159 153
250 160 153
250 161 153
250 162 153
250 163 153
250 164 153
250 165 153
250 166 153
250 167 153
250 168 153
250 169 153
250 170 153
250 171 153
250 172 153
250 173 153
250 174 153
250 175 153
250 176 153
250 177 153
250 178 153
250 179 153
250 180 153
250 181 153
250 182 153
250 183 153
250 184 153
250 185 153
250 186 153
250 187 153
250 188 153
250 189 153
250 190 153
250 191 153
250 192 153
250 193 153
250 194 153
250 195 153
250 196 153
250 197 153
250 198 153
250 199 153
250 200 153
250 201 153
250 202 153
250 203 153
250 204 153
250 205 153
250 206 153
250 207 153
250 208 153
250 209 153
250 210 153
250 211 153
250 212 153
250 213 153
250 214 153
250 215 153
250 216 153
250 217 153
250 218 153
250 219 153
250 220 153
250 221 153
250 222 153
250 223 153
250 224 153
250 225 153
250 226 153
250 227 153
250 228 153
250 229 153
250 230 153
250 231 153
250 232 153
250 233 153
250 234 153
250 235 153
250 236 153
250 237 153
250 238 153
250 239 153
250 240 153
250 241 153
250 242 153
250 243 153
250 244 153
250 245 153
250 246 153
250 247 153
250 248 153
250 249 153
250 250 153
250 251 153
250 252 153
250 253 153
250 254 153
250 255 153
251 0 153
251 1 153
251 2 153
251 3 153
251 4 153
251 5 153
251 6 153
251 7 153
251 8 153
251 9 153
251 10 153
251 11 153
251 12 153
251 13 153
251 14 153
251 15 153
251 16 153
251 17 153
251 18 153
251 19 153
251 20 153
251 21 153
251 22 153
251 23 153
251 24 153
251 25 153
251 26 153
251 27 153
251 28 153
251 29 153
251 30 153
251 31 153
251 32 153
251 33 153
251 34 153
251 35 153
251 36 153
251 37 153
251 38 153
251 39 153
251 40 153
251 41 153
251 42 153
251 43 153
251 44 153
251 45 153
251 46 153
251 47 153
251 48 153
251 49 153
251 50 153
251 51 153
251 52 153
251 53 153
251 54 153
251 55 153
251 56 153
251 57 153
251 58 153
251 59 153
251 60 153
251 61 153
251 62 153
251 63 153
251 64 153
251 65 153
251 66 153
251 67 153
251 68 153
251 69 153
251 70 153
251 71 153
251 72 153
251 73 153
251 74 153
251 75 153
251 76 153
251 77 153
251 78 153
251 79 153
251 80 153
251 81 153
251 82 153
251 83 153
251 84 153
251 85 153
251 86 153
251 87 153
251 88 153
251 89 153
251 90 153
251 91 153
251 92 153
251 93 153
251 94 153
251 95 153
251 96 153
251 97 153
251 98 153
251 99 153
251 100 153
251 101 153
251 102 153
251 103 153
251 104 153
251 105 153
251 106 153
251 107 153
251 108 153
251 109 153
251 110 153
251 111 153
251 112 153
251 113 153
251 114 153
251 115 153
251 116 153
251 117 153
251 118 153
251 119 153
251 120 153
251 121 153
251 122 153
251 123 153
251 124 153
251 125 153
251 126 153
251 127 153
251 128 153
251 129 153
251 130 153
251 131 153
251 132 153
251 133 153
251 134 153
251 135 153
251 136 153
251 137 153
251 138 153
251 139 153
251 140 153
251 141 153
251 142 153
251 143 153
251 144 153
251 145 153
251 146 153
251 147 153
251 148 153
251 149 153
251 150 153
251 151 153
251 152 153
251 153 153
251 154 153
251 155 153
251 156 153
251 157 153
251 158 153
251 159 153
251 160 153
251 161 153
251 162 153
251 163 153
251 164 153
251 165 153
251 166 153
251 167 153
251 168 153
251 169 153
251 170 153
251 171 153
251 172 153
251 173 153
251 174 153
251 175 153
251 176 153
251 177 153
251 178 153
251 179 153
251 180 153
251 181 153
251 182 153
251 183 153
251 184 153
251 185 153
251 186 153
251 187 153
251 188 153
251 189 153
251 190 153
251 191 153
251 192 153
251 193 153
251 194 153
251 195 153
251 196 153
251 197 153
251 198 153
251 199 153
251 200 153
251 201 153
251 202 153
251 203 153
251 204 153
251 205 153
251 206 153
251 207 153
251 208 153
251 209 153
251 210 153
251 211 153
251 212 153
251 213 153
251 214 153
251 215 153
251 216 153
251 217 153
251 218 153
251 219 153
251 220 153
251 221 153
251 222 153
251 223 153
251 224 153
251 225 153
251 226 153
251 227 153
251 228 153
251 229 153
251 230 153
251 231 153
251 232 153
251 233 153
251 234 153
251 235 153
251 236 153
251 237 153
251 238 153
251 239 153
251 240 153
251 241 153
251 242 153
251 243 153
251 244 153
251 245 153
251 246 153
251 247 153
251 248 153
251 249 153
251 250 153
251 251 153
251 252 153
251 253 153
251 254 153
251 255 153
252 0 153
252 1 153
252 2 153
252 3 153
252 4 153
252 5 153
252 6 153
252 7 153
252 8 153
252 9 153
252 10 153
252 11 153
252 12 153
252 13 153
252 14 153
252 15 153
252 16 153
252 17 153
252 18 153
252 19 153
252 20 153
252 21 153
252 22 153
252 23 153
252 24 153
252 25 153
252 26 153
252 27 153
252 28 153
252 29 153
252 30 153
252 31 153
252 32 153
252 33 153
252 34 153
252 35 153
252 36 153
252 37 153
252 38 153
252 39 153
252 40 153
252 41 153
252 42 153
252 43 153
252 44 153
252 45 153
252 46 153
252 47 153
252 48 153
252 49 153
252 50 153
252 51 153
252 52 153
252 53 153
252 54 153
252 55 153
252 56 153
252 57 153
252 58 153
252 59 153
252 60 153
252 61 153
252 62 153
252 63 153
252 64 153
252 65 153
252 66 153
252 67 153
252 68 153
252 69 153
252 70 153
252 71 153
252 72 153
252 73 153
252 74 153
252 75 153
252 76 153
252 77 153
252 78 153
252 79 153
252 80 153
252 81 153
252 82 153
252 83 153
252 84 153
252 85 153
252 86 153
252 87 153
252 88 153
252 89 153
252 90 153
252 91 153
252 92 153
252 93 153
252 94 153
252 95 153
252 96 153
252 97 153
252 98 153
252 99 153
252 100 153
252 101 153
252 102 153
252 103 153
252 104 153
252 105 153
252 106 153
252 107 153
252 108 153
252 109 153
252 110 153
252 111 153
252 112 153
252 113 153
252 114 153
252 115 153
252 116 153
252 117 153
252 118 153
252 119 153
252 120 153
252 121 153
252 122 153
252 123 153
252 124 153
252 125 153
252 126 153
252 127 153
252 128 153
252 129 153
252 130 153
252 131 153
252 132 153
252 133 153
252 134 153
252 135 153
252 136 153
252 137 153
252 138 153
252 139 153
252 140 153
252 141 153
252 142 153
252 143 153
252 144 153
252 145 153
252 146 153
252 147 153
252 148 153
252 149 153
252 150 153
252 151 153
252 152 153
252 153 153
252 154 153
252 155 153
252 156 153
252 157 153
252 158 153
252 159 153
252 160 153
252 161 153
252 162 153
252 163 153
252 164 153
252 165 153
252 166 153
252 167 153
252 168 153
252 169 153
252 170 153
252 171 153
252 172 153
252 173 153
252 174 153
252 175 153
252 176 153
252 177 153
252 178 153
252 179 153
252 180 153
252 181 153
252 182 153
252 183 153
252 184 153
252 185 153
252 186 153
252 187 153
252 188 153
252 189 153
252 190 153
252 191 153
252 192 153
252 193 153
252 194 153
252 195 153
252 196 153
252 197 153
252 198 153
252 199 153
252 200 153
252 201 153
252 202 153
252 203 153
252 204 153
252 205 153
252 206 153
252 207 153
252 208 153
252 209 153
252 210 153
252 211 153
252 212 153
252 213 153
252 214 153
252 215 153
252 216 153
252 217 153
252 218 153
252 219 153
252 220 153
252 221 153
252 222 153
252 223 153
252 224 153
252 225 153
252 226 153
252 227 153
252 228 153
252 229 153
252 230 153
252 231 153
252 232 153
252 233 153
252 234 153
252 235 153
252 236 153
252 237 153
252 238 153
252 239 153
252 240 153
252 241 153
252 242 153
252 243 153
252 244 153
252 245 153
252 246 153
252 247 153
252 248 153
252 249 153
252 250 153
252 251 153
252 252 153
252 253 153
252 254 153
252 255 153
253 0 153
253 1 153
253 2 153
253 3 153
253 4 153
253 5 153
253 6 153
253 7 153
253 8 153
253 9 153
253 10 153
253 11 153
253 12 153
253 13 153
253 14 153
253 15 153
253 16 153
253 17 153
253 18 153
253 19 153
253 20 153
253 21 153
253 22 153
253 23 153
253 24 153
253 25 153
253 26 153
253 27 153
253 28 153
253 29 153
253 30 153
253 31 153
253 32 153
253 33 153
253 34 153
253 35 153
253 36 153
253 37 153
253 38 153
253 39 153
253 40 153
253 41 153
253 42 153
253 43 153
253 44 153
253 45 153
253 46 153
253 47 153
253 48 153
253 49 153
253 50 153
253 51 153
253 52 153
253 53 153
253 54 153
253 55 153
253 56 153
253 57 153
253 58 153
253 59 153
253 60 153
253 61 153
253 62 153
253 63 153
253 64 153
253 65 153
253 66 153
253 67 153
253 68 153
253 69 153
253 70 153
253 71 153
253 72 153
253 73 153
253 74 153
253 75 153
253 76 153
253 77 153
253 78 153
253 79 153
253 80 153
253 81 153
253 82 153
253 83 153
253 84 153
253 85 153
253 86 153
253 87 153
253 88 153
253 89 153
253 90 153
253 91 153
253 92 153
253 93 153
253 94 153
253 95 153
253 96 153
253 97 153
253 98 153
253 99 153
253 100 153
253 101 153
253 102 153
253 103 153
253 104 153
253 105 153
253 106 153
253 107 153
253 108 153
253 109 153
253 110 153
253 111 153
253 112 153
253 113 153
253 114 153
253 115 153
253 116 153
253 117 153
253 118 153
253 119 153
253 120 153
253 121 153
253 122 153
253 123 153
253 124 153
253 125 153
253 126 153
253 127 153
253 128 153
253 129 153
253 130 153
253 131 153
253 132 153
253 133 153
253 134 153
253 135 153
253 136 153
253 137 153
253 138 153
253 139 153
253 140 153
253 141 153
253 142 153
253 143 153
253 144 153
253 145 153
253 146 153
253 147 153
253 148 153
253 149 153
253 150 153
253 151 153
253 152 153
253 153 153
253 154 153
253 155 153
253 156 153
253 157 153
253 158 153
253 159 153
253 160 153
253 161 153
253 162 153
253 163 153
253 164 153
253 165 153
253 166 153
253 167 153
253 168 153
253 169 153
253 170 153
253 171 153
253 172 153
253 173 153
253 174 153
253 175 153
253 176 153
253 177 153
253 178 153
253 179 153
253 180 153
253 181 153
253 182 153
253 183 153
253 184 153
253 185 153
253 186 153
253 187 153
253 188 153
253 189 153
253 190 153
253 191 153
253 192 153
253 193 153
253 194 153
253 195 153
253 196 153
253 197 153
253 198 153
253 199 153
253 200 153
253 201 153
253 202 153
253 203 153
253 204 153
253 205 153
253 206 153
253 207 153
253 208 153
253 209 153
253 210 153
253 211 153
253 212 153
253 213 153
253 214 153
253 215 153
253 216 153
253 217 153
253 218 153
253 219 153
253 220 153
253 221 153
253 222 153
253 223 153
253 224 153
253 225 153
253 226 153
253 227 153
253 228 153
253 229 153
253 230 153
253 231 153
253 232 153
253 233 153
253 234 153
253 235 153
253 236 153
253 237 153
253 238 153
253 239 153
253 240 153
253 241 153
253 242 153
253 243 153
253 244 153
253 245 153
253 246 153
253 247 153
253 248 153
253 249 153
253 250 153
253 251 153
253 252 153
253 253 153
253 254 153
253 255 153
254 0 153
254 1 153
254 2 153
254 3 153
254 4 153
254 5 153
254 6 153
254 7 153
254 8 153
254 9 153
254 10 153
254 11 153
254 12 153
254 13 153
254 14 153
254 15 153
254 16 153
254 17 153
254 18 153
254 19 153
254 20 153
254 21 153
254 22 153
254 23 153
254 24 153
254 25 153
254 26 153
254 27 153
254 28 153
254 29 153
254 30 153
254 31 153
254 32 153
254 33 153
254 34 153
254 35 153
254 36 153
254 37 153
254 38 153
254 39 153
254 40 153
254 41 153
254 42 153
254 43 153
254 44 153
254 45 153
254 46 153
254 47 153
254 48 153
254 49 153
254 50 153
254 51 153
254 52 153
254 53 153
254 54 153
254 55 153
254 56 153
254 57 153
254 58 153
254 59 153
254 60 153
254 61 153
254 62 153
254 63 153
254 64 153
254 65 153
254 66 153
254 67 153
254 68 153
254 69 153
254 70 153
254 71 153
254 72 153
254 73 153
254 74 153
254 75 153
254 76 153
254 77 153
254 78 153
254 79 153
254 80 153
254 81 153
254 82 153
254 83 153
254 84 153
254 85 153
254 86 153
254 87 153
254 88 153
254 89 153
254 90 153
254 91 153
254 92 153
254 93 153
254 94 153
254 95 153
254 96 153
254 97 153
254 98 153
254 99 153
254 100 153
254 101 153
254 102 153
254 103 153
254 104 153
254 105 153
254 106 153
254 107 153
254 108 153
254 109 153
254 110 153
254 111 153
254 112 153
254 113 153
254 114 153
254 115 153
254 116 153
254 117 153
254 118 153
254 119 153
254 120 153
254 121 153
254 122 153
254 123 153
254 124 153
254 125 153
254 126 153
254 127 153
254 128 153
254 129 153
254 130 153
254 131 153
254 132 153
254 133 153
254 134 153
254 135 153
254 136 153
254 137 153
254 138 153
254 139 153
254 140 153
254 141 153
254 142 153
254 143 153
254 144 153
254 145 153
254 146 153
254 147 153
254 148 153
254 149 153
254 150 153
254 151 153
254 152 153
254 153 153
254 154 153
254 155 153
254 156 153
254 157 153
254 158 153
254 159 153
254 160 153
254 161 153
254 162 153
254 163 153
254 164 153
254 165 153
254 166 153
254 167 153
254 168 153
254 169 153
254 170 153
254 171 153
254 172 153
254 173 153
254 174 153
254 175 153
254 176 153
254 177 153
254 178 153
254 179 153
254 180 153
254 181 153
254 182 153
254 183 153
254 184 153
254 185 153
254 186 153
254 187 153
254 188 153
254 189 153
254 190 153
254 191 153
254 192 153
254 193 153
254 194 153
254 195 153
254 196 153
254 197 153
254 198 153
254 199 153
254 200 153
254 201 153
254 202 153
254 203 153
254 204 153
254 205 153
254 206 153
254 207 153
254 208 153
254 209 153
254 210 153
254 211 153
254 212 153
254 213 153
254 214 153
254 215 153
254 216 153
254 217 153
254 218 153
254 219 153
254 220 153
254 221 153
254 222 153
254 223 153
254 224 153
254 225 153
254 226 153
254 227 153
254 228 153
254 229 153
254 230 153
254 231 153
254 232 153
254 233 153
254 234 153
254 235 153
254 236 153
254 237 153
254 238 153
254 239 153
254 240 153
254 241 153
254 242 153
254 243 153
254 244 153
254 245 153
254 246 153
254 247 153
254 248 153
254 249 153
254 250 153
254 251 153
254 252 153
254 253 153
254 254 153
254 255 153
255 0 153
255 1 153
255 2 153
255 3 153
255 4 153
255 5 153
255 6 153
255 7 153
255 8 153
255 9 153
255 10 153
255 11 153
255 12 153
255 13 153
255 14 153
255 15 153
255 16 153
255 17 153
255 18 153
255 19 153
255 20 153
255 21 153
255 22 153
255 23 153
255 24 153
255 25 153
255 26 153
255 27 153
255 28 153
255 29 153
255 30 153
255 31 153
255 32 153
255 33 153
255 34 153
255 35 153
255 36 153
255 37 153
255 38 153
255 39 153
255 40 153
255 41 153
255 42 153
255 43 153
255 44 153
255 45 153
255 46 153
255 47 153
255 48 153
255 49 153
255 50 153
255 51 153
255 52 153
255 53 153
255 54 153
255 55 153
255 56 153
255 57 153
255 58 153
255 59 153
255 60 153
255 61 153
255 62 153
255 63 153
255 64 153
255 65 153
255 66 153
255 67 153
255 68 153
255 69 153
255 70 153
255 71 153
255 72 153
255 73 153
255 74 153
255 75 153
255 76 153
255 77 153
255 78 153
255 79 153
255 80 153
255 81 153
255 82 153
255 83 153
255 84 153
255 85 153
255 86 153
255 87 153
255 88 153
255 89 153
255 90 153
255 91 153
255 92 153
255 93 153
255 94 153
255 95 153
255 96 153
255 97 153
255 98 153
255 99 153
255 100 153
255 101 153
255 102 153
255 103 153
255 104 153
255 105 153
255 106 153
255 107 153
255 108 153
255 109 153
255 110 153
255 111 153
255 112 153
255 113 153
255 114 153
255 115 153
255 116 153
255 117 153
255 118 153
255 119 153
255 120 153
255 121 153
255 122 153
255 123 153
255 124 153
255 125 153
255 126 153
255 127 153
255 128 153
255 129 153
255 130 153
255 131 153
255 132 153
255 133 153
255 134 153
255 135 153
255 136 153
255 137 153
255 138 153
255 139 153
255 140 153
255 141 153
255 142 153
255 143 153
255 144 153
255 145 153
255 146 153
255 147 153
255 148 153
255 149 153
255 150 153
255 151 153
255 152 153
255 153 153
255 154 153
255 155 153
255 156 153
255 157 153
255 158 153
255 159 153
255 160 153
255 161 153
255 162 153
255 163 153
255 164 153
255 165 153
255 166 153
255 167 153
255 168 153
255 169 153
255 170 153
255 171 153
255 172 153
255 173 153
255 174 153
255 175 153
255 176 153
255 177 153
255 178 153
255 179 153
255 180 153
255 181 153
255 182 153
255 183 153
255 184 153
255 185 153
255 186 153
255 187 153
255 188 153
255 189 153
255 190 153
255 191 153
255 192 153
255 193 153
255 194 153
255 195 153
255 196 153
255 197 153
255 198 153
255 199 153
255 200 153
255 201 153
255 202 153
255 203 153
255 204 153
255 205 153
255 206 153
255 207 153
255 208 153
255 209 153
255 210 153
255 211 153
255 212 153
255 213 153
255 214 153
255 215 153
255 216 153
255 217 153
255 218 153
255 219 153
255 220 153
255 221 153
255 222 153
255 223 153
255 224 153
255 225 153
255 226 153
255 227 153
255 228 153
255 229 153
255 230 153
255 231 153
255 232 153
255 233 153
255 234 153
255 235 153
255 236 153
255 237 153
255 238 153
255 239 153
255 240 153
255 241 153
255 242 153
255 243 153
255 244 153
255 245 153
255 246 153
255 247 153
255 248 153
255 249 153
255 250 153
255 251 153
255 252 153
255 253 153
255 254 153
255 255 153
